P2
150 155
255
255 0 0 0 0 0 0 0 0 0 0 0 0 0 0 0 0 0 0 0 0 0 0 0 0 0 0 0 0 0 0 0 0 0 0 0 0 0 0 0 0 0 0 0 0 0 0 0 0 0 0 0 0 0 0 0 0 0 0 0 0 0 0 0 0 0 0 0 0 0 0 0 0 0 0 0 0 0 0 0 0 0 0 0 0 0 0 0 0 0 0 0 0 0 0 0 0 0 0 0 0 0 0 0 0 0 0 0 0 0 0 0 0 0 0 0 0 0 0 0 0 0 0 0 0 0 0 0 0 0 0 0 0 0 0 0 0 0 0 0 0 0 0 0 0 0 0 0 0 0 
255 0 0 0 0 0 0 0 0 0 0 0 0 0 0 0 0 0 0 0 0 0 0 0 0 0 0 0 0 0 0 0 0 0 0 0 0 0 0 0 0 0 0 0 0 0 0 0 0 0 0 0 0 0 0 0 0 0 0 0 0 0 0 0 0 0 0 0 0 0 0 0 0 0 0 0 0 0 0 0 0 0 0 0 0 0 0 0 0 0 0 0 0 0 0 0 0 0 0 0 0 0 0 0 0 0 0 0 0 0 0 0 0 0 0 0 0 0 0 0 0 0 0 0 0 0 0 0 0 0 0 0 0 0 0 0 0 0 0 0 0 0 0 0 0 0 0 0 0 0 
255 0 0 0 0 0 0 0 0 0 0 0 0 0 0 0 0 0 0 0 0 0 0 0 0 0 0 0 0 0 0 0 0 0 0 0 0 0 0 0 0 0 0 0 0 0 0 0 0 0 0 0 0 0 0 0 0 0 0 0 0 0 0 0 0 0 0 0 0 0 0 0 0 0 0 0 0 0 0 0 0 0 0 0 0 0 0 0 0 0 0 0 0 0 0 0 0 0 0 0 0 0 0 0 0 0 0 0 0 0 0 0 0 0 0 0 0 0 0 0 0 0 0 0 0 0 0 0 0 0 0 0 0 0 0 0 0 0 0 0 0 0 0 0 0 0 0 0 0 0 
255 0 0 0 0 0 0 0 0 0 0 0 0 0 0 0 0 0 0 0 0 0 0 0 0 0 0 0 0 0 0 0 0 0 0 0 0 0 0 0 0 0 0 0 0 0 0 0 0 0 0 0 0 0 0 0 0 0 0 0 0 0 0 0 0 0 0 0 0 0 0 0 0 0 0 0 0 0 0 0 0 0 0 0 0 0 0 0 0 0 0 0 0 0 0 0 0 0 0 0 0 0 0 0 0 0 0 0 0 0 0 0 0 0 0 0 0 0 0 0 0 0 0 0 0 0 0 0 0 0 0 0 0 0 0 0 0 0 0 0 0 0 0 0 0 0 0 0 0 0 
255 0 0 0 0 0 0 0 0 0 0 0 0 0 0 0 0 0 0 0 0 0 0 0 0 0 0 0 0 0 0 0 0 0 0 0 0 0 0 0 0 0 0 0 0 0 0 0 0 0 0 0 0 0 0 0 0 0 0 0 0 0 0 0 0 0 0 0 0 0 0 0 0 0 0 0 0 0 0 0 0 0 0 0 0 0 0 0 0 0 0 0 0 0 0 0 0 0 0 0 1 1 1 1 0 0 0 0 0 0 0 0 0 0 0 0 0 0 0 0 0 0 0 0 0 0 0 0 0 0 0 0 0 0 0 0 0 0 0 0 0 0 0 0 0 0 0 0 0 0 
255 0 0 0 0 0 0 0 0 0 0 0 0 0 0 0 0 0 0 0 0 0 0 0 0 0 0 0 0 0 0 0 0 0 0 0 0 0 0 0 0 0 0 0 0 0 0 0 0 0 0 0 0 0 0 0 0 0 0 0 0 0 0 0 0 0 0 0 0 0 0 0 0 0 0 0 0 0 0 0 0 0 0 0 0 0 0 0 0 0 0 0 0 0 0 0 0 0 0 0 4 5 5 5 2 1 0 0 0 0 0 0 0 0 0 0 0 0 0 0 0 0 0 0 0 0 0 0 0 0 0 0 0 0 0 0 0 0 0 0 0 0 0 0 0 0 0 0 0 0 
255 0 0 0 0 0 0 0 0 0 0 0 0 0 0 0 0 0 0 0 0 0 0 0 0 0 0 0 0 0 0 0 0 0 0 0 0 0 0 0 0 0 0 0 0 0 0 0 0 0 0 0 0 0 0 0 0 0 0 0 0 0 0 0 0 0 0 0 0 0 0 0 0 0 0 0 0 0 0 0 0 0 0 0 0 0 0 0 0 0 0 0 0 0 0 0 0 1 1 2 11 11 8 12 10 6 2 0 0 0 0 0 0 0 0 0 0 0 0 0 0 0 0 0 0 0 0 0 0 0 0 0 0 0 0 0 0 0 0 0 0 0 0 0 0 0 0 0 0 0 
255 0 0 0 0 0 0 0 0 0 0 0 0 0 0 0 0 0 0 0 0 0 0 0 0 0 0 0 0 0 0 0 0 0 0 0 0 0 0 0 0 0 0 0 0 0 0 0 0 0 0 0 0 0 0 0 0 0 0 0 0 0 0 0 0 0 0 0 0 0 0 0 0 0 0 0 0 0 0 0 0 0 0 0 0 0 0 0 0 0 0 0 0 0 0 0 0 2 2 5 26 111 124 44 21 18 8 2 1 0 0 0 0 0 0 0 0 0 0 0 0 0 0 0 0 0 0 0 0 0 0 0 0 0 0 0 0 0 0 0 0 0 0 0 0 0 0 0 0 0 
255 0 0 0 0 0 0 0 0 0 0 0 0 0 0 0 0 0 0 0 0 0 0 0 0 0 0 0 0 0 0 0 0 0 0 0 0 0 0 0 0 0 0 0 0 0 0 0 0 0 0 0 0 0 0 0 0 0 0 0 0 0 0 0 0 0 0 0 0 0 0 0 0 0 0 0 0 0 0 0 0 0 0 0 0 0 0 0 0 0 0 0 0 0 0 0 0 1 1 3 30 244 255 221 55 34 20 8 4 1 0 0 0 0 0 0 0 0 0 0 0 0 0 0 0 0 0 0 0 0 0 0 0 0 0 0 0 0 0 0 0 0 0 0 0 0 0 0 0 0 
255 0 0 0 0 0 0 0 0 0 0 0 0 0 0 0 0 0 0 0 0 0 0 0 0 0 0 0 0 0 0 0 0 0 0 0 0 0 0 0 0 0 0 0 0 0 0 0 0 0 2 2 1 0 0 0 0 0 0 0 0 0 0 0 0 0 0 0 0 0 0 0 0 0 0 0 0 0 0 0 0 0 0 0 0 0 0 0 0 0 0 0 0 0 0 0 0 0 0 0 11 180 255 255 231 71 36 20 10 4 1 0 0 0 0 0 0 0 0 0 0 0 0 0 0 0 0 0 0 0 0 0 0 0 0 0 0 0 0 0 0 0 0 0 0 0 0 0 0 0 
255 0 0 0 0 0 0 0 0 0 0 0 0 0 0 0 0 0 0 0 0 0 0 0 0 0 0 0 0 0 0 0 0 0 0 0 0 0 0 0 0 0 0 0 0 0 0 0 0 0 1 6 3 0 0 0 0 0 0 0 0 0 0 0 0 0 0 0 0 0 0 0 0 0 0 0 0 0 0 0 0 0 0 0 0 0 0 0 0 0 0 0 0 0 0 0 0 0 0 1 12 45 236 255 255 241 74 37 22 10 4 1 0 0 0 0 0 0 0 0 0 0 0 0 0 0 0 0 0 0 0 0 0 0 0 0 0 0 0 0 0 0 0 0 0 0 0 0 0 0 
255 0 0 0 0 0 0 0 0 0 0 0 0 0 0 0 0 0 0 0 0 0 0 0 0 0 0 0 0 0 0 0 0 0 0 0 0 0 0 0 0 0 0 0 0 0 0 0 63 108 39 2 3 0 0 0 0 0 0 0 0 0 0 0 0 0 0 0 0 0 0 0 0 0 0 0 0 0 0 0 0 0 0 0 0 0 0 0 0 0 0 0 0 0 0 0 0 0 0 0 0 0 42 230 255 255 245 76 38 23 10 4 1 0 0 0 0 0 0 0 0 0 0 0 0 0 0 0 0 0 0 0 0 0 0 0 0 0 0 0 0 0 0 0 0 0 0 0 0 0 
255 0 0 0 0 0 0 0 0 0 0 0 0 0 0 0 0 0 0 0 0 0 0 0 0 0 0 0 0 0 0 0 0 0 0 0 0 0 0 0 0 0 0 0 0 0 0 68 255 255 86 0 1 0 0 0 0 0 0 0 0 0 0 0 0 0 0 0 0 0 0 0 0 0 0 0 0 0 0 0 0 0 0 0 0 0 0 0 0 0 0 0 0 0 0 0 0 1 5 0 0 0 0 40 228 255 255 245 76 41 23 10 4 1 0 0 0 0 0 0 0 0 0 0 0 0 0 0 0 0 0 0 0 0 0 0 0 0 0 0 0 0 0 0 0 0 0 0 0 0 
255 0 0 0 0 0 0 0 0 0 0 0 0 0 0 0 0 0 0 0 0 0 0 0 0 0 0 0 0 0 0 0 0 0 0 0 0 0 0 0 0 0 0 0 0 0 62 255 255 255 47 0 0 0 0 0 0 0 0 0 0 0 0 0 0 0 0 0 0 0 0 0 0 0 0 0 0 0 0 0 0 0 0 0 0 0 0 0 0 0 0 0 0 0 0 0 0 1 10 0 0 0 0 0 40 228 255 255 245 79 41 23 10 4 1 0 0 0 0 0 0 0 0 0 0 0 0 0 0 0 0 0 0 0 0 0 0 0 0 0 0 0 0 0 0 0 0 0 0 0 
255 0 0 0 0 0 0 0 0 0 0 0 0 0 0 0 0 0 0 0 0 0 0 0 0 0 0 0 0 0 0 0 0 0 0 0 0 0 0 0 0 0 0 0 0 62 255 255 255 101 0 0 0 0 0 0 0 0 0 0 0 0 0 0 0 0 0 0 0 0 0 0 0 0 0 0 0 0 0 0 0 0 0 0 0 0 0 0 0 0 0 0 0 0 0 0 0 0 4 0 0 0 0 0 0 42 227 255 255 245 79 41 23 10 4 1 0 0 0 0 0 0 0 0 0 0 0 0 0 0 0 0 0 0 0 0 0 0 0 0 0 0 0 0 0 0 0 0 0 0 
255 0 0 0 0 0 0 0 0 0 0 0 0 0 0 0 0 0 0 0 0 0 0 0 0 0 0 0 0 0 0 0 0 0 0 0 0 0 0 0 0 0 0 0 63 255 255 255 95 0 0 0 0 0 0 0 0 0 0 0 0 0 0 0 0 0 0 0 0 0 0 0 0 0 0 0 0 0 0 0 0 0 0 0 0 0 0 0 0 0 0 0 0 0 0 0 0 0 0 6 0 0 0 0 0 0 41 227 255 255 246 79 41 23 10 4 1 0 0 0 0 0 0 0 0 0 0 0 0 0 0 0 0 0 0 0 0 0 0 0 0 0 0 0 0 0 0 0 0 0 
255 0 0 0 0 0 0 0 0 0 0 0 0 0 0 0 0 0 0 0 0 0 0 0 0 0 0 0 0 0 0 0 0 0 0 0 0 0 0 0 0 0 0 60 255 255 255 94 0 0 0 0 0 0 0 0 0 0 0 0 0 0 0 0 0 0 0 0 0 0 0 0 0 0 0 0 0 0 0 0 0 0 0 0 0 0 0 0 0 0 0 0 0 0 0 0 0 0 0 0 4 1 0 0 0 0 0 43 223 255 255 245 79 41 23 10 3 1 1 0 0 0 0 0 0 0 0 0 0 0 0 0 0 0 0 0 0 0 0 0 0 0 0 0 0 0 0 0 0 0 
255 0 0 0 0 0 0 0 0 0 0 0 0 0 0 0 0 0 0 0 0 0 0 0 0 0 0 0 0 0 0 0 0 0 0 0 0 0 0 0 0 0 60 255 255 255 91 0 0 0 0 0 0 0 0 0 0 0 0 0 0 0 0 0 0 0 0 0 0 0 0 0 0 0 0 0 0 0 0 0 0 0 0 0 0 0 0 0 0 0 0 0 0 0 0 0 0 0 0 0 0 6 1 0 0 0 0 0 41 223 255 255 245 79 41 23 8 3 3 1 0 0 0 0 0 0 0 0 0 0 0 0 0 0 0 0 0 0 0 0 0 0 0 0 0 0 0 0 0 0 
255 0 0 0 0 0 0 0 0 0 0 0 0 0 0 0 0 0 0 0 0 0 0 0 0 0 0 0 0 0 0 0 0 0 0 0 0 0 0 0 0 59 255 255 255 95 0 0 0 0 0 0 0 0 0 0 0 0 0 0 0 0 0 0 0 0 0 0 0 0 0 0 0 0 0 0 0 0 0 0 0 0 0 0 0 0 0 0 0 0 0 0 0 0 0 0 0 0 0 0 0 0 6 1 0 0 0 0 0 39 225 255 255 243 79 41 22 8 4 3 1 0 0 0 0 0 0 0 0 0 0 0 0 0 0 0 0 0 0 0 0 0 0 0 0 0 0 0 0 0 
255 0 0 0 0 0 0 0 0 0 0 0 0 0 0 0 0 0 0 0 0 0 0 0 0 0 0 0 0 0 0 0 0 0 0 0 0 0 0 0 57 255 255 255 93 0 0 0 0 0 0 0 0 0 0 0 0 0 0 0 0 0 0 0 0 0 0 0 0 0 0 0 0 0 0 0 0 0 0 0 0 0 0 0 0 0 0 0 0 0 0 0 0 0 0 0 0 0 0 0 0 0 0 4 0 0 0 0 0 0 42 227 255 255 243 78 41 22 8 4 3 1 0 0 0 0 0 0 0 0 0 0 0 0 0 0 0 0 0 0 0 0 0 0 0 0 0 0 0 0 
255 0 0 0 0 0 0 0 0 0 0 0 0 0 0 0 0 0 0 0 0 0 0 0 0 0 0 0 0 0 0 0 0 0 0 0 0 0 0 56 255 255 255 92 0 0 1 0 0 0 0 0 0 0 0 0 0 0 0 0 0 0 0 0 0 0 0 0 0 0 0 0 0 0 0 0 0 0 0 0 0 0 0 0 0 0 0 0 0 0 0 0 0 0 0 0 0 0 0 0 0 0 0 0 5 1 0 0 0 0 0 44 225 255 255 241 78 41 22 8 4 3 1 0 0 0 0 0 0 0 0 0 0 0 0 0 0 0 0 0 0 0 0 0 0 0 0 0 0 0 
255 0 0 0 0 0 0 0 0 0 0 0 0 0 0 0 0 0 0 0 0 0 0 0 0 0 0 0 0 0 0 0 0 0 0 0 0 0 58 255 255 255 89 0 0 0 0 0 0 0 0 0 0 0 0 0 0 0 0 0 0 0 0 0 0 0 0 0 0 0 0 0 0 0 0 0 0 0 0 0 0 0 0 0 0 0 0 0 0 0 0 0 0 0 0 0 0 0 0 0 0 0 0 0 0 6 2 0 0 0 0 0 42 226 255 255 240 78 41 22 7 4 4 1 0 0 0 0 0 0 0 0 0 0 0 0 0 0 0 0 0 0 0 0 0 0 0 0 0 0 
255 0 0 0 0 0 0 0 0 0 0 0 0 0 0 0 0 0 0 0 0 0 0 0 0 0 0 0 0 0 0 0 0 0 0 0 0 57 255 255 255 91 0 0 0 0 0 0 0 0 0 0 0 0 0 0 0 0 0 0 0 0 0 0 0 0 0 0 0 0 0 0 0 0 0 0 0 0 0 0 0 0 0 0 0 0 0 0 0 0 0 0 0 0 0 0 0 0 0 0 0 0 0 0 0 0 6 2 0 0 0 0 0 43 228 255 255 240 78 41 20 7 6 4 1 0 0 0 0 0 0 0 0 0 0 0 0 0 0 0 0 0 0 0 0 0 0 0 0 0 
255 0 0 0 0 0 0 0 0 0 0 0 0 0 0 0 0 0 0 0 0 0 0 0 0 0 0 0 0 0 0 0 0 0 0 0 53 255 255 255 87 0 0 0 0 0 0 0 0 0 0 0 0 0 0 0 0 0 0 0 0 0 0 0 0 0 0 0 0 0 0 0 0 0 0 0 0 0 0 0 0 0 0 0 0 0 0 0 0 0 0 0 0 0 0 0 0 0 0 0 0 0 0 0 0 0 0 5 0 0 0 0 0 0 42 227 255 255 240 77 40 20 8 6 4 1 0 0 0 0 0 0 0 0 0 0 0 0 0 0 0 0 0 0 0 0 0 0 0 0 
255 0 0 0 0 0 0 0 0 0 0 0 0 0 0 0 0 0 0 0 0 0 0 0 0 0 0 0 0 0 0 0 0 0 0 52 255 255 255 87 0 0 1 0 0 0 0 0 0 0 0 0 0 0 0 0 0 0 0 0 0 0 0 0 0 0 0 0 0 0 0 0 0 0 0 0 0 0 0 0 0 0 0 0 0 0 0 0 0 0 0 0 0 0 0 0 0 0 0 0 0 0 0 0 0 0 0 0 5 3 0 0 0 0 0 43 225 255 255 238 77 40 20 8 6 4 1 0 0 0 0 0 0 0 0 0 0 0 0 0 0 0 0 0 0 0 0 0 0 0 
255 0 0 0 0 0 0 0 0 0 0 0 0 0 0 0 0 0 0 0 0 0 0 0 0 0 0 0 0 0 0 0 0 0 55 255 255 255 85 0 0 0 0 0 0 0 0 0 0 0 0 0 0 0 0 0 0 0 0 0 0 0 0 0 0 0 0 0 0 0 0 0 0 0 0 0 0 0 0 0 0 0 0 0 0 0 0 0 0 0 0 0 0 0 0 0 0 0 0 0 0 0 0 0 0 0 0 0 0 5 0 0 0 0 0 0 41 225 255 255 237 77 40 20 8 6 4 1 0 0 0 0 0 0 0 0 0 0 0 0 0 0 0 0 0 0 0 0 0 0 
255 0 0 0 0 0 0 0 0 0 0 0 0 0 0 0 0 0 0 0 0 0 0 0 0 0 0 0 0 0 0 0 0 53 255 255 255 85 0 0 0 0 0 0 0 0 0 0 0 0 0 0 0 0 0 0 0 0 0 0 0 0 0 0 0 0 0 0 0 0 0 0 0 0 0 0 0 0 0 0 0 0 0 0 0 0 0 0 0 0 0 0 0 0 0 0 0 0 0 0 0 0 0 0 0 0 0 0 0 0 5 4 0 0 0 0 0 41 227 255 255 237 77 40 20 8 6 4 1 0 0 0 0 0 0 0 0 0 0 0 0 0 0 0 0 0 0 0 0 0 
255 0 0 0 0 0 0 0 0 0 0 0 0 0 0 0 0 0 0 0 0 0 0 0 0 0 0 0 0 0 0 0 47 255 255 255 85 0 0 0 0 0 0 0 0 0 0 0 0 0 0 0 0 0 0 0 0 0 0 0 0 0 0 0 0 0 0 0 0 0 0 0 0 0 0 0 0 0 1 1 1 1 0 0 0 0 0 0 0 0 0 0 0 0 0 0 0 0 0 0 0 0 0 0 0 0 0 0 0 0 0 8 4 0 0 0 0 0 43 226 255 255 235 77 40 20 8 6 4 1 0 0 0 0 0 0 0 0 0 0 0 0 0 0 0 0 0 0 0 0 
255 0 0 0 0 0 0 0 0 0 0 0 0 0 0 0 0 0 0 0 0 0 0 0 0 0 0 0 0 0 0 50 255 255 255 87 0 0 0 0 0 0 0 0 0 0 0 0 0 0 0 0 0 0 0 0 0 0 0 0 0 0 0 0 0 0 0 0 0 0 0 0 0 0 0 0 1 3 6 5 4 4 1 0 0 0 0 0 0 0 0 0 0 0 0 0 0 0 0 0 0 0 0 0 0 0 0 0 0 0 0 1 7 0 0 0 0 0 0 41 227 255 255 235 76 40 20 9 7 3 0 0 0 0 0 0 0 0 0 0 0 0 0 0 0 0 0 0 0 0 
255 0 0 0 0 0 0 0 0 0 0 0 0 0 0 0 0 0 0 0 0 0 0 0 0 0 0 0 0 0 49 255 255 255 84 0 0 0 0 0 0 0 0 0 0 0 0 0 0 0 0 0 0 0 0 0 0 0 0 0 0 0 0 0 0 0 0 0 0 0 0 0 0 0 0 0 4 18 23 16 11 9 3 0 0 0 0 0 0 0 0 0 0 0 0 0 0 0 0 0 0 0 0 0 0 0 0 0 0 0 0 0 0 5 2 0 0 0 0 0 41 226 255 255 233 76 40 22 11 5 1 0 0 0 0 0 0 0 0 0 0 0 0 0 0 0 0 0 0 0 
255 0 0 0 0 0 0 0 0 0 0 0 0 0 0 0 0 0 0 0 0 0 0 0 0 0 0 0 0 47 255 255 255 82 0 0 0 0 0 0 0 0 0 0 0 0 0 0 0 0 0 0 0 0 0 0 0 0 0 0 0 0 0 0 0 0 0 0 0 0 0 0 0 0 6 11 0 0 19 40 27 17 7 2 1 0 0 0 0 0 0 0 0 0 0 0 0 0 0 0 0 0 0 0 0 0 0 0 0 0 0 0 0 0 7 3 0 0 0 0 0 42 226 255 255 233 77 41 23 10 4 1 0 0 0 0 0 0 0 0 0 0 0 0 0 0 0 0 0 0 
255 0 0 0 0 0 0 0 0 0 0 0 0 0 0 0 0 0 0 0 0 0 0 0 0 0 0 0 46 255 255 255 81 0 0 1 2 0 0 0 0 0 0 0 0 0 0 0 0 0 0 0 0 0 0 0 0 0 0 0 0 0 0 0 0 0 0 0 0 0 0 0 0 61 126 56 0 0 0 20 55 32 15 5 3 0 0 0 0 0 0 0 0 0 0 0 0 0 0 0 0 0 0 0 0 0 0 0 0 0 0 0 0 0 0 8 4 0 0 0 0 0 41 225 255 255 234 76 41 23 10 4 1 0 0 0 0 0 0 0 0 0 0 0 0 0 0 0 0 0 
255 0 0 0 0 0 0 0 0 0 0 0 0 0 0 0 0 0 0 0 0 0 0 0 0 0 0 43 255 255 255 80 0 0 0 1 1 0 0 0 0 0 0 0 0 0 0 0 0 0 0 0 0 0 0 0 0 0 0 0 0 0 0 0 0 0 0 0 0 0 0 0 50 221 179 42 0 0 0 0 36 57 26 8 4 0 0 0 0 0 0 1 1 0 0 0 0 0 0 0 0 0 0 0 0 0 0 0 0 0 0 0 0 0 0 1 9 4 0 0 0 0 0 43 225 255 255 232 76 41 23 10 4 1 0 0 0 0 0 0 0 0 0 0 0 0 0 0 0 0 
255 0 0 0 0 0 0 0 0 0 0 0 0 0 0 0 0 0 0 0 0 0 0 0 0 0 45 255 255 255 79 0 0 0 0 0 0 0 0 0 0 0 0 0 0 0 0 0 0 0 0 0 0 0 0 0 0 0 0 0 0 0 0 0 0 1 1 0 0 0 0 9 232 247 79 4 0 0 0 0 0 71 43 13 2 0 0 0 1 1 1 3 3 1 1 0 0 0 0 0 0 0 0 0 0 0 0 0 0 0 0 0 0 0 0 0 1 7 0 0 0 0 0 0 42 223 255 255 231 76 41 23 10 4 1 0 0 0 0 0 0 0 0 0 0 0 0 0 0 0 
255 0 0 0 0 0 0 0 0 0 0 0 0 0 0 0 0 0 0 0 0 0 0 0 0 42 255 255 255 73 0 0 0 0 0 0 0 0 0 0 0 0 0 0 0 0 0 0 0 0 0 0 0 0 0 0 0 0 0 0 0 0 0 0 0 4 6 6 0 0 0 143 255 142 0 0 0 4 0 0 0 42 64 16 0 0 0 0 4 7 7 6 4 3 3 0 0 0 0 0 0 0 0 0 0 0 0 0 0 0 0 0 0 0 0 0 0 0 4 3 0 0 0 0 0 41 225 255 255 231 76 41 23 10 4 1 0 0 0 0 0 0 0 0 0 0 0 0 0 0 
255 0 0 0 0 0 0 0 0 0 0 0 0 0 0 0 0 0 0 0 0 0 0 0 42 250 255 255 74 0 0 2 0 0 0 0 0 0 0 0 0 0 0 0 0 0 0 0 0 0 0 0 0 0 0 0 0 0 0 0 0 0 0 0 0 9 20 22 0 0 0 251 255 58 0 0 0 1 2 0 0 0 78 13 0 0 0 0 10 25 24 15 9 5 4 1 0 0 0 0 0 0 0 0 0 0 0 0 0 0 0 0 0 0 0 0 0 0 0 6 8 0 0 0 0 0 40 225 255 255 231 76 41 23 10 4 1 0 0 0 0 0 0 0 0 0 0 0 0 0 
255 0 0 0 0 0 0 0 0 0 0 0 0 0 0 0 0 0 0 0 0 0 0 40 243 255 255 76 0 0 0 1 0 0 0 0 0 0 0 0 0 0 0 0 0 0 0 0 0 0 0 0 0 0 0 0 0 0 0 0 0 0 17 44 13 0 0 0 20 0 0 255 255 21 0 0 0 0 8 0 0 0 79 0 0 32 32 0 0 0 19 41 23 9 5 3 0 0 0 0 0 0 0 0 0 0 0 0 0 0 0 0 0 0 0 0 0 0 0 0 10 4 0 0 0 0 0 40 226 255 255 230 76 41 22 10 4 1 0 0 0 0 0 0 0 0 0 0 0 0 
255 0 0 0 0 0 0 0 0 0 0 0 0 0 0 0 0 0 0 0 0 0 43 235 255 255 72 0 0 0 0 0 0 0 0 0 0 0 0 0 0 0 0 0 0 0 0 0 0 0 0 0 0 0 0 0 0 0 0 0 0 39 180 141 28 0 0 0 0 0 0 255 255 9 0 0 0 0 8 0 0 0 62 0 96 190 99 1 0 0 0 41 47 19 9 4 0 0 0 0 0 0 0 0 0 0 0 0 0 0 0 0 0 0 0 0 0 0 0 0 1 8 2 0 0 0 0 0 42 225 255 255 230 75 39 23 10 4 1 0 0 0 0 0 0 0 0 0 0 0 
255 0 0 0 0 0 0 0 0 0 0 0 0 0 0 0 0 0 0 0 0 40 234 255 255 73 0 0 0 0 0 0 0 0 0 0 0 0 0 0 0 0 0 0 0 0 0 0 0 0 0 0 0 0 0 0 0 0 0 0 12 223 255 107 14 0 0 0 0 0 21 255 255 8 0 0 0 0 8 0 0 0 49 107 255 223 63 1 0 0 0 0 56 39 17 6 1 0 0 0 0 0 0 0 0 0 0 0 0 0 0 0 0 0 0 0 0 0 0 0 0 0 5 2 0 0 0 0 0 40 225 255 255 227 74 41 23 10 4 1 0 0 0 0 0 0 0 0 0 0 
255 0 0 0 0 0 0 0 0 0 0 0 0 0 0 0 0 0 0 0 40 227 255 255 69 0 0 2 2 0 0 0 0 0 0 0 0 0 0 0 0 0 0 0 0 0 0 0 0 0 0 0 0 0 0 0 0 0 0 0 189 255 146 18 0 0 0 0 0 0 51 255 255 8 0 0 0 0 8 0 0 0 92 255 255 88 4 0 0 0 0 0 0 67 26 10 2 0 0 0 0 0 0 0 0 0 0 0 0 0 0 0 0 0 0 0 0 0 0 0 0 0 0 4 1 0 0 0 0 0 42 227 255 255 227 75 41 23 10 4 1 0 0 0 0 0 0 0 0 0 
255 0 0 0 0 0 0 0 0 0 0 0 0 0 0 0 0 0 0 38 224 255 255 69 0 0 1 1 1 0 0 0 0 0 0 0 0 0 0 0 0 0 0 0 0 0 0 0 0 0 0 0 0 0 0 0 0 0 0 0 255 255 27 0 0 0 8 0 0 0 57 255 255 8 0 0 0 0 8 0 0 0 190 255 253 1 0 0 2 3 0 0 0 88 33 11 1 0 0 0 0 0 0 0 0 0 0 0 0 0 0 0 0 0 0 0 0 0 0 0 0 0 0 0 3 3 0 0 0 0 0 43 227 255 255 226 75 41 23 10 4 1 0 0 0 0 0 0 0 0 
255 0 0 0 0 0 0 0 0 0 0 0 0 0 0 0 0 0 37 217 255 255 66 0 0 1 0 0 0 0 0 0 0 0 0 0 0 0 0 0 0 0 0 0 0 0 0 0 0 0 0 0 0 0 0 0 0 0 0 59 255 255 0 0 0 0 7 0 0 0 33 255 255 8 0 0 0 0 8 0 0 0 255 255 175 0 0 0 0 9 0 0 0 90 38 10 1 0 0 0 0 0 0 0 0 0 0 0 0 0 0 0 0 0 0 0 0 0 0 0 0 0 0 0 0 5 5 0 0 0 0 0 46 226 255 255 226 74 41 23 10 3 1 1 0 0 0 0 0 0 
255 0 0 0 0 0 0 0 0 0 0 0 0 0 0 0 0 34 213 255 255 65 0 0 0 0 0 0 0 0 0 0 0 0 0 0 0 0 0 0 0 0 0 0 0 0 0 0 0 0 0 0 0 0 0 0 0 0 0 104 255 239 0 0 0 0 5 0 0 0 10 255 255 8 0 0 0 0 9 0 0 0 255 255 138 0 0 0 0 11 0 0 0 81 41 12 3 0 0 0 0 0 0 0 0 0 0 0 0 0 0 0 0 0 0 0 0 0 0 0 0 0 0 0 0 0 6 4 0 0 0 0 0 44 223 255 255 225 74 40 23 8 4 3 0 0 0 0 0 0 
255 0 0 0 0 0 0 0 0 0 0 0 0 0 0 0 32 206 255 255 63 0 0 0 0 0 0 0 0 0 0 0 0 0 0 0 0 0 0 0 0 0 0 0 0 0 0 0 0 0 0 0 0 0 0 0 0 0 0 117 255 236 0 0 0 0 4 0 0 0 6 255 255 8 0 0 0 0 12 0 0 0 255 255 131 0 0 0 0 12 0 0 0 74 43 15 4 0 0 0 0 0 0 0 0 0 0 0 0 0 0 0 0 0 0 0 0 0 0 0 0 0 0 0 0 0 0 6 2 0 0 0 0 0 41 224 255 255 225 73 41 21 9 5 1 0 0 0 0 0 
255 0 0 0 0 0 0 0 0 0 0 0 0 0 0 33 201 255 255 64 0 0 1 0 0 0 0 0 0 0 0 0 0 0 0 0 0 0 0 0 0 0 0 0 0 0 0 0 0 0 0 0 0 0 1 0 0 0 0 120 255 238 0 0 0 0 5 0 0 0 8 255 255 8 0 0 0 0 15 0 0 0 255 255 133 0 0 0 0 12 0 0 0 72 43 16 4 0 0 0 0 0 0 0 0 0 0 0 0 0 0 0 0 0 0 0 0 0 0 0 0 0 0 0 0 0 0 0 5 2 0 0 0 0 0 41 225 255 255 226 77 39 18 8 4 1 0 0 0 0 
255 0 0 0 0 0 0 0 0 0 0 0 0 0 31 197 255 254 63 0 0 0 2 0 0 0 0 0 0 0 0 0 0 0 0 0 0 0 0 0 0 0 0 0 0 0 0 0 0 0 0 0 0 0 3 0 0 0 0 123 255 241 0 0 0 0 7 0 0 0 8 255 255 8 0 0 0 0 17 0 0 0 255 255 135 0 0 0 0 12 0 0 0 71 42 16 4 0 0 0 0 0 0 0 0 0 0 0 0 0 0 0 0 0 0 0 0 0 0 0 0 0 0 0 0 0 0 0 0 7 2 0 0 0 0 0 44 227 255 255 205 56 33 14 6 3 1 0 0 0 
255 0 0 0 0 0 0 0 0 0 0 0 0 30 188 255 247 62 0 0 0 0 1 0 0 0 0 0 0 0 0 0 0 0 0 0 0 0 0 0 0 0 0 0 0 0 0 0 0 0 0 0 0 0 4 1 0 0 0 126 255 246 0 0 0 0 8 0 0 0 9 255 255 8 0 0 0 0 19 0 0 0 255 255 136 0 0 0 0 13 0 0 0 70 43 16 4 0 0 0 0 0 0 0 0 0 0 0 0 0 0 0 0 0 0 0 0 0 0 0 0 0 0 0 0 0 0 0 0 1 5 2 0 0 0 0 0 43 255 255 255 79 53 22 6 5 3 0 0 0 
255 0 0 0 0 0 0 0 0 0 0 0 0 165 255 255 57 0 0 0 0 0 0 0 0 0 0 0 0 0 0 0 0 0 0 0 0 0 0 0 0 0 0 0 0 0 0 0 0 0 0 0 0 0 9 11 3 0 0 131 255 249 0 0 0 0 8 0 0 0 11 255 255 8 0 0 0 0 20 0 0 0 255 255 136 0 0 0 0 14 0 0 0 69 44 16 3 0 0 0 0 0 0 0 0 0 0 0 0 0 0 0 0 0 0 0 0 0 0 0 0 0 0 0 0 0 0 0 0 0 0 6 3 0 0 0 0 12 211 255 255 111 73 30 9 6 4 1 0 0 
255 0 0 0 0 0 0 0 0 0 0 0 0 255 255 111 0 0 0 0 0 0 0 0 0 0 0 0 0 0 0 0 0 0 0 0 0 0 0 0 0 0 0 0 0 0 0 0 0 0 0 0 0 0 3 22 19 0 0 138 255 251 0 0 0 0 8 0 0 0 11 255 255 7 0 0 0 0 21 0 0 0 255 255 136 0 0 0 0 14 0 0 0 66 43 15 1 0 0 0 0 0 0 0 0 0 0 0 0 0 0 0 0 0 0 0 0 0 0 0 0 0 0 0 0 0 0 0 0 0 0 2 9 15 0 0 0 22 184 255 255 138 88 40 15 5 5 3 0 0 
255 0 0 0 0 0 0 0 0 0 0 0 0 255 255 63 0 0 0 0 0 0 0 0 0 0 0 0 0 0 0 0 0 0 0 0 0 0 0 0 0 0 0 0 1 1 0 0 0 0 6 91 74 0 0 0 0 13 0 149 255 251 0 0 0 0 8 0 0 0 9 255 255 5 0 0 0 0 23 0 0 0 255 255 136 0 0 0 0 14 0 0 0 64 41 13 0 0 0 0 0 0 0 0 0 0 0 0 0 0 0 0 0 0 0 0 0 0 0 0 0 0 0 0 0 0 0 0 0 0 0 1 5 29 0 0 0 24 171 255 255 155 100 49 19 6 6 4 1 0 
255 0 0 0 0 0 0 0 0 0 0 0 1 255 255 63 0 0 0 0 0 0 0 0 0 0 0 0 0 0 0 0 0 0 0 0 0 0 0 0 0 1 1 0 2 2 0 0 0 0 182 255 126 0 0 0 0 0 0 162 255 251 0 0 0 0 8 0 0 0 9 255 255 5 0 0 0 0 24 0 0 0 255 255 137 0 0 0 0 13 0 0 0 63 41 13 0 0 0 0 0 0 0 0 0 0 0 0 0 0 0 0 0 0 0 0 0 0 0 0 0 0 0 0 0 0 0 0 0 0 0 0 4 28 0 0 0 21 158 255 255 166 110 54 22 10 5 5 3 0 
255 0 0 0 0 0 0 0 0 0 0 0 3 255 255 61 0 0 0 0 0 0 0 0 0 0 0 0 0 0 0 0 0 0 0 0 0 0 0 0 0 2 2 1 2 0 0 0 0 172 255 238 54 1 0 0 0 0 0 179 255 255 0 0 0 0 7 0 0 0 10 255 255 7 0 0 0 0 25 0 0 0 255 255 139 0 0 0 0 13 0 0 0 62 41 13 0 0 0 0 0 0 0 0 0 0 0 0 0 0 0 0 0 0 0 0 0 0 0 0 0 0 0 0 0 0 0 0 0 0 0 0 3 27 0 0 0 19 150 255 255 172 117 60 27 13 5 7 4 0 
255 0 0 0 0 0 0 0 0 0 0 0 3 255 255 60 0 0 0 0 0 0 0 0 0 0 0 0 0 0 0 0 0 0 0 0 0 0 0 0 1 2 1 3 3 0 0 0 58 255 255 56 0 1 6 0 0 0 0 206 255 255 0 0 0 0 5 0 0 0 8 255 255 8 0 0 0 0 27 0 0 0 255 255 141 0 0 0 0 16 0 0 0 63 39 10 0 0 0 0 0 0 0 0 0 0 0 0 0 0 0 0 0 0 0 0 0 0 0 0 0 0 0 0 0 0 0 0 0 0 0 0 1 24 0 0 0 17 146 255 255 178 124 66 31 16 8 8 4 0 
255 0 0 0 0 0 0 0 0 0 0 0 1 255 255 59 0 0 0 0 0 0 0 0 0 0 0 0 0 0 0 0 0 0 0 0 0 0 1 1 2 3 1 3 2 0 0 0 193 255 227 0 0 0 3 17 0 0 0 229 255 255 0 0 0 0 4 0 0 0 6 255 255 8 0 0 0 0 28 0 0 0 255 255 143 0 0 0 0 18 0 0 0 63 40 9 0 0 0 0 0 0 0 0 0 0 0 0 0 0 0 0 0 0 0 0 0 0 0 0 0 0 0 0 0 0 0 0 0 0 0 0 0 20 0 0 0 16 140 255 255 185 130 70 34 19 11 7 4 0 
255 0 0 0 0 0 0 0 0 0 0 0 0 255 255 56 0 1 1 0 0 0 0 0 0 0 0 0 0 0 0 0 0 0 0 0 0 0 3 3 2 4 3 2 0 0 0 0 255 255 137 0 0 0 0 23 0 0 0 236 255 255 0 0 0 0 5 0 0 0 8 255 255 8 0 0 0 0 28 0 0 0 255 255 144 0 0 0 0 16 0 0 0 62 42 10 0 0 0 0 0 0 0 0 0 0 0 0 0 0 0 0 0 0 0 0 0 0 0 0 0 0 0 0 0 0 0 0 0 0 0 0 0 19 0 0 0 18 133 255 255 188 133 75 39 21 12 5 4 0 
255 0 0 0 0 0 0 0 0 0 0 0 0 255 255 54 0 2 2 0 0 0 0 0 0 0 0 0 0 0 0 0 0 0 0 1 1 1 4 4 3 3 3 2 0 0 0 0 255 255 98 0 0 0 0 22 0 0 0 237 255 255 0 0 0 0 7 0 0 0 10 255 255 7 0 0 0 0 28 0 0 0 255 255 143 0 0 0 0 14 0 0 0 62 40 10 0 0 0 0 0 0 0 0 0 0 0 0 0 0 0 0 0 0 0 0 0 0 0 0 0 0 0 0 0 0 0 0 0 0 0 0 0 21 0 0 0 22 128 255 255 190 136 79 43 23 13 4 4 0 
255 0 0 0 0 0 0 0 0 0 0 0 0 255 255 54 0 1 1 0 0 0 0 0 0 0 0 0 0 0 0 1 1 0 0 2 2 3 4 4 5 2 1 1 0 0 0 0 255 255 91 0 0 0 0 23 0 0 0 241 255 255 0 0 0 0 8 0 0 0 9 255 255 6 0 0 0 0 28 0 0 0 255 255 141 0 0 0 0 15 0 0 0 61 39 11 0 0 0 0 0 0 0 0 0 0 0 0 0 0 0 0 0 0 0 0 0 0 0 0 0 0 0 0 0 0 0 0 0 0 0 0 0 20 0 0 0 24 125 255 255 193 139 81 45 25 15 4 4 0 
255 0 0 0 0 0 0 0 0 0 0 0 0 251 255 52 0 1 1 0 0 0 0 0 0 0 0 0 0 0 0 2 2 0 1 2 2 5 4 3 5 2 0 1 0 0 0 0 255 255 92 0 0 0 0 24 0 0 0 246 255 255 0 0 0 0 8 0 0 0 8 255 255 7 0 0 0 0 29 0 0 0 255 255 141 0 0 0 0 16 0 0 0 59 41 13 1 0 0 0 0 0 0 0 0 0 0 0 0 0 0 0 0 0 0 0 0 0 0 0 0 0 0 0 0 0 0 0 0 0 0 0 0 17 0 0 0 24 124 255 255 194 140 83 47 27 16 4 4 0 
255 0 0 0 0 0 0 0 0 0 0 0 0 243 255 49 0 2 2 0 0 0 0 0 0 0 0 0 1 1 0 1 2 1 2 2 3 7 4 2 3 1 0 2 0 0 0 0 255 255 92 0 0 0 0 24 0 0 0 248 255 255 0 0 0 0 8 0 0 0 9 255 255 8 0 0 0 0 31 0 0 0 255 255 143 0 0 0 0 16 0 0 0 57 41 13 2 0 0 0 0 0 0 0 0 0 0 0 0 0 0 0 0 0 0 0 0 0 0 0 0 0 0 0 0 0 0 0 0 0 0 0 0 16 0 0 0 22 123 255 255 195 140 84 48 28 16 4 4 0 
255 0 0 0 0 0 0 0 0 0 0 0 0 233 255 48 0 1 2 0 0 0 0 0 0 0 0 0 2 3 1 0 3 4 2 2 4 6 3 2 2 1 1 2 1 0 0 0 255 255 93 0 0 0 0 24 0 0 0 249 255 255 0 0 0 0 8 0 0 0 11 255 255 7 0 0 0 0 32 0 0 0 255 255 144 0 0 0 0 15 0 0 0 56 38 10 1 0 0 0 0 0 0 0 0 0 0 0 0 0 0 0 0 0 0 0 0 0 0 0 0 0 0 0 0 0 0 0 0 0 0 0 0 16 0 0 0 19 121 255 255 196 140 84 48 28 16 4 4 0 
255 0 0 0 0 0 0 0 0 0 0 0 0 224 255 47 0 0 2 0 0 0 0 0 0 1 1 1 2 3 3 1 3 6 3 3 5 3 1 1 1 3 3 2 2 0 0 0 255 255 94 0 0 0 0 24 0 0 0 252 255 255 0 0 0 0 7 0 0 0 12 255 255 6 0 0 0 0 31 0 0 0 255 255 145 0 0 0 0 13 0 0 0 55 35 9 0 0 0 0 0 0 0 0 0 0 0 0 0 0 0 0 0 0 0 0 0 0 0 0 0 0 0 0 0 0 0 0 0 0 0 0 0 16 0 0 0 19 120 255 255 196 140 84 48 28 16 4 4 0 
255 0 0 0 0 0 0 0 0 0 0 0 0 215 255 46 0 0 1 0 0 0 0 0 0 2 3 4 3 1 4 4 2 4 3 4 6 2 0 1 2 4 3 2 1 0 0 0 255 255 94 0 0 0 0 23 0 0 0 255 255 255 0 0 0 0 5 0 0 0 11 255 255 7 0 0 0 0 29 0 0 0 255 255 147 0 0 0 0 13 0 0 0 54 35 10 0 0 0 0 0 0 0 0 0 0 0 0 0 0 0 0 0 0 0 0 0 0 0 0 0 0 0 0 0 0 0 0 0 0 0 0 0 15 0 0 0 20 120 255 255 196 140 84 48 28 16 4 4 0 
255 0 0 0 0 0 0 0 0 0 0 0 0 204 255 46 0 0 0 0 0 0 1 1 1 3 4 5 3 0 4 7 3 2 3 4 4 1 0 2 4 4 3 3 0 0 0 0 255 255 95 0 0 0 0 21 0 0 0 255 255 255 0 0 0 0 4 0 0 0 9 255 255 8 0 0 0 0 28 0 0 0 255 255 148 0 0 0 0 14 0 0 0 53 35 10 1 0 0 0 0 0 0 0 0 0 0 0 0 0 0 0 0 0 0 0 0 0 0 0 0 0 0 0 0 0 0 0 0 0 0 0 0 14 0 0 0 20 119 255 255 197 140 84 48 28 16 4 4 0 
255 0 0 0 0 0 0 0 0 0 0 0 0 193 248 44 0 0 0 0 0 1 3 2 3 5 4 4 2 0 3 7 4 3 5 4 2 0 1 2 2 3 5 4 0 0 0 0 255 255 96 0 0 0 0 20 0 0 0 255 255 255 0 0 0 0 4 0 0 0 8 255 255 9 0 0 0 0 29 0 0 0 255 255 148 0 0 0 0 14 0 0 0 50 33 10 2 0 0 0 0 0 0 0 0 0 0 0 0 0 0 0 0 0 0 0 0 0 0 0 0 0 0 0 0 0 0 0 0 0 0 0 0 15 0 0 0 19 116 255 255 199 140 84 48 28 16 4 4 0 
255 0 0 0 0 0 0 0 0 0 0 0 0 184 238 40 0 0 1 0 1 4 5 3 4 4 3 4 3 2 2 5 4 3 4 3 3 1 3 3 1 3 5 3 0 0 0 0 255 255 97 0 0 0 0 20 0 0 0 255 255 255 0 0 0 0 5 0 0 0 8 255 255 10 0 0 0 0 31 0 0 0 255 255 147 0 0 0 0 15 0 0 0 48 33 10 0 0 0 0 0 0 0 0 0 1 1 1 0 0 0 0 0 0 0 0 0 0 0 0 0 0 0 0 0 0 0 0 0 0 0 0 0 18 0 0 0 17 113 255 255 200 140 84 48 28 16 4 4 0 
255 0 0 0 0 0 0 0 0 0 0 0 0 176 228 37 0 1 2 0 2 6 6 6 5 2 2 2 4 5 2 4 4 2 3 2 3 2 3 3 3 5 4 3 0 0 0 0 255 255 99 0 0 0 0 21 0 0 0 255 255 255 0 0 0 0 6 0 0 0 8 255 255 9 0 0 0 0 32 0 0 0 255 255 146 0 0 0 0 15 0 0 0 47 35 11 0 0 0 0 0 0 0 0 2 15 17 8 2 0 0 0 0 0 0 0 0 0 0 0 0 0 0 0 0 0 0 0 0 0 0 0 0 19 0 0 0 16 112 255 255 200 140 84 48 28 16 4 4 0 
255 0 0 0 0 0 0 0 0 0 0 0 0 169 214 35 0 2 1 0 2 6 6 7 6 3 2 0 5 6 2 4 4 3 4 2 2 2 2 2 4 5 3 4 0 0 0 0 255 255 100 0 0 0 0 23 0 0 0 255 255 255 0 0 0 0 6 0 0 0 9 255 255 8 0 0 0 0 32 0 0 0 255 255 146 0 0 0 0 14 0 0 0 46 34 11 0 0 0 0 0 42 68 14 0 0 0 26 11 3 1 0 0 0 0 0 0 0 0 0 0 0 0 0 0 0 0 0 0 0 0 0 0 15 0 0 0 17 112 255 255 200 140 84 48 28 16 4 4 0 
255 0 0 0 0 0 0 0 0 0 0 0 0 164 201 32 0 2 1 0 3 6 6 6 6 4 1 1 6 5 2 5 6 4 2 1 3 3 2 3 4 4 2 3 0 0 0 0 255 255 100 0 0 0 0 24 0 0 0 255 255 255 0 0 0 0 7 0 0 0 11 255 255 8 0 0 0 0 32 0 0 0 255 255 147 0 0 0 0 14 0 0 0 48 30 8 0 0 0 0 126 243 173 29 0 0 0 0 33 10 2 0 0 0 0 0 0 0 0 0 0 0 0 0 0 0 0 0 0 0 0 0 0 12 0 0 0 19 111 255 255 200 140 84 48 28 16 4 4 0 
255 0 0 0 0 0 0 0 0 0 0 0 0 159 192 29 0 3 2 1 5 5 4 6 7 4 0 3 5 3 2 5 8 4 2 2 3 3 2 4 3 4 3 3 1 0 0 0 255 255 100 0 0 0 0 24 0 0 0 255 255 255 0 0 0 0 8 0 0 0 13 255 255 8 0 0 0 0 33 0 0 0 255 255 148 0 0 0 0 14 0 0 0 50 28 4 0 0 0 153 255 255 107 13 0 0 0 0 37 21 6 2 0 0 0 0 0 0 0 0 0 0 0 0 0 0 0 0 0 0 0 0 0 11 0 0 0 20 108 255 255 200 140 84 48 28 16 4 4 0 
255 0 0 0 0 0 0 0 0 0 0 0 0 151 184 30 0 3 1 3 7 4 2 6 7 3 0 4 4 3 3 3 7 4 4 4 1 1 3 4 3 5 4 4 1 0 0 0 255 255 100 0 0 0 0 24 0 0 0 255 255 255 0 0 0 0 9 0 0 0 14 255 255 8 0 0 0 0 34 0 0 0 255 255 138 0 0 0 0 15 0 0 0 48 28 0 0 0 108 255 255 112 4 0 7 0 0 0 0 40 12 5 0 0 0 0 0 0 0 0 0 0 0 0 0 0 0 0 0 0 0 0 0 9 0 0 0 20 105 255 255 200 140 84 48 28 16 4 4 0 
255 0 0 0 0 0 0 0 0 0 0 0 0 140 176 34 0 2 0 4 7 3 3 7 6 2 0 4 4 3 4 3 6 4 3 3 0 1 4 3 4 6 4 5 0 0 0 0 255 255 99 0 0 0 0 24 0 0 0 255 255 255 0 0 0 0 11 0 0 0 13 255 255 8 0 0 0 0 33 0 0 0 255 255 110 0 0 0 0 15 0 0 0 46 27 0 0 11 255 255 152 0 0 0 4 16 0 0 0 62 14 5 0 0 0 0 0 0 0 0 0 0 0 0 0 0 0 0 0 0 0 0 0 8 0 0 0 19 105 255 255 200 140 84 48 28 16 4 4 0 
255 0 0 0 0 0 0 0 0 0 0 0 0 129 168 36 0 3 1 4 5 2 3 7 7 3 0 4 5 2 3 4 5 4 3 3 1 2 3 2 3 4 4 6 1 0 0 0 255 255 97 0 0 0 0 23 0 0 0 255 255 255 0 0 0 0 11 0 0 0 11 255 255 8 0 0 0 0 30 0 0 0 255 255 66 0 0 0 0 14 0 0 0 45 23 0 0 209 255 255 5 0 0 0 0 33 0 0 0 74 15 3 0 0 0 0 0 0 0 0 0 0 0 0 0 0 0 0 0 0 0 0 0 7 0 0 0 17 108 255 255 200 140 84 48 28 16 4 4 0 
255 0 0 0 0 0 0 0 0 0 0 0 0 121 160 35 0 4 3 5 4 3 2 4 7 5 1 3 6 4 2 3 3 4 5 4 3 2 1 2 3 2 3 4 1 0 0 0 255 255 97 0 0 0 0 21 0 0 0 255 255 255 0 0 0 0 7 0 0 0 7 255 255 2 0 0 0 0 21 0 0 0 255 255 17 0 0 0 0 15 0 0 0 42 16 0 20 255 255 87 0 0 0 0 0 31 0 0 0 76 15 1 0 0 0 0 0 0 0 0 0 0 0 0 0 0 0 0 0 0 0 0 0 5 0 0 0 15 110 255 255 200 140 84 48 28 16 4 4 0 
255 0 0 0 0 0 0 0 0 0 0 0 0 116 152 33 0 4 4 6 5 5 3 1 5 7 3 1 5 6 3 2 1 4 7 4 4 3 0 1 4 3 1 2 0 0 0 0 255 255 98 0 0 0 0 20 0 0 0 255 255 255 0 0 0 0 2 3 0 0 2 255 228 0 0 0 0 0 7 0 0 0 255 212 0 0 0 0 0 16 0 0 0 37 7 0 200 255 255 0 0 0 0 0 1 22 0 0 0 73 13 0 0 0 0 0 0 0 0 0 0 0 0 0 0 0 0 0 0 0 0 0 0 4 0 0 0 13 109 255 255 200 140 84 48 28 16 4 4 0 
255 0 0 0 0 0 0 0 0 0 0 0 0 112 146 32 0 4 4 6 6 6 5 1 3 7 5 1 3 5 4 3 1 3 7 5 4 4 1 0 3 4 1 2 0 0 0 0 255 255 98 0 0 0 0 20 0 0 0 255 255 255 0 0 0 0 0 4 0 0 0 105 45 0 0 0 0 0 0 0 0 0 82 40 0 0 0 0 0 16 0 0 0 30 0 0 255 255 112 0 0 0 0 0 4 8 0 0 0 63 12 0 0 0 0 0 0 0 0 0 0 0 0 0 0 0 0 0 0 0 0 0 0 4 0 0 0 12 108 255 255 200 140 84 48 28 16 4 4 0 
255 0 0 0 0 0 0 0 0 0 0 0 0 108 142 32 1 4 3 6 6 6 7 4 2 4 6 3 1 4 4 4 4 2 4 5 4 4 3 2 2 3 3 2 0 0 0 0 255 255 98 0 0 0 0 21 0 0 0 255 255 255 0 0 0 0 0 0 5 7 0 0 0 0 0 0 0 0 0 2 5 1 0 0 0 0 0 0 0 16 0 0 0 23 0 127 255 255 7 0 0 0 0 0 10 0 0 0 0 47 9 0 0 0 0 0 0 0 0 0 0 0 0 0 0 0 0 0 0 0 0 0 0 3 0 0 0 12 108 255 255 200 140 84 48 28 16 4 4 0 
255 0 0 0 0 0 0 0 0 0 0 0 0 105 137 32 2 4 2 5 6 6 8 7 4 2 4 4 1 3 4 4 6 4 2 2 4 4 4 5 3 2 4 3 0 0 0 0 255 255 98 0 0 0 0 23 0 0 0 255 255 255 0 0 0 0 0 0 0 1 0 0 0 0 0 0 0 0 0 0 0 0 0 0 0 0 0 0 0 15 0 0 0 15 0 255 255 199 0 0 0 0 0 0 19 0 0 0 29 29 3 0 0 0 0 0 0 0 0 0 0 0 0 0 0 0 0 0 0 0 0 0 0 1 0 0 0 12 108 255 255 200 140 84 48 28 16 4 4 0 
255 0 0 0 0 0 0 0 0 0 0 0 0 103 132 31 1 5 3 3 5 6 8 8 6 3 3 4 2 2 4 3 5 7 4 1 3 3 3 5 5 3 4 5 0 0 0 0 255 255 98 0 0 0 0 23 0 0 0 255 255 255 0 0 0 0 0 0 0 0 0 0 0 0 0 0 0 0 0 0 0 0 0 0 0 0 0 0 0 14 0 0 0 0 33 255 255 64 0 0 0 0 0 5 0 0 0 0 54 15 1 0 0 0 0 0 0 0 0 0 0 0 0 0 0 0 0 0 0 0 0 0 0 0 0 0 0 12 108 255 255 200 140 84 48 28 16 4 4 0 
255 0 0 0 0 0 0 0 0 0 0 0 0 100 128 30 0 6 5 2 3 6 8 8 6 4 5 5 2 2 4 2 4 7 5 3 3 2 1 4 6 3 4 7 0 0 0 0 255 255 98 0 0 0 0 16 0 0 0 255 255 211 0 0 0 0 0 0 0 0 0 0 0 0 0 0 0 0 0 0 0 0 0 0 0 0 0 0 0 14 0 0 0 0 153 255 255 0 0 0 0 0 0 18 0 0 0 0 38 9 2 0 0 0 0 0 0 0 0 0 0 0 0 0 0 0 0 0 0 0 0 0 0 0 0 0 0 12 108 255 255 200 140 84 48 28 16 4 4 0 
255 0 0 0 0 0 0 0 0 0 0 0 0 96 123 31 2 6 6 3 2 4 7 8 6 4 6 7 4 2 3 3 4 5 3 4 5 3 1 3 4 2 5 7 2 0 0 0 255 255 98 0 0 0 0 5 0 0 0 153 255 76 0 0 0 0 0 0 0 0 0 0 0 0 0 0 0 0 0 0 0 0 0 0 0 0 0 0 0 14 0 0 0 0 255 255 224 0 0 0 0 0 1 23 0 0 0 70 19 7 0 0 0 0 0 0 0 0 0 0 0 0 0 0 0 0 0 0 0 0 0 0 0 0 0 0 0 11 108 255 255 200 140 84 48 28 16 4 4 0 
255 0 0 0 0 0 0 0 0 0 0 0 0 92 115 32 6 7 6 4 2 2 5 7 5 4 7 8 7 3 2 4 3 4 4 4 5 4 2 2 2 2 5 5 2 0 0 0 255 255 98 0 0 0 0 0 0 0 0 26 41 3 0 0 0 0 0 0 0 0 0 0 0 0 0 0 0 0 0 0 0 0 0 0 0 0 0 0 0 15 0 0 0 0 255 255 110 0 0 0 0 0 6 1 0 0 0 61 13 5 0 0 0 0 0 0 0 0 0 0 0 0 0 0 0 0 0 0 0 0 0 0 0 0 0 0 0 9 108 255 255 200 140 84 48 28 16 4 4 0 
255 0 0 0 0 0 0 0 0 0 0 0 3 87 106 32 8 8 7 5 2 2 4 5 4 4 7 8 8 4 3 5 2 3 6 5 4 4 2 3 3 1 2 3 3 0 0 0 255 255 98 0 0 0 0 0 0 7 8 0 0 0 1 0 0 0 0 0 0 0 0 0 0 0 0 0 0 0 0 0 0 0 0 0 0 0 0 0 0 16 0 0 0 57 255 255 33 0 0 0 0 0 14 0 0 0 0 41 12 3 0 0 0 0 0 0 0 0 0 0 0 0 0 0 0 0 0 0 0 0 0 0 0 0 0 0 0 8 107 255 255 200 140 84 48 28 16 4 4 0 
255 0 0 0 0 0 0 0 0 0 0 0 7 81 100 31 7 9 9 6 3 2 4 5 4 4 5 7 7 3 5 8 3 1 5 7 4 4 3 4 4 0 1 2 4 0 0 0 255 255 97 0 0 0 0 0 0 0 0 0 0 0 0 0 0 0 0 0 0 0 0 0 0 0 0 0 0 0 0 0 0 0 0 0 0 0 0 0 0 16 0 0 0 151 255 255 0 0 0 0 0 0 21 0 0 0 50 27 10 0 0 0 0 0 0 0 0 0 0 0 0 0 0 0 0 0 0 0 0 0 0 0 0 0 0 0 0 7 106 255 255 200 140 84 48 28 16 4 4 0 
255 0 0 0 0 0 0 0 0 0 0 0 7 76 95 29 6 10 10 6 5 4 4 5 4 5 5 5 5 2 5 10 5 1 4 6 4 5 4 4 4 1 3 2 4 0 0 0 255 255 96 0 0 0 0 0 0 0 0 0 0 0 0 0 0 0 0 0 0 0 0 0 0 0 0 0 0 0 0 0 0 0 0 0 0 0 0 0 0 16 0 0 0 255 255 255 0 0 0 0 0 0 26 0 0 0 73 19 6 0 0 0 0 0 0 0 0 0 0 0 0 0 0 0 0 0 0 0 0 0 0 0 0 0 0 0 0 5 107 255 255 200 140 84 48 28 16 4 4 0 
255 0 0 0 0 0 0 0 0 0 0 0 6 73 89 28 7 9 9 7 7 7 5 3 3 6 7 5 4 3 3 9 7 3 4 2 3 6 4 4 5 3 4 2 3 0 0 0 255 255 96 0 0 0 0 0 0 0 0 0 0 0 0 0 0 0 0 0 0 0 0 0 0 0 0 0 0 0 0 0 0 0 0 0 0 0 0 0 0 13 0 0 0 255 255 111 0 0 0 0 0 1 25 0 0 0 75 13 3 0 0 0 0 0 0 0 0 0 0 0 0 0 0 0 0 0 0 0 0 0 0 0 0 0 0 0 0 3 107 255 255 200 140 84 48 28 16 4 4 0 
255 0 0 0 0 0 0 0 0 0 0 0 7 71 84 29 9 7 7 8 8 8 6 3 3 5 7 6 4 5 4 7 6 5 6 1 1 5 4 3 6 5 4 3 1 0 0 0 255 255 96 0 0 0 0 0 0 0 0 0 0 0 0 0 0 0 0 0 0 0 0 0 0 0 0 0 0 0 0 0 0 0 0 0 0 0 0 0 0 6 0 0 0 167 138 13 0 0 0 0 0 4 13 0 0 0 65 10 2 0 0 0 0 0 0 0 0 0 0 0 0 0 0 0 0 0 0 0 0 0 0 0 0 0 0 0 0 1 105 255 255 200 140 84 48 28 16 4 4 0 
255 0 0 0 0 0 0 0 0 0 0 0 8 67 80 31 11 7 6 8 7 6 5 5 6 5 5 4 4 7 7 5 3 6 9 5 1 3 3 2 6 6 4 4 0 0 0 0 255 255 96 0 0 0 0 0 0 0 0 0 0 0 0 0 0 0 0 0 0 0 0 0 0 0 0 0 0 0 0 0 0 0 0 0 0 0 0 0 0 1 0 0 0 18 2 0 0 0 0 0 0 7 0 0 0 0 51 9 1 0 0 0 0 0 0 0 0 0 0 0 0 0 0 0 0 0 0 0 0 0 0 0 0 0 0 0 0 0 104 255 255 200 140 84 48 28 16 4 4 0 
255 0 0 0 0 0 0 0 0 0 0 0 8 62 76 31 12 10 7 8 5 2 4 8 9 6 3 1 4 8 8 4 3 5 8 10 4 1 1 3 7 6 4 4 0 0 0 0 255 255 97 0 0 0 0 0 0 0 0 0 0 0 0 0 0 0 0 0 0 0 0 0 0 0 0 0 0 0 0 0 0 0 0 0 0 0 0 0 0 0 1 4 1 0 0 0 0 0 0 0 0 10 0 0 0 2 39 5 0 0 0 0 0 0 0 0 0 0 0 0 0 0 0 0 0 0 0 0 0 0 0 0 0 0 0 0 0 0 104 255 255 200 140 84 48 28 16 4 4 0 
255 0 0 0 0 0 0 0 0 0 0 0 9 59 70 29 13 12 7 7 5 2 4 9 11 6 2 1 4 8 7 4 4 4 5 10 6 2 2 3 7 6 4 5 1 0 0 0 255 255 98 0 0 0 0 0 0 0 0 0 0 0 0 0 0 0 0 0 0 0 0 0 0 0 0 0 0 0 0 0 0 0 0 0 0 0 0 0 0 0 0 0 0 0 0 0 0 0 0 0 0 17 0 0 0 44 29 2 0 0 0 0 0 0 0 0 0 0 0 0 0 0 0 0 0 0 0 0 0 0 0 0 0 0 0 0 0 0 104 255 255 200 140 84 48 28 16 4 4 0 
255 0 0 0 0 0 0 0 0 0 0 0 11 57 62 27 15 12 6 5 6 6 5 6 10 8 4 3 4 7 6 4 4 5 4 6 5 6 6 1 5 5 4 6 3 0 0 0 255 255 98 0 0 0 0 0 0 0 0 0 0 0 0 0 0 0 0 0 0 0 0 0 0 0 0 0 0 0 0 0 0 0 0 0 0 0 0 0 0 0 0 0 0 0 0 0 0 0 0 0 0 26 0 0 0 67 22 2 0 0 0 0 0 0 0 0 0 0 0 0 0 0 0 0 0 0 0 0 0 0 0 0 0 0 0 0 0 0 104 255 255 200 140 84 48 28 16 4 4 0 
255 0 0 0 0 0 0 0 0 0 0 0 12 53 55 25 16 12 7 6 6 7 7 5 6 8 6 6 6 5 5 4 5 7 4 4 4 7 7 2 5 3 4 6 4 0 0 0 255 255 98 0 0 0 0 0 0 0 0 0 0 0 0 0 0 0 0 0 0 0 0 0 0 0 0 0 0 0 0 0 0 0 0 0 0 0 0 0 0 0 0 0 0 0 0 0 0 0 0 0 0 31 0 0 0 74 18 0 0 0 0 0 0 0 0 0 0 0 0 0 0 0 0 0 0 0 0 0 0 0 0 0 0 0 0 0 0 0 104 255 255 200 140 84 48 28 16 4 4 0 
255 0 0 0 0 0 0 0 0 0 0 0 12 45 50 26 16 12 8 8 6 6 7 6 5 5 5 8 10 5 3 4 6 7 4 5 4 5 5 5 8 3 3 6 4 0 0 0 255 255 98 0 0 0 0 0 0 0 0 0 0 0 0 0 0 0 0 0 0 0 0 0 0 0 0 0 0 0 0 0 0 0 0 0 0 0 0 0 0 0 0 0 0 0 0 0 0 0 0 0 1 28 0 0 0 69 14 0 0 0 0 0 0 0 0 0 0 0 0 0 0 0 0 0 0 0 0 0 0 0 0 0 0 0 0 0 0 0 103 255 255 200 140 84 48 28 16 4 4 0 
255 0 0 0 0 0 0 0 0 0 0 0 12 37 46 30 17 12 7 6 6 7 6 6 7 5 4 6 10 8 4 4 5 5 5 6 4 4 4 6 9 5 3 5 4 0 0 0 255 255 98 0 0 0 0 0 0 0 0 0 0 0 0 0 0 0 0 0 0 0 0 0 0 0 0 0 0 0 0 0 0 0 0 0 0 0 0 0 0 0 0 0 0 0 0 0 0 0 0 0 4 14 0 0 0 57 11 0 0 0 0 0 0 0 0 0 0 0 0 0 0 0 0 0 0 0 0 0 0 0 0 0 0 0 0 0 0 0 101 255 255 200 140 84 48 28 16 4 4 0 
255 0 0 0 0 0 0 0 0 0 0 0 12 32 41 31 18 13 6 4 7 8 7 7 8 6 4 3 6 10 8 5 3 4 7 6 4 4 4 6 7 5 5 5 4 0 0 0 255 255 97 0 0 0 0 0 0 0 0 0 0 0 0 0 0 0 0 0 0 0 0 0 0 0 0 0 0 0 0 0 0 0 0 0 0 0 0 0 0 0 0 0 0 0 0 0 0 0 0 0 7 0 0 0 0 44 9 0 0 0 0 0 0 0 0 0 0 0 0 0 0 0 0 0 0 0 0 0 0 0 0 0 0 0 0 0 0 0 100 255 255 200 140 84 48 28 16 4 4 0 
255 0 0 0 0 0 0 0 0 0 0 0 12 29 37 30 17 14 7 4 8 8 8 8 8 7 4 1 5 9 10 7 2 5 8 6 3 4 4 5 7 5 5 7 5 0 0 0 255 255 96 0 0 0 0 0 0 0 0 0 0 0 0 0 0 0 0 0 0 0 0 0 0 0 0 0 0 0 0 0 0 0 0 0 0 0 0 0 0 0 0 0 0 0 0 0 0 0 0 0 11 0 0 0 3 33 8 0 0 0 0 0 0 0 0 0 0 0 0 0 0 0 0 0 0 0 0 0 0 0 0 0 0 0 0 0 0 0 100 255 255 200 140 84 48 28 16 4 4 0 
255 0 0 0 0 0 0 0 0 0 0 0 12 29 35 30 18 13 8 5 8 8 8 8 8 7 3 1 7 9 9 7 4 6 7 6 2 3 4 5 8 7 4 7 7 0 0 0 255 255 96 0 0 0 0 0 0 0 0 0 0 0 0 0 0 0 0 0 0 0 0 0 0 0 0 0 0 0 0 0 0 0 0 0 0 0 0 0 0 0 0 0 0 0 0 0 0 0 0 0 19 0 0 0 42 25 7 0 0 0 0 0 0 0 0 0 0 0 0 0 0 0 0 0 0 0 0 0 0 0 0 0 0 0 0 0 0 0 100 255 255 200 140 84 48 28 16 4 4 0 
255 0 0 0 0 0 0 0 0 0 0 0 12 30 33 31 23 12 8 6 7 8 8 8 8 5 2 4 9 10 6 5 7 6 5 6 4 2 4 7 8 7 4 6 7 0 0 0 255 255 97 0 0 0 0 0 0 0 0 0 0 0 0 0 0 0 0 0 0 0 0 0 0 0 0 0 0 0 0 0 0 0 0 0 0 0 0 0 0 0 0 0 0 0 0 0 0 0 0 0 26 0 0 0 64 21 4 0 0 0 0 0 0 0 0 0 0 0 0 0 0 0 0 0 0 0 0 0 0 0 0 0 0 0 0 0 0 0 102 255 255 199 140 84 48 28 16 4 4 0 
255 0 0 0 0 0 0 0 0 0 0 0 11 29 32 32 27 15 9 6 6 8 8 8 7 4 3 6 11 9 3 5 8 6 4 5 6 4 4 7 8 6 5 7 4 0 0 0 255 255 99 0 0 0 0 0 0 0 0 0 0 0 0 0 0 0 0 0 0 0 0 0 0 0 0 0 0 0 0 0 0 0 0 0 0 0 0 0 0 0 0 0 0 0 0 0 0 0 0 1 27 0 0 0 70 17 0 0 0 0 0 0 0 0 0 0 0 0 0 0 0 0 0 0 0 0 0 0 0 0 0 0 0 0 0 0 0 0 106 255 255 196 140 84 48 28 16 4 4 0 
255 0 0 0 0 0 0 0 0 0 0 0 9 27 31 30 29 21 12 9 7 7 8 8 5 4 5 7 11 7 3 7 8 5 4 4 5 6 6 6 7 7 7 7 1 0 0 0 255 255 99 0 0 0 0 0 0 0 0 0 0 0 0 0 0 0 0 0 0 0 0 0 0 0 0 0 0 0 0 0 0 0 0 0 0 0 0 0 0 0 0 0 0 0 0 0 0 0 0 4 16 0 0 0 63 11 0 0 0 0 0 0 0 0 0 0 0 0 0 0 0 0 0 0 0 0 0 0 0 0 0 0 0 0 0 0 0 0 108 255 255 191 139 83 48 28 16 4 4 0 
255 0 0 0 0 0 0 0 0 0 0 0 5 25 30 28 29 24 17 15 9 6 8 7 3 4 7 10 9 5 5 8 7 4 4 4 5 6 9 7 6 7 7 5 0 0 0 0 255 255 103 0 0 0 0 0 0 0 0 0 0 0 0 0 0 0 0 0 0 0 0 0 0 0 0 0 0 0 0 0 0 0 0 0 0 0 0 0 0 0 0 0 0 0 0 0 0 0 0 9 0 0 0 0 46 7 0 0 0 0 0 0 0 0 0 0 0 0 0 0 0 0 0 0 0 0 0 0 0 0 0 0 0 0 0 0 0 2 138 255 255 184 134 80 48 28 16 4 4 0 
255 0 0 0 0 0 0 0 0 0 0 0 0 20 30 27 26 25 22 20 13 8 8 5 2 5 9 11 7 5 7 7 5 4 4 5 7 7 8 8 7 5 5 4 1 0 0 0 255 255 122 0 0 0 0 0 0 0 0 0 0 0 0 0 0 0 0 0 0 0 0 0 0 0 0 0 0 0 0 0 0 0 0 0 0 0 0 0 0 0 0 0 0 0 0 0 0 0 0 17 0 0 0 27 29 5 0 0 0 0 0 0 0 0 0 0 0 0 0 0 0 0 0 0 0 0 0 0 0 0 0 0 0 0 0 0 0 46 233 255 255 176 124 76 47 28 16 4 4 0 
255 0 0 0 0 0 0 0 0 0 0 0 0 0 24 26 26 27 23 23 19 12 9 5 4 6 10 9 5 7 8 6 4 4 5 7 8 7 5 8 8 4 3 4 4 0 0 0 255 255 157 0 0 0 0 0 0 0 0 0 0 0 0 0 0 0 0 0 0 0 0 0 0 0 0 0 0 0 0 0 0 0 0 0 0 0 0 0 0 0 0 0 0 0 0 0 0 0 0 23 0 0 0 59 18 4 0 0 0 0 0 0 0 0 0 0 0 0 0 0 0 0 0 0 0 0 0 0 0 0 0 0 0 0 0 0 30 162 255 255 222 162 112 72 44 27 16 4 4 0 
255 0 0 0 0 0 0 0 0 0 0 0 0 0 0 23 32 30 21 22 23 17 12 8 7 7 9 7 5 8 7 6 4 4 7 8 8 6 5 8 7 3 2 5 7 1 0 0 255 255 211 0 1 0 0 0 0 0 0 0 0 0 0 0 0 0 0 0 0 0 0 0 0 0 0 0 0 0 0 0 0 0 0 0 0 0 0 0 0 0 0 0 0 0 0 0 0 0 4 0 0 0 0 52 12 3 0 0 0 0 0 0 0 0 0 0 0 0 0 0 0 0 0 0 0 0 0 0 0 0 0 0 0 0 0 23 133 255 255 217 176 139 99 67 40 25 16 4 4 0 
255 0 0 0 0 0 0 0 0 0 0 0 0 0 0 2 32 34 23 20 24 22 16 12 9 10 8 5 7 8 6 5 4 5 8 8 8 6 6 8 5 2 4 7 7 0 0 0 176 255 255 0 1 0 0 0 0 0 0 0 0 0 0 0 0 0 0 0 0 0 0 0 0 0 0 0 0 0 0 0 0 0 0 0 0 0 0 0 0 0 0 0 0 0 0 0 0 0 15 0 0 0 0 29 7 0 0 0 0 0 0 0 0 0 0 0 0 0 0 0 0 0 0 0 0 0 0 0 0 0 0 0 0 0 17 120 226 240 198 174 151 116 86 62 37 23 15 4 4 0 
255 0 0 0 0 0 0 0 0 0 0 0 0 0 0 0 8 32 31 25 25 23 18 16 14 13 8 5 8 7 6 5 4 6 8 8 8 6 6 7 4 3 6 8 5 0 0 0 82 255 255 3 0 0 0 0 0 0 0 0 0 0 0 0 0 0 0 0 0 0 0 0 0 0 0 0 0 0 0 0 0 0 0 0 0 0 0 0 0 0 0 0 0 0 0 0 0 5 0 0 0 0 52 14 1 0 0 0 0 0 0 0 0 0 0 0 0 0 0 0 0 0 0 0 0 0 0 0 0 0 0 0 0 12 109 206 216 183 167 147 123 98 75 57 35 21 13 4 4 0 
255 0 0 0 0 0 0 0 0 0 0 0 0 0 0 0 0 10 33 34 31 24 18 18 20 17 10 7 8 6 5 6 5 6 8 8 8 6 6 5 4 5 6 8 4 0 0 0 0 255 255 62 0 0 0 0 0 0 0 0 0 0 0 0 0 0 0 0 0 0 0 0 0 0 0 0 0 0 0 0 0 0 0 0 0 0 0 0 0 0 0 0 0 0 0 0 0 13 0 0 0 0 38 8 0 0 0 0 0 0 0 0 0 0 0 0 0 0 0 0 0 0 0 0 0 0 0 0 0 0 0 0 13 100 192 200 164 157 149 122 102 84 65 49 33 20 11 5 4 0 
255 0 0 0 0 0 0 0 0 0 0 0 0 0 0 0 0 0 11 34 42 34 21 17 21 21 15 10 8 7 5 6 7 6 7 8 8 6 5 4 5 7 6 7 4 1 0 0 0 255 255 174 0 0 0 0 0 0 0 0 0 0 0 0 0 0 0 0 0 0 0 0 0 0 0 0 0 0 0 0 0 0 0 0 0 0 0 0 0 0 0 0 0 0 0 0 11 0 0 0 0 43 15 4 0 0 0 0 0 0 0 0 0 0 0 0 0 0 0 0 0 0 0 0 0 0 0 0 0 0 0 11 102 183 188 156 142 138 123 104 88 72 57 41 30 19 9 7 4 0 
255 0 0 0 0 0 0 0 0 0 0 0 0 0 0 0 0 0 0 12 42 46 32 20 20 21 20 15 9 8 7 7 8 6 6 8 8 6 3 4 7 8 6 5 4 4 1 0 0 121 255 255 3 0 0 0 0 0 0 0 0 0 0 0 0 0 0 0 0 0 0 0 0 0 0 0 0 0 0 0 0 0 0 0 0 0 0 0 0 0 0 0 0 0 0 8 0 0 0 0 19 28 5 0 0 0 0 0 0 0 0 0 0 0 0 0 0 0 0 0 0 0 0 0 0 0 0 0 0 0 7 97 182 183 149 136 127 115 102 90 77 62 51 35 25 16 7 8 4 0 
255 0 0 0 0 0 0 0 0 0 0 0 0 0 0 0 0 0 0 0 15 42 45 34 24 20 22 20 13 9 8 8 8 7 7 8 8 5 2 5 8 8 6 3 4 7 2 0 0 0 255 255 111 0 0 0 0 0 0 0 0 0 0 0 0 0 0 0 0 0 0 0 0 0 0 0 0 0 0 0 0 0 0 0 0 0 0 0 0 0 0 0 0 1 8 0 0 0 0 0 36 11 0 0 0 0 0 0 0 0 0 0 0 0 0 0 0 0 0 0 0 0 0 0 0 0 0 0 0 11 96 178 179 143 133 123 107 95 88 79 67 55 44 30 20 12 5 7 4 0 
255 0 0 0 0 0 0 0 0 0 0 0 0 0 0 0 0 0 0 0 0 13 43 49 36 25 24 23 17 12 10 9 8 8 8 8 7 4 3 6 8 8 5 2 5 8 3 0 0 0 145 255 255 20 0 0 0 0 0 0 0 0 0 0 0 0 0 0 0 0 0 0 0 0 0 0 0 0 0 0 0 0 0 0 0 0 0 0 0 0 0 0 3 8 0 0 0 0 0 38 13 3 0 0 0 0 0 0 0 0 0 0 0 0 0 0 0 0 0 0 0 0 0 0 0 0 0 0 5 96 178 178 141 126 120 104 92 82 76 69 57 48 36 26 16 8 5 5 3 0 
255 0 0 0 0 0 0 0 0 0 0 0 0 0 0 0 0 0 0 0 0 0 15 46 49 40 34 25 17 15 14 12 9 8 8 8 5 4 5 6 8 7 4 4 6 7 5 0 0 0 0 255 255 186 3 0 0 0 0 0 0 0 0 0 0 0 0 0 0 0 0 0 0 0 0 0 0 0 0 0 0 0 0 0 0 0 0 0 0 0 1 6 0 0 0 0 0 0 30 17 4 0 0 0 0 0 0 0 0 0 0 0 0 0 0 0 0 0 0 0 0 0 0 0 0 0 0 5 94 177 178 141 126 115 101 88 81 74 66 60 48 38 28 21 12 5 6 4 1 0 
255 0 0 0 0 0 0 0 0 0 0 0 0 0 0 0 0 0 0 0 0 0 0 16 47 55 50 33 20 17 15 15 12 9 9 7 4 4 6 7 8 5 4 7 6 5 6 5 0 0 0 51 255 255 145 14 0 0 0 0 0 0 0 0 0 0 0 1 3 4 2 0 0 0 0 0 0 0 0 0 0 0 0 0 0 0 0 0 2 6 0 0 0 0 0 0 0 29 14 2 0 0 0 0 0 0 0 0 0 0 0 0 0 0 0 0 0 0 0 0 0 0 0 0 0 0 2 93 177 179 140 125 116 98 86 79 73 66 58 51 38 27 22 15 8 5 5 3 0 0 
255 0 0 0 0 0 0 0 0 0 0 0 0 0 0 0 0 0 0 0 0 0 0 0 17 51 60 50 34 22 15 17 15 11 11 5 4 5 6 8 7 4 5 8 6 4 5 9 3 0 0 0 80 255 255 158 49 8 0 0 0 0 1 2 3 3 0 0 0 0 0 0 9 19 17 8 1 0 0 0 0 0 0 1 2 3 2 0 0 0 0 0 0 0 0 0 28 13 2 0 0 0 0 0 0 0 0 0 0 0 0 0 0 0 0 0 0 0 0 0 0 0 0 0 0 1 93 176 179 141 123 114 100 85 77 72 67 58 48 40 28 21 17 9 5 6 4 1 0 0 
255 0 0 0 0 0 0 0 0 0 0 0 0 0 0 0 0 0 0 0 0 0 0 0 0 17 52 64 54 34 22 20 15 12 12 5 5 7 7 8 5 4 7 8 5 4 6 10 6 0 0 0 0 61 208 248 176 96 41 18 9 1 0 0 0 0 0 0 0 0 0 0 26 68 83 66 47 25 10 9 3 0 0 0 0 0 0 0 0 0 0 0 0 0 13 26 10 1 0 0 0 0 0 0 0 0 0 0 0 0 0 0 0 0 0 0 0 0 0 0 0 0 0 0 0 93 178 179 141 123 112 99 87 77 71 65 59 48 37 30 23 17 10 5 4 5 3 0 0 0 
255 0 0 0 0 0 0 0 0 0 0 0 0 0 0 0 0 0 0 0 0 0 0 0 0 0 17 57 67 53 38 26 15 13 12 7 8 8 7 8 4 4 8 8 5 4 9 11 5 1 4 0 0 0 22 110 160 150 105 65 29 4 0 0 0 0 0 0 0 0 0 0 19 56 89 96 90 69 45 28 8 0 0 0 0 0 0 0 0 0 0 0 0 22 15 6 0 0 0 0 0 0 0 0 0 0 0 0 0 0 0 0 0 0 0 0 0 0 0 0 0 0 0 0 92 178 180 141 123 113 97 86 79 71 65 58 48 37 29 24 18 10 5 4 4 3 1 0 0 0 
255 0 0 0 0 0 0 0 0 0 0 0 0 0 0 0 0 0 0 0 0 0 0 0 0 0 0 20 58 67 58 41 24 16 12 8 11 9 6 7 4 5 8 7 6 6 10 10 4 4 7 3 0 0 0 0 26 57 68 57 26 6 0 0 0 0 0 0 0 0 0 2 0 3 15 28 40 47 40 23 5 0 0 0 0 0 0 0 0 0 6 19 11 3 3 1 0 0 0 0 0 0 0 0 0 0 0 0 0 0 0 0 0 0 0 0 0 0 0 0 0 0 0 92 178 179 141 124 113 99 85 77 72 64 58 49 37 29 24 18 10 5 4 4 3 1 0 0 0 0 
255 0 0 0 0 0 0 0 0 0 0 0 0 0 0 0 0 0 0 0 0 0 0 0 0 0 0 0 20 57 70 63 43 25 16 10 11 10 7 5 4 7 8 5 5 10 11 6 4 7 8 5 0 0 0 0 0 0 6 12 7 5 3 0 0 6 10 14 17 11 7 2 0 0 0 0 0 1 3 2 0 0 0 0 0 0 0 3 14 11 6 3 0 0 0 0 0 0 0 0 0 0 0 0 0 0 0 0 0 0 0 0 0 0 0 0 0 0 0 0 0 0 90 178 180 139 123 115 99 86 77 71 64 55 49 40 29 24 18 10 5 4 4 3 1 0 0 0 0 0 
255 0 0 0 0 0 0 0 0 0 0 0 0 0 0 0 0 0 0 0 0 0 0 0 0 0 0 0 0 21 59 73 64 45 29 17 10 8 7 5 5 8 8 5 4 11 12 4 4 8 8 7 3 3 4 0 0 0 0 1 3 4 5 8 10 11 7 5 7 7 4 0 0 0 0 0 0 0 0 0 0 0 0 0 1 2 0 0 1 0 0 0 0 0 0 0 0 0 0 0 0 0 0 0 0 0 0 0 0 0 0 0 0 0 0 0 0 0 0 0 0 90 178 180 141 122 113 100 86 77 71 65 55 45 40 32 24 18 10 5 4 4 3 1 0 0 0 0 0 0 
255 0 0 0 0 0 0 0 0 0 0 0 0 0 0 0 0 0 0 0 0 0 0 0 0 0 0 0 0 0 21 58 74 68 50 31 15 7 5 7 8 8 7 6 6 10 10 4 5 8 8 7 4 5 7 3 3 4 5 6 6 4 4 6 6 7 6 4 2 5 4 0 0 0 0 0 0 0 0 0 0 0 0 0 0 0 0 0 0 0 0 0 0 0 0 0 0 0 0 0 0 0 0 0 0 0 0 0 0 0 0 0 0 0 0 0 0 0 0 0 87 178 182 141 123 113 99 86 77 71 64 58 46 36 32 25 18 10 5 4 4 3 1 0 0 0 0 0 0 0 
255 0 0 0 0 0 0 0 0 0 0 0 0 0 0 0 0 0 0 0 0 0 0 0 0 0 0 0 0 0 0 20 59 76 72 53 31 14 5 8 10 8 5 5 10 11 6 4 7 8 8 5 4 7 8 4 4 7 7 6 5 4 5 6 6 6 5 3 1 4 3 1 1 0 0 0 0 0 0 0 0 0 0 0 0 0 0 0 0 0 0 0 0 0 0 0 0 0 0 0 0 0 0 0 0 0 0 0 0 0 0 0 0 0 0 0 0 0 0 87 175 181 142 124 112 99 87 77 71 65 56 48 38 29 25 18 10 5 4 4 3 1 0 0 0 0 0 0 0 0 
255 0 0 0 0 0 0 0 0 0 0 0 0 0 0 0 0 0 0 0 0 0 0 0 0 0 0 0 0 0 0 0 20 59 79 76 57 31 12 9 8 6 5 5 11 12 4 4 8 8 8 4 4 8 8 5 4 7 8 7 4 4 7 6 6 6 4 2 3 4 2 3 2 0 0 0 0 0 0 0 0 0 0 0 0 0 0 0 0 0 0 0 0 0 0 0 0 0 0 0 0 0 0 0 0 0 0 0 0 0 0 0 0 0 0 0 0 0 83 177 181 140 123 115 97 86 79 71 65 58 47 37 30 24 18 10 5 4 4 3 1 0 0 0 0 0 0 0 0 0 
255 0 0 0 0 0 0 0 0 0 0 0 0 0 0 0 0 0 0 0 0 0 0 0 0 0 0 0 0 0 0 0 0 20 60 83 81 57 31 16 7 2 6 6 9 12 4 4 8 9 8 4 5 8 7 6 5 6 8 7 4 5 7 6 7 5 4 4 4 4 3 3 1 0 0 0 0 0 0 0 0 0 0 0 0 0 0 0 0 0 0 0 0 0 0 0 0 0 0 0 0 0 0 0 0 0 0 0 0 0 0 0 0 0 0 0 0 84 173 182 142 122 113 100 85 77 72 65 58 48 37 29 24 18 10 5 3 4 4 1 0 0 0 0 0 0 0 0 0 0 
255 0 0 0 0 0 0 0 0 0 0 0 0 0 0 0 0 0 0 0 0 0 0 0 0 0 0 0 0 0 0 0 0 0 21 63 84 81 59 35 17 4 5 4 7 10 4 5 8 10 7 4 7 8 5 5 7 7 8 5 4 7 6 6 7 4 4 7 5 3 4 2 0 0 0 0 0 0 0 0 0 0 0 0 0 0 0 0 0 0 0 0 0 0 0 0 0 0 0 0 0 0 0 0 0 0 0 0 0 0 0 0 0 0 0 0 87 175 179 142 123 113 99 86 77 71 64 58 49 37 29 24 18 10 5 4 2 3 3 0 0 0 0 0 0 0 0 0 0 0 
255 0 0 0 0 0 0 0 0 0 0 0 0 0 0 0 0 0 0 0 0 0 0 0 0 0 0 0 0 0 0 0 0 0 0 22 61 85 82 63 40 17 7 2 4 5 4 7 8 9 5 4 8 8 4 4 8 8 8 4 4 8 7 7 5 4 5 8 6 2 4 3 1 0 0 0 0 0 0 0 0 0 0 0 0 0 0 0 0 0 0 0 0 0 0 0 0 0 0 0 0 0 0 0 0 0 0 0 0 0 0 0 0 0 0 85 175 180 141 124 113 99 86 77 71 65 56 48 39 29 24 18 10 5 4 4 2 1 1 0 0 0 0 0 0 0 0 0 0 0 
255 0 0 0 0 0 0 0 0 0 0 0 0 0 0 0 0 0 0 0 0 0 0 0 0 0 0 0 0 0 0 0 0 0 0 0 20 64 85 85 67 40 19 7 2 0 3 7 8 8 4 4 8 8 5 4 7 8 8 5 5 8 7 7 4 4 7 8 5 3 5 4 3 1 0 0 0 0 0 0 0 0 0 0 0 0 0 0 0 0 0 0 0 0 0 0 0 0 0 0 0 0 0 0 0 0 0 0 0 0 0 0 0 0 85 174 179 140 123 115 99 86 77 71 64 58 48 37 30 24 18 10 5 4 4 3 1 0 0 0 0 0 0 0 0 0 0 0 0 0 
255 0 0 0 0 0 0 0 0 0 0 0 0 0 0 0 0 0 0 0 0 0 0 0 0 0 0 0 0 0 0 0 0 0 0 0 0 22 64 86 86 69 43 23 7 0 0 4 7 8 4 4 8 8 7 5 6 8 7 6 7 8 6 5 4 5 8 7 4 5 6 4 4 2 0 0 0 0 0 0 0 0 0 0 0 0 0 0 0 0 0 0 0 0 0 0 0 0 0 0 0 0 0 0 0 0 0 0 0 0 0 0 0 86 173 179 141 122 112 100 87 77 71 64 56 49 39 29 24 18 10 5 4 4 3 1 0 0 0 0 0 0 0 0 0 0 0 0 0 0 
255 0 0 0 0 0 0 0 0 0 0 0 0 0 0 0 0 0 0 0 0 0 0 0 0 0 0 0 0 0 0 0 0 0 0 0 0 0 23 63 86 89 73 50 24 5 0 0 4 6 3 4 8 8 8 7 7 8 5 5 8 8 7 4 4 7 8 5 4 7 6 4 4 2 0 0 0 0 0 0 0 0 0 0 0 0 0 0 0 0 0 0 0 0 0 0 0 0 0 0 0 0 0 0 0 0 0 0 0 0 0 0 86 176 178 141 123 112 97 87 79 71 64 56 48 39 30 24 18 10 5 4 4 3 1 0 0 0 0 0 0 0 0 0 0 0 0 0 0 0 
255 0 0 0 0 0 0 0 0 0 0 0 0 0 0 0 0 0 0 0 0 0 0 0 0 0 0 0 0 0 0 0 0 0 0 0 0 0 0 20 63 87 93 80 53 26 5 0 0 1 0 4 8 8 8 8 8 8 4 4 8 8 8 4 4 8 8 4 4 8 7 4 4 3 0 0 0 0 0 0 0 0 0 0 0 0 0 0 0 0 0 0 0 0 0 0 0 0 0 0 0 0 0 0 0 0 0 0 0 0 0 83 176 180 142 124 113 97 85 79 72 64 56 48 39 30 24 18 10 5 4 4 3 1 0 0 0 0 0 0 0 0 0 0 0 0 0 0 0 0 
255 0 0 0 0 0 0 0 0 0 0 0 0 0 0 0 0 0 0 0 0 0 0 0 0 0 0 0 0 0 0 0 0 0 0 0 0 0 0 0 20 63 90 97 84 56 26 6 0 0 0 4 7 7 8 8 8 8 4 4 9 9 7 3 4 8 8 5 4 7 8 5 4 3 0 0 0 0 0 0 0 0 0 0 0 0 0 0 0 0 0 0 0 0 0 0 0 0 0 0 0 0 0 0 0 0 0 0 0 0 81 174 180 141 125 115 99 85 77 72 64 55 48 40 30 24 18 10 5 4 4 3 1 0 0 0 0 0 0 0 0 0 0 0 0 0 0 0 0 0 
255 0 0 0 0 0 0 0 0 0 0 0 0 0 0 0 0 0 0 0 0 0 0 0 0 0 0 0 0 0 0 0 0 0 0 0 0 0 0 0 0 20 64 92 100 84 58 29 4 0 0 3 5 6 8 8 7 7 5 5 10 10 5 2 5 7 7 7 5 6 8 6 3 1 0 0 0 0 0 0 0 0 0 0 0 0 0 0 0 0 0 0 0 0 0 0 0 0 0 0 0 0 0 0 0 0 0 0 0 83 176 178 140 124 115 100 86 77 71 64 55 46 40 32 24 18 10 5 4 4 3 1 0 0 0 0 0 0 0 0 0 0 0 0 0 0 0 0 0 0 
255 0 0 0 0 0 0 0 0 0 0 0 0 0 0 0 0 0 0 0 0 0 0 0 0 0 0 0 0 0 0 0 0 0 0 0 0 0 0 0 0 0 20 66 93 98 89 61 25 6 2 2 4 7 8 8 6 6 7 6 8 8 5 4 6 6 6 8 7 6 6 4 2 1 0 0 0 0 0 0 0 0 0 0 0 0 0 0 0 0 0 0 0 0 0 0 0 0 0 0 0 0 0 0 0 0 0 0 80 177 182 140 122 113 101 87 77 71 65 56 45 38 32 25 18 10 5 4 4 3 1 0 0 0 0 0 0 0 0 0 0 0 0 0 0 0 0 0 0 0 
255 0 0 0 0 0 0 0 0 0 0 0 0 0 0 0 0 0 0 0 0 0 0 0 0 0 0 0 0 0 0 0 0 0 0 0 0 0 0 0 0 0 0 21 66 92 103 90 57 29 14 6 5 8 8 8 7 6 7 6 6 6 7 7 5 6 6 7 8 5 3 2 2 2 0 0 0 0 0 0 0 0 0 0 0 0 0 0 0 0 0 0 0 0 0 0 0 0 0 0 0 0 0 0 0 0 0 79 172 182 143 124 113 97 88 79 71 64 58 48 36 30 25 18 10 5 4 4 3 1 0 0 0 0 0 0 0 0 0 0 0 0 0 0 0 0 0 0 0 0 
255 0 0 0 0 0 0 0 0 0 0 0 0 0 0 0 0 0 0 0 0 0 0 0 0 0 0 0 0 0 0 0 0 0 0 0 0 0 0 0 0 0 0 0 21 66 95 102 84 53 30 16 8 7 7 8 8 6 5 5 6 6 7 9 5 4 4 5 8 5 3 2 1 1 0 0 0 0 0 0 0 0 0 0 0 0 0 0 0 0 0 0 0 0 0 0 0 0 0 0 0 0 0 0 0 0 81 172 177 143 126 114 98 86 79 72 64 56 49 39 29 24 18 10 5 4 4 3 1 0 0 0 0 0 0 0 0 0 0 0 0 0 0 0 0 0 0 0 0 0 
255 0 0 0 0 0 0 0 0 0 0 0 0 0 0 0 0 0 0 0 0 0 0 0 0 0 0 0 0 0 0 0 0 0 0 0 0 0 0 0 0 0 0 0 0 21 67 91 92 68 42 25 11 6 5 7 8 6 3 2 4 5 5 9 6 2 2 3 6 5 3 1 0 0 0 0 0 0 0 0 0 0 0 0 0 0 0 0 0 0 0 0 0 0 0 0 0 0 0 0 0 0 0 0 0 82 173 177 140 125 116 98 85 79 73 64 56 48 39 30 24 18 10 5 4 4 3 1 0 0 0 0 0 0 0 0 0 0 0 0 0 0 0 0 0 0 0 0 0 0 
255 0 0 0 0 0 0 0 0 0 0 0 0 0 0 0 0 0 0 0 0 0 0 0 0 0 0 0 0 0 0 0 0 0 0 0 0 0 0 0 0 0 0 0 0 0 20 60 76 66 45 26 11 6 4 4 6 4 2 1 1 3 4 6 4 2 3 2 2 2 1 0 0 0 0 0 0 0 0 0 0 0 0 0 0 0 0 0 0 0 0 0 0 0 0 0 0 0 0 0 0 0 0 0 82 175 176 140 124 114 100 85 77 73 67 56 47 39 30 24 18 10 5 4 4 3 1 0 0 0 0 0 0 0 0 0 0 0 0 0 0 0 0 0 0 0 0 0 0 0 
255 0 0 0 0 0 0 0 0 0 0 0 0 0 0 0 0 0 0 0 0 0 0 0 0 0 0 0 0 0 0 0 0 0 0 0 0 0 0 0 0 0 0 0 0 0 0 13 43 46 36 20 8 4 3 1 3 2 2 2 0 1 3 3 2 2 3 2 0 0 0 0 0 0 0 0 0 0 0 0 0 0 0 0 0 0 0 0 0 0 0 0 0 0 0 0 0 0 0 0 0 0 0 82 176 177 139 124 114 99 87 77 71 66 59 48 37 30 24 18 10 5 4 4 3 1 0 0 0 0 0 0 0 0 0 0 0 0 0 0 0 0 0 0 0 0 0 0 0 0 
255 0 0 0 0 0 0 0 0 0 0 0 0 0 0 0 0 0 0 0 0 0 0 0 0 0 0 0 0 0 0 0 0 0 0 0 0 0 0 0 0 0 0 0 0 0 0 0 0 19 19 12 4 1 1 0 2 2 1 1 0 0 1 1 2 2 1 1 0 0 0 0 0 0 0 0 0 0 0 0 0 0 0 0 0 0 0 0 0 0 0 0 0 0 0 0 0 0 0 0 0 9 88 174 179 139 124 114 98 87 79 70 64 58 49 39 29 24 18 10 5 4 4 3 1 0 0 0 0 0 0 0 0 0 0 0 0 0 0 0 0 0 0 0 0 0 0 0 0 0 
255 0 0 0 0 0 0 0 0 0 0 0 0 0 0 0 0 0 0 0 0 0 0 0 0 0 0 0 0 0 0 0 0 0 0 0 0 0 0 0 0 0 0 0 0 0 0 0 0 0 4 3 0 0 0 0 1 1 0 0 0 0 0 0 1 1 0 0 0 0 0 0 0 0 0 0 0 0 0 0 0 0 0 0 0 0 0 0 0 0 0 0 0 0 0 0 0 0 0 0 12 73 162 173 137 124 113 98 85 79 72 62 57 50 39 30 24 18 10 5 4 4 3 1 0 0 0 0 0 0 0 0 0 0 0 0 0 0 0 0 0 0 0 0 0 0 0 0 0 0 
255 0 0 0 0 0 0 0 0 0 0 0 0 0 0 0 0 0 0 0 0 0 0 0 0 0 0 0 0 0 0 0 0 0 0 0 0 0 0 0 0 0 0 0 0 0 0 0 0 0 0 0 0 0 0 0 0 0 0 0 0 0 0 0 0 0 0 0 0 0 0 0 0 0 0 0 0 0 0 0 0 0 0 0 0 0 0 0 0 0 0 0 0 0 0 0 0 1 5 15 38 92 136 127 116 113 97 85 77 72 64 55 50 40 30 24 18 10 5 4 4 3 1 0 0 0 0 0 0 0 0 0 0 0 0 0 0 0 0 0 0 0 0 0 0 0 0 0 0 0 
255 0 0 0 0 0 0 0 0 0 0 0 0 0 0 0 0 0 0 0 0 0 0 0 0 0 0 0 0 0 0 0 0 0 0 0 0 0 0 0 0 0 0 0 0 0 0 0 0 0 0 0 0 0 1 0 0 0 0 0 0 0 0 0 0 0 0 0 0 0 0 0 0 0 0 0 0 0 0 0 0 0 0 0 0 0 0 0 0 0 0 0 1 1 0 0 1 3 9 23 46 71 89 101 104 95 84 77 71 64 55 48 41 30 24 18 10 5 4 4 3 1 0 0 0 0 0 0 0 0 0 0 0 0 0 0 0 0 0 0 0 0 0 0 0 0 0 0 0 0 
255 0 0 0 0 0 0 0 0 0 0 0 0 0 0 0 0 0 0 0 0 0 0 0 0 0 0 0 0 0 0 0 0 0 0 0 0 0 0 0 0 0 0 0 0 0 0 0 0 0 0 0 0 0 2 0 0 0 0 0 0 0 0 0 0 0 0 0 0 0 0 0 0 0 0 0 0 0 0 0 0 0 0 0 0 0 0 0 0 0 0 0 3 3 0 1 3 5 13 24 41 58 73 85 87 79 74 71 64 55 46 40 32 24 18 10 5 4 4 3 1 0 0 0 0 0 0 0 0 0 0 0 0 0 0 0 0 0 0 0 0 0 0 0 0 0 0 0 0 0 
255 0 0 0 0 0 0 0 0 0 0 0 0 0 0 0 0 0 0 0 0 0 0 0 0 0 0 0 0 0 0 0 0 0 0 0 0 0 0 0 0 0 0 0 0 0 0 0 0 0 0 0 0 0 0 0 0 0 0 0 0 0 0 0 0 0 0 0 0 0 0 0 0 0 0 0 0 0 0 0 0 0 0 0 0 0 0 0 0 0 0 0 3 4 0 3 4 6 17 25 37 51 62 70 71 68 67 64 55 46 39 32 25 18 10 5 4 4 3 1 0 0 0 0 0 0 0 0 0 0 0 0 0 0 0 0 0 0 0 0 0 0 0 0 0 0 0 0 0 0 
255 0 0 0 0 0 0 0 0 0 0 0 0 0 0 0 0 0 0 0 0 0 0 0 0 0 0 0 0 0 0 0 0 0 0 0 0 0 0 0 0 0 0 0 0 0 0 0 0 0 0 0 0 0 0 0 0 0 0 0 0 0 0 0 0 0 0 0 0 0 0 0 0 0 0 0 0 0 0 0 0 0 0 0 0 0 0 0 0 0 0 0 1 4 3 4 5 7 16 25 35 43 53 60 61 61 60 55 45 38 32 25 18 10 5 4 4 3 1 0 0 0 0 0 0 0 0 0 0 0 0 0 0 0 0 0 0 0 0 0 0 0 0 0 0 0 0 0 0 0 
255 0 0 0 0 0 0 0 0 0 0 0 0 0 0 0 0 0 0 0 0 0 0 0 0 0 0 0 0 0 0 0 0 0 0 0 0 0 0 0 0 0 0 0 0 0 0 0 0 0 0 0 0 0 0 0 0 0 0 0 0 0 0 0 0 0 0 0 0 0 0 0 0 0 0 0 0 0 0 0 0 0 0 0 0 0 0 0 0 0 0 0 0 3 3 4 7 10 15 22 31 40 48 52 55 54 50 44 36 30 25 18 10 5 3 4 4 1 0 0 0 0 0 0 0 0 0 0 0 0 0 0 0 0 0 0 0 0 0 0 0 0 0 0 0 0 0 0 0 0 
255 0 0 0 0 0 0 0 0 0 0 0 0 0 0 0 0 0 0 0 0 0 0 0 0 0 0 0 0 0 0 0 0 0 0 0 0 0 0 0 0 0 0 0 0 0 0 0 0 0 0 0 0 0 0 0 0 0 0 0 0 0 0 0 0 0 0 0 0 0 0 0 0 0 0 0 0 0 0 0 0 0 0 0 0 0 0 0 0 0 0 0 0 1 1 3 7 12 17 19 27 38 42 44 47 45 39 34 28 23 18 10 5 3 2 4 3 0 0 0 0 0 0 0 0 0 0 0 0 0 0 0 0 0 0 0 0 0 0 0 0 0 0 0 0 0 0 0 0 0 
255 0 0 0 0 0 0 0 0 0 0 0 0 0 0 0 0 0 0 0 0 0 0 0 0 0 0 0 0 0 0 0 0 0 0 0 0 0 0 0 0 0 0 0 0 0 0 0 0 0 0 0 0 0 0 0 0 0 0 0 0 0 0 0 0 0 0 0 0 0 0 0 0 0 0 0 0 0 0 0 0 0 0 0 0 0 0 0 0 0 0 0 0 0 0 1 5 12 16 16 25 31 34 37 36 36 30 26 22 16 10 5 3 2 3 3 1 0 0 0 0 0 0 0 0 0 0 0 0 0 0 0 0 0 0 0 0 0 0 0 0 0 0 0 0 0 0 0 0 0 
255 0 0 0 0 0 0 0 0 0 0 0 0 0 0 0 0 0 0 0 0 0 0 0 0 0 0 0 0 0 0 0 0 0 0 0 0 0 0 0 0 0 0 0 0 0 0 0 0 0 0 0 0 0 0 0 0 0 0 0 0 0 0 0 0 0 0 0 0 0 0 0 0 0 0 0 0 0 0 0 0 0 0 0 0 0 0 0 0 0 0 0 0 0 0 0 3 10 12 13 21 22 27 30 26 27 21 19 17 9 5 3 2 3 3 1 0 0 0 0 0 0 0 0 0 0 0 0 0 0 0 0 0 0 0 0 0 0 0 0 0 0 0 0 0 0 0 0 0 0 
255 0 0 0 0 0 0 0 0 0 0 0 0 0 0 0 0 0 0 0 0 0 0 0 0 0 0 0 0 0 0 0 0 0 0 0 0 0 0 0 0 0 0 0 0 0 0 0 0 0 0 0 0 0 0 0 0 0 0 0 0 0 0 0 0 0 0 0 0 0 0 0 0 0 0 0 0 0 0 0 0 0 0 0 0 0 0 0 0 0 0 0 0 0 0 0 1 6 9 11 15 16 21 21 18 18 14 13 10 5 4 2 2 3 1 0 0 0 0 0 0 0 0 0 0 0 0 0 0 0 0 0 0 0 0 0 0 0 0 0 0 0 0 0 0 0 0 0 0 0 
255 0 0 0 0 0 0 0 0 0 0 0 0 0 0 0 0 0 0 0 0 0 0 0 0 0 0 0 0 0 0 0 0 0 0 0 0 0 0 0 0 0 0 0 0 0 0 0 0 0 0 0 0 0 0 0 0 0 0 0 0 0 0 0 0 0 0 0 0 0 0 0 0 0 0 0 0 0 0 0 0 0 0 0 0 0 0 0 0 0 0 0 0 0 0 0 1 4 7 8 8 11 15 14 12 11 9 7 5 4 4 2 1 1 0 0 0 0 0 0 0 0 0 0 0 0 0 0 0 0 0 0 0 0 0 0 0 0 0 0 0 0 0 0 0 0 0 0 0 0 
255 0 0 0 0 0 0 0 0 0 0 0 0 0 0 0 0 0 0 0 0 0 0 0 0 0 0 0 0 0 0 0 0 0 0 0 0 0 0 0 0 0 0 0 0 0 0 0 0 0 0 0 0 0 0 0 0 0 0 0 0 0 0 0 0 0 0 0 0 0 0 0 0 0 0 0 0 0 0 0 0 0 0 0 0 0 0 0 0 0 0 0 0 0 0 0 2 3 5 5 3 6 9 10 8 6 4 3 4 4 3 1 0 0 0 0 0 0 0 0 0 0 0 0 0 0 0 0 0 0 0 0 0 0 0 0 0 0 0 0 0 0 0 0 0 0 0 0 0 0 
255 0 0 0 0 0 0 0 0 0 0 0 0 0 0 0 0 0 0 0 0 0 0 0 0 0 0 0 0 0 0 0 0 0 0 0 0 0 0 0 0 0 0 0 0 0 0 0 0 0 0 0 0 0 0 0 0 0 0 0 0 0 0 0 0 0 0 0 0 0 0 0 0 0 0 0 0 0 0 0 0 0 0 0 0 0 0 0 0 0 0 0 0 0 0 0 1 1 3 3 2 3 4 6 4 3 3 2 3 3 1 0 0 0 0 0 0 0 0 0 0 0 0 0 0 0 0 0 0 0 0 0 0 0 0 0 0 0 0 0 0 0 0 0 0 0 0 0 0 0 
255 0 0 0 0 0 0 0 0 0 0 0 0 0 0 0 0 0 0 0 0 0 0 0 0 0 0 0 0 0 0 0 0 0 0 0 0 0 0 0 0 0 0 0 0 0 0 0 0 0 0 0 0 0 0 0 0 0 0 0 0 0 0 0 0 0 0 0 0 0 0 0 0 0 0 0 0 0 0 0 0 0 0 0 0 0 0 0 0 0 0 0 0 0 0 0 0 0 1 1 1 1 1 3 3 2 3 2 1 1 0 0 0 0 0 0 0 0 0 0 0 0 0 0 0 0 0 0 0 0 0 0 0 0 0 0 0 0 0 0 0 0 0 0 0 0 0 0 0 0 
255 0 0 0 0 0 0 0 0 0 0 0 0 0 0 0 0 0 0 0 0 0 0 0 0 0 0 0 0 0 0 0 0 0 0 0 0 0 0 0 0 0 0 0 0 0 0 0 0 0 0 0 0 0 0 0 0 0 0 0 0 0 0 0 0 0 0 0 0 0 0 0 0 0 0 0 0 0 0 0 0 0 0 0 0 0 0 0 0 0 0 0 0 0 0 0 0 0 0 0 1 1 0 1 3 2 1 1 0 0 0 0 0 0 0 0 0 0 0 0 0 0 0 0 0 0 0 0 0 0 0 0 0 0 0 0 0 0 0 0 0 0 0 0 0 0 0 0 0 0 
255 0 0 0 0 0 0 0 0 0 0 0 0 0 0 0 0 0 0 0 0 0 0 0 0 0 0 0 0 0 0 0 0 0 0 0 0 0 0 0 0 0 0 0 0 0 0 0 0 0 0 0 0 0 0 0 0 0 0 0 0 0 0 0 0 0 0 0 0 0 0 0 0 0 0 0 0 0 0 0 0 0 0 0 0 0 0 0 0 0 0 0 0 0 0 0 0 0 0 0 2 2 0 0 1 1 0 0 0 0 0 0 0 0 0 0 0 0 0 0 0 0 0 0 0 0 0 0 0 0 0 0 0 0 0 0 0 0 0 0 0 0 0 0 0 0 0 0 0 0 
255 0 0 0 0 0 0 0 0 0 0 0 0 0 0 0 0 0 0 0 0 0 0 0 0 0 0 0 0 0 0 0 0 0 0 0 0 0 0 0 0 0 0 0 0 0 0 0 0 0 0 0 0 0 0 0 0 0 0 0 0 0 0 0 0 0 0 0 0 0 0 0 0 0 0 0 0 0 0 0 0 0 0 0 0 0 0 0 0 0 0 0 0 0 0 0 0 0 0 0 1 1 0 0 0 0 0 0 0 0 0 0 0 0 0 0 0 0 0 0 0 0 0 0 0 0 0 0 0 0 0 0 0 0 0 0 0 0 0 0 0 0 0 0 0 0 0 0 0 0 
