P2
300 337
255
0 0 0 0 0 0 0 0 0 0 0 0 0 0 0 0 0 0 0 0 0 0 0 0 0 0 0 0 0 0 0 0 0 0 0 0 0 0 0 0 0 0 0 0 0 0 0 0 0 0 0 0 0 0 0 0 0 0 0 0 0 0 0 0 0 0 0 0 0 0 0 0 0 0 0 0 0 0 0 0 0 0 0 0 0 0 0 0 0 0 0 0 0 0 0 0 0 0 0 0 0 0 0 0 0 0 0 0 0 0 0 0 0 0 0 0 0 0 0 0 0 0 0 0 0 0 0 0 0 0 0 0 0 0 0 0 0 0 0 0 0 0 0 0 0 0 0 0 0 0 0 0 0 0 0 0 0 0 0 0 0 0 0 0 0 0 0 0 0 0 0 0 0 0 0 0 0 0 0 0 0 0 0 0 0 0 0 0 0 0 0 0 0 0 0 0 0 0 0 0 0 0 0 0 0 0 0 0 0 0 0 0 0 0 0 0 0 0 0 0 0 0 0 0 0 0 0 0 0 0 0 0 0 0 0 0 0 0 0 0 0 0 0 0 0 0 0 0 0 0 0 0 0 0 0 0 0 0 0 0 0 0 0 0 0 0 0 0 0 0 0 0 0 0 0 0 0 0 0 0 0 0 0 0 0 0 0 0 0 0 0 0 0 0 0 0 0 0 0 0 
0 0 7 0 2 0 0 0 0 0 0 0 0 0 0 0 0 0 0 0 0 0 0 0 0 0 0 0 0 0 0 1 0 0 0 0 0 0 0 0 0 0 0 0 0 0 4 0 0 0 0 0 0 0 0 0 0 0 0 0 0 0 0 0 0 0 5 0 0 1 0 0 0 0 3 1 0 0 0 2 0 0 0 0 0 0 0 0 6 0 0 0 1 2 0 0 0 0 0 0 0 2 0 0 3 0 0 0 0 0 0 0 0 0 0 0 3 0 0 0 0 0 0 0 2 0 0 0 0 6 5 8 0 0 0 0 0 0 0 0 8 0 0 1 0 0 0 0 0 0 0 0 0 0 0 0 0 0 0 0 0 0 0 0 0 0 0 0 0 0 0 0 0 0 2 0 0 0 2 0 2 0 0 0 0 0 0 0 0 0 0 0 0 0 0 0 0 0 0 8 6 3 0 0 6 0 0 0 0 0 0 0 0 0 0 0 0 0 0 0 0 0 0 0 0 0 0 1 0 0 0 0 7 0 0 2 0 0 0 1 0 0 0 0 0 0 0 0 0 0 0 0 0 0 0 0 0 0 0 0 0 0 0 4 19 6 14 13 0 0 0 0 0 0 0 0 5 0 0 0 0 0 0 0 0 0 3 0 0 0 5 1 0 0 0 0 0 0 0 0 
0 0 1 0 0 7 0 0 0 0 14 6 1 1 0 1 4 0 2 6 0 0 0 0 2 7 1 1 0 0 1 6 0 0 3 5 3 0 1 3 0 0 9 15 7 0 8 0 6 1 11 5 3 1 0 0 0 1 3 2 0 0 0 9 1 0 0 5 6 0 5 0 0 0 13 8 6 4 8 13 0 0 2 13 9 3 6 5 0 0 6 0 8 14 0 0 0 0 5 1 5 1 0 0 0 0 2 1 1 1 0 1 0 1 13 0 1 5 0 0 2 6 5 2 5 0 0 0 0 0 0 2 0 4 0 0 5 0 0 0 7 0 0 0 10 13 4 4 7 0 3 3 7 7 0 1 0 4 13 10 0 0 4 0 0 11 5 0 0 9 6 4 6 3 1 0 0 2 0 0 4 3 1 6 5 2 12 0 0 0 0 0 0 0 8 2 1 0 0 0 0 0 0 3 7 0 0 0 0 2 0 0 0 4 0 11 0 2 14 5 4 1 0 0 0 7 6 0 0 12 3 2 3 1 0 12 3 1 1 6 0 0 0 0 1 13 0 0 27 0 0 6 9 8 4 0 0 3 0 10 0 6 25 7 7 6 0 0 0 0 0 9 17 0 0 10 0 0 3 0 13 17 12 2 0 8 0 11 3 0 0 1 1 0 2 0 0 1 0 0 
0 0 0 2 0 0 0 0 0 0 9 5 0 1 2 2 7 3 3 1 0 0 6 0 0 7 0 4 0 0 3 5 0 0 4 6 0 4 0 0 0 6 10 0 0 0 0 0 1 0 5 0 8 0 0 0 0 0 0 0 0 9 15 3 0 1 0 0 6 0 0 4 6 0 0 0 0 6 1 0 0 0 0 11 14 15 2 0 0 2 2 0 1 1 2 2 3 0 0 5 7 0 0 0 1 0 0 0 0 4 2 0 0 0 7 0 6 1 0 0 3 5 5 1 0 0 0 2 0 0 2 3 1 1 1 0 1 4 0 0 8 0 0 0 2 0 3 17 11 9 9 10 1 3 1 0 0 4 0 0 0 0 6 5 0 9 4 0 4 5 7 5 3 0 5 0 0 0 0 0 0 7 3 0 0 0 13 0 0 8 13 0 4 0 4 1 0 12 12 12 0 0 0 0 0 6 4 6 0 8 1 0 6 0 0 2 0 0 0 7 15 0 1 13 6 0 0 14 11 3 0 6 0 0 0 7 11 0 0 0 3 0 0 1 2 3 0 0 15 0 0 1 0 0 3 9 6 7 0 16 44 9 1 1 0 0 0 13 16 0 10 14 0 0 7 9 0 8 28 0 0 6 5 3 0 0 0 5 16 5 0 0 3 0 2 3 0 0 0 0 
0 0 0 4 2 0 2 1 0 3 0 0 5 5 3 0 0 1 3 3 3 2 9 0 0 0 0 6 2 0 4 1 0 0 8 10 0 5 4 5 0 1 10 0 2 3 3 1 0 0 15 4 0 5 6 5 7 20 10 5 1 0 8 0 0 0 0 0 3 0 0 12 0 0 2 0 0 0 0 0 0 2 5 0 0 9 0 0 5 5 4 0 0 0 0 0 5 3 7 0 0 0 11 12 8 2 1 1 0 6 0 0 0 0 0 7 9 3 0 0 3 5 4 0 6 3 0 4 4 0 0 1 0 5 0 0 0 0 5 0 2 0 4 0 0 0 5 7 3 2 7 9 6 0 15 7 0 6 0 3 1 0 5 2 3 0 0 2 17 0 0 6 0 0 2 6 9 1 0 3 5 0 0 0 0 0 0 2 5 6 11 2 0 0 1 0 0 6 0 0 8 6 1 0 0 5 6 6 3 4 0 0 4 6 0 0 0 4 0 0 0 0 0 7 10 3 0 0 2 6 0 0 12 6 0 0 1 4 0 0 4 4 12 6 0 0 8 0 0 0 8 0 6 3 0 7 21 29 26 14 0 0 0 0 8 4 0 0 16 10 0 3 0 0 0 12 0 0 0 0 0 0 0 0 0 0 9 0 3 5 0 2 3 0 1 4 2 5 0 0 
0 0 0 0 0 0 2 5 2 1 0 0 0 0 0 0 0 0 0 0 3 5 0 0 0 0 0 0 0 0 0 14 0 0 2 0 0 0 9 3 1 0 0 0 0 0 1 0 0 0 0 13 0 8 11 3 0 0 1 0 0 0 0 0 0 9 10 0 0 7 8 5 0 0 6 4 0 0 0 13 2 0 0 2 0 2 0 9 0 0 1 0 0 0 0 0 7 1 0 0 5 6 0 0 0 0 8 4 0 0 0 0 0 0 4 0 0 3 0 0 1 0 0 0 0 0 2 5 0 0 2 10 6 0 0 8 5 0 7 0 0 0 8 0 8 13 3 0 0 0 0 0 0 0 0 0 1 4 13 2 2 0 1 5 0 0 0 9 3 0 0 3 11 0 7 0 0 8 0 8 9 2 0 0 4 14 0 0 6 0 0 1 7 11 0 0 0 9 0 0 0 0 3 7 2 3 10 1 3 0 0 5 5 10 7 0 1 11 5 0 0 0 8 1 4 8 11 0 0 4 5 0 10 13 0 0 0 0 19 12 3 0 3 5 0 8 4 7 0 0 0 0 1 7 15 12 29 8 0 0 0 0 6 3 17 6 0 2 5 4 0 0 0 0 0 7 6 0 0 12 15 0 0 0 12 0 7 1 0 0 1 0 0 9 0 0 0 0 0 0 
0 7 4 0 0 0 0 0 0 3 8 3 0 0 5 5 0 0 0 0 0 0 2 11 10 14 7 0 0 4 13 2 6 7 10 10 0 0 7 0 0 1 0 1 0 0 0 5 7 0 0 5 0 0 0 0 5 0 0 0 0 0 0 4 18 7 11 0 1 12 3 4 0 0 6 5 0 0 0 5 2 0 0 0 1 3 0 7 0 0 0 5 4 6 4 0 0 8 0 1 0 5 4 0 0 4 1 0 5 5 0 8 7 0 0 6 0 6 0 0 2 6 9 14 0 0 0 6 0 11 0 1 0 2 0 5 1 2 0 0 0 3 5 0 9 8 0 0 0 12 0 0 0 2 1 0 0 0 0 2 1 0 0 0 0 0 0 6 0 3 2 0 4 0 0 0 0 5 1 12 0 0 1 0 0 8 0 0 0 0 0 5 2 0 0 1 0 3 0 14 2 0 0 0 0 0 0 0 0 10 6 5 0 0 0 0 27 9 0 9 0 0 0 0 0 0 12 8 0 0 1 2 0 0 1 10 7 0 9 0 0 0 0 5 8 0 0 0 11 7 10 19 33 46 8 0 0 0 0 0 6 4 4 2 0 0 0 8 17 10 1 8 10 6 8 0 0 0 6 8 0 0 14 12 5 0 0 0 5 8 5 0 0 14 1 0 0 2 0 0 
0 0 0 9 3 4 2 0 0 2 7 0 0 7 5 3 0 0 6 0 2 1 1 0 1 0 1 2 6 0 0 0 0 0 0 5 12 0 0 9 7 2 11 6 2 1 0 10 0 0 6 0 0 4 2 0 0 4 14 5 1 0 0 0 3 0 0 10 0 4 0 0 7 1 0 0 0 0 1 12 4 0 4 0 0 0 0 1 3 0 0 7 4 7 3 0 0 3 10 3 0 5 7 0 0 3 0 0 7 2 0 3 2 0 4 5 0 6 5 0 5 0 0 0 0 0 2 7 0 8 2 0 0 3 0 7 0 0 2 2 0 7 8 6 0 0 8 0 0 12 0 3 0 10 3 11 0 3 4 0 0 0 3 8 0 0 0 4 6 6 5 6 6 0 0 8 9 0 5 12 0 0 0 1 0 0 7 7 7 0 0 0 0 0 14 1 0 8 4 0 1 1 0 0 0 0 10 11 4 10 11 6 0 0 0 0 0 0 12 10 9 8 1 0 3 0 0 4 5 0 0 7 13 7 0 0 0 5 0 0 0 0 0 0 0 0 13 2 14 12 29 15 0 0 0 0 0 9 12 11 11 11 0 0 0 16 13 0 0 0 0 24 7 0 2 5 0 17 10 0 2 2 0 0 4 3 3 0 0 0 0 0 0 1 7 2 3 2 0 0 
0 0 0 14 1 3 9 0 0 7 0 0 0 3 3 3 0 0 0 13 7 2 1 0 0 0 0 0 6 6 0 8 4 0 0 0 8 11 1 2 9 0 0 1 1 3 0 5 8 0 6 0 4 7 2 0 0 0 5 0 0 0 3 0 0 8 0 0 0 11 0 0 0 2 0 2 5 0 0 4 0 1 5 2 0 0 0 0 6 3 0 0 1 0 0 0 0 0 1 0 3 0 1 0 0 1 0 0 0 0 0 0 1 0 0 0 0 0 1 2 0 2 0 0 0 0 0 8 0 0 5 3 3 0 0 10 0 0 0 2 0 2 25 5 0 6 21 15 0 0 0 18 12 10 0 3 7 10 1 0 1 0 0 0 0 0 0 0 0 1 0 0 10 6 12 8 3 0 5 0 0 4 0 4 0 0 8 2 1 0 9 11 2 8 6 0 0 12 0 0 1 1 0 8 5 7 4 0 10 7 1 4 8 5 1 14 0 0 3 12 3 0 0 11 0 0 0 0 0 4 0 0 0 4 0 0 0 0 10 13 18 2 0 0 3 3 8 14 20 0 0 0 0 0 0 3 0 3 0 5 1 0 0 8 14 0 0 6 2 0 9 0 0 0 5 6 0 0 0 2 0 0 3 0 0 8 12 0 5 0 0 3 0 0 0 12 0 0 0 0 
0 0 4 0 0 0 5 0 9 9 0 0 0 2 0 5 5 3 0 0 0 0 0 4 1 8 8 3 6 0 0 11 10 0 0 0 4 4 0 0 8 0 0 3 5 4 0 5 10 5 2 1 1 0 0 2 0 3 0 0 0 4 4 6 0 2 0 1 0 0 4 8 0 0 7 14 0 0 2 12 0 0 0 0 3 1 0 0 0 3 0 1 0 5 0 0 6 1 0 0 2 1 0 1 0 9 0 0 0 2 0 1 0 0 6 2 0 0 1 2 0 4 9 2 0 0 0 0 8 4 7 3 2 0 0 10 0 0 0 0 1 7 0 0 18 4 0 11 10 6 0 0 0 0 0 0 5 0 0 6 4 0 0 0 1 14 19 0 0 10 2 0 12 7 12 0 0 11 0 0 0 0 0 0 1 5 0 0 7 2 0 0 11 6 0 0 0 24 0 0 0 0 0 0 0 11 5 0 0 0 0 2 9 4 0 4 6 0 0 0 0 0 0 5 0 6 0 7 1 0 4 0 0 1 0 0 0 0 0 4 7 2 20 23 18 14 21 23 0 0 0 0 0 0 28 5 0 0 0 11 0 0 0 2 0 0 0 1 4 0 10 0 0 6 9 0 12 4 11 6 0 3 11 0 1 0 0 0 11 0 0 5 0 0 0 5 1 0 0 0 
0 0 0 0 3 2 0 0 7 0 0 8 4 0 0 0 3 0 1 0 0 0 0 0 0 0 0 2 0 3 0 0 0 2 0 0 13 0 0 1 0 0 2 8 4 1 0 0 0 17 3 0 2 2 10 0 6 11 2 0 13 15 0 0 2 0 0 6 5 4 0 2 9 3 8 13 1 0 6 4 7 3 0 3 0 2 14 5 0 0 10 5 4 1 0 0 3 2 0 0 0 0 0 0 2 0 5 2 9 17 0 0 0 0 8 4 5 0 0 0 0 0 0 0 0 3 0 0 0 4 3 1 4 0 4 1 0 1 0 0 2 17 0 0 14 5 4 0 2 8 10 0 8 9 7 2 0 0 0 0 0 17 2 6 0 0 8 0 0 3 0 0 6 6 0 0 0 0 0 0 0 0 3 10 0 0 0 0 1 0 0 0 0 0 8 0 0 2 0 11 17 0 15 5 13 11 8 6 0 0 0 0 2 9 2 8 17 0 0 0 0 5 3 12 0 1 0 6 6 0 1 7 1 0 0 0 0 0 0 0 0 0 14 13 19 11 0 0 0 0 7 13 16 7 0 0 5 0 3 10 0 10 0 0 0 0 4 4 0 0 10 9 11 11 0 0 0 2 5 0 0 0 0 0 0 0 0 3 0 0 5 5 4 3 0 0 6 4 0 0 
0 0 1 0 2 4 1 0 0 0 0 10 0 0 9 9 0 0 22 3 10 1 0 0 2 0 0 4 0 0 0 0 0 0 1 3 0 0 0 5 0 0 0 7 0 0 0 0 0 0 0 0 0 3 5 3 0 2 2 0 0 0 0 1 9 0 0 0 0 6 0 0 9 0 0 2 0 2 0 0 0 3 0 1 0 5 5 0 6 0 3 0 0 0 0 0 2 0 1 0 0 2 0 0 3 0 0 0 7 9 0 5 0 4 2 0 0 0 7 8 1 0 0 13 4 5 2 0 0 0 4 4 1 0 7 0 0 3 0 5 22 0 0 6 3 11 2 0 0 0 5 3 0 3 12 17 4 0 0 7 3 0 0 18 0 0 9 0 1 3 17 0 0 0 8 14 12 5 2 8 5 7 7 0 0 0 5 0 15 5 4 1 6 0 4 0 0 1 3 0 0 1 0 0 0 0 0 0 7 14 0 0 0 0 11 0 0 4 7 17 0 4 0 2 0 6 0 2 0 3 0 0 0 1 3 0 1 8 11 0 9 30 14 0 0 0 1 0 0 7 0 10 12 6 0 11 0 0 1 10 0 0 4 9 6 0 0 0 7 0 0 0 0 3 0 0 6 3 0 0 0 5 0 0 0 0 0 5 3 0 0 5 0 2 0 0 4 1 0 0 
0 1 5 0 6 6 3 0 0 5 1 5 5 0 0 0 5 0 12 0 7 4 5 1 4 6 0 2 0 2 0 5 3 0 4 4 0 0 0 6 8 0 0 3 0 0 0 0 0 0 0 0 5 8 0 10 0 0 3 1 11 13 0 0 10 6 1 0 0 3 13 0 9 4 0 6 0 0 2 0 2 2 0 0 3 1 0 0 0 7 0 0 0 1 0 0 2 0 0 15 6 0 5 0 3 8 0 0 0 1 4 4 0 2 2 0 0 0 13 14 0 0 7 4 1 5 2 4 0 0 2 5 0 0 3 2 0 6 0 3 1 0 0 0 13 17 10 0 0 5 11 0 0 4 4 0 0 0 1 1 0 3 0 0 0 1 13 2 2 15 0 12 0 0 0 10 0 5 4 4 0 0 7 9 6 0 11 0 0 6 0 5 6 8 0 0 1 12 0 0 0 7 0 3 7 0 3 2 0 5 0 0 0 4 0 0 0 0 10 4 9 8 0 0 8 0 0 0 0 0 0 0 0 1 7 6 13 9 25 43 0 0 0 0 0 0 27 1 2 0 0 31 33 0 0 0 3 13 0 2 0 0 10 14 11 11 0 0 0 0 2 0 0 0 3 0 0 6 9 0 0 4 4 6 10 2 0 4 3 2 0 0 0 0 0 0 4 1 0 0 
0 0 15 0 0 7 1 3 4 3 0 1 10 0 0 0 13 0 0 0 0 6 0 1 2 11 0 0 6 25 1 0 0 2 0 3 6 2 0 0 2 0 2 9 0 11 5 19 1 3 6 0 2 6 0 4 16 0 0 0 2 9 2 0 0 2 2 4 2 0 2 0 3 0 0 8 0 0 0 14 8 0 0 7 2 2 0 0 0 7 5 3 6 0 0 3 1 0 0 5 0 0 13 0 0 0 0 3 0 3 4 4 0 2 0 0 5 6 0 0 0 0 0 0 0 0 0 0 0 8 11 1 0 0 0 0 9 4 0 5 0 0 11 0 11 6 1 0 0 7 5 0 0 13 21 0 0 0 6 1 1 0 12 3 8 0 5 0 7 3 0 13 14 7 0 17 0 0 1 0 0 0 0 0 4 4 0 0 1 6 0 1 0 0 5 3 0 3 0 0 10 2 0 0 12 0 0 11 0 0 14 16 3 6 0 5 1 0 1 2 3 11 4 0 0 0 4 14 6 5 5 2 0 0 11 19 18 19 0 0 0 0 0 30 49 8 0 1 0 0 0 0 9 0 3 6 0 0 1 0 10 25 0 0 0 6 15 0 0 5 13 7 2 3 7 0 0 2 12 3 0 0 2 0 8 2 2 0 0 0 1 5 7 6 0 0 3 1 0 0 
0 0 2 0 1 6 1 0 0 0 3 0 0 4 4 0 8 0 0 0 8 3 0 0 0 0 0 4 1 0 0 0 0 9 1 6 7 2 0 2 3 0 4 2 0 0 0 6 0 5 2 0 6 4 0 0 3 2 6 0 0 5 0 0 1 5 1 3 9 0 0 13 0 0 1 8 0 0 0 3 0 0 0 5 1 5 0 0 0 3 0 0 0 0 0 0 0 0 0 1 4 3 0 5 0 0 20 13 5 23 4 5 9 9 8 9 11 10 16 9 14 11 4 4 0 0 2 15 3 0 0 5 8 9 0 0 6 0 0 12 0 0 12 0 11 2 2 0 0 6 3 0 0 0 14 9 0 0 10 8 11 4 3 12 0 0 3 0 0 0 0 5 2 3 0 0 0 5 4 2 0 0 5 0 3 4 0 6 7 13 0 1 0 0 0 6 3 0 6 0 0 6 8 0 0 0 1 0 0 0 0 4 0 0 0 9 7 0 0 0 0 9 12 3 0 5 2 0 1 1 6 11 9 20 34 7 0 0 0 0 16 35 0 0 11 23 0 7 12 14 0 0 0 3 0 32 0 0 10 2 11 10 13 0 0 0 0 0 13 7 2 1 9 1 0 0 0 0 0 3 6 2 0 3 0 0 7 0 0 1 5 0 1 3 0 0 3 1 0 0 
0 0 0 0 5 0 0 1 0 0 4 0 2 3 0 0 0 8 0 2 15 0 0 0 0 12 9 0 0 0 0 0 1 0 2 0 1 6 7 0 2 5 0 0 0 9 0 0 0 4 12 1 5 7 0 0 0 5 14 0 0 0 0 0 6 8 0 0 9 13 4 7 0 0 7 1 0 0 0 0 0 0 3 0 5 0 0 0 5 0 2 9 0 0 1 1 2 13 0 0 7 11 11 28 43 46 33 19 23 37 19 21 33 23 8 10 13 0 0 3 0 3 11 15 25 21 18 19 14 3 0 0 0 7 10 5 0 0 11 18 0 13 16 0 0 0 0 0 0 18 12 0 23 0 0 2 4 9 10 0 0 0 0 0 0 12 15 12 3 0 12 0 0 9 6 0 0 1 7 0 4 10 12 0 3 1 0 7 0 2 0 14 11 0 0 0 0 1 18 1 0 2 0 2 0 0 0 4 9 0 0 0 0 1 1 5 4 0 0 2 1 0 5 13 0 0 2 0 0 0 14 21 27 0 0 0 0 0 28 6 1 0 13 0 0 0 8 3 0 10 0 0 22 0 0 15 8 10 0 0 9 0 12 10 8 5 0 0 0 0 0 0 9 0 0 7 8 1 3 7 3 0 0 0 0 5 2 0 2 0 6 0 0 0 3 4 0 0 0 0 
0 0 6 0 0 0 0 0 1 8 7 3 0 2 0 0 0 6 0 0 0 0 9 2 0 0 0 0 2 0 4 4 1 0 0 1 0 7 9 0 0 9 2 0 0 8 1 0 0 0 0 0 0 0 0 0 2 0 5 0 0 1 5 0 0 2 0 0 2 0 0 1 7 0 0 0 0 2 0 0 8 0 3 2 8 0 2 0 1 0 0 6 0 0 0 0 2 6 6 0 12 48 55 49 18 0 0 0 0 0 0 0 0 0 0 0 0 0 0 0 0 0 0 0 0 0 0 0 5 17 20 15 4 3 22 20 14 25 17 5 0 12 0 0 0 0 16 0 0 9 0 9 26 10 17 0 0 0 0 0 0 19 16 20 0 5 0 15 24 16 18 14 7 7 2 12 10 8 0 7 7 5 8 0 2 0 0 0 0 0 0 0 5 0 1 0 0 11 1 2 9 0 0 8 0 0 0 0 4 0 0 7 11 8 0 0 0 4 17 15 24 0 0 13 0 7 0 9 25 23 11 0 0 0 0 0 22 3 3 11 3 0 6 2 11 9 12 10 0 0 0 10 19 0 10 0 0 11 3 0 0 0 0 0 1 1 4 3 0 10 3 9 0 0 4 0 0 9 6 0 0 2 6 5 0 0 0 9 7 0 0 6 0 3 4 0 0 0 0 0 
0 0 12 0 0 0 0 4 25 0 1 17 1 0 0 0 1 0 11 0 0 0 0 0 0 0 0 3 3 3 9 9 1 0 7 0 0 10 11 0 0 4 9 7 0 3 7 5 9 0 0 6 4 0 0 12 0 0 0 8 0 7 11 0 0 4 0 0 0 8 0 0 4 7 0 0 0 8 0 0 1 1 0 5 7 0 0 8 0 0 2 0 2 0 4 11 5 0 26 48 83 46 0 0 0 0 0 0 0 0 0 0 0 8 17 8 9 19 25 22 18 21 11 7 0 0 0 0 0 0 0 0 0 0 0 0 0 0 0 0 0 0 0 0 15 19 21 0 0 15 11 11 0 0 0 2 12 23 36 41 45 13 19 38 36 42 21 9 6 36 43 42 23 0 0 0 0 0 0 0 1 7 18 3 0 22 23 0 0 15 2 6 0 2 11 4 6 15 0 0 7 5 10 4 0 0 0 0 0 3 5 15 3 0 6 0 0 4 0 0 0 0 0 9 20 17 15 16 0 0 0 0 0 7 4 0 26 1 0 14 0 0 0 0 0 0 0 0 0 19 18 0 0 9 16 0 0 0 8 1 0 17 7 0 0 0 9 2 1 0 0 7 0 14 5 0 0 0 0 0 1 4 4 5 2 0 7 0 7 0 1 1 0 0 3 0 0 0 0 0 
0 0 5 0 0 2 1 0 0 0 0 3 8 3 5 0 11 0 4 6 0 7 10 0 0 4 4 3 2 2 0 0 1 0 0 0 0 0 0 0 0 4 0 8 3 1 0 13 18 0 0 0 0 4 3 6 0 0 0 13 0 0 2 0 0 7 1 0 0 21 2 0 0 0 0 7 15 0 12 13 0 0 3 0 0 0 0 16 0 5 13 6 8 6 0 10 5 27 90 58 0 0 0 0 35 28 8 20 39 39 25 13 16 10 0 0 25 29 29 11 4 18 8 23 33 26 14 0 2 0 10 4 0 0 3 0 0 12 20 1 20 4 17 0 0 0 15 0 36 44 8 0 0 0 18 54 70 70 52 39 35 40 59 12 14 23 31 24 0 0 0 0 45 55 74 31 14 12 17 0 0 0 0 9 5 0 0 3 6 3 0 0 0 12 9 0 0 2 0 0 0 0 0 0 0 8 0 0 0 10 3 0 0 0 7 7 12 6 0 5 16 10 1 0 8 25 5 0 0 0 0 10 3 0 0 0 17 3 0 0 0 8 0 0 0 0 0 0 13 3 0 0 0 9 2 0 10 0 0 0 0 3 4 0 0 1 8 0 0 0 0 0 0 0 8 0 0 0 4 0 0 0 0 3 1 5 6 0 5 0 0 0 0 0 2 0 0 0 0 0 
0 1 4 0 4 0 0 0 5 0 0 0 0 0 0 0 3 0 0 5 7 10 19 9 0 0 1 2 1 5 0 0 0 3 5 0 3 0 0 2 0 1 0 6 7 2 0 0 0 0 2 7 5 0 0 4 0 12 0 3 0 11 14 0 16 10 9 5 0 0 0 0 0 0 3 5 3 0 0 0 0 0 3 0 4 1 9 0 0 0 0 0 0 0 0 0 34 63 0 0 0 0 52 33 19 9 0 5 27 17 3 4 10 5 0 0 0 0 0 0 0 0 0 0 0 0 0 0 0 0 4 12 22 11 13 20 0 6 0 0 26 3 11 9 6 15 35 12 21 0 0 0 21 45 3 13 14 0 0 0 0 0 0 0 0 0 0 0 0 9 0 4 0 0 0 23 45 38 27 18 0 2 0 0 0 0 0 28 12 0 13 0 0 0 8 1 0 0 0 5 5 0 0 1 0 0 0 7 0 0 0 0 9 1 0 0 14 3 0 16 0 18 41 0 0 0 0 0 0 13 12 19 0 0 22 0 0 6 2 2 7 0 0 7 0 15 4 0 2 0 0 17 0 0 0 0 7 10 14 3 0 0 0 0 2 0 2 4 8 9 2 1 3 0 4 0 4 5 7 1 0 0 0 0 1 0 0 8 0 0 0 6 4 0 1 0 0 0 0 0 
0 3 6 0 10 6 6 4 2 9 0 0 0 7 0 5 0 0 0 2 0 2 0 10 8 3 0 0 4 8 2 14 2 0 0 0 1 8 0 0 0 3 9 0 0 3 0 0 0 0 5 0 0 7 8 1 0 4 0 0 0 0 0 0 4 0 0 0 6 0 0 0 0 0 17 0 0 12 0 0 2 5 0 0 11 8 4 0 6 0 0 0 0 3 19 62 49 0 0 0 47 31 31 15 0 22 0 0 0 0 0 1 0 1 4 7 0 0 0 0 0 0 0 0 0 0 0 0 4 2 0 0 23 2 0 0 0 12 10 0 20 3 0 58 55 26 0 0 0 2 43 42 36 23 0 0 0 0 0 0 0 0 0 8 21 32 21 24 0 0 0 0 0 0 0 0 0 31 69 62 53 59 29 36 38 37 10 0 0 0 17 12 3 0 0 0 0 3 1 2 0 3 7 0 3 0 2 11 8 12 0 0 5 0 0 0 7 14 0 45 9 0 0 0 12 0 2 19 17 6 1 0 8 32 6 0 0 11 21 0 0 0 12 1 0 13 5 12 10 6 12 10 0 0 3 0 3 3 6 6 8 3 6 7 0 8 0 10 4 0 5 4 0 0 1 0 0 0 0 6 1 0 2 7 1 3 0 3 0 3 2 0 0 1 1 0 0 0 0 0 
0 0 0 0 4 2 11 0 0 2 4 0 0 14 0 0 0 20 9 0 0 0 0 0 0 3 3 7 1 0 0 3 0 0 0 7 8 0 0 12 19 5 0 0 0 0 0 3 0 0 0 8 0 6 3 0 1 3 0 0 2 0 0 0 3 0 0 0 0 0 1 19 14 6 0 1 0 16 0 0 1 0 9 4 0 7 1 0 15 9 0 1 2 29 77 0 0 0 47 75 49 15 20 27 4 29 11 0 4 1 10 9 0 2 8 10 19 9 6 2 4 10 7 31 31 19 1 0 0 3 9 0 0 4 1 0 14 0 0 0 14 23 0 0 0 0 0 10 0 0 0 1 27 16 0 0 0 3 32 53 64 71 10 0 0 0 0 0 6 0 0 0 0 0 35 0 0 0 0 11 15 9 0 3 11 56 64 57 25 35 15 18 20 4 0 11 0 0 15 1 0 3 7 0 0 6 0 4 5 10 0 0 0 0 0 4 14 27 0 10 0 0 0 1 16 5 0 0 19 0 0 9 0 9 1 6 0 1 0 0 7 8 0 0 15 0 0 0 0 0 0 0 0 6 0 0 0 0 9 12 2 0 0 18 0 0 1 0 2 0 2 1 0 0 0 0 0 0 0 0 4 0 2 3 1 4 0 0 1 3 5 0 0 0 2 1 0 0 0 0 
0 0 0 7 0 0 7 1 0 0 5 2 0 2 0 4 0 0 18 9 0 0 8 0 0 11 7 0 5 9 0 1 0 0 5 6 9 0 0 0 0 2 0 1 5 0 0 19 8 3 0 24 9 0 0 0 1 1 0 0 2 8 1 0 6 10 0 2 3 1 0 0 2 0 0 2 0 1 0 0 0 14 14 0 0 4 0 0 8 2 0 2 19 80 0 0 0 77 48 23 14 16 41 28 18 37 45 21 51 45 23 18 3 15 23 27 28 8 2 0 3 5 0 5 3 3 11 3 4 7 14 10 0 8 1 14 30 21 0 0 32 34 0 0 0 20 63 28 0 33 49 1 0 0 0 56 7 0 0 0 0 0 0 0 0 0 0 0 0 2 0 31 0 0 0 0 0 0 0 0 0 0 0 0 0 0 0 0 0 26 12 32 44 32 23 29 15 27 36 26 16 14 26 0 11 7 13 0 8 0 2 2 12 15 21 30 0 0 0 0 0 9 23 10 4 1 0 0 0 16 0 11 0 0 1 17 8 0 0 4 27 19 3 5 2 17 8 0 0 0 0 0 5 11 0 0 0 0 9 0 0 4 5 4 0 7 0 0 0 0 0 0 5 2 0 0 0 0 4 0 8 7 0 1 0 3 0 0 0 6 1 0 0 0 1 0 0 0 0 0 
0 0 9 11 0 0 0 0 0 0 6 4 0 0 7 12 0 0 0 0 0 1 9 0 0 0 0 0 4 15 1 1 2 0 8 0 1 0 7 0 0 0 3 0 0 5 0 2 9 10 1 7 0 0 5 8 1 0 0 7 3 5 2 8 0 0 0 0 10 8 0 0 0 0 4 1 0 0 7 0 5 0 4 1 6 7 0 0 0 0 12 16 68 0 0 0 70 32 0 23 58 37 44 3 0 0 0 0 0 0 0 0 0 0 0 0 0 0 10 0 0 9 8 0 4 3 9 1 5 0 27 18 0 20 19 12 5 16 13 49 44 11 4 12 48 38 0 0 28 39 0 0 0 0 0 0 0 0 10 0 9 28 53 42 17 51 86 83 53 52 24 38 12 42 20 18 0 27 4 0 0 14 35 35 53 0 3 0 0 0 0 0 0 6 59 55 17 18 0 0 10 0 4 0 0 0 18 0 2 0 0 2 28 6 7 0 0 0 0 3 0 6 0 0 3 9 13 14 0 8 2 0 0 5 0 0 1 3 0 0 0 0 14 0 0 13 3 3 12 9 19 25 0 5 3 9 5 0 0 3 17 8 0 0 0 0 0 2 0 2 0 0 0 0 1 4 0 4 5 0 0 0 0 0 0 0 0 0 0 0 0 5 2 1 0 0 0 2 1 0 
0 0 0 0 0 8 6 5 0 2 13 0 0 0 0 8 0 0 0 0 0 0 3 10 8 0 1 13 0 6 13 0 10 0 4 6 0 0 9 0 0 1 6 0 0 10 0 1 8 0 0 0 0 0 3 10 0 0 0 0 0 2 4 0 3 11 0 0 7 5 3 6 0 0 7 1 0 1 6 6 0 0 6 8 3 0 7 0 0 0 7 51 42 0 0 73 34 30 36 32 0 0 0 0 0 0 0 2 0 17 0 0 5 6 0 0 0 0 0 0 0 0 9 12 7 3 11 10 30 6 11 33 38 0 0 0 0 0 8 21 0 0 0 20 35 0 0 16 0 0 0 0 0 0 0 29 64 52 45 42 62 11 0 0 0 0 0 29 17 0 0 0 10 0 0 11 0 28 66 26 36 0 0 1 21 35 37 47 63 32 0 0 0 0 0 0 0 2 0 1 10 0 0 20 18 17 15 11 27 39 39 0 0 0 0 0 0 1 4 11 13 4 0 14 0 14 0 0 0 1 0 6 0 16 0 2 0 0 18 2 0 0 5 0 18 0 0 0 9 1 8 5 0 0 4 0 3 9 0 0 6 1 5 0 1 6 6 0 0 9 0 0 5 0 0 7 3 8 3 0 0 8 3 5 0 1 4 6 2 0 0 3 0 0 0 0 0 0 0 0 
0 0 0 0 5 8 5 0 14 0 0 0 7 7 10 4 0 0 4 12 4 0 0 0 0 0 4 10 0 0 10 5 4 0 0 9 5 3 0 0 0 2 0 9 0 3 7 0 6 0 11 0 0 5 3 2 3 2 0 0 0 0 0 0 1 0 8 5 3 0 0 0 0 0 13 7 0 9 3 0 0 14 0 0 0 0 5 0 13 17 36 12 0 0 34 47 13 30 0 0 0 0 20 60 58 32 20 27 14 15 11 0 0 0 16 17 16 14 6 5 5 0 0 0 0 1 11 0 0 0 0 0 3 0 0 17 40 14 0 0 0 0 12 0 0 0 0 23 0 0 0 0 0 53 100 42 0 17 32 0 0 0 0 8 0 6 0 0 6 4 45 31 25 12 37 106 81 20 47 38 27 17 0 0 50 57 14 0 0 0 42 26 59 17 0 0 0 0 0 30 41 59 16 0 0 0 0 0 0 0 0 0 0 1 15 24 5 7 25 0 0 19 4 1 0 6 2 1 0 10 21 6 0 0 0 9 6 0 0 5 2 0 0 0 0 0 0 0 1 13 7 0 0 0 0 0 13 17 0 0 0 0 2 1 0 0 8 0 0 0 0 6 3 0 9 0 0 1 0 0 3 2 3 0 0 0 3 0 4 0 0 1 0 0 4 0 2 5 0 0 
0 0 5 0 0 4 2 0 15 0 0 0 0 1 11 0 0 6 6 4 0 0 7 0 0 1 0 0 0 1 0 0 11 1 0 6 0 5 0 7 0 0 0 9 0 2 5 0 0 0 4 2 0 3 5 0 0 5 0 2 2 0 0 2 0 3 17 0 0 0 2 7 3 0 10 0 0 5 4 0 2 4 0 4 11 8 0 0 6 33 48 0 0 0 42 28 0 0 0 0 32 56 39 7 0 0 18 12 10 1 15 15 2 2 0 3 0 0 0 2 10 0 0 0 0 0 0 0 0 0 0 0 0 0 0 9 10 21 14 0 45 0 0 0 0 18 47 36 2 0 0 80 86 68 5 0 3 0 0 0 0 40 43 42 46 31 16 0 0 6 61 45 38 45 0 0 0 0 0 0 0 0 0 0 0 0 0 0 2 0 28 22 37 5 32 23 5 0 0 0 0 5 24 44 31 55 47 8 0 0 0 0 0 7 6 2 0 15 13 0 0 9 0 0 4 0 0 8 1 0 0 2 11 0 0 0 0 8 2 0 7 10 2 1 24 0 0 11 0 0 0 1 0 5 0 0 4 4 0 10 5 0 2 3 0 0 0 9 6 0 3 2 0 0 2 1 0 0 0 1 8 0 0 0 0 0 1 0 4 1 1 1 0 3 0 0 5 0 0 0 
0 0 2 0 0 0 1 0 0 8 9 4 0 0 0 0 0 14 9 0 0 12 0 0 9 4 0 0 0 0 0 4 9 6 0 0 0 0 3 12 0 0 0 0 2 6 0 0 0 7 0 0 14 1 0 0 1 20 10 6 2 10 9 0 0 0 1 0 4 0 0 0 3 14 0 0 0 3 0 0 18 0 0 14 6 3 0 0 8 77 0 0 5 31 43 0 0 14 29 48 36 0 0 0 0 12 9 8 1 0 14 27 2 11 15 16 0 0 0 0 6 0 0 9 25 6 0 0 7 19 25 5 6 46 49 17 0 0 0 0 0 11 70 4 1 0 0 0 0 0 54 72 38 0 0 0 0 27 0 11 31 45 16 29 69 36 0 39 43 27 0 0 0 0 0 0 0 0 2 41 64 0 0 0 0 0 0 20 4 0 0 0 0 0 8 10 19 33 0 0 0 0 0 0 13 0 0 18 38 12 26 27 11 0 0 0 0 15 0 7 0 7 10 0 0 0 0 10 0 0 0 2 12 7 14 0 0 8 3 0 0 0 0 6 0 0 5 11 2 6 0 0 7 8 2 0 0 0 0 0 0 0 3 4 1 0 0 0 0 4 1 1 0 3 0 0 0 0 0 0 2 1 0 0 0 2 0 0 5 2 2 0 0 0 3 0 3 0 0 0 
0 0 0 6 0 0 3 0 0 10 7 5 0 0 2 0 0 1 0 0 9 6 5 0 0 5 16 4 0 4 0 0 0 0 0 1 13 0 0 0 0 0 3 4 6 4 0 0 1 11 0 0 0 6 8 0 0 0 2 7 18 15 7 14 5 0 0 10 0 0 5 7 0 0 0 0 10 0 0 6 4 8 0 3 12 5 0 27 44 0 0 5 0 49 0 0 15 32 9 2 0 0 0 5 9 18 0 0 6 0 0 24 0 12 17 16 3 0 0 0 7 2 13 18 1 0 0 13 9 0 9 6 5 0 41 4 0 0 0 0 16 129 19 0 0 15 0 0 0 27 81 51 0 0 0 7 69 17 0 21 0 0 2 44 0 0 45 69 16 0 0 15 27 0 61 82 55 21 13 0 0 0 7 5 17 11 6 26 6 0 0 0 0 0 0 10 19 38 27 33 9 0 0 0 0 22 0 0 0 44 53 32 11 19 23 7 11 3 9 0 0 11 0 0 21 16 0 0 1 15 0 0 3 0 21 9 0 0 0 10 0 0 13 10 0 0 0 0 0 6 0 1 0 0 0 4 11 10 5 0 0 7 0 3 0 0 7 0 0 4 0 0 0 0 0 0 7 6 5 0 0 3 2 2 2 3 0 0 0 0 2 1 0 0 0 0 2 0 0 0 
0 1 0 0 5 0 1 6 6 0 0 1 6 12 12 0 1 2 6 5 0 0 4 0 0 1 12 5 0 3 0 0 0 0 0 14 0 0 1 4 0 2 11 0 0 0 1 0 0 0 0 0 0 1 5 0 5 0 0 0 0 8 4 14 8 0 1 11 0 10 14 0 0 0 4 9 13 7 1 3 7 0 0 6 9 0 0 42 16 0 0 7 3 0 0 8 11 12 11 0 10 27 0 0 11 0 9 0 8 0 0 0 0 14 6 0 4 0 13 3 0 15 0 4 0 0 22 25 5 0 15 7 0 0 0 0 0 0 15 0 31 31 0 19 0 0 0 0 0 124 66 0 0 0 63 0 0 0 42 6 16 33 17 0 0 13 11 0 0 0 13 47 4 71 41 0 0 55 1 0 8 30 49 11 0 22 10 1 0 23 36 31 58 64 0 0 3 14 56 61 57 3 0 0 0 0 13 61 0 0 0 27 40 35 13 12 0 0 0 0 10 3 0 3 4 8 25 0 0 2 4 0 0 1 0 5 6 5 19 20 0 0 13 4 17 0 0 0 0 0 2 0 0 0 0 9 9 5 0 0 0 2 0 4 0 0 7 1 0 8 3 6 2 2 3 0 2 2 0 0 0 2 0 0 0 2 0 0 0 2 0 5 5 0 3 8 3 0 0 0 
0 0 0 0 8 0 0 7 0 0 0 0 0 0 0 0 3 6 4 4 0 0 0 8 1 0 6 0 1 0 2 6 0 7 9 19 0 0 1 10 1 6 0 0 0 0 0 0 1 10 7 8 10 3 0 0 17 0 0 0 0 15 14 0 0 11 1 1 8 0 6 0 0 0 6 4 0 0 0 13 16 0 0 18 16 0 10 38 0 0 48 0 0 0 15 20 0 0 0 1 35 12 20 1 1 0 21 1 0 10 7 0 0 0 3 0 3 12 8 31 17 9 0 5 16 5 0 6 6 12 10 3 35 5 0 20 0 4 49 1 37 0 4 8 0 0 0 30 115 7 0 0 81 16 0 23 0 0 50 10 60 0 0 0 41 15 0 0 22 96 60 20 3 21 0 15 35 8 0 18 53 42 52 18 23 23 10 28 35 75 81 31 28 69 27 7 0 0 9 8 28 36 27 28 0 0 0 0 58 68 0 0 17 4 0 0 0 11 13 18 15 0 0 9 0 0 15 0 1 7 0 0 0 13 0 0 0 0 6 9 0 0 6 0 3 15 12 17 2 0 18 16 9 0 0 0 0 0 0 1 0 12 5 2 4 0 5 4 0 1 4 0 4 1 1 1 0 0 0 3 2 0 0 0 0 0 2 2 0 0 1 7 0 2 0 1 0 0 0 0 
0 0 0 5 0 0 0 5 0 1 0 0 0 0 2 0 2 4 0 6 6 0 0 0 3 1 10 0 3 0 0 8 0 7 4 1 0 0 4 8 0 1 0 3 1 3 0 0 0 14 5 0 0 0 8 7 0 0 0 11 0 0 0 0 0 0 2 14 21 0 0 20 5 8 1 0 0 13 2 0 3 0 0 6 11 0 17 27 0 23 15 0 0 11 20 22 6 0 0 0 0 0 24 21 0 10 16 22 20 20 6 2 0 0 0 0 9 0 0 0 0 0 25 6 0 5 0 0 13 0 0 16 21 0 0 0 0 62 33 0 0 29 74 0 0 0 11 72 0 0 15 115 0 0 0 0 0 55 3 0 0 0 37 22 0 0 0 23 93 51 21 0 0 10 0 0 21 0 13 56 58 44 37 11 3 0 0 0 0 0 0 0 0 0 0 25 16 0 0 0 0 12 41 74 34 0 0 0 0 0 42 0 0 0 7 21 23 23 7 0 3 0 0 19 0 0 4 0 6 9 0 0 0 6 8 0 0 0 6 16 14 0 0 0 0 6 2 21 0 0 0 11 7 0 1 0 0 9 9 5 0 0 0 0 2 4 0 6 0 0 0 0 1 1 0 1 1 0 2 0 0 0 0 0 0 0 0 0 0 0 6 0 0 0 0 0 0 0 0 0 
0 0 0 0 4 9 0 2 1 6 0 0 4 2 9 1 3 4 0 11 8 0 0 3 2 0 1 0 4 0 2 4 0 6 0 0 16 18 14 0 0 0 7 12 9 8 0 0 0 0 0 1 0 0 2 0 0 0 4 24 2 5 0 0 6 13 4 0 10 3 0 0 3 0 0 0 0 2 2 0 0 16 0 0 27 0 21 0 0 41 3 0 31 21 5 0 0 7 7 34 0 0 0 0 0 0 0 10 28 0 0 7 0 1 13 0 11 13 14 10 0 0 10 7 7 15 25 2 3 0 4 24 0 0 21 0 17 35 0 9 0 15 0 0 0 0 6 0 0 48 87 35 0 0 19 0 0 0 0 35 0 15 21 0 0 40 59 0 0 0 0 0 0 0 0 0 0 0 0 0 0 0 0 0 0 0 0 0 13 44 20 16 37 9 0 0 12 57 29 10 5 0 0 0 32 67 32 26 0 0 0 0 44 28 11 0 0 0 8 5 0 0 0 3 0 14 0 0 18 4 10 2 0 0 0 0 7 0 4 0 0 7 0 3 0 0 3 7 0 0 0 0 3 0 5 14 0 0 1 10 0 0 0 0 0 0 0 3 0 0 0 0 1 1 1 0 1 6 2 0 0 0 0 0 0 0 0 0 0 0 2 0 0 3 4 4 1 0 0 0 
0 0 0 0 1 0 0 0 3 0 0 9 2 2 6 8 0 0 0 2 2 9 2 0 0 4 0 0 12 0 0 0 0 2 2 0 14 11 0 0 10 0 0 0 0 4 0 9 1 0 0 4 5 0 0 0 13 0 0 16 17 4 0 0 0 6 7 0 0 14 0 15 13 0 21 13 0 2 3 0 12 20 2 0 11 3 29 0 0 31 0 0 49 16 0 0 0 0 18 20 0 4 0 15 15 0 0 0 0 0 0 16 0 0 18 10 0 5 0 0 13 1 0 0 0 7 16 0 0 14 0 38 0 0 15 0 38 0 0 0 27 1 0 11 0 0 0 3 63 0 0 0 0 16 66 48 0 11 19 3 0 27 0 0 25 3 0 0 0 0 7 16 46 23 21 10 29 6 0 0 0 0 0 0 0 0 0 0 0 0 0 0 40 61 40 0 0 0 45 73 52 40 28 35 36 25 32 3 2 29 0 0 0 77 40 0 15 0 2 5 5 8 4 0 0 10 0 0 2 0 22 16 1 0 9 15 3 4 8 1 0 8 12 0 6 0 0 0 0 17 0 0 11 0 0 5 1 0 0 3 11 2 5 4 0 2 5 1 1 7 1 0 6 0 0 2 2 0 1 3 2 3 0 5 6 7 3 1 1 5 3 0 0 1 1 0 1 2 0 0 
0 0 4 13 0 0 13 7 9 0 0 7 1 0 0 2 0 7 0 0 9 16 9 4 0 10 0 0 7 0 0 1 0 1 1 0 0 0 0 0 19 5 0 0 0 0 0 0 0 12 4 0 0 4 0 0 6 14 0 0 5 0 0 25 10 0 0 11 0 5 17 0 0 16 18 4 18 3 0 11 4 10 8 3 15 21 11 0 0 34 0 0 18 9 0 0 16 5 15 0 0 20 7 0 0 30 43 22 0 2 0 7 34 2 0 7 0 0 4 7 27 24 0 0 0 0 0 5 13 3 2 17 0 53 0 1 0 14 33 0 0 0 0 0 0 2 0 52 32 4 0 0 0 57 41 14 0 0 0 38 63 0 0 2 15 3 0 24 18 3 1 2 0 0 0 0 0 0 0 6 23 10 20 25 40 34 3 37 8 20 0 0 0 0 2 20 0 0 0 0 0 16 8 0 0 0 0 0 0 13 72 7 0 0 39 48 0 3 0 0 0 0 0 0 17 0 0 4 0 0 5 7 11 9 8 0 0 0 4 23 4 0 0 0 9 4 3 0 8 13 9 2 0 1 1 2 2 15 0 0 2 3 0 0 0 0 1 0 0 9 0 0 5 0 0 0 1 0 0 0 2 2 0 5 0 2 0 0 1 1 2 0 0 1 1 0 0 1 0 0 
0 0 20 9 0 0 1 20 0 0 16 0 0 6 2 0 5 16 7 0 0 0 1 0 0 1 2 0 0 9 7 8 7 7 15 11 0 0 0 0 4 0 5 4 8 20 13 0 0 7 2 0 1 2 8 1 1 11 0 0 4 0 4 11 7 8 17 0 14 3 0 6 8 0 0 0 7 1 0 10 0 0 13 0 0 5 0 0 0 0 0 0 16 0 10 4 0 0 0 10 0 0 20 8 4 0 0 2 5 17 1 0 0 0 0 6 10 5 17 22 10 20 0 23 33 0 0 5 0 3 33 0 0 38 7 29 0 36 1 0 19 0 15 0 0 0 0 34 43 14 0 0 0 105 0 0 0 1 0 27 0 0 54 35 50 39 0 0 17 0 6 37 0 5 46 0 0 0 67 51 0 0 0 0 55 27 0 22 48 27 25 11 0 0 9 24 42 10 0 0 0 0 0 0 0 0 40 33 0 0 15 54 23 0 0 39 26 14 8 1 21 20 11 0 27 0 10 16 0 6 0 0 0 1 11 23 18 6 11 0 6 0 14 1 0 0 0 0 0 0 5 0 0 0 1 0 0 8 9 2 0 0 1 1 3 0 0 4 0 0 2 0 3 0 2 2 0 0 1 0 0 2 0 2 0 1 0 0 2 0 2 0 0 1 1 0 3 0 0 0 
0 0 0 0 6 7 4 3 0 0 2 0 0 6 8 0 0 0 0 8 6 0 4 0 1 0 4 0 1 2 4 0 0 0 5 8 12 17 3 0 0 0 0 0 0 0 0 7 8 0 16 0 0 0 10 2 0 0 11 14 12 10 0 0 9 0 8 16 18 0 11 0 13 30 2 0 0 0 9 17 0 0 10 0 10 6 13 0 0 0 0 15 44 0 0 26 25 0 22 17 0 3 0 17 14 0 0 5 7 2 6 18 9 22 19 15 13 0 0 9 0 0 21 2 12 18 21 0 0 43 27 0 51 26 16 7 32 0 0 3 0 3 0 0 0 9 42 0 10 0 7 8 8 8 0 5 10 25 0 0 0 35 25 17 40 0 0 8 31 28 26 0 36 80 0 0 50 92 5 0 0 18 2 0 10 27 10 0 27 29 24 26 20 0 0 0 33 23 37 47 0 0 51 60 65 22 2 17 22 11 0 29 67 47 0 0 21 32 8 0 0 0 0 0 1 0 1 3 3 7 0 3 0 0 0 0 23 0 1 5 0 0 7 0 0 0 0 0 2 0 2 0 0 4 0 0 0 0 0 2 5 2 0 2 0 2 0 10 0 0 5 0 1 5 0 0 0 0 1 0 0 0 2 0 0 0 1 1 0 0 2 0 0 1 1 2 0 0 0 0 
0 0 0 3 6 0 0 1 11 4 0 2 1 0 7 0 0 8 3 0 3 0 2 11 5 6 0 0 4 11 6 0 0 0 14 0 0 9 3 0 11 8 0 0 2 0 0 5 7 9 15 0 0 0 0 0 0 0 1 0 1 0 0 0 14 8 0 0 28 7 0 0 0 7 11 0 12 2 0 0 21 16 0 0 9 9 0 0 0 0 0 11 39 10 0 10 0 0 48 2 0 36 0 0 14 11 0 2 1 0 3 0 0 3 6 0 26 51 2 0 0 0 1 0 0 0 42 0 0 36 0 0 49 5 0 0 26 0 34 0 0 5 0 0 0 6 39 0 0 3 45 15 23 0 2 22 15 0 0 2 9 4 0 0 0 0 18 61 12 0 0 55 64 0 0 96 39 0 0 31 54 68 35 30 0 0 0 10 12 13 39 36 47 21 0 4 0 9 17 42 50 0 0 52 59 8 5 1 20 13 0 0 38 84 58 0 0 13 28 1 17 1 0 0 0 20 12 3 3 7 6 13 3 14 19 0 0 0 0 16 0 7 13 0 0 0 3 0 1 9 1 0 0 9 3 0 0 0 0 0 0 0 0 0 3 0 0 0 11 6 0 0 2 0 0 0 0 0 1 8 7 1 0 0 0 0 0 0 0 1 5 0 0 1 1 2 0 0 0 0 
0 0 7 0 0 3 0 11 12 0 1 0 9 1 0 5 4 0 0 0 14 11 4 1 0 0 8 0 4 19 3 0 0 0 0 9 0 0 0 0 5 2 1 11 6 4 3 0 0 18 0 2 18 2 3 6 0 2 2 2 0 2 0 0 0 0 0 0 15 10 0 3 0 12 12 1 20 21 0 0 0 20 0 0 7 23 0 0 0 3 0 0 45 0 0 28 4 0 16 1 0 40 0 0 1 2 6 7 10 0 0 0 0 1 13 0 0 0 0 0 25 19 0 0 0 29 11 0 25 7 0 47 28 8 15 22 0 3 16 0 0 37 0 5 10 0 25 55 0 24 0 28 7 0 45 35 0 0 0 20 40 8 0 0 0 0 37 30 0 0 68 42 0 14 79 0 0 0 0 8 42 18 9 0 85 22 0 0 21 40 17 20 40 57 7 6 0 16 31 0 59 80 0 0 78 28 0 0 27 9 12 0 0 0 57 59 0 0 31 14 14 28 28 0 0 0 19 9 0 0 0 10 0 0 9 5 0 17 0 0 9 6 3 1 7 5 1 0 0 8 0 0 8 0 1 0 0 0 7 4 1 0 1 0 1 4 0 0 0 0 9 1 0 3 3 2 0 0 0 0 0 0 0 0 0 0 0 0 1 0 0 0 0 1 1 2 0 0 0 0 
0 0 10 3 7 1 0 0 0 0 0 1 8 8 0 2 0 0 0 0 0 2 8 0 0 0 15 10 0 0 3 3 10 0 0 5 7 0 0 11 0 0 0 0 0 3 7 0 3 0 0 2 10 4 0 5 10 15 0 4 5 9 29 0 0 3 0 0 0 0 0 0 35 37 0 0 14 9 18 22 0 0 16 9 7 15 0 0 10 33 0 0 49 0 0 27 26 0 1 22 25 0 0 0 0 7 0 0 8 0 12 34 0 0 30 33 17 27 26 0 0 0 20 35 0 0 0 0 14 4 0 8 0 0 44 4 0 50 7 0 0 60 0 0 0 0 0 17 1 79 14 0 0 26 26 0 0 32 51 41 0 0 0 42 0 0 23 0 18 73 0 0 50 36 0 0 22 0 0 0 0 0 3 0 0 50 37 2 0 21 1 0 0 37 8 19 33 3 38 0 8 79 22 0 0 51 18 9 0 0 3 27 0 0 25 56 50 0 0 30 23 12 0 0 19 0 0 9 17 5 0 1 3 4 0 9 7 20 4 0 0 0 0 0 8 0 0 8 0 7 0 5 0 0 6 1 0 4 3 0 0 0 5 0 0 4 0 0 0 1 5 1 0 1 0 1 4 5 1 0 0 0 0 0 0 0 0 0 1 3 0 1 0 2 2 3 0 0 0 0 
0 0 5 13 11 0 0 0 4 8 1 0 0 11 2 2 0 0 9 0 0 0 0 0 19 7 2 4 0 0 7 2 0 3 0 0 2 0 0 13 0 0 0 2 5 0 14 8 0 0 0 0 0 0 0 0 0 0 0 8 7 0 0 0 15 21 0 2 18 9 17 0 2 41 0 0 0 0 28 8 11 16 0 0 18 14 0 0 5 2 20 0 37 0 0 19 31 31 0 0 0 2 41 20 0 0 0 4 20 0 0 10 4 18 0 0 0 0 18 2 0 0 0 2 42 0 6 50 0 0 0 11 0 0 0 0 0 54 21 0 16 0 0 36 0 52 0 0 16 51 0 0 26 34 0 0 12 34 0 0 10 2 17 57 0 0 33 44 37 0 0 30 0 0 22 39 22 44 57 57 53 53 67 27 0 0 0 0 0 0 0 0 2 0 14 11 34 0 36 40 23 0 15 0 0 5 0 0 0 23 23 45 0 0 0 9 60 45 0 0 49 18 0 25 29 5 0 0 0 4 18 3 2 9 5 15 0 5 15 0 0 6 7 0 0 0 1 8 3 3 0 4 0 1 8 0 6 2 1 0 0 0 1 0 3 0 0 1 0 0 0 3 0 1 0 1 3 3 1 0 0 0 0 0 0 0 0 0 2 0 0 0 0 0 2 2 1 0 0 0 
0 0 0 0 0 2 8 0 11 11 0 17 1 4 0 4 0 9 0 0 0 3 0 10 5 0 0 0 5 3 0 0 5 11 0 10 10 1 0 2 2 0 17 6 0 1 0 0 0 1 24 7 0 14 13 0 4 2 0 0 0 1 0 0 30 14 3 5 4 8 16 0 0 31 12 13 5 0 0 0 0 9 0 0 3 0 12 0 22 0 40 0 0 35 5 19 5 0 0 0 0 2 6 17 20 5 25 14 0 20 0 0 0 0 0 4 10 25 5 1 5 0 0 0 12 0 17 46 0 0 64 11 0 0 10 17 0 0 0 20 0 0 40 79 0 0 0 0 0 0 0 35 4 0 0 10 0 0 0 13 5 11 6 0 0 0 41 0 0 0 0 0 0 25 0 38 67 44 4 18 15 1 0 7 3 0 7 0 23 13 0 10 2 0 23 5 0 0 0 0 0 0 76 111 0 0 52 0 0 0 0 43 80 0 0 0 28 43 21 0 0 16 21 3 23 4 9 2 0 0 5 0 0 4 10 5 0 0 14 0 0 15 8 10 3 0 0 0 0 0 5 0 1 2 0 1 0 0 2 0 0 0 0 1 0 0 1 0 1 0 0 0 0 0 0 0 0 0 0 0 0 0 0 0 0 0 0 0 3 0 0 0 0 0 0 0 0 0 0 0 
0 0 0 0 0 0 0 0 0 0 0 10 0 4 0 0 17 25 0 0 1 8 0 0 5 1 0 0 10 0 0 5 2 3 0 0 1 5 2 0 0 13 0 0 3 24 0 8 19 2 5 1 0 16 0 0 24 0 7 12 0 0 1 0 0 0 1 0 2 13 47 0 0 0 0 4 19 12 0 1 0 0 0 8 20 2 3 0 0 0 21 0 0 2 0 0 0 4 13 25 1 0 0 0 14 32 25 21 14 30 0 4 2 0 34 11 25 19 6 7 8 15 35 6 0 0 20 0 0 0 77 13 0 16 22 0 15 15 0 0 0 6 3 60 22 0 0 57 0 0 49 0 0 0 0 8 14 13 7 34 0 0 0 0 0 1 6 0 0 2 0 0 66 38 33 30 16 5 0 0 0 0 0 0 0 2 12 0 0 8 2 0 0 0 0 0 0 0 0 0 0 0 39 73 20 0 91 71 10 0 0 0 22 30 0 1 9 15 57 14 0 0 46 0 0 25 14 13 8 3 0 0 5 6 8 0 0 3 16 0 0 1 0 15 2 0 5 1 0 6 6 2 4 0 0 0 0 0 2 0 2 0 0 0 0 0 0 0 1 6 1 0 0 0 2 0 0 1 1 0 0 0 0 0 0 0 4 2 1 0 0 0 0 1 3 3 0 0 0 0 
0 0 0 0 0 14 14 0 3 17 9 0 0 9 0 6 6 0 3 8 6 14 14 0 6 0 2 9 2 0 7 0 0 9 1 0 0 9 19 4 0 10 0 15 0 0 13 8 0 3 0 3 0 9 0 0 21 0 0 17 4 5 12 0 9 0 2 9 1 0 24 5 0 25 20 0 0 7 0 0 26 3 8 5 9 34 24 0 0 0 19 0 0 0 33 18 0 0 9 0 0 0 23 0 0 0 0 0 0 2 0 0 0 2 13 0 0 0 0 0 0 0 45 47 18 8 0 0 0 3 61 11 0 0 41 0 6 0 15 0 0 21 0 10 50 0 0 0 29 0 5 0 0 0 2 1 46 19 0 0 12 0 0 16 2 0 8 0 13 0 24 47 33 3 0 0 0 0 0 6 16 5 5 1 0 0 0 0 0 0 0 0 0 0 0 0 0 0 14 0 0 0 0 0 54 0 0 73 51 48 22 0 0 0 0 0 8 34 0 6 0 0 25 2 0 0 22 12 14 2 0 2 4 2 0 14 18 0 12 6 5 0 0 0 0 17 10 0 1 1 0 4 3 0 0 2 6 0 0 0 0 7 0 0 7 1 0 4 9 0 1 2 0 4 4 0 0 4 3 0 0 0 0 0 0 4 2 0 0 0 0 2 0 0 0 0 3 0 0 0 
0 0 0 7 0 4 5 0 0 9 0 0 0 0 18 8 3 0 0 13 9 0 0 0 0 0 12 0 0 0 7 0 9 0 0 2 0 1 0 5 0 0 9 14 0 0 26 3 0 6 0 14 6 9 0 25 7 0 0 0 8 11 23 0 0 7 0 0 7 0 13 2 0 0 42 0 0 31 33 0 14 18 6 0 0 0 16 5 9 0 34 25 23 0 14 16 0 12 21 14 23 27 19 0 3 0 0 0 2 36 27 0 15 0 0 22 0 0 4 21 0 0 0 0 1 49 4 0 0 0 31 0 23 0 18 0 19 0 5 0 0 20 12 0 15 20 0 0 19 26 0 0 11 17 2 4 0 0 0 12 27 5 0 0 38 0 0 0 34 0 0 0 0 0 0 2 0 0 3 0 0 0 0 0 0 0 0 0 0 0 0 0 0 9 0 0 12 0 0 0 0 0 0 0 0 0 0 9 27 61 55 42 5 0 11 16 8 0 0 43 43 0 0 67 21 0 0 31 11 0 3 0 0 3 0 12 14 0 8 9 4 11 3 0 0 7 0 4 0 0 0 0 0 2 0 2 4 0 0 0 0 3 0 0 0 2 2 0 0 1 0 0 0 1 4 0 0 3 2 0 0 0 0 0 0 1 0 0 2 4 6 0 0 0 0 0 5 1 2 0 
0 0 1 9 0 5 4 0 0 7 0 4 0 12 6 0 0 9 1 0 0 1 0 0 19 10 0 0 9 3 0 8 16 0 0 20 6 0 0 0 0 9 4 4 0 10 16 7 0 6 4 7 0 0 2 18 0 6 8 0 7 6 9 0 0 13 9 0 0 35 0 0 20 0 0 33 0 0 0 22 0 0 0 0 11 0 0 0 0 0 11 0 9 0 0 0 0 36 13 0 0 0 0 0 0 0 0 0 0 0 0 17 18 5 0 16 28 3 0 13 0 11 15 0 0 2 0 0 10 0 3 0 5 17 0 45 42 0 0 0 0 23 0 10 36 0 0 1 3 2 0 0 17 17 0 0 5 11 12 0 13 8 0 0 25 0 25 17 0 0 0 0 5 19 3 0 0 0 0 0 0 0 0 11 0 15 47 63 50 96 52 31 22 39 50 0 1 30 45 38 15 17 38 23 1 0 0 0 0 19 66 46 42 40 6 0 14 0 0 13 27 5 0 5 54 0 0 6 25 0 25 13 6 0 5 5 9 0 5 5 0 0 6 0 0 2 0 1 2 1 0 1 0 4 2 2 0 0 0 0 0 0 0 0 3 4 5 0 0 0 1 2 0 3 0 0 0 3 3 0 1 3 2 2 4 8 0 0 9 4 6 0 0 6 0 3 0 0 0 0 
0 0 10 10 0 5 6 2 0 0 13 9 0 0 0 0 0 15 18 2 0 2 0 0 15 0 0 8 21 3 0 7 0 0 0 4 0 5 0 0 4 0 0 0 0 0 2 5 0 13 1 0 0 0 21 0 0 28 23 0 0 4 0 0 0 0 10 0 0 34 0 0 18 0 0 11 30 0 0 1 14 0 7 1 0 38 17 0 33 0 16 0 0 0 0 0 0 0 0 1 0 0 37 22 22 0 0 24 15 0 0 0 0 13 23 0 22 27 12 0 0 0 20 15 0 7 0 0 0 23 40 0 0 46 0 42 37 0 0 0 9 0 0 13 37 0 16 22 1 1 9 0 32 0 0 0 25 0 0 6 18 0 11 28 0 0 0 0 0 17 25 28 21 0 0 0 32 1 10 19 15 26 30 99 73 86 61 34 0 8 37 8 0 46 92 31 11 32 26 35 91 51 11 0 33 63 22 0 0 0 0 24 46 45 5 0 24 15 0 20 26 45 0 0 54 38 0 0 0 31 23 0 10 0 0 7 16 0 9 0 2 0 0 0 2 4 0 0 7 3 3 2 2 0 0 2 0 6 1 4 10 0 1 0 1 2 0 6 4 0 0 3 1 0 1 5 0 0 0 0 0 6 0 0 0 0 0 1 4 0 0 1 2 10 2 9 0 0 0 0 
0 0 12 0 0 0 1 0 5 13 0 0 6 0 0 0 10 0 7 9 9 16 0 0 4 0 0 0 0 0 0 6 2 0 0 9 0 1 0 0 0 0 2 0 0 0 0 4 0 14 0 0 6 12 15 7 0 7 0 0 1 0 0 0 0 17 18 0 6 0 4 21 8 17 0 0 11 1 6 0 0 9 9 21 0 0 18 0 0 0 27 27 35 10 0 19 0 0 12 10 17 1 11 6 54 35 11 42 31 12 5 0 0 0 6 0 0 0 9 24 0 0 15 35 0 27 6 0 0 0 3 1 0 0 0 27 0 0 1 0 9 19 0 12 0 0 15 12 5 0 0 0 3 22 11 4 12 0 27 44 24 0 0 2 0 24 0 10 9 22 4 0 0 0 0 0 0 0 0 12 8 0 0 5 0 0 0 0 0 0 0 0 6 0 0 0 0 0 0 0 0 0 0 0 0 8 51 7 3 0 0 0 0 9 59 37 7 28 3 20 0 26 0 0 30 59 54 0 0 10 7 0 16 10 0 0 7 0 0 15 11 8 0 5 0 0 13 5 1 0 0 1 0 3 0 0 0 2 0 1 2 1 1 0 0 0 0 4 1 0 0 1 0 0 0 2 0 0 0 0 0 6 0 0 1 0 0 0 6 0 0 9 5 0 0 0 0 1 1 0 
0 0 5 0 0 0 0 0 0 10 6 0 10 0 0 15 11 0 0 0 13 1 0 0 5 2 0 0 0 0 1 0 0 3 0 0 0 0 0 0 8 11 7 0 14 14 0 7 0 1 1 0 5 8 17 0 0 26 11 0 25 0 3 26 0 0 0 0 25 0 0 0 7 22 0 0 24 2 34 15 0 9 19 22 56 0 0 30 5 0 0 21 0 0 17 0 0 9 12 0 21 2 0 0 0 0 4 0 6 7 0 1 28 0 0 0 8 23 0 0 21 27 10 33 0 0 34 18 15 1 0 0 5 8 0 24 4 0 0 0 0 0 0 35 0 1 32 0 8 0 0 0 16 8 0 0 7 18 0 20 28 0 0 0 0 5 9 11 0 0 6 0 0 0 0 14 28 33 0 14 22 0 0 0 43 0 0 0 6 7 0 0 0 0 0 0 10 0 0 0 0 0 2 0 0 0 0 0 31 87 31 16 0 0 0 80 23 6 0 30 15 32 24 0 0 53 49 0 0 29 9 0 9 8 0 7 20 0 0 0 8 9 4 3 8 0 0 7 1 0 0 0 0 3 2 0 0 3 0 0 0 1 0 1 3 1 0 0 0 3 1 0 0 0 0 0 2 2 2 2 3 0 1 5 6 4 0 1 0 4 2 2 0 0 0 7 8 8 0 0 
0 1 0 13 8 15 7 11 0 0 0 8 16 5 7 0 6 0 4 0 0 0 9 11 7 10 8 8 8 11 9 3 14 6 1 0 0 6 0 9 9 0 3 0 6 31 0 0 3 0 4 2 0 8 9 2 0 6 13 0 0 3 0 17 17 0 0 14 10 4 18 1 0 22 25 0 12 0 3 31 33 0 0 0 1 8 0 0 1 31 0 0 27 0 1 1 13 14 30 0 0 40 7 0 2 0 0 18 0 34 38 0 0 1 0 0 0 0 0 0 7 14 0 21 0 0 9 11 22 21 0 1 0 0 16 45 4 0 0 24 0 0 17 36 0 0 20 23 8 0 0 2 31 0 23 0 24 27 0 0 0 0 5 8 0 0 16 0 0 14 0 0 0 3 72 43 34 31 0 0 0 6 0 0 0 0 21 4 0 28 26 27 14 10 0 17 35 5 34 38 27 28 13 11 31 51 0 0 0 0 0 10 1 0 0 0 16 54 34 0 2 27 36 0 0 0 55 20 0 15 15 5 11 0 0 9 9 0 0 0 0 0 5 0 3 10 0 9 0 0 1 0 0 0 0 5 1 4 0 0 0 4 2 2 0 0 0 0 3 0 0 0 0 0 0 0 0 0 0 0 3 0 0 1 0 0 2 0 1 2 3 0 0 3 2 0 0 0 0 0 
0 0 9 9 0 2 3 0 0 16 0 0 7 6 0 0 0 0 10 0 0 0 19 1 0 5 0 0 0 6 0 0 1 0 0 0 0 0 0 1 8 4 14 0 0 20 7 0 4 5 0 0 8 17 0 2 0 15 0 0 24 4 0 19 0 0 36 0 0 4 10 17 2 0 22 0 0 24 0 8 24 0 18 0 0 12 19 0 5 2 3 0 16 30 0 29 7 0 1 15 0 0 32 10 48 37 0 4 0 0 31 41 0 22 29 26 16 1 0 7 0 0 16 13 0 0 16 9 11 1 26 9 0 0 0 36 0 0 0 22 15 0 0 0 0 0 1 4 0 0 0 28 25 1 34 0 26 4 0 0 10 17 0 0 0 12 0 0 13 13 0 0 10 43 0 0 0 0 2 33 16 32 29 36 4 1 42 32 0 0 0 0 0 0 0 0 0 0 10 1 0 17 13 3 37 22 0 6 0 4 38 2 0 0 0 0 0 0 54 18 0 3 20 16 0 0 0 0 20 13 0 0 46 3 0 19 13 0 9 0 0 4 0 2 0 6 0 0 6 1 0 2 6 2 0 0 2 8 0 0 2 6 2 0 1 1 1 0 1 0 0 0 0 0 0 0 0 0 1 3 0 2 0 6 4 3 2 0 3 2 0 2 0 3 6 0 0 0 0 0 
0 0 0 0 0 10 0 0 16 2 0 4 6 0 0 14 7 3 7 10 15 1 0 3 0 8 0 1 8 4 0 2 3 4 2 2 2 0 0 0 3 13 16 0 0 11 13 0 0 3 19 0 0 0 0 9 10 0 0 0 2 11 21 0 0 11 5 0 0 8 0 0 18 3 15 12 0 36 0 0 26 4 18 1 3 12 33 16 4 0 5 8 0 0 0 24 0 0 0 7 24 32 0 1 0 0 40 0 0 21 13 33 18 31 34 29 17 21 7 16 1 0 20 0 5 0 15 8 4 0 47 9 0 8 0 19 22 0 0 0 42 0 0 0 0 10 0 20 0 0 2 18 8 0 0 0 5 0 4 0 16 0 0 19 0 9 0 0 0 0 0 0 18 9 0 28 0 12 0 0 0 0 1 0 0 0 0 0 0 0 0 3 9 10 16 15 0 0 0 0 0 0 0 0 0 11 53 38 13 19 21 22 0 50 0 0 0 0 0 32 52 0 0 32 62 0 0 41 26 0 0 0 0 0 7 0 26 0 7 10 0 1 7 2 3 9 0 0 5 2 0 0 0 3 2 0 0 5 0 0 5 2 0 3 1 1 1 1 0 0 0 0 0 0 0 0 0 1 0 0 0 6 0 0 0 2 1 0 2 0 0 6 0 0 2 4 0 10 0 0 
0 0 0 0 0 0 0 4 0 0 0 0 7 0 0 13 4 0 0 7 14 15 0 0 0 0 5 0 0 0 0 0 0 0 1 0 7 17 2 3 3 0 0 8 0 0 0 0 0 0 6 12 14 0 12 0 2 8 16 0 0 17 23 0 13 11 0 28 18 32 0 0 0 2 0 15 0 5 47 0 0 26 0 0 0 0 0 19 0 0 1 8 0 0 0 0 21 0 1 16 0 0 8 0 0 0 29 21 0 1 0 0 12 8 0 1 14 5 17 22 3 23 27 7 0 0 0 0 0 0 14 13 0 1 0 18 20 11 0 0 30 15 5 28 0 18 7 0 0 0 0 6 15 16 0 0 1 24 0 0 0 13 19 3 0 0 0 0 0 5 0 36 63 5 15 0 0 25 0 0 0 0 0 0 0 0 0 23 26 32 37 18 15 2 26 53 35 8 6 4 13 0 0 0 0 0 5 0 12 0 0 31 0 0 36 60 71 0 0 0 30 82 0 5 21 0 0 51 85 19 0 58 1 0 13 0 3 1 10 2 0 1 1 0 0 3 0 0 5 0 2 0 0 0 0 0 6 0 0 5 6 0 1 4 0 0 0 0 0 0 0 0 0 0 0 0 0 1 1 0 0 5 0 3 0 3 3 0 4 0 0 7 0 0 3 2 0 10 0 0 
0 0 18 0 0 0 0 15 0 0 0 0 0 9 8 0 10 0 0 0 9 17 1 9 0 0 10 16 1 0 0 0 0 0 6 0 0 7 0 0 0 0 0 3 9 0 0 8 24 0 1 12 1 0 38 0 0 0 0 4 5 22 0 0 20 0 10 0 0 0 0 0 1 0 0 0 2 0 0 42 0 15 0 11 7 0 0 0 0 0 19 14 3 0 3 17 0 0 0 0 0 0 22 0 0 0 1 15 14 9 0 0 0 12 1 0 0 3 11 0 0 12 18 36 14 1 14 0 0 32 19 35 0 0 7 0 14 7 0 0 0 0 8 19 0 0 12 0 0 0 23 1 13 30 0 0 7 17 0 0 0 65 26 0 0 0 0 0 40 0 25 40 0 0 0 0 0 0 0 0 25 0 30 29 26 4 0 0 0 0 0 2 25 16 0 6 0 0 13 0 0 13 38 23 13 9 0 17 18 0 0 16 67 30 28 0 19 55 11 0 0 0 27 18 0 4 0 0 77 63 0 0 15 0 23 22 0 0 18 7 8 0 4 11 3 6 0 0 1 0 0 3 4 0 0 0 4 0 3 4 3 0 1 3 0 0 0 0 0 0 0 0 0 0 0 0 0 1 1 0 0 5 0 0 0 0 0 0 0 0 2 0 0 1 2 4 0 0 0 0 
0 0 2 0 11 0 10 17 8 1 0 0 0 0 3 8 9 10 0 0 0 10 0 0 10 0 7 8 12 11 0 0 0 3 10 12 0 11 3 0 0 0 0 1 25 9 0 15 0 4 0 1 3 0 3 13 13 0 9 5 0 0 0 0 30 0 20 0 0 0 27 25 18 0 11 6 24 14 0 2 0 5 0 0 22 13 6 7 10 0 5 0 8 1 0 10 18 0 15 11 0 0 6 49 0 0 0 0 0 0 9 17 0 0 23 3 0 0 9 7 0 0 13 16 44 24 25 0 0 0 16 8 11 0 0 0 30 12 0 0 2 0 20 15 8 0 39 10 7 0 0 5 40 10 0 0 43 3 0 0 7 5 0 16 0 0 10 0 14 0 10 0 0 0 0 0 16 33 25 15 16 0 0 0 0 0 0 0 0 14 0 1 0 0 0 11 32 0 37 37 5 0 0 20 0 0 0 0 4 0 0 0 0 0 0 23 0 0 46 35 0 0 0 73 47 0 0 0 0 0 0 0 3 1 5 47 0 0 15 10 0 0 3 0 4 13 2 6 4 0 0 0 7 0 0 6 0 0 4 0 0 1 0 0 0 0 0 0 0 0 0 0 0 0 0 0 0 1 1 0 0 6 0 0 0 3 0 0 0 0 0 0 0 0 0 2 1 0 0 0 
0 0 0 0 8 0 0 7 0 0 4 16 0 0 5 0 0 0 7 0 0 0 0 1 0 0 2 0 0 0 4 0 2 5 11 14 0 0 11 0 7 2 0 13 0 0 14 13 6 0 0 0 8 0 0 0 3 20 3 9 4 0 42 0 0 11 30 0 30 39 24 1 34 35 8 0 12 2 28 10 0 0 31 37 21 0 0 0 17 1 0 0 1 18 0 0 4 0 0 0 26 12 0 0 0 0 0 0 0 5 0 0 0 0 0 0 0 0 0 9 5 0 0 0 0 0 21 41 8 0 0 0 18 38 0 0 48 55 0 0 3 33 0 12 13 0 0 0 12 0 0 12 6 0 0 0 36 0 0 10 3 6 0 0 0 0 21 24 39 0 0 0 0 3 33 78 49 4 2 0 0 0 0 6 1 0 0 0 0 4 0 0 0 3 7 0 0 23 1 26 34 45 34 8 20 24 0 0 0 0 0 0 0 20 41 42 6 0 0 66 38 0 0 0 103 110 59 23 0 40 18 0 2 0 0 19 25 0 0 25 8 6 5 9 0 0 0 2 3 1 0 0 2 0 4 3 0 1 0 2 0 0 0 0 1 0 0 1 0 0 0 0 0 0 0 1 6 0 0 1 0 2 0 0 0 0 5 2 4 0 0 0 0 2 0 3 0 0 0 0 
0 0 8 0 1 0 6 11 0 3 5 0 0 2 10 0 0 0 4 14 0 5 11 8 0 0 7 0 5 7 0 0 3 0 0 2 0 0 0 0 13 11 0 17 0 0 29 0 0 0 11 0 2 3 8 0 13 34 0 0 11 11 23 0 0 18 7 0 0 9 0 0 0 0 0 3 4 0 7 1 7 0 0 0 25 8 0 0 0 8 6 0 0 4 9 0 0 0 9 0 0 0 28 6 0 10 21 23 8 1 0 2 28 0 0 12 2 1 0 0 16 13 0 26 45 0 3 31 8 0 4 0 0 52 0 0 17 30 0 0 0 31 0 6 8 0 0 9 1 0 16 25 0 0 0 0 7 1 0 0 17 23 0 0 0 5 3 5 0 0 0 0 33 13 0 0 0 0 0 0 0 10 0 0 0 0 0 20 27 16 0 4 51 64 52 19 0 0 0 0 0 5 10 20 21 21 19 41 23 1 0 26 0 0 0 4 76 28 0 0 9 31 0 0 0 0 0 41 9 0 9 0 14 2 0 0 6 29 10 0 0 0 0 0 6 2 0 0 2 0 0 1 0 0 0 0 3 0 0 0 0 0 0 3 3 2 1 4 1 0 0 0 0 0 0 2 6 0 0 0 1 0 1 0 0 0 3 0 1 3 0 1 0 0 0 0 0 0 0 0 
0 0 14 4 10 0 0 0 6 0 0 0 10 0 12 0 9 0 4 0 0 4 3 1 7 0 11 0 0 0 0 19 0 0 5 0 7 0 0 0 0 0 1 0 4 0 11 0 0 5 3 4 3 0 13 0 0 0 0 0 0 0 4 0 0 11 12 5 3 0 0 0 0 12 23 0 6 0 0 2 0 0 4 0 0 14 0 26 0 0 0 5 7 13 10 4 0 0 8 22 9 0 0 12 0 0 26 33 17 7 9 14 5 0 0 0 0 10 13 6 0 0 0 0 20 19 4 14 0 0 17 0 0 0 19 0 0 19 22 0 0 10 0 10 0 0 0 15 0 0 18 0 0 3 4 0 0 12 0 0 26 23 0 0 0 22 0 30 0 0 18 30 35 0 0 0 3 0 0 52 13 0 0 25 0 17 37 13 0 0 0 0 0 0 0 0 0 6 2 0 0 0 0 0 0 0 3 12 18 10 0 7 29 7 0 0 0 40 54 1 0 0 21 0 0 0 0 15 25 0 39 35 0 53 34 0 0 25 7 0 3 0 0 0 0 0 0 0 0 0 11 5 3 0 0 0 0 1 1 8 3 0 0 0 1 0 2 1 0 1 0 0 1 0 1 3 0 0 3 6 8 0 0 3 0 4 1 2 2 2 0 0 4 0 0 0 0 1 0 0 
0 0 6 8 8 0 5 0 8 20 0 0 16 11 0 0 22 7 4 1 0 0 0 6 4 3 2 0 0 6 2 0 0 5 0 0 4 1 2 11 5 0 2 0 4 0 2 0 2 0 0 2 2 0 0 2 8 7 3 1 0 0 11 5 0 35 20 8 8 14 19 19 25 41 1 0 0 0 9 28 16 0 8 24 4 15 19 32 5 0 0 1 0 0 2 0 5 2 0 0 32 20 5 17 0 0 0 0 0 0 0 0 0 4 13 0 3 6 4 0 6 22 14 0 0 22 0 7 0 0 11 10 0 11 21 2 0 11 36 26 0 5 0 6 25 11 0 37 0 14 5 0 22 16 0 3 0 0 0 0 1 0 0 0 24 6 0 30 0 0 1 11 5 0 62 15 0 17 28 9 0 8 51 35 2 0 0 11 25 13 0 12 2 0 26 1 11 0 0 9 0 0 0 0 0 0 0 0 0 20 20 16 0 0 21 11 0 0 0 51 17 12 13 0 0 0 4 7 3 0 0 24 0 0 42 18 0 0 0 0 35 38 16 0 0 3 8 9 0 0 0 4 6 2 0 3 1 0 6 0 1 0 10 4 0 1 4 0 2 0 0 0 2 4 3 0 0 0 0 0 0 0 0 0 1 1 0 0 0 3 0 1 1 1 0 4 0 0 0 0 
0 0 2 5 1 0 17 17 0 4 5 0 4 0 0 4 10 0 3 8 0 12 12 3 0 2 0 2 17 8 18 6 13 8 0 13 2 11 6 0 13 4 0 4 0 0 25 11 0 25 20 9 13 9 15 5 0 0 0 12 18 30 30 0 0 11 0 0 0 0 15 19 0 0 0 0 0 3 0 0 25 40 0 5 0 0 0 12 14 22 8 14 20 6 0 0 2 0 3 0 0 1 4 13 0 7 17 14 20 0 0 5 23 0 0 0 0 0 0 0 0 0 9 16 0 3 0 13 30 2 0 24 0 30 0 11 0 0 0 36 9 12 0 0 28 0 0 33 19 0 0 0 0 7 0 7 0 0 0 6 8 0 0 0 0 0 5 6 0 0 2 24 16 0 8 0 0 52 13 2 0 5 6 0 0 1 9 23 38 16 20 18 11 8 28 11 18 0 0 6 0 0 0 0 0 0 12 13 0 3 0 1 13 0 7 14 27 0 0 1 31 30 58 50 36 0 0 9 6 31 0 32 57 0 0 0 0 1 47 0 0 19 14 2 6 10 2 4 0 0 0 4 6 1 0 4 0 0 8 0 0 1 0 4 0 0 3 0 2 3 0 0 2 2 2 0 4 2 3 0 3 0 0 0 0 1 0 0 2 4 0 0 6 0 2 3 0 0 0 0 
0 0 0 0 0 7 8 2 0 0 8 26 0 0 0 0 0 11 10 12 0 3 9 0 0 0 0 17 9 0 0 5 0 0 0 0 0 0 23 0 0 23 0 0 17 0 5 0 0 0 2 2 0 0 2 1 1 0 0 1 0 7 0 0 0 0 0 10 0 0 0 0 0 0 1 1 7 34 13 0 0 21 0 7 2 0 0 0 4 4 3 20 42 28 12 18 15 0 14 7 0 6 0 0 0 9 7 0 39 30 3 0 0 0 0 15 11 3 0 0 15 13 3 32 10 0 0 5 6 10 0 0 1 20 0 13 12 0 0 19 9 0 16 0 0 1 0 15 28 0 0 5 2 0 0 4 10 0 0 7 2 0 19 0 0 4 0 0 0 5 10 0 0 0 3 0 12 31 0 0 0 10 3 0 28 9 0 0 0 0 0 0 20 10 0 10 0 2 29 24 25 35 42 41 28 10 0 0 0 22 38 3 0 0 0 0 37 16 15 0 0 0 30 13 38 46 0 0 0 33 8 0 19 2 0 2 0 0 0 16 0 0 0 0 1 0 0 0 3 14 1 4 8 2 0 0 0 2 0 0 0 8 0 0 5 2 8 0 0 4 0 0 2 6 2 0 5 5 1 1 2 2 2 4 0 5 0 0 4 0 0 0 5 0 0 4 4 4 1 0 
0 0 0 0 0 13 8 0 0 4 0 11 18 5 1 8 0 0 0 13 0 0 0 0 8 15 16 0 0 0 3 0 0 1 1 1 0 0 8 11 0 3 9 0 0 0 21 7 10 0 0 0 0 0 0 14 20 0 20 7 0 0 1 12 14 9 4 8 35 13 0 0 0 4 21 0 2 0 6 0 0 0 10 13 17 18 14 0 0 0 0 0 0 3 7 14 0 0 1 0 8 13 34 44 0 0 0 0 0 0 4 3 22 24 19 0 6 4 9 0 0 20 19 4 18 0 0 6 2 19 16 0 0 0 0 10 0 0 0 0 1 23 12 0 0 12 4 0 0 6 2 0 0 9 8 7 23 0 0 1 0 0 3 13 6 0 1 6 0 0 0 0 0 0 12 15 7 0 0 0 0 0 4 0 0 9 0 2 4 0 6 0 0 0 0 0 0 0 0 0 0 0 0 10 0 7 0 27 0 0 0 21 45 37 45 1 0 0 41 34 0 0 0 0 35 56 0 0 0 42 37 0 0 94 19 0 0 51 11 6 0 0 32 0 7 8 0 0 0 12 0 5 8 0 0 5 2 7 0 0 0 0 1 1 0 0 8 0 0 0 0 0 1 0 0 0 0 0 0 1 0 0 0 0 4 8 0 0 0 2 0 0 2 3 0 0 3 0 0 0 
0 0 0 0 0 0 1 0 0 5 0 7 0 0 14 5 0 0 0 2 0 0 1 0 12 20 0 0 0 0 29 0 0 8 8 1 20 6 0 0 15 19 0 0 0 9 6 0 0 0 22 30 16 14 12 12 0 0 7 0 0 0 17 8 0 0 15 0 0 0 10 6 0 0 0 25 9 0 18 12 0 0 9 10 25 25 9 11 21 21 10 0 0 3 3 7 7 26 0 0 0 0 0 0 23 26 7 0 0 0 0 0 0 0 0 12 9 0 0 0 3 0 0 0 0 6 0 0 4 3 45 0 0 19 16 0 0 21 0 0 0 0 9 13 0 0 3 0 0 5 6 9 2 0 5 0 22 14 0 0 0 0 0 2 2 1 4 4 0 0 0 4 0 2 2 0 0 0 5 26 9 0 0 19 0 6 10 43 0 13 16 18 10 11 0 0 0 0 0 1 0 0 0 0 0 0 0 0 0 0 0 0 0 4 37 87 47 0 0 0 0 30 4 0 0 20 39 0 0 0 80 59 0 0 76 72 9 0 0 34 15 0 30 6 0 9 9 8 0 0 3 0 0 0 1 2 2 4 5 0 5 2 0 0 0 0 0 8 0 0 0 0 0 2 0 0 8 6 5 0 0 6 2 0 0 1 0 0 0 0 0 0 0 4 0 0 5 0 0 0 
0 0 0 0 0 1 1 4 6 0 0 1 0 14 0 0 0 0 0 6 0 4 9 7 0 0 0 0 13 19 0 0 0 3 0 0 0 4 0 5 12 0 0 16 12 0 0 2 22 18 15 2 0 1 22 2 0 0 5 0 0 0 0 15 0 0 0 0 0 24 21 0 0 4 22 13 0 4 31 17 18 0 0 0 0 0 0 11 25 0 0 0 0 0 0 22 21 7 13 19 0 21 0 0 0 0 20 29 26 14 3 14 5 14 0 0 0 7 19 7 0 0 0 0 3 2 0 0 6 0 16 0 0 18 27 6 3 23 12 7 0 0 1 0 0 0 10 14 12 0 0 0 11 0 0 0 0 19 8 0 0 2 0 0 0 2 17 6 0 5 0 1 22 0 0 0 0 0 8 8 22 15 0 21 14 0 0 0 0 13 0 0 0 17 0 0 6 12 0 0 0 8 0 0 0 0 0 22 1 0 0 0 0 0 0 0 6 31 58 6 0 0 42 1 0 0 8 49 32 0 0 61 88 0 0 36 92 51 0 0 61 23 0 17 1 0 22 17 0 0 11 0 0 18 3 3 0 0 2 0 4 0 0 0 2 0 0 6 0 0 3 2 3 1 0 0 3 2 1 2 0 0 3 0 0 1 1 4 0 1 0 0 0 4 0 0 3 1 0 0 
0 0 4 0 4 13 0 0 12 12 0 0 16 4 0 29 0 0 19 3 9 0 0 9 0 1 11 2 17 0 0 12 5 0 0 14 0 11 15 23 0 0 0 0 7 0 1 18 20 13 39 3 0 0 7 23 1 0 0 2 32 7 4 25 36 44 13 8 6 22 33 34 24 0 0 0 0 0 0 0 6 5 0 19 19 17 0 17 15 16 23 6 0 0 0 0 0 0 0 5 0 0 0 19 0 0 0 0 0 2 0 0 0 0 1 0 0 0 0 0 0 6 13 0 7 8 0 0 1 0 14 0 0 0 0 3 0 8 0 15 15 0 0 0 11 15 24 13 0 0 7 0 0 0 5 4 0 0 0 0 3 5 0 0 0 0 0 8 0 0 0 0 9 0 0 3 6 0 0 0 27 28 0 0 0 0 0 22 33 9 17 11 0 0 15 11 0 0 0 3 8 13 0 10 25 14 4 5 0 11 4 5 16 29 0 0 0 0 0 27 44 0 1 73 91 9 0 0 0 13 0 0 19 59 0 0 0 65 77 0 0 50 24 0 10 0 0 4 15 0 0 0 7 0 4 7 0 0 3 0 3 0 0 2 2 1 0 0 0 0 1 7 0 0 0 0 0 0 0 3 0 0 2 0 0 1 4 0 3 0 0 0 1 0 0 0 0 0 0 0 
0 0 0 13 1 0 2 0 0 7 0 6 5 0 0 0 0 0 0 0 11 13 0 0 15 15 5 0 10 0 5 18 9 4 7 5 4 13 0 0 0 6 18 1 20 1 1 8 0 0 0 0 9 0 0 35 0 0 17 25 35 16 21 21 0 0 0 0 0 0 0 0 23 0 0 0 0 0 0 0 0 6 15 0 0 0 10 0 16 14 25 25 0 32 20 0 0 0 30 30 29 22 29 5 38 61 0 0 0 6 12 0 10 0 12 4 5 10 5 0 0 11 2 9 11 7 2 1 0 0 0 16 0 0 0 0 0 0 0 0 19 0 0 10 0 7 0 0 9 7 9 8 0 10 2 0 0 14 21 11 5 11 4 5 8 9 0 0 6 0 0 2 0 6 10 8 18 10 10 7 5 0 0 16 10 22 39 27 6 2 11 22 0 0 0 0 0 5 2 0 22 22 6 0 0 0 15 10 2 6 12 7 0 3 6 3 0 0 0 0 0 0 0 0 59 76 33 0 0 0 0 0 0 32 41 0 0 0 41 69 0 0 9 1 12 28 0 0 0 9 7 7 0 0 10 5 0 0 5 0 3 0 0 3 4 3 3 3 3 2 5 5 2 0 0 0 0 0 2 3 0 0 0 0 0 0 3 0 2 0 0 2 0 2 0 0 0 2 0 0 
0 0 0 0 0 4 12 1 12 0 0 20 0 5 16 5 0 1 0 0 0 9 0 7 18 0 0 0 0 4 0 0 3 7 7 2 7 19 0 0 16 10 0 3 12 3 3 2 0 7 13 0 21 8 5 12 0 0 0 0 0 3 0 0 0 0 2 12 16 13 0 0 0 0 25 15 0 21 35 17 0 0 0 3 0 0 0 0 0 0 6 29 14 17 0 0 9 0 0 0 0 2 4 0 0 10 0 12 1 0 0 4 2 6 0 0 12 0 0 11 10 0 3 0 0 0 0 2 0 5 0 7 20 0 0 0 0 2 0 4 0 8 0 9 0 7 0 0 0 0 0 15 8 5 2 0 1 6 0 0 1 0 5 13 0 17 13 0 2 4 4 0 0 0 0 0 0 0 9 0 0 0 0 26 0 0 15 0 0 0 0 0 0 30 26 1 0 0 0 0 0 0 0 0 0 0 0 0 0 0 0 0 0 0 6 27 54 48 30 22 0 0 0 0 0 7 69 62 22 0 0 0 0 0 39 0 0 42 12 28 52 25 14 11 15 4 12 8 0 0 11 6 0 0 27 3 0 0 0 0 3 0 0 0 0 0 0 0 0 0 0 0 0 2 0 0 0 1 0 0 3 0 0 1 3 0 2 0 0 2 4 0 1 0 0 5 4 1 0 0 
0 0 4 0 0 6 0 3 10 0 0 3 0 0 2 12 0 0 7 0 0 10 0 21 18 0 7 18 0 0 0 5 11 5 9 0 8 7 0 1 15 7 0 3 15 1 8 0 0 23 34 13 9 0 22 0 0 22 39 22 0 0 0 0 20 16 13 21 5 0 33 25 0 1 21 18 2 0 0 20 35 14 0 22 33 6 0 26 1 0 0 0 5 0 11 10 34 33 0 0 8 0 0 13 16 7 0 8 0 6 0 0 0 17 14 4 0 2 0 17 6 0 0 0 0 0 0 0 2 0 0 7 16 2 19 6 11 13 0 9 1 19 0 0 0 12 4 0 0 0 0 5 0 0 8 13 6 3 2 0 0 0 0 0 0 0 9 0 0 1 0 13 23 0 0 0 0 0 19 0 0 5 13 0 0 0 0 0 0 0 11 0 0 1 7 29 40 12 28 43 1 29 44 35 8 0 19 15 0 0 18 25 15 7 0 0 0 0 0 24 42 0 0 0 0 0 0 21 82 30 0 0 0 0 5 37 0 3 9 10 0 0 49 0 0 23 12 6 0 0 0 0 16 0 6 2 4 5 7 0 3 0 0 0 0 0 0 0 0 0 0 0 0 0 0 0 0 1 2 0 2 2 3 0 0 0 4 1 0 1 3 0 1 0 0 5 3 1 0 0 
0 0 2 1 10 0 0 7 0 0 3 0 0 13 9 0 0 11 10 0 4 12 10 0 0 0 0 0 0 10 0 1 8 0 0 9 7 0 0 0 18 0 6 6 28 1 0 19 6 4 3 0 0 6 0 0 15 38 9 0 0 3 7 17 0 0 22 11 0 0 17 0 34 11 0 10 12 25 0 21 20 16 0 0 0 0 0 0 19 6 3 0 5 0 7 0 12 8 1 16 12 0 20 25 7 2 23 0 0 5 12 0 0 0 5 8 0 5 5 6 0 0 0 1 1 7 0 0 3 0 14 4 0 0 0 6 0 5 0 0 4 0 0 0 10 5 5 0 2 7 9 0 0 0 6 0 0 6 4 14 0 0 6 18 4 10 10 7 0 0 6 16 18 0 12 16 3 0 0 6 5 0 0 16 0 0 13 6 5 4 0 2 17 0 0 0 18 35 22 26 0 0 23 26 2 0 0 12 0 0 0 0 0 6 4 0 7 21 2 0 0 61 58 0 0 0 0 0 0 53 75 30 0 0 0 8 0 0 2 55 0 0 0 39 0 18 48 13 20 4 7 0 1 0 11 2 1 1 0 0 1 2 4 0 0 0 4 4 0 0 0 3 2 2 2 4 0 1 0 0 0 0 2 1 0 1 0 0 3 0 2 1 0 5 0 0 3 1 0 0 
0 0 0 0 21 0 0 8 0 0 0 7 0 4 16 0 20 12 0 5 0 0 0 0 0 6 2 0 0 21 10 0 4 0 9 12 0 0 34 5 0 0 11 0 0 0 0 1 0 17 0 0 14 7 1 0 0 0 0 0 38 21 7 32 6 0 30 0 0 11 12 17 15 11 9 23 9 0 0 0 0 0 0 0 0 1 29 0 0 0 0 0 8 12 0 7 0 0 0 0 11 12 0 0 7 0 0 0 0 0 10 10 4 4 1 0 0 0 17 6 0 4 0 0 0 12 8 0 3 8 5 4 0 3 0 0 14 2 2 0 0 0 0 18 3 0 6 0 0 1 3 12 2 10 1 0 0 0 0 3 0 0 3 11 0 0 0 14 15 4 0 5 1 0 0 0 18 31 9 0 0 0 6 16 22 0 1 4 2 0 0 0 7 22 15 0 0 0 0 2 13 0 0 0 21 41 29 5 36 47 6 29 21 0 0 0 8 9 29 36 0 0 66 75 27 9 0 0 0 0 61 84 0 0 0 27 0 0 0 47 50 0 0 0 0 0 0 0 0 8 0 0 20 0 0 10 3 0 0 0 0 3 3 1 0 2 3 4 0 0 5 1 1 1 1 4 0 0 1 0 0 0 0 3 0 5 0 0 1 0 0 0 0 0 5 0 0 0 0 0 
0 0 6 8 1 0 0 0 0 7 0 9 7 0 13 0 4 0 0 12 17 0 0 3 0 4 7 0 0 0 4 0 1 2 30 0 0 7 21 5 0 0 2 0 0 4 14 11 0 20 0 0 21 15 16 12 0 0 30 22 14 0 9 1 3 18 6 0 0 0 0 0 0 0 0 0 0 3 11 0 0 11 0 0 33 5 0 4 19 3 0 0 0 0 3 18 0 0 21 10 0 10 0 0 0 14 0 4 0 0 0 0 0 3 6 2 0 13 9 0 5 0 0 5 1 0 9 0 3 2 0 8 0 0 0 1 9 3 8 0 9 15 1 0 0 0 6 10 6 4 2 1 0 0 0 0 1 11 0 0 0 14 5 0 0 0 0 3 0 1 0 0 2 11 0 0 0 3 2 8 7 0 0 0 0 4 0 0 8 0 0 7 0 13 2 0 3 0 4 8 0 0 0 0 5 0 0 3 26 16 18 14 28 47 2 9 3 0 0 6 2 0 0 30 40 40 28 0 0 0 0 47 94 20 0 0 27 35 0 3 67 49 0 0 9 0 0 24 0 0 3 0 11 0 0 16 0 0 0 0 0 2 2 0 0 0 6 6 0 0 2 0 0 0 0 3 0 0 1 3 4 0 5 5 0 3 0 1 5 0 1 0 0 4 0 0 2 2 0 0 
0 0 8 3 0 3 0 0 7 10 0 0 0 0 8 0 11 0 0 8 8 0 5 5 0 0 0 18 1 0 6 3 7 0 14 0 9 15 8 0 9 0 2 7 6 0 0 0 1 17 0 0 54 11 2 0 0 1 36 3 13 0 13 7 0 18 0 0 18 27 6 0 5 0 0 0 22 39 4 11 18 34 34 20 4 0 0 0 0 0 21 4 0 0 7 0 16 13 11 7 0 9 0 7 9 0 0 0 0 1 0 0 0 0 0 0 9 0 0 1 6 0 0 0 0 0 3 3 5 3 6 8 0 9 0 3 7 2 0 0 7 4 8 7 0 0 0 4 0 0 0 0 5 0 5 0 10 11 0 0 2 8 3 0 0 17 4 0 0 0 0 0 0 0 0 18 0 0 0 3 0 0 10 0 1 0 0 0 1 0 0 0 0 0 0 12 4 0 0 0 15 25 16 0 0 0 0 8 19 0 0 0 0 1 7 0 30 5 0 0 0 57 22 0 0 24 41 75 34 0 0 0 37 85 50 0 0 9 2 0 40 31 19 10 33 0 0 20 37 0 12 0 0 4 0 8 1 2 2 3 2 0 0 4 1 0 0 0 3 3 0 0 0 0 0 3 0 0 0 0 0 0 2 3 2 0 4 0 0 2 0 4 8 4 0 0 2 0 0 0 
0 0 0 7 13 0 0 3 0 6 8 1 0 0 6 0 0 3 2 0 4 9 17 13 0 0 0 2 20 12 0 0 5 0 6 4 9 26 11 0 7 0 0 0 7 0 3 1 14 0 12 19 0 0 0 15 0 12 10 0 14 0 0 11 0 0 0 5 8 1 2 0 1 6 27 25 0 0 0 22 15 0 0 0 0 22 13 0 0 25 0 0 21 7 12 11 22 17 8 0 0 0 0 0 13 11 0 0 0 0 0 9 24 11 17 9 6 0 0 5 0 15 0 0 11 2 0 0 1 0 0 0 0 1 7 22 0 0 0 0 0 0 2 5 17 6 0 0 7 0 0 11 0 0 20 6 0 7 5 3 8 6 5 13 0 0 0 0 0 0 0 0 0 0 0 0 6 17 0 0 0 0 0 0 0 6 4 0 9 4 13 16 4 7 9 8 0 0 0 0 0 4 44 27 6 5 6 15 0 0 0 21 0 0 0 0 14 20 0 0 0 0 50 32 0 0 1 49 54 42 0 0 0 13 66 65 0 0 0 0 29 60 24 8 10 36 0 0 13 27 0 0 12 1 0 7 18 8 1 0 2 2 1 3 2 0 0 0 1 1 0 0 0 0 0 3 0 0 0 0 0 0 0 0 2 0 3 0 0 4 3 0 2 0 0 0 0 3 4 0 
0 0 3 2 10 0 2 9 0 0 11 0 0 0 3 0 0 20 4 0 0 0 0 0 0 0 2 9 0 0 8 0 22 0 14 0 0 12 0 0 12 5 0 0 8 4 0 7 14 0 25 0 0 15 18 21 12 0 0 32 18 3 0 0 0 5 10 0 28 29 0 0 3 27 0 0 0 9 9 3 0 34 10 0 11 44 14 0 0 32 7 0 21 16 14 0 8 0 0 0 0 1 2 16 0 0 0 16 17 0 0 0 0 0 0 7 0 0 12 0 0 13 4 2 2 0 1 0 0 0 0 4 0 0 0 0 0 0 6 0 0 0 0 0 0 0 0 0 0 0 0 1 0 1 9 0 4 0 6 5 0 1 3 23 4 0 0 5 0 7 6 10 13 0 0 0 0 14 20 4 28 25 0 0 0 1 1 0 11 6 0 0 2 0 7 16 9 0 0 0 0 0 0 2 20 22 7 0 7 2 0 0 0 8 13 6 15 0 0 0 4 0 0 0 40 17 0 0 41 93 60 15 0 0 0 73 74 6 0 0 0 0 47 14 7 24 25 0 0 25 12 0 0 6 0 0 0 1 12 0 0 0 2 2 0 1 1 0 1 1 0 0 0 0 0 3 0 0 1 1 5 1 0 3 2 0 0 0 0 5 6 0 0 0 2 0 5 0 0 0 
0 3 0 0 6 0 0 0 6 0 0 4 13 4 0 4 10 0 0 10 3 0 0 14 17 0 11 16 0 0 0 0 3 0 17 0 5 8 0 11 1 0 1 0 2 4 7 15 7 0 0 0 12 5 0 0 6 0 11 22 0 0 2 10 26 5 20 0 0 0 0 7 0 0 9 10 3 6 1 12 0 0 14 18 1 0 0 1 22 8 12 0 0 8 7 0 0 0 0 0 4 3 0 1 0 27 52 19 0 4 16 8 0 0 9 6 0 5 2 3 3 0 0 0 0 0 0 0 0 0 0 0 0 0 0 0 0 0 0 0 6 13 2 6 1 9 15 18 14 13 0 0 0 0 0 0 0 0 0 0 0 0 0 3 4 12 4 0 4 0 0 0 6 11 14 0 0 0 0 0 2 24 35 28 10 13 3 0 0 0 0 0 0 0 0 20 21 20 17 17 0 0 0 0 0 0 26 0 0 0 9 4 14 5 0 5 0 16 24 13 4 9 0 0 0 37 47 0 0 22 44 52 19 0 0 0 40 21 0 0 0 0 12 0 10 1 0 0 0 0 0 11 0 5 8 0 0 0 0 11 12 0 0 1 0 5 0 0 1 1 0 0 0 0 0 5 0 1 5 4 5 0 0 1 3 0 0 2 0 0 0 0 0 1 6 0 3 1 0 0 
0 0 5 0 9 15 3 0 5 2 2 18 0 1 2 7 5 0 3 12 7 14 0 6 10 0 0 1 3 2 0 17 0 3 16 0 0 0 0 10 3 11 9 10 8 0 9 16 0 0 0 12 15 15 2 0 7 0 13 0 0 0 19 3 15 0 0 9 6 2 0 25 29 0 2 29 17 0 6 0 0 19 0 0 0 0 0 47 33 0 0 4 0 0 0 2 0 11 6 3 0 1 12 6 0 21 23 0 0 4 0 0 0 3 0 0 0 3 4 15 9 0 0 0 5 10 0 0 4 8 6 11 9 26 11 19 1 3 2 10 13 0 12 22 15 2 0 9 6 2 17 41 17 0 0 6 0 0 0 0 0 0 0 0 1 0 13 4 0 2 5 0 0 0 6 0 1 15 0 0 0 0 10 10 4 9 5 7 20 11 1 4 2 3 0 0 5 19 7 7 0 0 0 14 0 0 3 0 14 8 0 0 0 0 0 1 0 0 0 0 3 11 13 2 0 0 0 52 27 0 0 0 25 1 0 0 0 27 22 0 0 15 0 3 13 11 0 0 17 0 0 0 4 11 5 4 12 11 1 0 0 9 4 7 0 1 0 0 3 4 3 3 1 2 4 3 0 0 6 2 0 0 0 3 4 0 0 0 4 0 2 0 0 0 2 0 4 1 0 0 
0 0 0 6 14 0 3 0 0 0 0 9 4 5 0 0 0 0 0 0 0 13 12 0 0 1 0 0 19 9 5 0 0 5 15 0 0 0 1 0 0 0 4 0 7 0 11 0 0 0 19 11 9 0 0 0 0 8 1 0 16 13 8 0 20 11 16 30 7 0 14 3 0 0 44 0 0 0 18 36 29 0 0 0 0 35 42 10 0 1 18 21 8 3 0 10 0 2 2 30 20 6 3 3 2 0 3 0 0 0 0 3 8 0 4 0 0 0 0 0 0 0 5 0 12 28 3 0 0 14 9 7 0 0 0 22 8 11 12 11 6 0 0 0 0 0 0 1 0 0 0 4 5 9 15 20 26 19 23 0 0 0 0 0 10 1 0 7 0 11 0 0 8 0 0 0 1 15 10 8 0 0 0 0 0 0 0 0 0 2 5 8 0 0 0 0 0 0 0 0 0 10 9 0 15 33 10 0 4 0 3 14 0 0 7 0 18 0 0 0 0 2 2 0 7 0 0 0 5 33 14 13 41 29 5 0 0 13 48 0 0 19 0 0 13 6 18 0 0 7 19 0 0 0 0 0 0 0 18 0 0 0 0 8 5 0 3 0 0 0 0 0 3 0 0 0 0 2 6 0 0 2 0 1 1 2 0 0 0 2 2 3 4 2 0 0 1 1 0 0 
0 0 0 1 0 0 0 0 2 16 0 0 8 21 0 0 8 5 0 0 0 8 22 0 0 0 0 0 17 0 10 0 1 14 8 0 10 8 0 4 12 7 8 0 0 0 5 0 0 12 14 16 3 0 18 0 0 8 27 1 3 0 16 0 0 0 0 0 0 0 16 41 0 0 43 0 0 16 0 0 0 0 0 0 13 45 26 0 0 9 2 0 0 0 8 0 0 20 10 0 0 6 6 0 0 0 0 0 0 1 0 0 0 0 8 9 2 2 2 0 2 0 3 6 0 0 0 0 0 6 12 0 0 0 1 9 0 0 0 0 6 1 0 14 0 4 6 2 6 11 0 0 0 0 0 0 0 0 8 17 16 26 15 0 0 0 0 5 0 22 28 15 0 4 1 4 0 0 0 0 0 21 8 0 0 0 0 2 5 3 0 5 0 0 1 7 0 0 5 15 0 0 6 0 4 55 0 0 0 0 0 13 0 0 0 0 1 10 2 10 11 0 0 0 0 5 1 0 0 0 30 2 32 10 21 30 0 0 63 39 0 23 37 0 5 30 17 9 0 0 15 2 0 5 0 0 0 0 2 9 9 7 0 0 0 0 0 11 4 0 0 0 1 1 0 0 4 0 0 0 0 2 1 0 0 2 0 0 0 0 0 0 1 0 0 0 0 0 0 0 
0 0 10 12 0 3 12 0 9 1 0 0 0 5 4 9 6 14 8 16 4 0 0 7 0 8 7 0 18 0 4 7 3 0 0 6 4 0 0 1 23 2 0 0 17 11 13 0 8 34 9 0 0 0 17 7 12 3 0 6 22 23 0 0 1 0 0 0 34 27 28 27 0 0 7 0 30 16 0 0 0 0 0 6 47 13 0 0 0 0 0 6 0 0 2 13 22 10 4 0 3 0 0 0 0 0 0 0 0 3 6 8 20 15 16 7 4 8 9 13 0 0 5 0 10 9 7 2 8 0 5 1 12 9 5 0 0 0 0 0 0 0 0 0 0 0 0 0 0 0 0 1 0 0 0 0 0 0 0 0 0 4 14 21 32 0 0 0 0 0 13 26 0 5 15 9 4 0 0 8 0 1 1 24 19 13 0 0 4 0 0 4 5 0 0 0 11 1 0 0 1 5 23 0 0 24 0 5 48 21 0 20 7 15 4 8 0 0 2 4 10 0 0 10 12 12 0 0 0 0 11 29 1 51 34 77 0 0 0 94 0 0 0 24 0 9 15 12 1 0 21 5 0 4 0 0 4 0 4 1 6 6 0 4 0 0 0 5 5 0 0 0 3 4 0 1 4 0 0 5 0 0 0 2 0 2 0 0 0 0 0 0 0 2 1 0 0 0 0 0 
0 0 8 0 0 0 9 0 8 0 0 9 0 0 9 13 0 2 0 0 0 2 7 14 0 0 0 8 0 0 22 9 0 4 0 0 0 7 11 0 0 0 0 2 26 0 8 2 0 0 0 0 4 1 0 0 2 20 0 0 0 0 0 0 17 10 11 36 61 36 17 0 0 0 0 0 52 0 0 1 0 0 0 67 20 0 0 14 0 6 0 2 17 32 23 12 0 0 0 0 0 0 0 0 10 15 15 12 2 5 10 16 6 5 0 5 10 0 9 8 0 21 21 9 12 5 14 17 4 1 0 0 1 0 10 0 17 11 5 0 9 19 10 20 7 0 2 15 12 1 15 8 0 11 10 5 7 12 0 0 3 0 0 0 21 26 50 17 0 0 0 0 3 14 11 5 10 3 0 0 3 4 0 0 0 9 27 0 0 0 24 14 0 6 0 0 1 0 9 7 0 2 26 18 0 0 0 0 0 13 0 5 6 9 6 5 0 0 6 0 0 0 14 0 5 8 0 0 12 0 0 9 16 1 3 33 74 1 0 0 61 0 0 57 11 0 36 26 0 0 0 20 0 0 0 1 4 0 1 1 2 6 3 4 6 3 0 0 3 0 0 0 0 11 0 0 1 0 3 4 3 0 0 0 1 2 0 0 0 0 0 0 0 0 1 2 2 3 0 0 
0 0 0 0 2 0 7 4 6 0 0 1 0 0 10 0 0 11 5 7 0 13 2 2 3 18 0 0 0 0 11 0 0 6 0 0 1 20 25 22 0 0 7 6 31 0 0 0 0 0 28 12 0 5 0 12 6 13 0 0 13 0 5 17 14 0 0 41 7 0 0 0 10 0 0 0 0 0 9 0 0 0 81 35 0 1 11 0 2 0 13 2 11 7 0 0 0 0 0 0 21 20 16 22 0 8 7 3 0 9 0 0 0 1 0 0 0 0 0 0 0 6 0 0 0 2 0 0 5 10 0 3 8 0 4 9 16 0 12 15 6 13 10 17 9 16 4 5 0 0 8 0 7 12 7 7 11 4 0 4 15 0 0 0 0 0 10 2 47 26 1 0 0 0 0 12 0 0 21 0 6 11 0 3 1 0 5 32 2 0 0 5 4 3 6 1 6 7 12 8 0 0 0 33 16 2 0 0 0 0 6 12 0 0 0 0 17 16 24 0 5 5 0 0 0 0 0 0 0 14 0 0 0 17 0 0 3 90 2 0 60 7 0 16 22 0 0 44 0 0 0 13 0 3 0 0 0 9 0 0 0 2 0 0 0 12 11 0 1 0 1 3 0 1 5 0 0 0 3 4 1 0 0 1 1 0 0 0 0 0 0 0 0 0 0 0 2 4 0 0 
0 0 0 18 9 0 3 0 1 4 8 0 0 0 0 0 1 0 4 6 0 8 0 0 6 4 26 7 0 6 0 0 11 0 8 22 0 0 0 0 0 4 20 8 0 0 16 0 0 37 8 0 20 4 2 3 0 0 18 0 14 8 0 26 21 0 0 11 0 0 5 25 23 1 0 17 0 0 0 0 0 59 45 0 0 0 0 2 33 7 11 0 0 0 0 0 0 26 37 34 12 12 10 3 8 5 21 4 0 9 2 0 0 0 0 0 0 6 5 2 0 5 13 0 0 10 0 0 0 11 8 4 11 6 0 0 9 0 5 21 0 5 0 0 0 21 3 0 4 10 16 5 0 7 5 11 6 8 0 19 12 0 0 1 9 0 2 0 3 36 33 5 0 0 0 0 0 4 11 1 0 9 0 12 4 10 0 0 32 13 0 0 0 7 10 13 4 0 0 3 26 9 0 0 25 5 0 10 0 0 0 0 10 31 10 0 0 9 18 0 0 19 26 16 0 0 5 8 0 0 7 0 0 43 52 28 0 42 60 0 0 29 0 36 2 0 0 28 18 6 19 12 4 0 0 0 0 1 0 1 0 0 2 3 1 0 3 0 0 7 0 0 0 2 0 0 2 0 0 6 4 0 0 3 0 3 4 6 2 0 0 0 0 0 0 2 0 0 0 0 
0 0 2 1 6 0 0 0 0 3 0 0 4 18 0 0 3 0 0 0 2 0 5 8 0 0 5 4 4 0 0 0 11 0 4 11 0 5 12 8 0 7 0 0 0 9 20 0 12 6 0 9 0 19 0 0 0 19 28 0 26 18 0 0 23 55 0 0 28 16 0 0 0 24 33 26 8 5 0 0 71 54 0 8 0 0 20 30 11 0 0 0 0 0 2 29 39 17 9 4 3 0 0 0 0 8 0 0 1 0 0 2 0 0 0 0 4 0 0 0 0 0 0 0 0 0 1 0 0 4 1 0 7 10 4 0 0 0 0 0 0 0 1 0 0 0 0 0 0 0 6 0 10 0 0 0 0 2 0 13 0 0 0 0 3 0 0 0 0 0 0 7 38 49 0 0 0 0 0 3 5 2 0 0 0 0 10 0 10 24 21 15 0 0 0 15 16 0 0 0 8 18 0 0 14 15 0 4 2 0 0 0 9 3 0 0 11 0 0 0 0 0 0 13 0 0 10 0 13 0 0 21 0 0 27 46 0 12 84 0 0 16 0 0 3 37 7 9 9 0 10 0 6 0 0 0 0 0 0 0 0 0 2 0 0 0 0 1 0 10 0 0 2 0 0 0 6 1 0 0 8 0 0 0 2 0 5 0 0 1 0 0 0 0 0 2 0 0 0 0 
0 0 11 0 8 0 0 3 1 0 0 1 5 13 0 6 9 0 1 0 0 0 0 5 2 1 0 0 0 9 8 0 0 0 0 1 21 0 0 0 0 0 0 0 8 24 0 0 35 2 0 22 0 8 0 0 0 0 0 0 2 20 16 4 40 5 0 0 38 0 16 51 34 28 0 0 0 0 0 24 66 7 1 5 0 15 52 0 0 0 0 0 0 16 35 18 13 0 2 0 3 0 0 0 0 0 0 0 0 0 0 0 0 0 0 0 0 0 0 0 0 0 0 0 0 0 0 0 0 0 0 0 0 0 0 0 0 0 0 0 0 0 0 0 0 0 0 0 0 0 0 0 0 0 0 0 0 0 0 0 0 0 9 6 12 0 7 12 0 0 2 8 0 5 34 32 13 0 0 0 0 0 31 11 0 0 7 0 0 0 0 31 9 0 0 0 2 22 11 0 0 14 0 0 0 18 5 4 9 3 0 0 23 0 15 5 0 0 22 13 2 0 0 0 20 4 4 0 6 0 0 0 0 0 0 0 14 26 65 61 0 0 32 0 0 50 27 0 0 0 7 1 8 0 0 0 0 0 0 0 1 4 0 0 0 0 7 0 7 8 0 0 2 1 0 1 2 4 0 0 0 0 0 0 8 5 0 0 0 3 0 0 0 0 0 1 0 0 0 0 
0 0 0 0 10 0 4 6 0 0 0 0 0 0 0 0 1 9 28 11 0 1 0 13 20 0 0 7 0 0 12 7 0 0 0 1 9 0 0 0 14 22 0 0 15 23 0 0 0 6 9 0 0 0 0 0 21 28 0 0 0 0 0 25 21 0 11 14 0 17 19 11 0 0 0 0 0 0 35 65 5 0 0 38 38 0 0 0 0 0 19 37 38 16 13 9 10 0 0 0 0 0 0 0 0 0 0 0 0 8 14 20 30 2 12 17 0 0 0 7 5 12 4 0 0 0 0 0 0 0 0 0 0 0 0 18 19 19 31 35 36 35 17 18 17 21 29 17 13 19 7 15 0 0 0 2 18 22 0 0 0 0 0 0 0 8 3 0 1 0 4 3 0 0 4 2 22 54 19 0 0 0 0 20 17 0 0 0 0 0 1 13 13 17 0 0 0 4 26 26 0 0 4 0 0 1 6 0 18 15 0 0 10 0 5 2 0 0 0 0 4 0 3 0 4 16 0 0 7 0 0 14 0 0 0 0 0 17 32 49 10 0 38 0 0 8 0 0 6 0 0 16 3 0 0 0 0 0 0 0 0 6 0 4 1 0 8 0 7 0 0 0 2 1 0 0 1 0 0 0 0 0 0 0 8 8 0 0 0 3 0 0 0 0 0 0 1 3 0 0 
0 0 2 5 6 0 1 3 7 0 5 5 1 0 9 0 0 12 6 5 9 7 0 0 8 11 3 0 0 0 4 9 0 27 25 0 0 0 18 0 12 0 12 20 17 17 13 34 0 0 17 0 0 28 27 0 14 17 0 0 0 14 32 0 0 0 23 8 0 0 0 0 0 0 17 4 0 0 87 10 0 0 33 37 0 0 0 0 32 62 26 10 9 0 0 0 0 0 0 0 0 0 11 12 21 47 36 30 33 18 15 14 15 22 28 26 17 45 33 9 23 14 19 32 30 26 31 33 34 41 26 24 32 42 50 16 20 11 13 15 16 13 5 0 5 20 24 23 23 19 11 19 25 33 17 19 0 13 40 40 38 23 0 0 0 0 0 0 3 13 2 0 0 0 0 0 0 3 16 24 13 9 0 0 9 29 0 0 0 19 12 0 17 3 13 25 0 0 0 16 16 5 1 6 0 0 0 0 9 23 0 0 0 0 0 2 3 0 15 0 0 0 10 3 0 5 0 18 0 37 0 0 23 13 0 0 0 0 4 0 50 0 0 0 0 71 0 0 26 8 0 0 8 0 0 2 0 0 0 0 0 7 0 1 0 0 6 3 0 0 5 0 1 1 0 0 0 0 0 3 1 1 0 0 0 3 1 0 0 4 2 3 3 3 3 2 0 0 0 0 
0 0 24 0 0 3 0 0 0 0 9 12 0 7 10 22 0 0 0 0 0 5 10 17 0 0 7 0 19 19 0 4 20 15 0 4 0 0 31 4 10 0 6 24 2 0 0 18 30 4 0 4 15 35 25 0 0 0 18 0 18 50 29 0 0 0 0 15 20 0 0 0 0 3 13 0 0 31 39 0 10 42 23 0 0 0 37 40 36 24 0 0 0 0 0 0 0 7 25 17 33 38 34 19 13 0 0 0 0 0 0 0 0 0 0 0 0 0 0 2 6 0 0 0 0 0 2 8 0 0 9 0 0 0 12 0 0 0 0 0 0 0 0 0 0 4 0 0 0 0 0 0 0 0 0 0 8 0 5 5 9 29 51 57 37 7 0 0 0 0 3 0 0 0 0 0 2 0 0 0 5 29 25 0 0 1 31 0 0 0 0 0 10 0 0 16 7 0 0 0 0 9 0 4 0 0 0 13 0 0 8 3 2 0 0 17 0 4 15 0 3 11 0 0 0 7 4 0 0 21 8 0 0 9 20 0 0 0 0 0 40 58 0 33 0 60 72 0 0 47 0 0 18 5 5 0 2 0 0 0 2 0 1 0 0 0 0 7 0 0 4 0 0 0 0 0 8 11 4 0 0 4 1 6 2 0 0 2 0 4 0 0 0 0 0 0 2 0 0 0 
0 2 7 0 4 3 0 9 0 0 3 0 14 9 0 7 0 5 10 7 0 0 0 12 3 0 0 0 10 21 0 0 8 0 0 37 5 0 13 0 0 15 1 0 0 3 13 0 33 0 0 33 4 0 0 0 8 0 29 14 14 0 0 0 18 40 0 0 0 0 3 17 0 0 0 0 25 62 0 2 63 13 0 0 0 60 45 12 0 0 0 0 0 8 17 26 31 32 18 3 0 0 0 0 0 0 16 0 0 8 11 6 0 0 0 0 5 0 0 2 0 6 7 0 0 0 0 0 0 0 0 0 0 0 0 0 1 4 0 0 0 0 6 0 0 0 0 0 0 0 0 0 9 5 8 0 0 0 0 0 0 0 0 1 15 41 48 30 4 0 0 0 0 0 0 0 0 1 0 3 0 5 5 4 28 0 0 23 28 0 0 0 0 5 0 13 6 10 0 0 0 11 2 18 20 0 0 12 0 0 0 0 32 13 0 0 4 0 8 11 0 16 0 4 6 0 0 0 12 12 2 0 0 0 31 0 0 13 0 0 0 46 0 0 0 0 70 51 0 32 31 0 5 8 0 0 0 0 0 0 0 0 0 4 5 2 0 9 0 0 0 0 0 1 0 0 5 2 5 0 0 6 0 9 0 0 0 0 0 1 0 0 0 0 0 0 4 1 2 0 
0 0 0 0 9 5 0 4 4 14 11 0 0 0 7 4 0 0 1 0 0 9 12 0 0 0 26 0 0 0 27 0 0 16 14 9 1 0 15 0 0 24 15 0 13 23 7 0 18 3 0 53 15 2 6 10 33 25 26 0 0 0 15 20 17 1 4 2 11 7 0 0 0 0 0 5 76 22 0 51 10 0 0 9 48 28 0 0 0 0 0 11 37 24 9 0 0 0 0 0 0 4 0 10 13 9 5 0 8 0 0 0 0 12 0 0 0 0 0 0 0 0 3 0 0 0 0 0 0 5 2 15 3 0 7 11 4 11 14 5 8 16 16 0 14 2 16 22 17 11 12 0 4 0 0 6 0 0 0 0 0 0 0 0 0 0 0 27 30 33 24 13 17 2 0 0 0 0 0 0 7 0 0 9 9 12 0 1 39 54 0 0 0 10 12 32 6 7 2 2 0 0 0 15 18 18 0 0 5 10 0 0 6 17 0 0 4 0 0 6 3 13 2 2 0 10 0 8 0 0 19 11 0 0 0 6 0 43 8 0 10 0 0 0 0 0 0 82 0 0 43 0 0 10 0 0 0 0 2 0 0 1 0 3 4 4 0 1 0 0 0 5 5 1 0 2 0 0 1 1 0 0 0 5 2 0 0 0 0 3 0 0 0 0 0 0 1 2 0 0 
0 0 0 0 16 4 3 9 3 10 0 0 4 0 11 0 1 3 0 9 0 0 0 0 5 5 16 1 0 0 0 0 15 23 6 3 0 4 10 15 14 0 0 4 28 25 15 27 26 0 0 58 4 9 10 1 0 0 13 0 0 3 24 15 0 0 32 27 0 0 0 0 21 0 0 62 54 0 24 17 0 0 40 49 9 0 0 0 16 36 38 31 0 0 0 0 14 0 6 14 3 2 5 0 0 0 0 0 8 0 0 4 1 11 6 6 6 10 10 8 11 4 0 3 9 3 3 8 0 8 5 2 7 0 0 6 0 3 1 2 17 0 0 0 0 0 0 0 0 1 13 20 20 8 4 12 0 1 12 6 0 0 3 0 0 4 5 2 0 0 14 20 39 29 51 20 0 0 0 0 0 3 1 3 8 0 2 3 0 11 41 16 0 0 4 9 3 14 16 1 0 0 0 0 0 6 0 0 2 0 0 11 0 7 5 2 0 0 0 0 4 0 8 1 0 4 0 0 6 0 0 21 30 0 0 16 0 0 82 47 0 0 0 0 0 16 0 7 0 0 52 24 15 0 0 2 0 1 0 0 1 4 1 2 1 1 0 0 4 2 2 0 2 0 0 0 0 0 0 2 0 1 0 1 8 1 10 0 1 0 2 2 2 2 2 4 0 0 0 0 
0 0 0 0 4 0 0 0 3 9 0 0 5 5 0 0 0 6 1 15 7 0 0 0 0 9 0 7 0 0 8 5 9 1 0 0 0 0 1 0 12 13 0 3 11 0 0 0 0 1 0 0 0 48 36 6 0 0 0 0 0 2 7 0 0 0 5 0 0 0 42 5 7 0 0 57 10 18 35 0 0 38 65 0 0 0 1 36 33 12 6 0 0 13 7 3 14 0 0 0 0 0 2 0 0 0 2 0 0 0 2 0 0 0 0 9 6 1 4 0 0 0 7 3 5 2 2 7 2 0 0 0 0 0 0 6 0 3 6 0 5 0 0 10 6 11 4 0 0 0 0 0 0 0 14 0 1 11 18 17 20 14 11 0 0 0 0 0 1 4 2 0 2 0 3 22 37 36 5 0 0 0 0 0 0 0 12 0 0 12 0 0 16 0 0 3 0 0 19 11 4 0 0 10 2 19 9 0 0 0 0 13 0 0 6 10 18 0 10 0 0 0 29 2 0 0 0 0 11 0 0 0 17 15 0 0 0 0 10 64 36 0 0 0 0 0 0 64 49 0 9 0 25 25 0 2 4 7 0 0 0 2 3 0 0 3 3 0 6 1 2 0 2 0 0 1 0 0 1 1 0 0 0 0 0 0 0 5 5 2 0 0 0 0 0 2 0 0 0 0 
0 0 0 0 0 0 1 3 0 0 9 12 0 0 0 0 6 0 6 3 0 0 12 0 0 14 2 0 0 0 31 0 0 0 0 0 14 9 3 0 0 9 42 0 0 0 0 0 0 27 20 0 0 12 0 0 11 27 7 11 22 0 0 17 8 0 0 0 5 0 0 0 0 0 73 27 18 29 0 0 24 58 0 0 0 22 44 23 2 1 0 0 0 0 0 0 0 0 0 0 0 0 0 18 13 12 1 0 0 0 0 0 0 0 0 0 0 0 0 0 0 0 0 0 4 0 0 0 0 0 0 0 0 4 0 3 3 0 0 0 0 2 11 2 0 0 0 0 0 0 0 0 0 0 0 0 2 0 0 0 0 12 8 20 12 11 0 0 1 2 3 5 0 0 0 3 0 19 24 22 12 0 0 0 0 3 0 0 4 10 0 0 25 22 0 0 0 0 0 34 7 1 0 0 0 15 29 0 4 0 0 8 0 0 0 11 28 0 0 0 0 0 0 22 3 4 12 23 0 5 0 0 0 7 2 0 0 0 0 35 28 93 22 0 0 4 0 0 63 0 22 0 0 16 11 0 2 5 0 0 1 7 0 0 0 2 3 1 0 0 0 2 0 4 3 0 1 0 0 2 0 1 1 4 6 1 0 0 3 0 0 0 0 0 0 0 2 4 1 0 
0 0 13 0 0 0 4 13 0 0 5 0 7 0 1 0 7 6 4 0 1 2 15 16 9 14 0 0 1 0 1 0 0 7 12 0 15 23 16 0 0 0 0 0 0 7 48 48 16 0 0 15 0 0 0 0 0 0 11 0 0 0 3 0 0 0 0 57 48 0 0 0 0 0 43 28 31 0 0 19 37 0 0 5 52 46 4 0 0 0 0 0 0 0 0 0 0 0 5 10 8 5 12 4 0 0 1 6 0 0 4 0 0 10 18 11 1 0 0 0 0 0 0 0 0 0 0 0 0 0 0 0 0 0 0 0 0 0 0 0 0 0 0 0 0 0 10 14 9 17 0 5 6 5 0 0 0 0 0 0 0 0 0 0 3 21 19 17 0 0 0 13 0 5 0 0 0 3 0 9 36 14 0 0 0 7 0 0 0 6 10 15 0 21 30 0 0 0 0 4 13 34 1 0 0 3 14 0 8 9 0 0 15 7 0 4 3 14 4 10 7 0 0 24 11 0 10 8 0 9 0 1 0 0 33 19 0 0 0 0 1 33 22 0 0 0 0 5 30 0 16 19 0 18 0 10 8 1 0 0 0 0 0 4 0 0 0 2 0 0 0 3 0 4 3 0 0 0 0 0 6 6 9 7 3 4 0 1 2 0 0 0 0 0 0 0 0 1 0 0 
0 0 10 0 0 5 0 0 0 0 5 0 14 0 0 0 7 0 0 12 4 0 1 16 5 0 0 7 2 0 16 2 0 0 0 0 0 0 27 14 0 19 0 0 40 2 14 4 0 0 0 5 10 27 77 9 0 0 0 0 0 36 25 12 0 0 2 11 0 0 0 0 11 39 35 31 0 0 0 48 0 0 22 35 18 0 0 0 0 0 0 0 0 0 11 12 25 4 2 2 3 0 0 0 0 0 9 12 4 8 8 8 6 4 0 1 10 10 0 22 23 20 6 15 11 3 2 5 18 0 13 26 22 23 13 12 19 15 16 9 0 0 0 0 0 0 0 0 0 0 0 0 0 17 17 17 20 28 5 0 0 0 0 0 0 0 0 0 7 0 0 3 11 21 0 12 14 10 0 0 5 39 56 14 0 0 0 4 0 0 9 0 0 0 22 23 0 0 0 0 0 20 19 10 0 0 1 0 16 22 0 0 5 22 0 0 0 17 0 0 4 15 0 0 0 30 7 0 3 0 0 12 0 0 14 23 17 0 0 0 19 26 59 0 54 0 0 0 0 6 0 7 0 41 2 1 6 17 0 1 0 0 6 0 4 0 0 1 0 0 0 1 3 2 1 0 0 0 1 1 1 0 0 0 0 0 0 0 3 4 3 0 0 0 0 0 2 5 0 0 
0 0 0 0 1 3 12 1 1 1 0 0 6 0 5 3 9 0 2 19 0 0 2 0 0 1 13 6 12 0 20 14 1 0 13 6 0 0 0 15 1 17 20 0 11 11 0 0 3 10 21 17 31 46 16 0 0 0 2 30 52 38 0 0 0 42 1 0 0 1 0 0 18 28 46 19 0 0 64 0 1 32 27 6 0 0 0 0 0 0 2 35 37 22 18 15 2 0 0 0 6 0 0 2 10 10 0 0 0 7 2 0 0 0 0 0 1 0 7 0 0 0 0 3 0 6 0 7 5 13 17 8 5 0 11 7 4 8 9 16 13 17 26 36 15 12 23 17 18 20 6 7 0 5 10 10 12 29 22 36 41 27 13 0 0 0 0 0 0 0 0 0 0 1 2 7 8 4 0 11 0 0 6 44 20 0 0 0 0 0 10 0 0 0 0 26 27 0 0 0 0 5 0 18 0 0 0 0 7 0 26 2 0 11 22 0 0 10 7 0 3 34 21 0 0 4 0 4 25 0 0 21 0 0 0 12 24 14 0 0 8 0 50 0 68 0 0 35 0 0 8 40 0 0 56 63 0 0 11 1 3 3 3 0 0 3 0 0 0 9 0 0 9 0 1 0 2 2 4 2 2 0 0 0 0 0 0 0 0 0 0 3 0 0 0 2 0 0 0 0 
0 0 0 0 4 3 10 2 1 4 0 0 0 0 18 12 4 20 3 0 0 0 21 5 0 14 0 0 15 0 0 17 0 1 5 13 4 10 8 9 0 0 25 4 0 20 28 0 0 38 24 17 17 0 0 6 13 9 28 24 22 0 0 0 3 0 33 0 0 7 0 0 43 46 34 0 0 56 11 0 35 31 0 0 0 0 0 0 22 47 19 14 0 0 0 0 0 0 0 0 6 0 0 13 0 6 0 0 0 10 10 1 0 0 4 0 0 0 4 3 0 0 0 1 2 6 8 13 0 5 0 0 0 0 0 0 0 0 0 0 0 4 12 17 15 0 9 4 4 14 10 21 7 0 0 0 0 0 5 6 5 15 26 33 29 17 5 1 0 0 0 0 0 0 0 0 0 2 4 0 0 12 0 0 11 34 15 0 0 0 4 13 5 0 0 0 22 15 0 0 0 15 12 5 22 0 0 8 0 0 21 10 0 1 0 0 10 0 5 20 0 0 28 8 0 0 0 2 34 20 0 0 16 4 0 0 0 23 13 0 0 14 69 0 82 2 0 80 54 0 0 33 77 0 0 0 53 20 9 6 0 1 6 0 0 3 1 1 0 5 0 0 2 8 0 1 0 0 2 1 0 4 2 6 0 0 0 8 0 0 0 1 0 0 2 4 0 0 0 0 
0 0 6 6 3 0 0 0 0 1 7 4 3 0 0 17 0 9 5 0 3 0 0 0 1 29 2 0 12 16 0 15 0 7 12 1 7 0 12 7 3 0 0 23 5 0 12 0 0 56 0 0 0 0 30 20 19 11 6 0 0 0 24 32 10 22 0 0 18 0 0 26 54 44 0 0 0 53 18 26 2 0 0 0 0 3 31 27 33 0 0 0 0 0 0 1 0 12 15 2 7 5 0 0 0 2 0 1 6 5 0 0 13 5 0 3 2 0 0 0 0 5 2 0 3 9 0 0 0 0 0 0 11 4 3 5 0 0 2 5 5 0 0 0 0 0 3 0 0 0 0 0 0 0 5 0 1 0 0 0 0 0 10 0 4 21 11 32 11 7 0 0 0 2 0 0 0 7 2 8 8 16 1 0 0 11 32 29 13 0 0 10 19 7 0 0 0 9 34 0 0 0 12 11 14 6 0 0 9 17 0 0 0 12 0 0 10 0 0 0 0 0 3 26 19 0 0 0 0 33 5 0 0 3 0 0 5 4 44 0 0 0 71 0 93 45 0 15 68 55 0 0 0 50 53 0 0 2 63 30 4 0 0 0 2 1 0 0 0 1 3 0 0 2 7 2 1 0 2 1 0 0 0 7 0 7 4 7 2 7 12 3 0 3 0 0 0 1 0 0 
0 0 0 1 0 6 0 2 3 0 0 6 6 0 0 13 0 0 0 0 8 1 0 0 0 0 0 14 1 12 10 9 0 17 0 2 1 0 3 0 23 0 0 28 23 0 35 45 34 16 0 0 32 19 6 0 18 9 0 0 0 27 9 1 4 5 0 30 0 0 0 63 53 0 0 0 50 27 34 0 0 0 0 0 40 45 20 0 0 0 0 0 0 0 1 2 1 6 0 0 0 0 0 2 0 0 0 0 4 0 0 0 0 3 6 1 0 0 0 0 1 0 0 0 0 0 0 0 0 0 0 0 0 0 0 0 0 0 18 0 0 0 0 0 1 0 0 0 0 1 2 0 0 0 12 15 0 3 5 0 0 8 10 0 0 4 1 0 7 5 25 45 10 0 0 0 0 0 0 9 5 0 0 9 0 0 0 0 33 15 0 0 10 14 17 17 0 0 33 29 0 0 0 0 5 18 0 0 0 0 0 0 15 2 18 0 3 5 8 0 21 1 0 16 65 1 0 1 0 0 24 2 0 0 0 7 0 0 12 2 0 0 12 0 53 63 0 0 22 61 51 18 0 0 18 128 18 0 0 35 42 16 2 9 0 1 1 0 2 0 2 2 0 2 3 0 2 0 2 0 2 0 0 1 0 3 3 2 1 0 8 0 0 0 0 0 5 0 0 0 
0 0 10 0 0 10 4 5 8 0 0 0 6 2 0 3 0 3 0 1 3 11 6 0 0 0 0 0 9 28 16 0 0 27 0 1 6 20 1 14 14 20 0 0 49 2 0 31 0 0 13 30 3 0 0 0 21 0 0 35 0 5 11 0 0 0 1 31 0 0 10 67 0 0 0 33 13 5 0 0 0 0 30 54 16 0 3 0 0 3 12 0 2 5 0 0 0 0 0 0 0 0 0 0 4 0 12 7 0 0 3 6 0 12 15 0 0 0 7 9 0 1 1 0 2 0 4 0 0 0 6 7 10 3 6 14 1 17 0 0 13 1 8 15 9 5 0 3 9 6 0 0 7 3 0 0 0 0 14 8 0 9 1 0 11 3 4 2 0 0 0 24 42 9 10 9 0 0 0 0 0 4 0 7 0 1 0 0 0 32 32 0 0 0 5 16 0 0 0 29 9 0 0 0 0 0 14 3 0 0 0 0 0 0 0 0 8 0 0 0 0 0 0 0 14 61 0 0 0 0 4 20 0 4 0 9 0 0 4 36 6 0 0 0 5 90 0 0 39 31 16 1 54 0 0 0 106 87 0 0 0 45 24 12 0 8 2 4 0 0 4 0 0 0 0 1 0 0 3 1 0 8 0 0 0 2 0 0 0 0 0 4 6 2 0 0 1 1 0 0 
0 0 17 6 0 0 11 0 0 0 0 7 0 0 9 3 7 10 0 3 10 6 13 12 9 24 8 0 0 10 22 0 0 32 14 0 0 13 15 18 14 23 26 0 0 42 0 0 0 0 5 0 0 18 38 0 0 0 11 0 17 10 0 0 0 17 44 12 0 0 51 59 0 0 32 49 18 7 0 0 0 51 64 0 0 0 6 6 6 25 22 0 0 1 0 1 9 10 1 14 12 1 9 18 17 0 7 0 0 0 0 0 0 0 0 2 3 5 0 0 0 13 8 0 12 3 6 11 4 0 1 0 3 10 0 0 0 4 5 1 2 0 8 5 0 0 1 0 2 0 0 4 0 3 8 0 0 0 1 5 6 0 0 0 6 0 0 4 14 0 0 9 0 0 13 7 37 21 0 0 0 0 0 0 0 11 11 3 0 0 14 29 0 0 0 3 15 0 0 2 23 0 0 9 13 1 12 6 0 0 7 11 11 4 7 4 0 2 8 13 17 4 4 0 0 30 12 0 0 0 0 8 0 6 6 14 0 0 3 18 15 0 0 0 5 28 0 0 15 66 8 0 5 54 40 0 0 36 111 0 0 0 28 27 0 0 7 4 2 2 3 1 5 0 0 13 0 0 0 0 1 11 5 0 0 7 0 1 0 0 0 0 0 0 4 1 1 4 0 0 
0 0 0 0 0 0 0 0 0 0 1 16 0 0 3 0 9 14 0 0 0 20 8 0 0 9 8 14 0 0 20 2 0 0 0 0 12 0 0 0 30 28 0 0 0 9 0 0 33 86 19 7 74 38 4 0 0 2 6 0 32 0 0 0 5 0 18 0 0 0 63 0 0 19 56 29 0 0 0 0 53 47 0 0 9 3 0 0 0 0 6 1 0 0 17 24 0 0 0 0 17 11 0 0 9 4 21 8 7 6 20 4 1 11 5 0 0 0 0 0 0 0 0 0 0 0 9 2 4 4 0 0 1 0 0 16 1 0 8 4 0 0 2 0 0 0 0 0 0 0 0 0 0 0 0 4 0 0 0 0 0 0 0 0 13 10 2 10 4 0 0 0 0 13 11 0 0 35 31 3 10 0 0 0 0 0 13 6 0 0 0 22 30 0 0 0 16 4 0 0 5 18 0 0 8 13 1 10 0 0 5 1 4 1 2 0 1 5 11 0 0 24 0 1 0 0 15 12 14 27 0 0 0 7 19 9 0 0 0 13 19 1 0 0 18 34 0 0 0 65 15 0 0 9 48 79 0 0 0 95 27 0 0 0 9 2 0 0 3 2 3 0 0 0 2 0 2 0 0 0 0 0 0 4 0 2 5 3 0 0 10 1 0 0 2 1 0 1 1 0 
0 8 0 0 2 0 6 0 0 1 8 1 8 6 0 0 6 11 0 2 0 0 0 8 0 20 5 0 7 0 19 0 0 15 0 0 0 0 5 21 0 7 12 58 0 55 0 0 33 0 0 0 0 0 0 0 0 47 26 4 0 0 0 15 31 7 0 0 0 40 64 0 0 41 38 0 0 0 7 78 50 1 0 0 5 2 6 0 0 0 0 14 0 0 10 0 0 0 4 0 0 1 0 2 1 0 0 0 0 0 0 6 0 3 0 0 4 7 0 2 18 0 0 4 0 2 13 0 0 0 1 7 8 0 0 0 1 0 0 0 0 0 0 0 0 0 0 0 0 0 0 5 0 0 0 0 0 0 0 0 0 0 0 0 0 0 0 0 1 8 0 1 0 0 1 26 0 0 7 13 42 30 0 0 0 0 16 16 0 0 0 0 17 17 0 0 0 0 0 0 0 15 25 0 0 5 1 17 6 6 0 0 0 0 0 0 0 0 0 9 0 11 0 0 1 0 5 0 0 29 0 0 0 0 3 5 0 14 0 0 16 19 38 0 0 85 6 0 0 0 34 31 31 11 0 39 53 0 0 0 29 88 0 0 24 23 1 0 0 3 2 1 0 3 2 0 0 0 2 0 5 0 4 12 0 0 2 4 6 0 0 3 8 8 1 3 1 0 0 0 
0 0 0 7 0 4 8 0 0 1 0 0 0 4 0 0 7 3 0 16 0 0 0 0 0 5 23 26 12 0 6 5 10 11 27 25 9 40 47 0 0 12 13 33 12 25 18 0 0 0 17 48 8 0 28 13 0 19 4 0 0 0 32 27 26 0 0 7 19 74 1 0 42 48 3 0 0 10 47 21 0 0 0 0 4 1 13 0 1 0 0 13 0 0 3 6 0 8 0 0 0 0 4 0 0 13 0 0 3 0 4 6 7 3 0 2 1 0 0 5 0 0 1 9 0 0 0 0 0 0 0 3 0 0 0 6 1 0 0 0 8 7 0 0 10 14 15 12 22 21 29 27 32 27 28 14 13 27 36 13 0 0 4 0 0 0 0 0 0 2 0 5 0 0 0 5 0 0 0 17 8 8 31 23 0 0 0 0 16 0 0 7 5 27 16 0 0 0 12 13 0 13 28 0 0 0 0 0 4 11 0 0 0 0 10 0 0 5 10 0 0 9 1 5 0 18 0 7 2 0 0 0 0 0 17 35 12 7 0 0 11 0 4 3 0 19 24 0 19 0 44 42 21 24 0 0 56 63 27 0 0 6 54 0 0 27 13 7 0 0 0 0 0 0 0 0 0 0 0 0 7 0 0 8 0 0 2 2 5 1 0 0 1 3 1 1 2 0 0 0 
0 0 0 7 0 0 8 8 6 0 0 0 0 0 2 2 8 4 0 1 0 8 2 0 0 0 0 27 43 15 18 0 22 44 14 0 5 0 0 15 16 12 0 0 0 0 4 40 23 1 0 0 10 18 15 0 0 0 0 0 15 18 33 26 0 0 6 0 0 60 0 0 75 20 0 0 17 75 20 1 0 0 0 0 0 0 17 0 0 0 0 1 0 0 0 25 1 0 0 8 5 10 2 0 0 0 0 2 0 0 6 2 0 0 5 6 0 1 0 4 14 0 0 9 12 10 0 0 0 0 0 0 0 0 1 22 13 13 25 24 15 26 3 15 21 7 0 0 2 4 0 0 0 0 0 7 17 13 1 21 38 36 23 13 20 8 0 0 0 0 0 0 0 0 0 5 0 1 0 0 1 4 6 14 37 0 0 0 11 14 1 0 0 0 23 16 0 0 5 22 2 4 10 6 0 4 0 14 3 0 2 4 0 0 4 0 0 4 0 0 12 5 18 9 0 0 2 0 5 0 14 19 0 0 0 0 11 4 12 3 0 37 0 0 0 0 53 24 4 0 0 46 1 0 30 0 0 7 18 34 34 0 0 27 0 0 36 21 0 0 1 1 0 1 0 0 0 0 1 2 2 0 0 2 0 0 3 6 6 0 0 0 0 0 0 0 0 0 0 0 
0 0 0 7 1 0 0 0 4 0 2 14 0 0 4 10 5 0 0 15 20 1 0 28 32 14 0 0 4 34 21 25 0 31 0 2 8 0 0 9 7 0 0 0 20 0 0 0 0 0 0 0 0 0 0 0 0 0 0 19 26 16 0 10 0 0 19 0 18 39 0 41 46 0 0 7 47 23 0 6 17 0 0 1 0 0 0 0 0 0 0 0 0 0 0 0 0 0 0 0 0 0 0 0 2 0 0 0 0 0 10 3 0 0 3 4 0 0 0 0 0 2 0 0 2 0 0 0 8 12 5 0 0 16 0 0 1 8 6 0 0 1 2 0 0 0 0 0 0 0 0 0 0 11 0 0 0 0 0 0 0 0 0 2 27 35 18 14 1 0 0 0 0 0 0 0 18 17 2 0 0 5 2 0 28 16 0 0 0 25 10 0 0 0 15 23 18 0 0 0 0 0 0 11 3 0 0 5 21 5 0 3 9 0 0 13 0 3 0 6 0 0 0 24 11 0 26 1 0 0 28 34 0 0 9 0 0 7 0 0 0 10 26 10 0 11 0 0 0 35 0 2 30 9 35 40 0 0 23 9 14 68 0 0 23 0 0 53 28 0 2 3 0 0 1 0 0 0 5 6 0 7 2 0 0 0 0 0 1 4 6 0 0 0 1 0 4 0 0 0 
0 0 6 3 0 0 0 2 0 0 0 0 0 5 1 0 0 6 0 0 7 0 1 7 6 11 9 0 0 0 0 0 0 0 0 14 7 18 24 41 0 0 12 0 51 0 0 0 0 17 47 39 53 17 26 0 0 17 14 0 0 0 0 11 0 7 0 0 38 5 0 66 0 0 7 53 25 0 0 0 0 0 0 0 12 0 0 8 26 6 0 18 9 26 27 21 5 0 8 0 0 0 0 0 0 2 2 0 0 0 0 0 0 0 4 4 0 7 5 3 3 4 0 6 2 0 0 5 0 8 6 7 3 5 0 0 0 0 0 0 0 0 0 0 0 0 0 10 0 0 18 5 0 0 0 0 0 0 0 0 4 0 0 0 0 0 2 20 33 43 23 0 0 0 0 0 0 0 12 9 0 0 0 3 0 25 30 0 0 0 0 0 1 0 0 1 21 10 0 0 20 0 0 1 23 0 0 0 0 17 0 11 1 10 6 0 2 0 12 0 0 0 0 0 0 0 14 15 1 0 0 28 7 2 0 6 0 6 23 0 0 0 21 39 19 28 0 0 0 70 0 0 0 0 0 17 6 0 0 9 6 0 71 0 0 42 0 0 39 15 0 3 0 0 3 1 0 0 0 0 8 5 2 0 0 0 4 5 5 2 1 4 4 6 3 3 1 0 0 0 
0 0 3 4 3 0 0 9 3 6 0 0 0 4 3 0 0 0 0 0 0 0 0 0 0 6 5 36 12 0 0 0 0 0 0 0 0 14 29 0 0 32 40 0 0 0 0 72 63 23 28 21 23 23 23 0 0 20 0 3 0 0 3 7 11 14 0 0 42 0 14 46 0 0 48 32 7 0 0 0 0 0 1 10 19 24 17 28 31 29 12 24 0 10 16 0 0 15 27 19 6 20 13 0 0 0 3 3 4 14 14 5 0 0 0 0 0 1 5 12 7 13 0 0 12 5 8 0 1 10 0 0 0 0 0 13 15 5 6 4 23 0 0 0 0 4 8 25 0 0 0 0 0 0 0 0 0 1 0 0 0 0 0 1 0 0 0 0 0 14 28 34 28 14 0 0 0 0 0 6 13 10 11 0 0 13 16 22 0 0 12 6 16 0 0 0 0 32 1 0 1 0 0 4 27 11 0 0 0 19 21 0 0 0 8 0 0 5 9 0 0 0 1 8 11 18 0 0 11 0 0 0 24 4 0 0 11 0 26 23 0 0 0 0 0 0 14 1 0 23 49 0 48 0 0 26 36 0 0 11 6 0 0 73 0 0 18 21 0 16 0 15 5 0 0 1 1 0 0 0 8 5 2 0 0 0 0 1 0 0 0 4 4 0 0 0 6 0 0 0 
0 0 3 0 4 0 0 13 0 3 2 3 1 0 1 2 0 0 2 8 0 0 0 4 9 10 15 20 23 42 40 39 14 0 0 10 12 16 12 0 28 0 0 0 0 49 0 0 0 15 46 16 10 8 10 58 43 16 0 0 0 0 25 17 0 1 0 0 46 0 49 0 0 41 23 16 0 0 0 0 0 17 34 21 14 26 0 0 13 17 12 0 0 0 0 0 0 0 1 3 0 0 8 10 0 0 2 0 0 11 6 5 0 5 0 0 0 0 9 0 0 0 0 0 3 1 0 0 15 15 1 0 0 16 0 4 6 0 0 0 0 0 13 24 11 0 0 0 0 1 4 13 11 39 39 19 18 48 17 13 15 11 0 0 0 0 0 0 0 0 0 0 0 33 41 21 0 0 0 3 6 1 1 30 0 0 0 6 11 0 9 0 8 15 5 0 1 10 20 0 0 0 0 1 8 27 0 5 0 0 0 0 0 0 4 2 0 17 0 0 0 2 6 2 0 13 0 0 0 5 5 0 24 23 7 0 0 1 0 28 24 0 0 10 33 12 0 48 0 0 7 77 0 23 0 0 0 34 4 6 0 29 2 0 45 32 0 0 32 32 0 0 9 0 0 0 3 0 0 0 4 0 0 0 1 1 0 0 6 5 0 3 0 0 0 0 7 0 0 0 
0 0 10 0 0 0 0 0 0 0 0 4 1 5 7 0 0 13 0 0 6 2 6 13 0 1 2 2 0 10 10 35 19 12 25 15 30 25 23 0 0 0 0 0 68 49 0 0 0 25 9 0 0 15 37 29 0 9 40 26 4 0 0 14 24 14 0 8 17 6 42 0 11 19 25 6 0 0 0 24 50 21 6 2 0 0 0 0 0 0 0 0 0 0 0 0 0 5 4 0 0 0 0 1 1 0 0 0 3 0 0 0 6 11 14 2 0 0 11 2 2 13 0 1 8 0 6 11 5 0 0 1 0 7 6 3 3 0 0 0 16 24 16 1 0 0 7 5 7 8 23 0 0 15 0 0 4 16 0 11 12 11 25 29 19 12 18 0 0 0 0 0 0 24 14 25 39 12 0 0 0 0 0 4 15 0 0 6 18 9 4 0 0 14 0 0 6 0 8 19 0 0 0 0 0 23 25 0 0 0 0 12 3 0 0 18 2 7 0 7 13 0 0 0 25 0 13 0 0 0 0 0 4 4 0 0 0 0 0 16 40 0 0 0 18 59 0 0 106 0 0 81 0 27 25 0 0 7 18 0 0 12 22 0 0 39 34 0 0 27 53 6 10 0 0 0 2 0 0 0 3 4 0 0 0 0 0 5 2 2 6 4 0 0 0 0 8 0 0 0 
0 0 4 0 8 23 9 1 0 2 7 1 5 7 7 4 0 5 8 0 0 12 0 0 0 0 0 0 0 4 17 10 0 0 29 15 13 24 0 0 0 0 0 71 45 0 37 70 66 0 0 0 12 9 5 0 0 0 17 1 0 7 0 0 27 0 0 37 8 18 0 0 24 0 23 0 0 0 32 61 0 0 6 20 0 0 0 2 0 0 0 4 0 0 0 4 0 0 4 0 0 10 0 0 0 12 0 0 1 0 4 0 0 6 0 1 1 0 7 14 8 3 0 0 0 0 2 0 0 4 12 0 0 2 10 0 0 7 30 18 18 7 0 0 0 13 9 0 0 0 0 10 0 0 0 0 0 1 0 0 0 0 0 0 0 22 9 15 44 9 8 0 0 0 0 0 4 26 23 0 0 0 0 9 21 0 3 0 0 2 7 0 0 0 6 0 2 2 11 23 0 0 5 0 0 8 24 0 0 0 10 5 14 8 0 3 0 0 2 0 25 6 0 0 8 16 0 6 14 0 0 1 0 0 3 16 12 0 0 0 27 27 0 0 0 47 20 0 73 78 0 0 62 35 28 0 3 0 0 0 0 0 0 27 0 0 0 0 0 0 34 41 2 1 2 2 0 0 0 0 1 3 8 2 0 3 0 0 0 0 0 3 3 0 3 2 1 2 0 0 
0 0 0 0 2 6 0 0 0 4 0 0 0 0 2 14 0 0 6 9 0 15 0 0 1 13 0 0 13 17 6 2 0 0 0 8 32 0 0 0 0 2 54 64 0 0 11 0 46 8 0 6 31 10 0 0 24 7 23 0 7 41 20 7 0 0 0 20 27 36 0 11 0 11 21 0 2 46 63 0 0 12 2 0 17 28 0 0 8 0 0 0 0 0 0 0 0 0 3 3 0 0 0 8 0 0 0 0 4 2 0 0 0 6 0 0 0 0 4 9 0 0 0 2 5 5 0 0 5 12 0 0 2 8 6 7 0 0 2 7 0 0 0 0 0 0 6 0 0 2 0 0 0 0 1 0 0 0 0 5 0 0 0 16 0 0 0 0 0 15 21 15 6 0 0 3 3 0 17 27 0 0 0 14 0 0 2 0 0 16 0 1 0 0 23 5 0 4 0 3 30 0 0 0 5 4 1 15 0 0 4 3 0 4 13 19 0 3 3 0 0 40 0 0 0 10 19 0 0 11 0 0 2 6 50 0 2 13 0 0 0 45 9 0 0 0 1 0 0 87 41 0 0 55 67 26 0 0 0 7 8 0 0 14 2 48 13 0 16 0 0 19 39 10 0 0 0 0 0 0 0 0 0 0 3 7 0 3 1 2 0 7 0 0 0 0 0 0 0 0 
0 0 0 0 0 0 4 4 0 0 5 0 0 0 4 7 18 0 3 18 11 8 18 0 0 12 0 4 26 0 0 0 0 18 51 0 0 0 0 0 0 84 64 44 0 0 0 0 20 0 13 20 0 0 0 0 0 0 0 0 0 0 12 32 10 0 0 1 27 4 20 11 0 14 0 0 59 0 0 0 13 1 0 0 0 0 0 0 0 13 0 0 0 0 0 0 23 5 0 6 1 0 0 10 0 2 0 0 0 4 0 0 0 9 3 3 0 15 20 0 2 9 0 8 18 0 0 0 0 0 0 0 3 2 0 10 0 0 1 0 0 0 2 10 0 0 0 0 3 0 0 0 3 35 7 36 23 0 0 2 3 15 2 0 0 6 2 0 0 0 0 0 29 45 0 0 0 0 9 22 19 0 0 0 8 22 0 0 9 15 5 3 6 0 0 1 7 0 0 2 39 19 0 0 0 2 7 10 21 0 0 9 0 2 0 5 0 0 20 20 0 20 9 0 0 3 10 2 0 1 1 0 2 0 10 2 0 13 5 1 0 0 44 0 0 15 0 0 0 33 84 53 0 0 61 20 0 0 18 23 4 4 11 0 0 9 39 5 23 0 0 0 5 25 0 4 2 0 0 0 2 4 0 2 0 3 0 1 6 0 0 2 3 0 0 0 1 0 0 0 
0 0 0 1 0 0 5 1 0 0 0 0 10 0 0 2 16 0 0 0 2 6 23 0 0 11 17 3 2 6 0 0 15 78 11 0 0 0 0 49 61 45 26 0 0 0 56 17 0 0 65 36 0 0 1 0 0 14 0 0 0 0 15 20 0 0 0 26 39 0 21 0 6 0 0 30 31 0 0 11 4 0 0 0 0 0 0 0 0 28 0 0 0 0 0 0 14 0 0 12 17 0 0 1 0 3 8 0 0 1 1 0 0 0 0 1 0 0 0 0 0 16 6 0 9 0 2 0 0 9 7 1 0 0 3 18 0 0 0 4 0 0 0 0 0 0 11 9 0 0 0 0 0 0 0 0 0 0 0 0 0 0 0 0 0 0 0 0 1 0 0 0 0 11 33 21 0 0 0 0 37 5 0 0 0 0 1 3 1 0 0 0 13 15 0 0 11 9 12 0 6 22 4 0 0 5 11 0 9 12 3 2 0 7 0 0 18 0 0 0 1 0 0 13 0 15 0 0 12 14 15 1 0 0 0 47 15 0 16 0 7 4 31 23 0 0 34 16 0 0 0 52 53 0 0 57 48 0 0 12 13 7 9 14 11 0 0 15 6 0 0 17 0 36 22 3 0 0 0 0 0 4 3 0 0 0 2 1 3 0 1 0 0 2 3 0 0 0 3 0 
0 0 0 14 15 0 0 3 0 0 10 1 0 0 13 5 0 0 0 7 6 0 0 0 11 13 0 0 6 0 0 0 51 3 1 0 0 0 35 92 34 0 0 0 8 28 59 27 0 0 46 0 5 0 0 0 0 3 0 0 14 27 13 0 0 0 0 5 17 15 34 0 0 0 31 44 0 0 12 11 0 0 0 0 1 50 16 41 62 63 76 59 58 27 20 0 0 0 21 6 0 0 0 5 0 0 0 1 3 0 6 14 9 3 11 0 0 6 8 0 0 10 0 0 0 0 12 4 3 8 6 0 1 0 0 1 17 0 0 2 0 0 15 4 0 6 18 0 0 0 0 12 0 0 0 0 0 0 0 0 3 0 0 0 0 0 0 0 0 0 0 0 0 0 13 39 0 0 0 0 10 49 1 0 10 0 7 24 0 0 1 0 0 20 0 0 18 11 0 0 0 5 7 0 2 0 2 0 3 0 0 4 7 0 0 0 15 10 2 0 0 1 10 14 0 0 42 0 0 12 0 4 0 0 0 0 23 0 0 15 0 0 0 37 0 0 0 35 70 0 0 0 46 68 0 0 81 57 4 0 1 7 11 1 20 21 0 0 63 14 0 3 0 0 38 4 1 0 0 0 3 7 2 0 1 2 4 5 6 0 1 1 0 1 3 0 0 0 2 0 
0 0 14 5 1 0 0 0 0 0 5 0 0 0 0 0 6 8 0 20 10 0 15 0 0 17 13 0 4 0 8 62 0 0 41 0 0 64 33 16 13 0 30 0 4 68 12 0 12 0 0 0 20 0 16 26 0 0 0 24 23 20 2 0 0 0 7 44 15 31 14 0 0 0 74 0 0 0 0 0 11 0 25 0 10 24 4 20 36 30 36 38 45 4 56 65 4 0 7 3 0 13 2 0 0 5 8 7 0 5 7 0 0 0 6 0 0 13 12 0 0 13 0 1 23 0 8 4 0 0 0 0 12 0 0 0 19 8 0 0 0 4 9 0 0 68 26 0 0 13 39 40 21 41 44 2 48 67 24 0 0 0 0 0 0 0 0 0 0 0 0 0 0 0 8 0 27 32 0 0 0 24 20 0 10 7 0 3 9 0 0 26 0 0 0 0 0 0 0 7 0 0 2 0 0 0 0 1 5 0 0 0 16 0 4 13 0 0 24 0 0 0 7 0 0 0 22 32 20 0 0 0 1 0 8 20 17 12 0 8 0 0 0 2 45 0 0 0 64 82 0 0 0 62 69 0 0 76 53 29 7 0 0 0 8 18 10 0 0 64 1 0 0 0 9 21 3 0 0 0 0 0 4 0 0 1 0 0 0 0 2 2 0 2 0 1 0 0 2 0 
0 0 14 3 3 0 0 1 14 22 0 0 2 6 0 0 10 0 0 0 2 12 21 0 0 0 35 3 0 8 45 51 0 22 0 0 36 76 0 0 33 33 27 0 16 80 0 0 102 1 0 70 3 0 22 0 0 31 31 15 13 0 0 9 6 0 0 56 8 29 0 0 0 32 65 0 0 0 10 47 42 33 41 47 44 0 0 0 0 0 12 0 4 0 0 61 54 20 2 0 0 0 4 3 4 0 0 13 0 0 0 1 6 4 4 2 0 12 0 1 8 4 0 3 17 0 8 9 0 0 4 0 2 7 4 0 9 5 1 10 0 5 19 0 12 56 0 2 64 82 31 0 0 42 37 62 55 24 34 0 0 0 14 5 0 13 0 21 0 0 0 0 0 0 0 0 11 49 0 0 0 0 27 0 0 7 0 0 0 11 0 0 12 0 3 17 4 0 7 12 0 0 20 9 0 0 0 0 0 10 14 4 0 0 3 3 0 1 7 6 0 0 17 0 0 0 0 5 10 24 0 0 10 0 0 0 0 0 17 6 13 30 0 0 23 44 0 0 0 89 44 0 0 0 36 64 0 0 44 39 8 0 0 0 0 0 0 0 0 4 51 0 0 0 0 5 9 0 1 1 5 0 4 0 0 0 0 0 0 2 0 0 0 2 0 0 0 2 0 0 
0 0 6 3 1 0 0 0 0 2 0 1 3 0 2 5 0 0 3 0 1 20 0 23 0 0 38 9 0 19 0 0 11 0 0 0 37 0 39 0 0 20 0 6 77 14 0 68 39 0 10 25 11 29 0 0 0 39 16 19 0 0 24 14 0 0 0 12 3 51 0 0 0 93 0 0 0 0 10 0 13 39 17 12 29 25 32 27 7 0 0 0 0 0 0 0 22 44 18 0 1 0 7 0 9 2 0 15 6 0 0 0 0 0 1 5 0 27 0 1 1 1 4 0 2 0 0 4 5 0 1 0 4 6 0 0 0 6 12 16 0 0 12 0 59 4 0 39 52 41 0 0 40 31 25 26 0 0 49 0 0 0 0 0 33 38 31 30 34 35 46 45 0 0 0 0 0 1 41 0 0 3 16 20 0 3 0 0 1 3 0 4 1 0 0 4 6 0 0 0 7 0 7 16 0 0 0 10 17 0 4 10 5 0 4 1 0 1 0 15 9 0 0 0 37 16 0 28 0 0 27 0 0 0 0 0 5 12 0 0 0 29 15 0 0 31 12 0 0 0 86 0 15 0 0 16 49 0 0 4 11 1 38 60 20 0 6 28 0 0 29 32 8 13 2 1 17 0 3 3 6 0 5 0 2 2 0 0 5 0 0 1 0 2 0 0 0 2 0 0 
0 0 7 3 0 0 0 0 0 0 0 0 4 0 0 3 5 0 0 0 0 18 11 29 0 0 18 12 9 46 31 14 11 0 0 27 37 46 36 10 10 19 0 0 0 0 0 37 0 20 0 0 0 0 4 0 24 8 0 8 0 4 18 0 0 12 0 26 5 61 0 0 10 70 0 0 0 3 0 10 30 5 11 22 17 20 32 20 44 30 0 0 0 16 0 0 0 19 15 12 6 3 12 3 0 0 0 0 0 0 0 2 7 3 0 0 3 7 0 0 0 0 0 0 3 7 0 1 4 0 2 0 0 0 0 0 0 0 28 11 0 6 4 0 10 0 7 0 0 41 2 0 18 3 0 0 0 0 31 0 0 0 0 4 62 40 19 29 34 60 25 17 62 36 0 1 0 0 32 31 0 0 0 33 9 0 0 0 2 6 0 0 7 0 0 3 0 11 0 0 17 1 0 20 0 0 4 0 1 0 2 1 15 0 4 0 6 0 1 0 8 3 0 0 16 14 0 2 28 0 10 20 9 0 7 0 0 11 25 10 0 0 35 0 6 0 9 18 0 0 52 7 0 54 0 0 7 99 0 0 67 55 0 0 11 9 0 0 41 0 0 15 22 3 0 0 34 18 0 0 0 1 0 5 3 3 0 0 3 0 0 2 0 3 0 0 0 0 0 0 
0 0 1 1 0 3 15 14 5 0 6 7 10 4 0 11 7 0 0 18 0 0 20 14 26 0 0 0 0 0 7 18 0 0 0 89 36 33 0 0 24 0 0 0 35 34 6 0 58 10 0 5 0 0 14 5 24 11 6 0 0 13 0 0 0 2 4 41 15 43 0 0 65 70 0 0 0 11 0 40 14 0 0 2 12 22 18 3 18 9 2 0 0 4 0 0 0 0 9 19 0 0 0 0 0 0 5 0 2 5 6 7 4 12 0 0 20 0 0 4 6 1 0 3 0 0 8 0 1 13 0 0 7 3 0 0 7 6 16 7 0 17 0 0 0 22 3 0 0 0 0 0 12 3 0 34 61 66 8 9 32 36 34 0 2 0 3 0 0 25 23 4 45 60 10 15 0 0 1 47 2 0 0 0 14 0 2 0 1 9 3 0 10 2 0 0 0 0 0 1 10 0 0 21 0 3 26 0 0 0 9 1 1 0 1 0 0 4 14 0 9 2 2 0 0 13 9 0 12 4 5 13 0 10 17 8 0 0 0 27 21 0 0 7 11 2 7 0 0 0 0 29 0 16 81 58 0 0 0 0 0 6 0 0 0 28 7 0 2 44 4 0 0 0 0 0 0 37 5 0 1 1 2 6 4 0 2 0 0 0 0 3 3 0 0 0 0 4 0 0 
0 0 0 12 2 0 0 0 1 0 3 0 1 0 0 5 9 7 4 19 0 0 0 13 2 0 0 6 14 0 0 4 0 0 23 63 9 0 0 30 33 0 0 1 56 19 0 0 34 0 37 0 0 18 0 12 33 0 0 4 36 0 0 18 0 0 0 16 1 34 0 16 76 0 0 0 50 52 51 42 12 8 0 0 0 26 36 0 0 3 0 0 4 0 10 2 0 1 0 3 26 0 0 0 0 7 0 12 2 0 12 10 0 0 1 8 1 0 8 13 0 0 0 5 11 4 0 0 10 0 0 0 2 1 9 0 9 0 0 0 0 27 5 0 17 46 0 1 15 0 0 0 23 17 19 0 0 0 0 11 49 42 47 26 14 0 0 0 3 4 0 0 32 43 23 0 0 0 0 27 36 0 0 0 28 4 0 0 14 0 7 0 0 5 3 4 10 0 0 0 0 0 0 3 14 2 0 6 3 0 10 15 0 0 10 3 0 0 0 3 0 11 0 0 0 0 0 0 0 0 0 10 0 0 13 15 6 0 0 0 20 0 7 0 0 0 41 0 0 0 0 0 24 30 0 14 50 1 0 13 0 24 0 0 0 26 42 31 0 0 6 0 0 29 34 2 0 36 18 0 0 0 0 0 0 0 1 1 3 2 3 0 0 2 6 5 6 0 0 0 
0 0 5 2 2 0 0 7 4 0 0 0 0 3 0 0 3 2 0 0 9 20 0 0 19 13 13 40 24 55 1 25 0 0 16 24 0 0 19 39 26 0 0 29 64 0 0 0 17 0 36 0 5 26 0 0 0 0 19 2 0 0 0 0 0 0 22 0 9 26 0 38 35 0 0 15 104 0 0 5 0 0 28 0 0 0 0 0 0 56 0 0 18 2 0 1 0 5 2 0 25 6 0 0 0 1 0 6 4 0 6 5 0 0 0 6 10 0 0 10 8 0 0 0 2 1 0 1 3 0 16 8 0 0 2 16 22 0 4 2 0 3 0 0 23 37 0 0 12 0 3 14 0 6 0 0 0 34 26 43 57 12 0 0 0 7 0 5 0 0 0 0 6 0 71 0 0 0 0 0 26 14 0 0 13 34 0 0 4 0 26 0 0 0 4 3 3 9 11 0 0 14 0 0 13 0 0 0 16 0 0 7 0 0 8 3 4 0 0 11 10 0 1 18 15 0 3 0 11 15 0 0 0 0 0 12 35 0 19 1 0 0 11 0 0 0 0 39 36 5 0 0 0 63 7 0 0 50 0 30 0 0 20 33 15 0 0 40 2 0 0 0 0 0 6 81 0 0 52 3 2 0 0 0 4 1 0 0 0 0 2 0 0 0 0 0 4 0 0 0 
0 0 5 0 0 0 1 9 2 4 0 1 8 1 0 2 0 0 0 0 1 7 0 0 0 10 9 0 9 65 0 0 0 30 6 24 2 0 26 17 19 0 0 103 28 0 0 34 30 0 0 0 86 0 0 35 6 16 0 0 23 0 0 2 0 25 14 3 32 9 0 30 7 0 0 49 18 0 0 4 4 9 25 39 9 0 0 7 0 0 21 17 0 0 0 7 0 0 17 0 10 7 0 0 2 12 0 0 0 0 3 0 0 0 0 0 1 2 0 0 0 14 20 5 0 0 0 5 0 1 0 2 4 5 0 13 0 0 13 13 4 0 0 0 6 15 3 0 6 0 0 0 0 0 4 30 58 47 51 0 0 0 0 0 5 9 18 15 6 0 0 0 0 0 21 13 1 0 0 0 7 46 0 0 0 32 32 0 0 8 10 5 0 0 15 9 0 8 12 8 7 10 0 0 0 0 0 0 16 9 0 1 0 0 6 0 13 5 0 0 18 6 0 11 14 1 0 3 0 0 0 0 23 2 0 0 18 0 0 20 0 0 0 1 27 9 0 0 25 0 0 62 0 0 91 12 0 41 0 0 0 0 22 41 3 31 0 0 0 41 23 31 25 0 0 0 10 0 44 20 7 5 0 7 4 8 0 0 1 4 0 0 0 0 0 0 3 3 0 0 
0 0 0 1 0 2 15 1 0 2 14 0 0 6 2 3 1 0 0 0 5 0 16 14 0 25 15 0 16 18 12 0 0 82 0 25 0 10 10 13 19 0 22 74 0 0 0 98 31 0 0 0 50 0 32 19 0 26 1 0 16 0 33 22 0 0 0 0 35 21 5 58 0 0 22 0 0 19 15 11 48 18 0 0 0 0 5 11 50 0 0 15 0 8 0 3 0 0 5 0 0 6 0 0 6 0 0 0 0 8 0 3 0 3 0 10 13 0 16 0 0 8 0 0 0 8 0 0 0 0 0 0 0 10 2 6 3 1 0 0 0 4 0 0 0 0 0 10 0 0 13 22 0 13 9 10 10 0 7 0 0 22 44 0 2 3 0 0 0 0 0 0 0 0 0 12 3 4 0 0 0 18 21 0 0 11 40 0 0 11 3 0 0 0 21 20 0 0 2 3 5 2 4 0 8 0 20 4 4 0 0 7 10 0 0 4 0 1 0 0 0 1 2 6 0 2 0 3 0 3 15 0 0 0 1 5 0 0 0 0 39 15 0 0 0 12 12 0 2 26 0 0 35 0 0 34 0 0 62 3 13 0 0 2 13 21 27 32 0 0 0 22 31 0 28 0 17 0 0 43 10 5 0 9 0 6 1 0 3 3 0 4 0 0 0 0 0 0 0 0 
0 0 7 0 0 0 12 7 3 8 6 0 0 0 0 0 4 11 3 10 7 0 9 7 0 32 20 0 0 0 0 0 0 58 13 36 12 56 0 0 41 0 44 28 0 0 109 92 0 0 0 11 7 7 25 0 0 24 8 0 0 21 23 0 0 0 0 0 26 0 18 40 0 0 5 0 34 32 23 20 33 0 0 0 0 0 0 0 13 7 0 2 2 0 0 0 0 0 5 0 0 0 0 11 14 0 0 0 0 0 0 13 0 0 0 4 14 0 0 11 9 0 0 0 0 4 0 0 15 3 0 0 0 0 16 0 0 0 0 0 5 15 0 0 5 0 0 1 0 0 0 17 30 2 0 0 0 0 0 0 13 33 22 0 0 0 0 7 24 12 25 6 28 0 0 3 7 16 24 0 0 2 34 4 0 0 47 0 0 11 6 6 0 0 16 25 0 0 7 0 0 2 6 0 1 0 16 17 0 0 0 1 2 0 0 8 6 6 1 13 0 0 1 15 0 0 8 0 0 0 17 7 10 0 0 0 15 23 0 0 6 24 23 29 0 0 12 29 0 17 30 0 0 57 0 0 84 0 0 27 41 0 0 0 27 19 14 26 50 26 0 0 0 0 0 23 53 0 0 16 31 3 9 0 0 0 4 3 0 0 3 9 6 0 7 7 3 0 0 0 
0 0 2 0 1 0 0 4 0 1 0 0 11 0 0 0 0 4 3 3 4 6 8 14 11 12 0 0 70 2 0 0 0 0 0 0 12 51 0 37 49 0 0 9 0 0 106 13 0 0 37 15 0 7 22 0 4 10 0 8 13 53 0 0 0 14 0 0 24 13 31 19 0 0 0 20 0 0 18 0 0 0 0 0 0 0 0 0 0 8 13 5 3 0 4 0 0 13 1 0 0 0 0 7 0 0 2 3 4 0 0 7 0 0 0 15 0 0 0 4 7 0 0 0 5 0 0 5 10 0 9 10 0 0 25 0 9 0 0 0 0 1 0 0 4 0 0 0 1 0 0 1 0 0 36 0 0 0 0 7 0 0 0 0 0 0 0 0 0 0 18 1 0 0 0 0 0 0 5 16 0 0 29 41 0 0 37 7 0 23 0 0 0 0 28 4 0 6 20 8 0 0 0 0 0 0 0 7 2 0 5 0 0 0 3 0 0 13 6 16 4 0 0 0 0 0 0 0 0 0 0 0 0 1 10 0 0 9 9 18 0 0 0 19 34 0 0 11 15 0 20 34 0 0 59 0 24 100 0 0 80 23 0 0 15 15 48 8 0 11 40 15 19 0 0 0 7 25 0 0 11 1 4 0 0 0 0 1 4 2 4 1 0 0 0 0 0 0 0 0 
0 0 0 5 0 0 8 6 0 0 2 0 1 0 0 7 7 0 0 0 0 0 4 18 0 0 27 39 4 0 28 0 26 22 0 0 0 0 0 5 0 0 0 39 0 54 10 0 0 0 26 0 0 11 15 0 4 0 0 11 5 20 0 0 0 0 0 21 13 0 47 29 0 0 6 4 0 0 10 0 0 0 8 12 6 19 0 0 0 0 4 1 3 0 0 5 0 1 0 10 0 0 11 12 0 0 0 1 3 0 0 7 0 0 3 0 4 4 9 4 4 0 4 0 0 3 8 3 0 0 3 7 6 0 12 8 1 0 0 4 0 0 0 0 0 0 0 8 4 13 2 0 6 13 6 0 11 0 0 0 0 0 0 0 7 0 1 0 24 2 0 27 4 0 0 6 0 3 11 0 0 0 0 31 0 0 10 19 0 5 6 4 0 5 12 0 0 0 9 6 2 0 9 0 0 0 7 0 12 0 0 3 12 9 13 3 0 0 3 0 0 12 12 0 0 4 0 2 0 0 0 0 11 0 0 1 0 0 0 12 0 0 0 0 9 5 25 0 0 0 0 24 13 0 0 39 0 42 90 0 39 71 20 0 0 0 33 0 0 3 20 9 13 20 42 0 0 0 0 0 0 6 5 3 4 2 0 0 5 2 1 0 0 3 2 0 0 1 0 0 
0 0 0 8 7 0 6 6 0 4 8 3 0 0 0 7 14 0 3 7 0 4 5 0 0 0 41 0 0 0 0 0 12 0 16 104 81 33 2 59 31 0 47 34 0 24 0 4 0 17 0 0 0 53 21 0 0 0 12 9 3 0 6 9 0 0 0 4 32 26 52 9 0 0 0 0 21 37 0 0 0 1 0 0 0 23 0 0 1 0 0 0 0 2 0 9 0 0 0 14 0 0 14 24 0 0 2 3 1 3 0 1 0 2 4 0 0 0 0 2 2 0 0 3 4 6 6 7 0 0 0 0 0 1 16 10 0 0 5 7 9 0 11 0 7 5 0 0 0 0 0 0 8 0 0 0 3 0 0 0 0 3 4 0 0 0 4 6 12 5 0 8 14 0 13 7 13 9 1 0 3 14 0 23 10 0 0 36 0 0 3 4 0 1 11 17 0 0 0 16 5 2 0 0 0 17 23 0 0 14 0 0 7 3 1 13 2 0 16 18 2 0 0 26 23 0 0 14 7 1 1 0 0 0 0 0 0 3 6 3 0 0 0 14 0 0 6 11 0 0 6 0 29 0 0 7 10 0 64 17 0 33 19 0 0 0 29 21 0 0 13 0 3 0 14 6 0 17 16 0 0 0 8 0 0 0 0 0 0 3 3 0 0 1 7 0 1 0 0 0 
0 0 0 3 1 0 1 0 4 1 0 0 5 9 0 2 3 0 4 0 7 12 0 0 0 41 38 0 0 0 0 6 0 0 0 0 7 0 0 66 0 0 42 0 0 0 0 1 0 61 0 0 19 26 14 0 8 33 21 0 0 0 0 16 0 0 5 5 5 32 51 0 0 18 0 0 16 6 0 0 0 5 5 5 11 25 12 0 2 14 6 0 0 11 0 3 7 0 4 0 0 10 2 3 0 0 0 0 0 10 0 2 0 2 15 5 0 0 0 0 4 3 0 12 8 0 0 8 7 0 0 0 0 0 12 6 0 0 0 4 22 0 0 9 0 3 16 2 1 0 9 0 5 0 0 0 0 0 11 13 0 9 11 26 0 0 3 1 1 6 0 7 15 0 3 2 1 18 0 0 0 0 0 0 33 0 0 38 6 5 0 0 3 17 0 2 3 0 0 9 0 0 0 5 0 0 0 0 0 6 10 0 2 0 0 12 22 0 0 4 0 2 3 0 0 0 0 0 4 16 24 10 0 11 6 12 15 13 16 0 2 12 4 0 0 2 0 0 0 9 13 0 0 27 0 0 37 45 0 29 27 0 22 75 21 0 0 108 44 0 16 18 4 0 0 7 9 4 14 12 0 0 26 19 5 6 2 0 0 0 5 0 0 0 2 2 0 0 0 0 
0 1 0 5 6 0 1 0 2 0 7 0 0 0 0 4 0 0 6 0 11 0 3 0 2 29 0 13 21 0 0 45 0 20 0 3 8 0 0 77 0 0 72 0 0 0 87 0 0 39 0 4 33 14 17 0 17 22 1 0 0 0 0 0 0 0 20 0 0 38 37 0 0 18 11 5 12 0 15 0 5 14 2 5 0 0 8 0 0 0 12 0 0 6 0 0 24 6 0 0 0 12 0 0 0 0 0 0 0 6 0 2 0 7 2 1 0 2 1 0 0 5 4 0 0 2 3 0 1 0 2 12 0 0 0 11 9 0 0 12 3 0 4 2 0 0 0 2 0 11 18 0 4 0 3 0 0 0 14 10 8 5 0 0 1 0 1 0 0 0 0 0 9 9 0 0 0 7 14 0 0 0 0 0 35 16 0 23 19 0 0 0 0 0 0 0 9 0 21 21 0 8 0 4 12 2 14 13 2 4 0 5 0 0 0 14 2 0 0 6 12 13 0 10 11 0 0 0 0 5 0 0 4 7 10 4 5 0 1 0 11 12 0 0 4 16 20 0 13 0 0 22 4 0 0 0 0 44 14 0 0 34 0 65 84 0 0 7 71 0 0 12 13 0 1 1 8 5 6 1 12 0 0 14 5 0 1 2 0 0 7 0 0 0 0 1 0 0 0 0 
0 0 0 0 8 0 6 0 4 0 9 2 0 0 3 0 0 0 1 0 0 0 21 0 8 0 0 38 0 0 0 49 0 33 14 5 37 0 38 96 19 0 94 0 0 0 27 0 36 5 0 26 22 0 0 0 11 0 10 13 7 0 5 8 0 0 39 0 0 50 9 0 18 0 0 0 0 0 0 21 0 1 4 0 0 0 26 14 0 0 5 0 0 1 5 7 6 17 17 0 0 2 0 2 0 7 0 0 0 12 0 0 5 16 1 0 0 6 7 0 2 8 0 2 0 0 3 0 0 0 0 2 0 9 0 1 4 0 0 0 0 0 2 1 13 8 4 0 5 10 0 0 23 0 0 0 7 0 0 0 0 6 2 0 0 13 0 0 0 0 13 0 0 35 0 0 13 10 13 11 16 16 0 0 0 27 0 0 16 0 0 4 6 0 13 0 0 0 12 16 0 0 17 0 11 1 20 18 0 0 3 0 0 17 13 0 0 0 26 0 0 18 0 0 19 1 8 0 4 0 0 0 0 0 11 2 8 1 0 0 11 16 4 30 0 0 32 13 9 0 0 0 1 0 16 0 0 0 85 86 0 5 2 0 90 62 0 0 47 56 0 11 16 1 4 4 0 0 2 0 2 8 0 0 10 9 0 1 1 0 0 2 0 0 0 0 1 3 0 0 
0 0 1 0 0 0 9 1 0 0 0 1 6 5 0 0 4 0 0 1 0 14 7 0 0 0 33 36 0 0 33 14 4 3 39 31 26 0 0 85 13 0 87 0 0 29 0 0 13 0 0 0 0 0 26 4 0 0 37 0 0 0 4 2 0 0 27 0 0 55 7 0 0 0 2 27 0 0 0 12 0 0 10 0 0 17 11 0 2 0 7 0 0 0 9 8 0 0 0 17 14 8 13 0 0 1 13 0 0 0 0 9 0 3 0 3 6 8 0 0 4 0 0 0 0 0 0 6 0 0 0 0 0 4 5 9 0 5 7 0 0 0 0 0 2 0 2 1 0 6 0 0 2 4 0 3 0 0 0 2 0 0 0 0 5 0 0 8 0 0 14 0 0 22 11 6 0 0 0 21 0 0 4 0 0 36 7 0 53 18 0 11 12 0 4 0 0 8 0 0 0 0 8 0 0 0 0 3 7 0 13 15 0 0 0 0 5 0 16 0 0 8 8 0 1 23 6 0 0 0 14 0 0 0 0 16 0 0 10 13 0 4 36 42 0 0 5 48 41 9 1 0 0 13 8 0 0 0 0 87 83 0 0 0 7 120 31 0 0 41 0 0 0 0 0 0 0 0 0 5 0 14 19 0 0 15 5 0 0 0 0 0 0 0 0 0 0 0 0 0 
0 0 13 7 0 3 0 14 12 2 0 4 11 0 3 1 3 0 8 6 0 9 1 0 13 11 34 0 0 0 37 0 0 0 0 24 43 0 0 41 3 0 38 0 0 67 0 63 0 6 0 18 6 13 42 0 0 45 15 0 0 32 0 0 0 0 3 7 25 53 6 0 0 0 0 14 0 0 0 0 6 8 0 2 21 0 0 0 0 0 0 13 5 0 0 7 0 0 0 0 4 8 4 0 0 0 5 4 0 0 11 10 0 4 0 0 0 6 5 6 0 0 9 5 1 0 6 0 0 0 0 0 0 4 0 4 16 0 0 3 2 6 4 0 0 2 0 7 0 0 0 0 0 4 3 10 0 0 18 0 0 8 12 10 6 0 2 19 0 0 10 0 0 2 5 0 0 7 4 2 0 0 1 8 0 10 12 0 35 0 0 0 0 3 1 7 5 15 0 6 19 0 0 12 4 1 0 0 1 12 0 32 0 0 7 0 9 0 0 0 0 21 28 0 0 33 23 0 0 0 35 11 20 2 0 16 0 17 23 8 0 0 0 0 0 1 0 0 55 29 8 0 0 0 25 0 0 31 0 0 71 78 0 0 0 24 44 25 0 0 84 2 0 14 5 0 4 5 0 3 4 0 12 6 0 0 12 4 1 0 0 1 0 2 0 0 0 0 0 0 
0 0 7 15 0 0 0 0 1 9 8 0 0 2 0 0 10 0 0 5 2 20 8 0 13 5 0 1 26 0 69 0 0 0 17 0 0 0 0 34 0 0 66 0 0 25 0 35 0 0 0 11 16 13 0 0 32 12 3 0 0 0 0 1 0 17 0 0 33 43 8 13 0 3 0 2 27 0 9 0 0 1 0 14 0 0 0 0 0 0 2 0 0 0 0 0 2 0 0 0 0 8 5 3 16 6 0 0 4 0 7 0 0 2 0 1 2 0 4 0 0 0 0 2 0 0 1 0 0 8 2 0 0 0 0 0 2 0 0 17 14 6 1 0 8 0 0 16 9 2 0 1 0 0 0 0 0 3 0 0 0 0 1 0 0 1 0 7 4 0 0 0 4 0 0 0 0 0 16 0 8 22 0 0 0 0 21 0 4 8 0 1 2 37 0 0 3 0 0 23 0 15 11 1 0 11 6 0 0 23 0 0 20 0 0 0 21 1 0 0 0 20 3 8 0 0 14 20 0 0 0 0 0 0 21 22 10 0 0 0 2 18 4 0 26 0 0 0 0 47 23 0 5 20 0 0 0 0 0 0 4 95 8 0 28 0 0 59 29 0 64 52 0 0 19 6 8 8 0 0 5 3 0 11 0 0 0 4 2 0 6 3 0 5 1 0 0 0 0 0 
0 0 0 11 0 0 19 2 0 2 0 0 0 1 0 0 11 0 0 0 4 13 0 0 0 21 0 27 31 0 44 39 0 0 38 16 0 0 0 55 0 0 115 0 0 0 0 4 0 0 0 9 8 4 0 0 6 0 2 0 0 0 0 0 0 15 0 0 49 30 13 13 0 5 0 12 9 0 0 18 0 0 0 0 0 12 9 0 0 0 0 0 22 1 3 0 2 5 2 7 0 0 3 2 0 0 0 2 19 0 0 4 1 0 0 3 2 0 0 5 4 0 0 4 1 0 5 0 0 0 2 11 6 0 5 13 0 13 5 0 3 0 1 0 6 0 0 0 0 6 0 0 0 9 10 0 0 0 0 18 0 0 0 0 0 0 0 0 6 0 5 0 0 0 0 21 0 0 0 1 10 15 0 19 10 0 10 22 6 31 0 11 8 13 0 0 0 0 0 33 8 2 1 17 0 0 0 0 1 15 6 0 21 5 0 0 0 12 2 12 0 0 10 0 0 0 0 0 0 11 0 11 20 0 16 2 0 5 2 0 0 1 11 13 0 0 0 0 0 0 78 37 0 31 9 0 29 0 16 0 0 0 105 0 0 38 0 7 93 0 0 43 69 16 22 1 2 4 0 0 4 0 0 7 0 0 0 0 6 2 11 1 0 6 1 0 0 0 0 0 
0 0 0 0 0 0 5 0 0 0 0 2 0 4 3 0 0 14 6 0 10 37 4 0 0 30 10 0 40 0 66 52 0 0 15 25 43 24 0 68 0 0 80 0 0 0 29 0 12 0 8 25 9 0 0 12 15 2 0 2 24 0 13 9 0 0 0 0 63 23 0 0 0 0 9 16 0 0 0 10 0 0 9 0 0 0 0 17 13 27 0 0 12 0 3 0 0 0 0 0 0 12 6 13 8 2 1 0 0 0 0 7 2 0 0 0 0 0 0 5 10 0 0 8 0 0 4 8 1 0 12 6 7 5 3 12 1 1 7 2 6 0 0 4 7 0 0 2 2 12 11 0 0 4 0 6 0 4 0 0 0 3 4 1 13 0 2 0 0 5 0 0 7 0 0 16 0 0 0 0 4 0 0 0 4 2 0 32 0 23 0 0 0 0 9 2 0 14 0 0 7 0 0 10 0 0 7 0 0 0 7 0 6 16 11 0 0 4 0 28 0 0 25 38 0 14 6 0 0 0 1 0 0 0 0 0 0 7 11 26 3 0 0 0 4 22 0 0 0 0 0 80 0 0 26 0 13 0 1 0 0 0 6 75 0 0 42 22 43 38 0 0 0 34 9 3 0 0 0 4 0 3 0 3 16 0 0 0 0 0 0 15 1 0 0 0 0 0 0 0 
0 0 3 0 0 1 0 3 3 0 7 2 0 1 2 0 0 0 15 0 0 17 21 0 0 14 20 0 40 0 49 10 0 0 15 1 12 29 0 45 0 0 38 0 0 0 36 5 27 0 1 8 0 0 13 19 2 9 0 21 6 0 6 0 0 0 0 16 63 11 0 0 2 0 9 1 0 0 6 0 0 0 2 0 0 10 9 0 0 3 30 19 14 0 0 0 0 0 0 0 13 8 0 0 11 4 4 0 0 9 2 0 0 0 0 0 0 1 0 2 6 3 0 0 0 4 3 0 0 0 0 0 0 3 0 0 8 3 1 8 0 0 12 0 0 0 0 0 0 3 7 0 0 0 0 0 0 4 15 0 0 0 0 0 0 0 1 0 2 6 0 0 0 0 0 2 25 5 0 0 0 8 6 0 0 0 0 0 0 20 2 0 6 0 5 12 6 0 2 0 13 0 0 9 3 8 0 0 0 10 0 2 0 15 0 4 0 14 0 7 10 0 0 22 11 0 0 0 0 0 2 0 0 6 24 27 0 0 8 5 13 14 0 0 0 19 24 13 1 0 0 0 36 5 8 0 0 25 0 0 0 0 0 0 55 0 0 0 0 66 0 0 0 0 42 32 4 0 0 4 0 3 0 6 3 6 0 0 5 0 0 5 16 2 4 0 0 0 0 0 
0 0 0 19 10 0 4 3 7 0 14 0 0 0 0 0 0 3 0 0 4 0 13 15 0 18 20 0 54 0 0 0 25 12 6 0 0 24 18 3 0 0 0 25 0 0 35 0 20 0 0 4 5 26 49 0 0 3 3 18 0 10 0 0 0 21 0 13 53 7 1 0 9 0 10 0 4 0 0 0 0 0 0 0 8 25 39 0 11 2 24 17 37 37 7 23 0 4 0 0 0 10 13 4 0 1 7 0 7 19 0 11 5 0 0 0 5 5 0 5 6 9 1 0 0 25 0 0 4 0 6 0 0 5 0 0 0 2 3 0 0 0 2 10 3 0 7 0 1 0 5 0 8 2 0 0 0 0 0 23 60 58 0 6 46 7 0 0 12 0 0 7 0 0 3 0 10 0 4 2 0 0 15 16 0 0 0 0 18 12 8 11 2 0 10 17 12 0 6 0 9 0 0 13 0 0 1 0 9 18 0 4 0 0 0 0 0 13 0 0 3 0 0 0 8 0 4 1 19 16 7 0 0 0 0 12 33 0 0 0 2 14 13 0 0 0 16 46 13 0 0 0 6 63 24 5 0 0 1 24 0 0 0 0 0 69 60 0 17 16 0 0 152 0 0 67 50 25 3 3 0 2 2 0 0 4 10 0 0 3 7 0 0 5 9 2 1 0 0 0 
0 0 6 0 1 6 0 0 0 0 11 0 7 11 2 0 0 0 0 0 16 9 10 8 0 0 26 0 15 7 0 5 25 8 0 0 2 33 0 10 0 0 10 34 0 0 35 0 43 0 0 21 30 20 0 0 7 2 5 0 0 17 18 0 0 1 0 25 48 0 0 0 0 0 18 0 0 0 9 0 0 2 16 36 0 0 0 0 0 0 0 0 0 22 21 50 31 15 0 4 0 0 20 4 17 3 14 3 2 4 0 27 15 0 0 0 6 6 0 0 0 0 0 3 2 0 0 4 0 4 0 0 8 1 5 0 0 0 3 5 2 0 0 0 0 0 0 0 11 4 22 0 11 22 19 62 34 26 39 41 55 33 42 32 54 53 26 12 0 0 0 14 16 0 0 0 0 0 0 8 8 0 0 11 15 7 0 0 9 12 0 0 0 0 1 15 1 0 0 0 0 0 0 14 13 3 0 1 1 2 3 10 0 0 5 6 3 8 0 1 36 0 0 0 5 0 3 0 2 0 3 3 0 0 0 0 36 27 0 0 0 0 18 11 4 0 0 0 0 19 0 0 0 0 60 16 18 7 0 18 0 5 0 0 0 0 53 0 0 40 96 0 0 88 0 0 0 34 10 10 9 3 0 4 2 5 5 10 0 0 9 0 0 0 3 8 3 6 0 0 
0 0 8 0 0 0 2 0 0 0 3 6 0 0 8 7 7 9 1 0 19 10 21 15 0 0 28 0 11 0 0 2 28 15 0 4 31 34 9 48 58 0 29 15 0 0 31 37 26 0 1 22 3 0 0 0 0 0 24 2 0 2 10 0 0 0 8 32 61 0 0 0 0 6 7 0 0 0 0 0 0 28 31 3 0 0 0 4 0 11 0 0 0 0 0 0 0 0 11 0 0 0 0 0 14 0 27 17 0 0 8 9 0 0 0 0 7 18 2 0 0 1 1 0 0 0 0 3 0 2 0 0 6 0 2 0 7 0 0 15 6 0 0 0 0 4 0 2 10 0 7 23 29 27 6 30 0 0 0 0 0 0 0 0 0 9 64 45 0 0 0 9 4 0 0 0 0 3 0 14 0 0 0 5 4 14 10 0 0 5 19 8 5 0 0 0 0 0 5 2 5 0 0 0 7 10 0 0 0 0 0 15 13 0 0 11 20 0 0 0 9 22 10 6 0 17 7 0 29 8 0 0 13 0 0 0 0 24 14 0 0 0 0 20 4 17 0 0 7 16 4 0 0 0 0 8 7 14 0 0 38 0 2 0 0 0 0 0 0 0 65 70 0 19 127 7 0 0 13 26 7 0 0 0 3 9 0 2 7 0 0 5 7 0 0 0 7 2 0 0 
0 0 6 6 9 2 4 0 0 0 9 1 0 0 1 4 3 4 0 0 7 0 4 8 0 0 19 0 31 9 0 15 25 44 25 0 28 0 0 0 40 0 6 0 0 6 0 19 14 0 0 1 0 4 16 3 7 16 10 1 7 0 0 0 30 0 0 41 40 0 0 0 0 18 11 0 0 0 0 0 20 27 0 0 0 0 17 0 0 17 11 0 30 16 6 0 0 0 0 14 9 8 0 0 0 0 37 18 0 0 0 28 4 1 0 0 0 0 4 0 0 3 5 0 0 0 0 0 0 0 0 0 5 10 5 0 14 4 0 0 2 0 2 3 7 5 0 0 0 3 4 5 0 0 0 0 0 0 13 5 0 19 0 3 0 0 0 34 61 43 5 0 1 0 0 0 0 0 0 22 7 0 32 16 0 9 34 7 0 4 29 0 9 1 7 0 3 0 3 0 12 0 0 0 0 6 0 0 0 7 4 0 4 0 0 0 31 10 0 0 0 0 0 12 0 0 14 0 0 27 0 0 2 4 14 8 0 2 21 10 0 0 0 0 20 0 12 0 0 22 19 0 0 0 0 21 15 6 14 0 0 50 8 41 0 0 0 0 9 0 0 75 52 0 55 67 40 0 0 0 33 0 0 0 3 1 0 0 5 6 3 11 12 5 0 0 0 4 18 0 
0 0 5 0 3 3 0 0 5 3 0 0 3 1 0 0 0 11 0 0 9 4 0 0 14 11 0 0 22 14 0 0 0 0 0 0 0 0 0 0 0 0 17 0 0 60 0 11 0 0 9 0 25 2 0 0 4 0 17 0 0 28 0 0 22 0 10 39 2 0 14 0 0 17 16 0 0 11 0 13 26 0 0 0 21 33 22 5 4 0 5 0 0 0 13 26 28 20 15 12 0 0 0 0 3 0 0 1 11 28 0 12 0 0 0 0 3 0 0 0 1 0 0 0 2 0 5 3 0 2 8 0 0 0 6 13 8 0 7 0 0 0 3 6 0 0 0 4 18 10 0 0 0 0 0 1 30 16 0 0 0 0 3 9 28 8 0 0 51 36 0 0 16 18 0 0 0 10 0 0 0 0 0 0 0 0 0 15 4 2 4 3 3 0 2 22 6 0 9 0 10 0 17 1 10 1 0 2 0 0 1 0 0 6 10 0 0 14 21 0 0 0 0 16 17 0 0 30 0 0 22 7 0 0 0 5 0 0 0 35 50 0 0 0 0 21 17 38 0 0 22 13 0 0 0 10 46 17 0 0 0 28 8 0 0 23 0 0 0 0 0 0 83 0 0 63 32 19 0 0 0 20 14 7 0 0 6 8 2 1 0 0 0 9 4 4 0 0 0 0 
0 0 7 0 1 6 0 4 6 1 0 0 14 5 0 0 1 0 3 11 8 1 0 3 12 9 0 0 8 13 0 0 0 0 0 0 11 6 46 25 23 0 0 0 23 33 9 0 0 0 0 0 3 0 8 0 7 20 14 0 0 27 0 0 0 0 14 53 13 0 10 0 0 14 18 0 0 0 0 32 0 0 0 23 29 0 8 28 0 0 0 2 0 0 0 0 1 0 0 0 8 11 13 0 0 0 16 0 0 12 14 18 32 17 0 0 0 0 0 5 9 2 6 0 6 7 4 6 8 12 3 0 13 10 5 0 0 0 10 0 6 0 1 11 0 0 4 6 0 0 1 0 0 6 21 13 4 1 22 5 31 16 1 0 0 19 0 0 0 44 59 25 5 42 3 0 0 0 0 0 14 0 0 13 0 0 4 0 0 0 17 16 0 0 0 0 0 6 13 0 2 13 9 0 0 0 0 5 0 0 19 24 7 0 16 4 0 11 36 0 0 0 0 0 9 10 0 0 0 0 0 20 9 0 0 0 0 6 0 0 20 38 20 0 0 0 3 14 0 0 2 47 0 3 0 0 0 47 0 38 0 0 8 0 0 44 40 40 0 0 0 0 0 81 0 4 63 46 29 19 0 0 0 15 6 0 0 0 0 0 0 0 1 0 0 9 9 0 0 0 
0 0 12 0 3 1 0 1 1 0 1 5 1 0 0 2 0 0 0 2 0 0 0 8 0 0 0 0 0 23 0 0 2 28 19 3 7 18 2 0 1 3 0 0 21 0 38 12 11 4 0 18 0 0 0 0 25 9 0 0 7 36 0 0 0 2 25 41 21 0 3 0 0 22 11 0 0 2 40 0 4 4 0 17 24 16 0 0 0 0 0 0 0 0 0 0 0 1 0 0 0 9 21 0 0 0 0 0 1 20 11 0 19 15 0 0 0 0 14 10 0 1 0 0 0 2 0 0 9 18 9 0 0 3 0 0 0 0 0 0 10 0 0 14 6 16 12 0 0 0 0 0 13 8 28 32 0 0 8 3 21 10 31 23 11 3 0 6 0 1 6 19 0 33 48 0 0 0 0 0 35 5 0 0 0 0 14 14 5 0 6 18 0 0 17 0 0 0 1 0 4 10 0 0 0 2 0 8 0 0 11 0 24 0 0 4 0 0 19 0 30 0 0 0 19 13 13 0 0 5 0 0 0 0 0 4 0 11 0 0 0 5 53 41 0 0 0 4 0 0 4 20 4 46 7 0 0 0 0 19 0 0 24 0 0 42 11 9 47 26 23 0 0 0 0 5 38 29 17 23 18 1 0 0 5 11 10 0 0 3 0 0 0 1 3 2 7 1 1 0 
0 0 5 10 0 0 0 2 4 8 0 7 4 0 20 5 0 5 8 2 2 3 0 0 3 0 16 0 0 24 13 0 0 12 6 0 1 22 25 0 0 0 0 0 35 10 11 0 0 0 0 9 7 8 9 27 23 0 0 0 6 34 0 0 13 8 31 40 3 0 2 0 0 13 0 0 0 1 16 0 0 0 0 6 0 2 2 6 54 86 83 79 69 70 0 0 0 0 6 28 0 0 2 23 0 0 0 0 1 11 14 0 27 40 12 5 3 0 4 0 0 0 0 10 0 0 5 0 0 2 0 0 2 0 0 0 2 2 0 1 4 12 4 30 15 14 0 21 0 0 17 28 59 0 0 0 0 0 0 0 0 0 0 0 0 1 11 10 12 0 0 0 17 0 59 52 0 0 0 0 2 12 7 3 0 0 11 7 21 0 1 18 0 0 0 19 10 0 0 4 24 0 0 16 0 5 3 13 0 3 18 0 0 0 0 12 0 0 0 0 12 0 0 0 0 0 0 51 0 0 13 19 0 9 1 0 1 5 3 10 0 0 0 39 21 12 0 0 7 0 9 15 0 27 36 28 0 0 0 0 12 7 16 12 0 0 24 0 0 39 29 77 21 0 0 0 0 48 57 27 12 7 5 0 0 0 0 12 2 3 0 0 0 0 0 2 4 4 0 0 
0 0 8 12 0 0 0 3 7 8 1 2 0 0 6 0 7 0 2 0 1 5 2 0 7 0 13 0 0 24 10 1 0 8 18 0 0 0 32 0 1 0 0 0 12 36 0 0 37 0 0 1 15 15 6 10 0 9 2 0 0 0 0 0 0 7 28 38 0 0 15 0 0 29 0 0 14 4 0 0 10 17 29 0 0 37 76 86 57 47 35 51 72 66 82 103 63 0 0 5 14 0 0 23 6 0 0 0 0 0 40 0 0 36 0 0 0 0 0 0 0 8 0 14 8 0 2 0 0 16 0 0 0 6 0 0 5 1 0 6 3 9 0 0 0 0 0 0 0 15 49 16 0 0 3 22 69 82 47 20 17 0 0 0 0 0 22 0 0 0 0 0 43 35 0 4 24 0 0 0 0 5 14 0 0 0 4 0 0 0 0 8 4 0 0 0 24 0 0 15 3 0 0 8 0 2 2 0 0 0 15 27 3 4 0 3 0 0 0 0 8 24 0 0 2 4 0 0 23 0 0 18 2 0 10 0 0 26 0 0 13 0 0 0 0 31 9 0 0 7 0 14 0 0 13 0 28 32 0 0 0 0 21 26 15 0 0 38 0 4 0 22 56 0 0 0 0 0 4 51 63 27 0 11 7 0 0 7 3 0 2 0 1 4 0 1 1 5 0 0 
0 0 8 1 0 0 0 14 0 2 5 2 2 0 0 7 7 0 0 0 0 3 3 3 0 1 18 9 0 4 9 13 0 0 0 0 0 27 53 0 12 55 0 0 39 2 0 28 22 0 4 0 34 14 0 0 18 38 0 0 12 8 0 0 24 0 32 35 0 0 4 0 0 37 0 0 18 0 0 0 15 13 0 14 65 62 32 0 0 0 0 0 0 0 0 0 75 50 8 0 0 27 10 0 15 0 0 0 0 0 45 17 0 42 3 0 0 0 2 0 0 9 0 3 0 0 0 0 15 12 0 4 0 0 0 0 10 0 4 20 25 1 0 0 0 22 0 0 26 53 17 0 6 62 99 103 101 75 77 116 145 138 99 17 0 0 0 0 0 1 0 0 0 30 0 0 22 0 0 0 4 1 11 2 0 2 10 19 0 7 7 17 14 2 0 0 30 0 0 7 0 0 4 15 14 12 5 0 7 9 0 28 8 0 0 0 6 0 0 0 0 21 7 0 0 20 1 0 9 15 0 0 0 1 2 8 0 0 18 38 15 13 13 5 0 0 31 24 0 0 0 1 0 0 20 50 0 51 36 0 0 0 0 31 0 20 0 0 10 14 8 13 26 23 0 31 48 0 0 0 20 60 35 7 1 4 14 0 0 0 9 1 1 3 1 0 0 0 0 0 
0 0 1 9 0 0 0 6 0 0 0 0 5 0 1 6 11 0 0 3 0 0 8 0 0 0 6 9 0 0 7 13 12 0 0 0 11 10 26 0 0 55 0 0 12 0 12 28 6 0 0 0 26 0 0 0 42 7 0 13 17 0 0 0 23 0 32 37 0 21 0 0 0 30 0 0 16 13 6 0 6 14 49 65 17 0 0 0 0 0 0 0 0 0 0 0 0 0 43 56 0 0 53 22 0 0 0 0 0 0 1 46 0 43 26 0 0 0 1 0 0 5 0 0 0 0 0 6 18 0 0 5 0 0 3 6 15 0 14 10 0 4 6 6 1 0 0 19 1 0 2 54 75 48 12 0 0 0 0 0 0 0 0 65 138 69 0 0 0 34 0 12 0 0 32 0 2 12 0 0 0 26 4 17 2 2 0 32 13 12 0 0 7 16 0 0 3 0 9 4 4 0 0 0 6 0 0 0 0 0 0 32 0 0 19 11 2 0 0 0 0 4 0 2 3 6 3 0 0 12 24 5 0 0 11 8 5 0 0 5 2 11 29 36 5 0 0 14 24 0 0 0 8 4 0 45 0 0 64 30 33 0 0 30 0 0 42 0 0 1 21 0 26 50 33 0 39 106 0 0 0 8 69 11 2 0 2 0 16 0 0 0 4 6 0 1 0 4 0 0 
0 0 5 0 0 13 4 0 0 0 0 5 0 0 13 0 0 0 5 2 0 0 0 2 0 0 0 0 0 0 4 15 0 0 15 0 0 3 31 0 0 61 0 0 0 25 26 40 0 0 0 9 18 0 17 0 22 0 0 27 11 4 0 17 0 0 18 23 0 0 0 0 0 25 0 0 10 0 19 0 10 46 54 0 0 0 0 0 0 0 0 33 40 27 43 18 25 0 0 1 67 6 0 16 51 8 0 11 0 0 0 58 0 8 46 0 0 0 7 0 0 1 3 4 0 8 16 0 0 0 0 0 0 0 0 24 5 0 12 0 0 0 18 0 0 21 30 19 0 0 47 21 0 0 0 0 0 0 0 0 0 0 0 26 15 82 113 46 0 0 0 17 20 0 7 0 48 52 0 0 0 0 0 0 0 0 0 0 0 5 0 5 16 5 0 3 19 0 0 0 4 0 5 5 0 0 0 1 0 0 0 30 0 7 0 1 0 24 0 1 1 0 0 9 8 0 0 1 0 0 32 27 9 0 0 0 1 10 0 0 0 0 5 15 17 16 9 0 0 43 16 0 0 0 0 0 0 0 11 41 22 5 0 0 7 0 20 40 0 0 0 0 32 62 34 0 0 80 81 35 0 0 0 64 41 8 0 0 4 8 0 0 0 0 0 10 13 0 0 0 
0 0 1 1 0 0 6 6 9 9 6 9 0 0 2 0 5 0 3 0 0 1 4 4 1 5 0 0 8 0 13 0 0 5 0 9 0 1 17 27 13 2 0 23 0 20 0 15 0 0 0 23 11 0 0 0 28 2 0 1 20 0 0 48 0 0 35 56 19 0 5 2 12 17 0 0 0 0 37 14 41 35 0 0 0 0 0 0 0 0 52 42 43 23 39 55 52 33 0 0 0 87 0 0 22 51 28 3 0 0 0 44 13 11 39 15 0 0 0 0 0 0 0 0 0 1 4 0 0 2 6 0 0 0 0 27 0 15 11 12 7 0 17 0 2 34 0 0 17 49 14 0 0 0 0 0 0 33 23 39 23 29 0 0 0 16 0 61 47 0 0 0 40 0 0 0 42 33 0 0 0 0 10 19 7 0 6 1 0 2 0 7 0 0 0 0 17 0 0 10 7 0 0 12 0 14 3 0 0 0 0 11 0 9 3 13 0 0 4 2 11 0 0 0 11 7 1 2 3 0 0 11 26 0 0 5 0 0 0 1 0 0 0 0 19 0 12 9 0 0 10 29 26 1 7 21 0 7 0 0 45 18 18 4 6 0 0 38 57 0 0 0 0 22 29 57 0 0 36 56 91 0 0 0 62 41 0 0 0 0 6 6 0 2 0 0 0 0 0 0 
0 0 0 13 0 0 4 10 0 0 0 4 0 1 0 2 2 0 3 0 0 0 8 4 1 2 4 6 8 6 0 0 19 31 1 0 10 31 0 0 23 0 0 22 25 0 0 19 15 0 0 18 9 3 4 3 0 5 10 0 13 0 0 31 20 0 15 53 0 0 0 10 1 0 0 57 6 0 40 25 44 0 0 0 0 0 0 0 0 44 35 21 27 24 66 60 77 62 22 1 0 0 66 49 0 0 39 39 0 0 0 51 0 18 29 0 0 0 0 0 0 3 0 0 0 9 2 3 3 0 0 0 0 0 9 24 0 0 0 0 0 0 19 28 28 0 0 7 10 0 0 0 6 0 0 0 62 30 27 33 50 40 35 22 1 0 0 0 136 89 0 0 4 1 0 2 0 0 16 0 0 0 0 0 0 0 7 5 0 1 4 18 0 0 4 0 21 0 0 2 8 20 0 0 0 13 13 8 0 0 0 0 8 0 0 34 0 0 0 0 14 5 0 0 0 11 2 11 0 0 2 0 0 12 0 10 0 0 0 33 0 0 0 0 0 29 7 28 9 0 0 0 6 0 0 33 26 32 38 0 29 34 5 51 23 0 0 0 54 38 0 0 0 0 29 57 52 0 0 28 57 79 0 0 0 62 37 4 8 0 0 7 1 0 1 0 0 0 1 0 
0 0 2 6 7 0 0 11 0 0 0 0 1 0 0 4 0 0 0 0 0 0 1 5 0 3 2 5 0 0 0 14 5 0 0 0 36 24 0 0 42 0 0 0 66 7 0 0 19 0 0 56 0 0 7 21 0 26 4 0 0 0 0 4 12 0 36 51 0 0 0 0 0 0 0 26 0 0 26 52 62 0 12 21 0 0 0 0 14 55 22 10 11 47 0 0 0 108 20 0 19 0 0 1 47 0 0 38 29 0 0 49 0 17 25 0 0 0 10 0 8 7 3 4 7 9 2 0 9 11 0 0 5 9 27 28 0 0 11 0 0 14 4 0 0 0 32 40 22 0 0 0 0 0 0 40 28 14 46 52 90 63 36 22 16 20 14 0 0 94 55 0 0 0 4 1 10 7 28 2 0 0 0 19 6 0 0 0 0 0 21 16 5 8 2 0 1 5 0 0 0 19 24 0 0 4 6 0 0 0 20 0 0 17 0 0 7 30 0 0 6 35 8 0 0 0 0 5 0 0 6 0 0 0 0 0 8 0 2 11 0 7 2 0 0 0 2 19 12 6 18 3 0 0 0 0 0 0 13 0 0 24 0 0 0 21 18 0 0 27 57 0 0 0 0 40 43 52 0 0 2 34 68 42 0 0 26 46 15 1 0 1 8 0 0 1 1 2 0 0 
0 0 1 0 0 0 0 0 0 10 5 5 3 0 0 0 3 4 1 0 4 0 0 3 0 2 1 3 1 0 1 1 3 0 0 4 25 3 30 9 5 0 0 0 85 0 0 12 12 0 0 21 0 0 10 31 0 9 0 0 0 0 0 0 13 0 36 37 0 0 16 5 3 0 0 2 0 17 19 30 23 0 28 16 0 0 0 0 48 23 24 18 13 35 0 0 0 66 45 0 28 0 0 0 40 68 0 0 28 5 0 41 5 27 14 0 0 0 1 0 8 8 0 0 0 0 0 0 4 0 20 0 0 4 20 4 0 0 12 17 24 20 0 0 3 30 38 0 0 0 0 0 0 0 0 37 0 26 47 36 0 0 71 15 18 6 52 0 0 0 54 49 0 0 4 0 0 0 5 11 0 0 0 9 15 0 0 4 20 7 0 0 9 10 12 4 10 0 0 2 0 0 13 5 1 0 0 8 16 10 10 0 0 41 0 0 0 35 34 0 0 0 17 9 0 0 0 8 4 1 4 0 8 0 0 9 5 0 0 10 17 7 25 11 0 0 0 0 0 19 8 18 0 11 17 0 0 0 0 8 34 0 0 25 0 0 20 0 0 0 25 26 0 0 0 3 28 40 0 0 0 0 0 58 35 0 0 30 38 14 0 0 10 5 0 0 2 0 0 0 
0 0 0 0 5 0 0 0 0 0 4 1 3 0 1 0 0 0 0 0 4 0 0 3 0 2 0 8 4 0 2 0 15 16 12 0 0 0 71 5 7 0 0 16 83 0 0 14 19 0 0 4 0 0 0 33 0 0 0 0 0 0 28 16 0 0 20 43 0 0 19 1 0 0 15 0 0 4 32 5 0 0 0 21 0 0 0 0 46 26 11 12 11 12 47 68 57 8 39 17 14 0 0 0 20 96 0 0 0 27 0 28 16 38 0 0 0 0 0 8 0 0 4 1 0 6 5 0 0 0 0 0 0 0 36 0 0 0 0 0 6 0 0 0 0 17 0 0 8 0 5 0 0 0 6 42 7 20 33 69 0 0 65 16 12 0 29 22 0 0 0 99 28 0 7 0 0 0 22 0 5 5 6 0 11 32 16 6 0 0 0 0 0 0 11 0 18 0 0 8 0 0 0 0 0 0 3 11 30 19 0 0 0 21 0 5 0 0 29 0 5 0 7 15 0 17 0 0 1 7 7 0 1 3 0 0 4 0 0 0 1 5 9 15 0 0 6 0 0 0 0 20 36 17 0 25 39 11 0 0 1 5 0 17 35 16 16 0 0 0 9 37 11 0 0 0 4 31 22 44 28 0 1 0 78 35 0 0 31 36 0 0 3 0 3 4 0 0 0 0 
0 0 4 0 6 2 4 3 0 0 7 0 2 0 0 9 8 0 0 0 0 0 9 6 0 4 1 9 0 0 0 0 10 4 8 20 0 10 65 0 53 0 0 29 7 24 0 1 3 0 0 0 8 0 3 21 0 0 0 2 27 0 19 39 3 0 8 49 0 0 20 0 7 0 36 0 0 23 0 0 0 0 0 49 18 0 0 0 1 48 12 29 21 12 20 24 50 56 19 3 0 0 0 0 0 26 65 0 0 0 0 27 41 37 0 0 0 0 0 0 0 0 15 5 0 0 0 4 9 15 2 0 0 8 28 0 0 0 0 0 0 0 0 22 0 0 0 0 0 24 18 0 0 0 0 25 39 31 8 44 61 40 27 12 12 36 46 1 0 0 0 57 34 4 0 20 41 2 2 3 4 2 0 0 18 23 0 0 0 0 2 13 0 0 0 0 17 9 0 0 0 0 0 0 0 1 28 1 0 8 0 0 3 3 0 3 2 0 15 0 1 17 8 19 0 0 13 5 15 9 9 13 11 0 0 8 9 0 0 12 0 7 0 19 9 0 3 7 0 12 0 0 0 24 25 6 6 11 18 21 0 0 0 0 30 16 0 6 31 20 0 0 64 2 0 0 0 7 55 31 51 0 0 3 0 62 0 0 0 16 7 13 5 0 2 0 0 0 0 0 
0 0 3 2 11 0 7 3 0 8 0 0 0 0 0 4 1 2 1 0 0 0 6 1 1 0 9 4 0 1 11 3 3 7 15 12 0 67 0 0 70 0 0 102 0 0 10 5 0 4 0 0 13 0 17 60 3 0 0 0 0 0 0 26 18 0 28 52 0 0 12 0 0 17 38 0 0 0 0 0 4 0 2 60 4 0 0 0 0 46 5 14 15 0 15 35 58 9 37 18 3 0 0 31 39 46 23 3 0 0 0 64 44 5 0 0 5 11 0 0 0 0 7 6 4 2 0 0 5 9 0 0 8 2 20 6 0 0 0 0 0 0 43 68 0 0 21 0 0 17 0 0 0 0 0 3 0 43 29 18 35 30 14 13 24 0 53 0 0 0 9 0 0 6 0 22 73 0 0 10 3 1 0 3 18 0 0 15 9 0 13 9 17 13 0 11 13 0 0 1 5 0 5 11 12 0 0 11 0 0 0 0 2 0 0 0 0 10 8 0 0 10 0 9 0 0 0 0 0 0 7 0 4 7 3 0 13 12 0 0 0 0 0 8 23 0 0 0 0 0 21 0 0 0 0 25 7 0 0 30 23 5 0 0 3 40 10 0 0 43 8 0 0 44 0 13 0 0 5 21 0 19 0 0 17 0 30 0 0 27 24 0 2 9 10 11 0 0 2 0 
0 0 4 0 11 0 8 1 0 6 0 5 0 0 0 0 0 5 6 0 0 0 0 0 0 0 7 0 0 7 0 0 0 6 12 5 31 17 0 17 57 0 0 57 23 27 0 0 15 41 0 0 0 0 0 32 22 4 0 0 0 0 54 19 0 0 9 61 0 0 31 2 0 0 36 0 0 0 0 14 22 0 0 36 33 0 0 0 0 0 49 0 2 9 37 74 37 0 0 8 9 0 0 43 47 0 0 8 7 0 30 51 32 0 0 0 0 4 0 3 0 0 0 0 7 0 0 0 0 0 8 25 8 0 24 0 0 0 0 0 0 40 14 18 11 12 31 58 0 38 21 18 0 0 0 6 0 0 19 28 37 22 26 24 12 1 23 0 0 18 34 10 0 0 0 0 6 0 1 3 6 8 0 0 0 0 0 8 5 0 8 6 0 0 10 19 0 3 0 0 0 10 13 10 5 1 3 0 0 0 8 16 0 12 19 0 0 0 16 0 0 30 0 0 5 15 4 0 0 0 2 0 0 28 13 0 0 22 11 0 10 13 0 0 25 9 0 3 0 0 23 0 12 4 0 0 3 2 0 0 16 48 43 0 0 0 24 6 0 26 41 0 0 8 38 0 0 0 0 30 31 10 37 0 0 30 0 18 0 0 42 0 0 0 0 1 5 1 0 0 
0 0 11 0 7 0 5 0 1 2 1 9 0 0 0 0 2 1 0 0 1 2 2 0 0 7 5 0 2 12 0 0 0 10 35 16 36 0 0 23 0 0 0 0 66 0 0 0 19 43 0 0 11 9 20 22 0 0 0 0 0 0 58 19 0 0 5 31 0 0 45 2 0 4 10 1 0 1 0 20 3 1 0 0 5 19 9 6 0 0 0 40 28 23 34 29 7 0 0 0 3 23 17 1 11 0 0 20 0 0 43 32 8 0 0 0 0 0 5 16 10 0 0 0 1 0 0 1 0 0 0 0 0 6 5 0 0 0 0 0 3 18 0 0 4 0 0 39 29 0 15 8 24 30 0 0 41 35 0 15 14 51 44 18 14 54 0 0 8 0 0 0 16 2 0 0 0 15 7 0 0 8 0 0 0 0 3 0 0 12 4 30 5 0 0 0 0 4 0 0 0 10 0 0 0 12 0 0 5 0 2 0 0 9 2 2 2 0 3 14 0 21 25 0 0 12 0 0 0 9 0 1 0 0 0 16 0 1 2 0 11 0 0 0 0 5 13 28 0 0 3 0 14 0 5 0 0 4 8 0 0 0 40 79 31 0 0 30 23 0 0 70 15 0 17 10 0 23 0 0 32 22 29 34 0 0 23 31 0 0 30 44 0 0 0 0 6 7 0 0 
0 0 1 1 0 2 3 0 1 0 0 0 2 0 0 9 10 0 0 4 1 0 7 4 8 6 0 0 1 6 3 11 21 57 27 0 0 0 6 96 0 0 0 0 84 0 29 12 0 28 0 0 16 6 22 0 0 13 5 0 0 0 31 20 0 8 34 24 0 0 43 16 0 1 5 0 0 16 22 38 38 9 0 0 0 0 7 25 8 19 0 0 0 0 0 0 0 0 0 0 0 0 25 31 1 0 0 19 0 18 55 25 0 0 8 0 0 0 0 2 10 1 4 0 1 13 0 4 3 7 0 0 2 27 12 3 7 0 19 17 4 0 0 0 0 13 3 0 0 0 0 0 0 25 1 0 0 22 21 61 0 0 60 11 22 4 0 0 1 0 8 4 0 3 11 0 0 2 0 0 0 10 0 15 4 0 13 0 4 4 0 0 0 0 0 0 0 0 0 7 0 0 7 0 3 8 0 0 0 22 5 0 27 11 0 3 28 0 0 36 0 0 16 0 0 16 20 6 0 8 0 3 29 0 6 8 3 0 11 20 0 15 0 0 0 0 3 0 22 21 0 0 9 0 15 39 14 1 4 2 0 0 0 1 57 0 0 0 0 17 3 7 63 0 0 38 2 7 11 0 0 28 26 13 20 0 2 28 29 0 0 60 23 5 0 0 0 0 0 0 
0 0 0 2 5 1 0 0 0 0 7 2 6 0 1 0 9 0 0 1 0 0 4 0 4 0 0 0 0 2 0 0 13 32 0 0 5 60 38 66 0 1 0 0 83 0 42 0 0 21 10 0 6 0 35 3 13 25 0 6 0 0 49 26 0 1 38 1 0 0 18 17 0 21 0 0 0 16 29 19 45 22 0 9 14 3 0 0 0 0 0 0 0 0 0 0 0 0 0 0 0 8 42 21 0 0 0 0 0 63 38 0 0 0 0 6 0 0 8 0 0 9 0 3 5 6 0 0 4 6 0 0 0 14 0 5 0 19 23 0 0 0 0 0 0 20 30 0 0 6 8 17 5 0 0 4 18 0 0 22 18 0 0 0 0 0 0 3 14 0 9 7 0 0 3 0 10 0 6 1 0 7 6 0 12 9 0 0 1 0 0 0 0 0 17 13 19 0 1 2 0 12 13 0 0 18 0 0 0 31 6 0 0 6 0 0 33 0 0 32 0 0 20 4 3 2 7 0 0 7 0 0 0 0 8 0 9 8 0 23 0 0 21 27 8 0 0 0 0 6 17 0 0 5 0 14 20 27 14 16 0 0 0 0 9 39 16 0 0 0 9 0 37 73 0 0 12 0 6 21 0 0 22 34 9 0 0 20 50 0 0 16 41 15 0 0 0 0 0 0 
0 0 0 0 10 0 0 0 0 0 3 4 8 0 6 3 1 0 0 1 0 0 4 3 3 0 13 5 0 14 24 29 36 0 0 0 57 0 33 56 0 0 0 0 13 0 44 0 0 27 2 0 0 0 0 0 2 14 0 13 0 0 29 3 0 6 41 13 0 0 22 0 0 6 0 0 26 6 21 0 0 28 33 15 1 0 0 11 0 0 0 0 0 14 23 0 3 19 0 0 46 28 0 0 0 0 0 0 5 45 32 0 0 0 3 16 13 2 0 0 0 0 0 0 0 0 3 0 5 12 8 0 0 15 5 21 0 0 0 5 8 0 2 9 0 0 2 0 13 0 0 25 0 0 19 22 7 0 0 0 0 0 0 0 0 0 0 0 18 30 11 0 0 0 4 2 2 7 4 0 1 3 0 0 0 4 10 0 0 0 5 0 0 0 0 6 5 0 4 17 8 0 0 0 0 22 0 0 0 25 0 18 0 13 3 0 7 9 0 41 0 0 32 11 0 0 8 0 1 5 0 1 0 10 6 0 15 30 0 0 1 0 0 0 0 11 7 20 12 14 3 37 0 5 0 0 0 0 2 61 48 0 0 0 0 0 29 31 0 0 5 0 0 52 59 0 0 0 0 41 35 0 0 63 34 0 0 0 24 55 0 0 44 13 7 0 0 3 0 0 
0 0 0 2 4 2 0 8 9 0 0 0 0 0 8 7 0 4 4 0 1 5 3 0 0 1 13 0 8 28 21 31 0 0 44 0 42 0 28 47 0 0 19 0 0 41 14 0 0 12 14 0 0 0 2 25 37 35 0 9 0 23 44 0 0 12 25 5 0 0 43 0 0 0 0 7 62 7 9 0 0 0 23 12 22 31 30 37 12 5 0 38 2 12 16 25 1 0 25 50 13 0 0 0 12 0 0 18 25 6 15 18 12 6 0 0 7 0 0 13 18 6 18 11 0 0 5 3 0 12 0 0 10 0 3 19 16 0 0 0 10 19 13 16 26 0 0 0 12 18 13 0 0 0 37 24 14 33 8 0 0 0 0 36 26 0 43 4 10 2 0 44 20 3 13 19 0 0 9 15 0 0 0 0 0 0 3 0 0 0 9 0 0 0 9 9 0 0 9 6 0 2 0 0 7 0 0 1 20 12 0 18 0 0 5 11 0 19 0 30 0 0 7 18 5 0 1 12 0 0 13 30 0 0 19 2 0 6 23 0 0 5 0 18 1 0 0 2 7 0 0 16 6 0 15 2 0 0 0 0 38 49 2 0 0 0 0 47 24 0 0 11 0 6 19 36 0 0 0 6 61 0 0 16 57 11 1 0 9 30 27 0 6 46 6 4 0 0 0 0 
0 0 0 8 5 0 0 12 8 2 1 6 7 0 0 2 1 2 0 1 3 0 0 0 0 0 9 27 11 0 0 0 0 51 19 25 0 33 64 28 0 3 0 0 4 64 5 3 6 7 7 1 8 0 13 12 18 35 0 13 0 32 46 0 0 30 12 0 0 0 45 40 0 0 7 63 20 0 4 0 0 0 0 16 0 31 31 16 28 32 0 17 5 36 8 0 3 15 48 0 0 0 10 5 2 0 0 41 0 6 31 20 0 0 0 0 0 0 0 0 0 4 0 11 8 0 0 3 2 0 0 0 4 0 7 0 0 23 0 0 8 8 1 3 2 8 0 0 1 12 19 32 34 0 0 0 8 7 39 60 0 0 46 58 13 0 12 10 0 0 2 22 33 0 0 15 19 0 0 20 17 10 0 12 0 0 0 0 0 0 7 0 6 9 8 12 0 0 14 0 0 0 4 0 0 0 0 16 17 0 0 0 2 5 0 0 0 17 0 17 10 0 0 17 0 0 0 7 0 0 0 10 47 0 0 15 7 0 9 13 0 10 0 0 16 14 0 0 17 20 4 12 0 0 0 0 0 10 0 0 4 39 70 41 0 0 0 0 51 19 0 0 0 13 46 13 25 0 0 0 19 44 0 0 30 27 9 0 0 0 60 0 0 47 10 8 5 7 0 0 
0 0 0 2 9 5 0 0 0 0 1 0 6 15 0 2 5 3 0 2 2 0 14 3 0 7 18 6 0 0 41 0 26 4 0 28 0 1 43 0 0 34 0 4 42 33 0 7 1 0 0 1 6 0 16 0 0 17 5 0 0 23 34 0 0 35 5 1 2 0 40 37 0 0 20 42 2 0 0 0 0 0 0 6 0 0 0 0 1 4 0 13 24 0 0 18 0 17 0 0 0 3 0 0 7 0 16 36 2 16 30 24 0 0 0 0 6 1 0 0 0 4 0 7 6 10 5 0 14 0 0 3 1 0 0 1 13 0 0 0 0 0 33 11 0 0 0 0 0 0 6 0 20 28 20 21 16 6 0 1 10 33 35 8 0 2 0 0 0 19 17 0 29 13 0 7 1 0 0 0 15 5 10 19 15 9 0 0 4 0 0 0 19 2 0 0 4 10 22 11 3 5 0 0 4 1 0 0 0 0 10 0 9 13 0 0 0 0 0 12 17 0 0 13 0 8 8 0 0 0 0 0 24 44 0 0 25 12 0 0 12 3 0 0 0 9 0 0 0 0 11 9 25 13 0 0 0 10 0 0 0 0 0 77 74 0 0 0 2 58 22 0 0 0 60 36 49 0 0 0 0 17 0 0 0 57 21 9 0 0 23 41 0 8 29 3 3 5 2 0 
0 0 0 0 7 8 0 4 0 0 1 0 1 11 0 0 0 1 0 0 0 0 13 0 14 26 0 0 22 36 0 0 44 0 33 13 7 0 56 0 0 34 0 0 34 32 0 3 12 0 4 30 0 0 1 29 28 0 38 0 0 43 35 0 0 19 7 27 0 0 0 20 4 0 39 19 0 0 0 0 3 23 2 0 0 0 19 4 0 1 0 7 0 0 16 13 0 0 0 0 0 3 0 0 1 0 58 0 5 19 18 8 0 7 10 6 9 7 1 0 4 2 0 0 0 4 8 0 6 0 5 0 0 0 0 0 32 10 4 6 0 0 0 0 23 11 21 0 0 0 0 0 0 0 0 8 8 3 0 0 0 0 3 23 0 11 0 0 0 7 0 0 13 0 0 0 0 0 0 0 4 7 0 0 12 7 0 0 8 0 0 0 0 0 7 9 15 7 4 0 0 0 0 0 8 1 0 1 0 0 14 0 0 0 0 4 3 13 1 0 0 0 0 5 3 0 32 0 8 15 0 7 0 3 6 0 0 11 27 0 0 19 0 0 0 25 53 0 0 0 0 0 0 22 51 19 0 11 0 5 8 0 0 0 44 39 0 0 0 5 24 1 0 0 0 50 34 87 0 0 0 14 14 27 0 0 40 8 0 1 0 49 0 0 34 7 0 0 0 0 
0 0 0 0 0 4 0 4 2 5 0 0 0 10 1 0 1 0 0 0 0 2 3 0 22 0 0 6 4 0 0 47 8 0 5 0 7 38 65 0 0 41 0 0 36 24 0 24 18 0 0 6 30 0 0 12 33 0 30 0 3 50 20 0 0 0 0 20 0 0 0 0 6 2 26 10 0 0 3 0 3 46 6 0 0 0 25 10 0 4 3 0 0 15 0 0 0 0 4 0 0 6 0 0 0 12 16 0 10 8 16 0 0 18 17 0 0 0 0 0 6 10 0 0 0 0 7 4 0 0 0 11 0 0 1 0 0 4 0 1 19 0 0 13 4 0 16 19 0 0 0 0 0 0 0 0 0 4 0 9 15 0 0 0 0 0 2 13 7 0 4 1 0 0 12 2 0 3 0 0 3 21 16 0 0 18 13 2 7 10 19 8 8 17 17 0 0 9 5 0 0 9 14 0 5 5 0 0 0 9 0 0 29 0 16 21 0 0 0 1 0 10 0 9 3 0 28 5 0 30 0 0 0 0 0 13 14 0 14 29 0 0 56 54 0 0 0 0 2 20 0 0 0 0 0 15 4 16 10 0 0 0 63 23 0 14 56 0 0 0 33 8 0 12 0 14 0 58 2 0 0 12 3 19 20 0 14 30 0 0 2 17 21 0 15 25 0 3 0 0 
0 0 4 0 4 0 0 3 1 0 1 0 0 6 0 1 11 0 8 0 9 17 0 0 0 0 9 0 0 6 21 0 0 26 0 5 21 77 0 0 0 80 0 0 29 37 0 15 7 12 0 0 35 0 5 29 9 0 21 0 0 41 37 0 0 9 12 0 1 0 0 10 6 0 4 2 2 0 0 0 2 0 0 0 0 13 13 1 25 4 14 0 0 0 0 0 0 7 24 0 9 2 5 9 10 20 6 2 4 19 25 0 0 9 10 0 0 7 0 0 0 5 1 0 1 0 0 4 0 0 17 9 0 4 41 0 0 7 17 0 0 15 0 9 15 0 0 7 30 29 1 2 0 0 0 0 0 0 2 3 4 12 0 0 4 0 0 17 9 2 0 0 0 8 1 0 0 0 0 6 0 0 21 0 0 1 14 3 0 0 2 8 0 6 0 0 0 15 5 0 0 0 16 9 7 6 9 0 12 0 0 0 27 6 0 8 17 0 0 8 0 0 0 1 0 0 3 18 0 22 13 0 0 26 7 8 0 6 0 0 25 0 0 52 44 0 0 0 0 13 23 11 0 0 0 0 0 5 0 14 11 0 0 79 58 0 22 13 0 0 0 11 0 0 0 15 37 3 20 0 8 0 0 7 56 0 0 51 20 0 7 3 32 0 0 33 2 0 0 0 
0 0 1 7 9 4 10 5 0 0 0 0 0 5 0 0 6 0 0 0 8 9 0 0 9 3 0 0 5 12 33 0 0 35 11 0 20 58 0 23 0 49 0 0 47 34 0 8 8 17 0 0 9 0 0 17 16 0 29 0 0 29 4 3 14 24 2 0 0 0 0 15 0 0 41 0 0 0 0 0 0 0 13 17 0 14 12 6 11 0 0 0 0 0 0 2 0 12 0 2 0 0 7 20 0 0 12 8 2 23 18 0 1 18 0 0 0 0 0 0 0 13 0 2 6 5 0 0 0 25 52 0 0 14 2 0 1 0 0 0 0 0 0 3 0 0 0 0 13 1 18 15 0 0 0 0 0 5 0 0 0 0 0 3 4 2 15 6 0 0 0 0 7 0 0 1 0 5 5 6 0 5 1 0 4 0 0 0 0 0 0 18 26 0 0 0 6 0 0 5 3 0 0 0 14 0 14 0 12 1 6 11 0 0 1 10 25 0 0 14 0 0 0 0 0 0 6 18 0 0 25 0 0 0 13 18 0 0 0 14 26 18 0 0 8 27 9 0 0 9 20 19 0 0 20 6 0 0 20 3 7 0 0 0 52 11 0 61 3 0 0 6 10 0 0 0 32 34 0 0 0 0 0 0 21 40 0 0 36 3 3 0 31 0 0 32 16 0 6 0 
0 0 0 2 0 1 4 5 1 2 2 2 2 1 2 0 4 2 0 0 8 0 0 22 0 0 0 7 2 8 13 0 49 3 12 8 27 0 0 8 0 60 0 0 25 40 0 8 7 3 19 0 0 0 0 24 2 0 16 0 8 36 9 0 0 9 0 0 3 0 0 42 0 0 71 17 0 0 0 0 0 35 8 4 5 0 0 0 0 0 2 11 4 6 27 13 32 13 0 0 0 27 22 0 0 8 14 6 4 25 14 0 0 10 0 0 2 0 0 0 0 0 1 3 7 3 11 0 0 10 12 0 8 13 19 3 0 0 0 9 1 0 13 9 0 3 8 0 4 0 12 25 13 1 0 8 0 0 0 0 5 2 0 0 0 0 0 0 0 0 0 8 9 0 0 0 0 29 9 0 6 18 0 5 8 8 4 1 0 4 0 0 0 0 0 19 7 5 8 7 0 0 0 0 0 0 5 0 0 3 0 10 10 0 0 0 21 0 0 4 0 0 9 15 17 0 14 2 0 0 10 0 0 0 1 0 11 0 0 71 0 1 50 1 10 17 0 0 0 0 0 2 26 9 0 0 0 0 0 0 0 0 17 0 0 50 19 13 24 0 0 7 37 0 0 0 0 56 0 0 0 0 0 0 38 35 0 0 27 15 0 5 15 24 0 20 27 0 0 0 
0 0 14 0 0 0 0 2 1 0 0 0 0 0 0 1 7 3 0 0 0 0 0 15 0 10 10 15 0 19 0 0 22 3 31 0 39 0 5 0 5 63 7 0 4 37 0 0 0 0 32 0 0 0 0 17 0 19 0 0 4 23 20 0 0 8 0 0 0 0 0 39 0 0 54 0 0 6 0 0 0 18 2 0 0 0 0 3 12 1 14 11 0 0 5 0 0 9 0 8 7 12 0 0 9 26 16 0 8 23 10 0 0 0 0 12 2 6 0 0 0 0 2 7 4 0 0 13 5 0 0 0 0 2 5 0 2 48 8 0 0 0 0 3 0 0 20 6 0 0 0 0 41 32 0 11 6 0 0 0 0 7 10 21 13 3 5 0 4 8 11 0 0 0 0 21 11 0 0 0 0 4 0 0 0 0 18 10 0 3 0 0 0 0 0 16 0 0 10 0 0 14 22 13 0 0 2 3 0 0 2 0 2 4 0 0 30 0 0 15 0 0 24 15 1 0 11 14 4 0 8 12 0 0 1 0 0 0 16 9 1 0 3 9 18 44 49 25 0 0 0 0 0 7 40 15 21 16 0 4 1 0 0 2 0 0 20 0 36 15 0 0 1 41 9 11 0 53 26 32 73 0 14 0 4 36 38 0 0 48 7 0 1 35 0 0 31 11 3 0 
0 0 3 0 3 0 0 0 2 0 2 2 2 0 0 1 13 0 0 0 0 21 12 0 0 16 2 0 0 26 0 23 28 25 0 0 71 0 0 0 53 40 1 0 14 19 0 27 7 0 0 15 0 0 2 0 0 32 0 7 0 14 14 1 5 30 12 0 0 0 47 9 0 0 75 0 0 0 23 13 0 0 0 0 0 0 20 31 13 20 8 10 0 9 0 3 28 0 0 24 32 0 0 0 15 24 0 0 24 24 4 0 0 1 6 7 0 16 0 1 0 6 0 12 14 0 0 0 0 0 1 0 0 0 0 0 0 29 3 1 0 0 0 2 16 0 4 0 0 8 7 0 12 17 0 38 34 33 26 13 0 0 0 0 0 21 30 23 28 18 30 26 4 0 8 42 19 8 0 0 0 0 0 0 0 0 13 10 0 7 6 11 4 0 0 0 0 10 0 2 0 6 0 0 6 14 0 0 4 0 0 0 0 0 0 0 8 0 16 0 0 1 0 0 1 0 17 4 14 0 0 17 16 0 13 2 0 31 15 0 24 3 6 0 9 7 26 19 1 34 32 0 0 0 0 0 8 36 45 4 0 0 0 12 0 0 5 0 13 0 1 0 0 20 0 0 0 3 47 0 31 0 0 0 0 34 10 12 0 32 29 2 0 21 6 0 9 8 0 0 
0 0 0 0 14 0 3 6 0 2 0 0 0 0 5 0 10 0 21 0 0 21 11 0 0 3 9 0 5 9 0 16 11 0 0 50 42 0 0 0 48 32 12 0 20 0 5 2 10 0 0 20 13 0 2 0 0 37 0 17 7 5 15 2 0 34 0 0 0 49 55 0 0 18 51 0 0 0 41 43 20 19 32 28 30 47 23 0 11 17 0 0 0 21 51 36 0 0 17 14 0 0 0 0 17 24 0 2 44 0 0 0 0 0 0 0 11 26 5 14 4 0 0 2 11 9 0 0 0 0 8 17 2 6 8 11 0 0 1 1 0 0 0 0 0 0 0 0 2 0 0 0 0 25 0 0 9 10 24 20 41 43 19 0 0 0 0 0 0 0 0 0 1 2 15 30 0 8 41 12 0 0 19 0 0 0 1 7 0 5 0 0 0 0 8 2 4 5 0 0 3 0 4 0 20 3 0 1 4 10 6 0 6 2 5 0 0 6 12 0 7 5 0 0 0 0 8 6 12 0 0 0 14 0 4 11 0 0 0 0 0 3 0 0 37 41 2 27 20 10 28 1 0 0 2 18 0 0 15 0 6 35 0 17 0 0 0 18 30 4 0 0 0 3 4 0 3 0 20 20 36 1 0 0 17 39 0 55 0 0 49 14 2 7 40 0 0 21 8 0 
0 0 10 3 0 0 2 3 1 0 0 0 0 0 4 7 0 4 31 0 13 3 0 8 2 6 9 0 12 0 15 13 0 0 17 79 9 0 0 0 25 51 18 0 20 2 7 7 8 0 0 19 36 0 10 0 12 16 0 0 11 11 13 12 11 0 0 0 33 18 0 0 0 14 1 0 0 29 13 0 0 0 0 0 0 0 0 0 0 0 0 0 0 0 60 53 0 6 0 14 0 0 0 9 32 17 0 17 24 0 0 1 0 0 0 0 0 8 0 4 0 1 6 1 0 10 0 0 0 0 0 6 1 3 11 0 2 0 0 5 8 0 0 0 3 0 4 11 0 0 5 0 0 0 0 0 0 0 0 0 0 1 19 31 33 26 16 0 0 0 0 0 0 0 16 32 0 0 0 6 2 0 0 32 14 0 24 18 0 0 0 0 0 0 3 0 0 17 0 0 1 0 11 1 0 0 4 0 11 0 0 7 3 12 0 0 5 8 2 0 5 0 17 16 0 0 0 16 0 0 34 0 10 0 0 7 16 2 0 0 0 0 5 0 0 96 2 0 13 25 50 5 0 0 0 0 0 6 0 0 0 0 0 0 4 0 0 0 12 39 0 0 0 0 28 14 0 0 9 18 29 45 0 0 0 24 0 39 45 0 3 31 1 5 38 0 0 12 2 0 
0 0 5 3 0 0 0 0 5 5 0 0 0 1 0 3 0 15 14 0 34 2 0 0 0 10 2 3 16 0 13 0 0 3 48 28 0 0 3 10 4 50 18 0 0 40 0 0 19 0 0 15 15 0 16 4 0 0 5 0 0 0 10 18 9 0 0 10 0 0 0 11 22 0 0 13 38 6 0 0 0 1 0 0 0 0 0 0 0 0 0 2 8 0 0 3 0 0 3 16 0 0 0 30 25 0 11 41 3 0 20 0 0 1 12 0 0 5 5 0 0 6 1 0 8 0 0 3 3 1 7 0 0 0 7 0 0 0 0 0 10 5 6 0 0 0 0 0 2 4 3 0 0 12 0 0 0 6 20 8 9 0 0 0 40 34 12 17 30 35 24 28 5 0 0 12 0 0 0 4 4 15 0 0 1 62 19 0 16 29 17 12 11 4 0 0 42 29 7 0 0 4 0 8 0 0 6 0 0 0 7 25 10 0 0 0 12 1 0 28 25 0 0 18 4 4 0 1 1 0 4 0 4 22 6 0 14 26 11 0 0 0 0 0 0 47 40 0 0 0 56 101 0 0 0 0 0 0 17 44 28 0 0 0 8 0 0 0 0 36 0 0 0 0 26 25 0 0 0 44 10 62 10 0 0 4 11 23 48 0 0 37 6 7 8 0 0 26 0 0 
0 0 3 0 0 2 0 4 0 1 5 0 0 0 0 0 3 6 13 0 0 18 0 0 0 0 0 9 11 0 0 0 0 28 84 0 0 66 0 8 8 32 2 0 7 39 0 0 12 0 4 0 7 0 13 28 0 3 8 5 0 3 15 25 5 9 0 0 12 30 0 0 0 0 9 25 20 0 0 0 0 0 4 0 0 0 0 0 6 13 0 0 19 25 0 2 0 0 6 1 0 0 0 27 20 4 31 28 0 0 0 0 4 0 10 0 0 0 2 0 1 8 3 13 4 0 16 9 0 0 7 0 0 2 0 1 4 12 7 0 0 15 4 0 0 0 1 2 5 0 10 22 5 5 23 0 1 5 0 0 12 0 0 0 0 0 0 3 3 0 0 29 42 11 0 0 0 0 22 17 7 30 41 0 0 20 0 0 0 0 25 4 0 2 12 23 43 10 4 10 0 0 0 2 0 0 10 1 9 15 0 0 5 0 15 4 0 0 3 0 0 1 13 0 10 4 0 7 4 0 10 10 0 0 11 31 0 0 14 17 0 0 0 0 0 16 32 0 0 0 0 107 95 0 34 51 0 0 0 0 52 28 0 0 6 3 5 22 0 0 38 0 0 0 0 14 17 0 0 4 21 20 7 0 0 0 0 23 34 41 0 7 31 0 10 14 0 19 0 0 
0 1 11 0 0 2 6 1 0 0 3 2 0 0 0 4 9 10 4 0 0 17 4 1 6 9 1 15 0 0 0 7 21 50 14 0 36 42 0 30 10 38 9 0 0 0 6 8 6 0 23 16 17 0 4 15 0 0 19 7 0 9 26 2 0 33 0 18 53 7 0 0 0 9 13 15 0 0 6 5 16 0 0 0 0 0 7 11 0 1 6 12 1 0 0 34 0 0 0 0 0 0 0 24 23 20 30 3 0 0 0 2 18 0 0 6 5 0 0 0 11 2 0 0 0 10 4 0 0 12 2 0 4 8 0 0 12 0 0 0 0 3 0 0 5 1 0 11 0 0 0 3 17 33 26 6 0 0 0 7 8 10 0 0 0 4 25 0 0 1 0 0 20 42 12 0 0 0 23 0 12 0 4 13 7 0 0 12 0 0 0 4 0 0 0 0 0 0 1 5 7 0 0 5 0 1 1 17 0 0 0 0 20 3 0 0 0 0 5 9 0 0 10 0 15 0 0 1 15 0 0 46 0 0 21 41 0 0 0 2 14 27 11 3 0 17 48 0 0 0 0 55 58 0 10 27 33 33 0 0 0 36 42 0 3 0 0 0 41 0 10 10 11 0 0 0 0 44 0 0 18 38 16 3 0 0 0 45 0 51 0 0 37 2 14 34 0 0 14 0 
0 0 2 0 5 0 0 0 5 0 2 0 0 1 0 0 2 12 12 0 0 8 2 6 0 5 1 7 0 0 21 33 22 63 0 0 71 0 11 17 12 21 13 0 2 0 15 17 0 0 10 35 0 0 22 9 0 0 13 0 0 3 16 7 3 0 0 26 37 0 0 0 32 38 0 0 0 4 0 0 5 6 1 17 0 17 9 0 3 3 11 11 0 0 24 34 0 0 0 4 0 0 0 12 28 32 9 0 0 0 0 0 12 0 0 7 1 0 6 8 0 0 6 1 11 0 13 0 10 7 0 2 0 6 4 0 6 0 4 0 0 2 0 0 0 6 0 0 0 1 0 0 0 12 14 13 0 0 0 1 0 0 18 0 1 0 0 8 9 7 13 0 0 16 20 15 0 0 1 0 3 0 0 0 29 0 0 9 52 21 0 0 0 5 8 0 0 9 0 0 0 0 6 0 9 4 0 13 0 0 3 17 14 7 0 0 12 0 0 10 0 12 0 0 3 0 0 0 7 0 0 43 4 0 20 0 1 0 6 0 5 9 0 0 0 0 27 0 0 0 0 0 0 27 48 0 0 42 60 0 0 0 5 0 0 17 0 0 0 14 13 0 10 0 0 7 0 29 40 0 0 46 59 4 0 4 0 8 20 34 50 0 25 27 2 21 0 0 31 0 
0 0 0 0 0 0 0 0 1 0 8 4 2 0 0 0 5 5 20 0 0 14 0 2 2 0 4 6 0 22 3 9 63 0 0 94 0 0 37 6 15 0 0 12 0 0 0 30 1 0 0 25 0 0 37 28 0 0 0 3 0 1 12 27 32 0 0 41 0 0 0 18 34 13 0 0 5 0 0 9 16 11 12 0 0 9 3 0 14 5 0 0 0 0 18 0 0 0 0 0 0 0 0 18 28 10 0 0 0 12 0 0 18 0 5 10 22 4 9 6 0 0 7 0 15 0 18 0 0 1 9 0 0 8 5 0 12 6 6 0 0 7 24 18 0 3 0 0 0 0 2 0 0 0 0 2 0 8 16 6 0 0 19 21 20 2 0 4 15 0 0 0 2 4 11 25 18 0 0 0 0 0 6 4 3 0 13 0 2 15 23 0 0 0 3 0 7 14 0 0 0 0 12 0 2 24 5 0 0 28 8 0 5 0 0 1 17 12 12 0 0 0 0 27 19 13 0 17 14 0 0 0 38 19 17 8 4 0 10 9 0 0 0 0 0 2 28 0 0 0 0 0 0 38 44 0 0 0 17 115 2 0 0 40 9 0 0 6 0 0 0 7 0 6 0 1 8 0 46 7 0 0 60 4 0 0 16 0 0 14 70 0 0 46 6 10 0 0 28 0 
0 0 4 0 0 5 4 3 3 1 4 3 0 0 0 1 4 1 12 0 7 13 9 0 3 4 2 2 0 14 0 11 38 0 0 60 0 0 20 0 2 18 3 0 0 24 6 8 7 17 0 0 53 0 63 26 0 0 1 0 0 3 5 22 8 0 7 57 0 0 21 18 0 0 12 0 13 0 0 24 13 6 0 0 0 3 5 1 0 5 2 0 6 9 0 1 0 0 0 0 0 0 13 39 39 6 0 4 0 0 0 0 14 0 0 0 2 0 1 0 0 2 12 0 5 0 0 37 4 0 1 10 0 4 11 5 8 5 6 7 6 0 0 0 3 0 0 0 0 0 4 0 0 3 0 0 0 0 9 7 11 2 0 2 5 0 0 0 27 17 0 0 9 0 0 0 14 9 20 0 7 0 3 6 0 0 17 0 0 0 21 21 9 0 0 0 10 23 2 0 0 0 0 15 13 26 0 0 5 12 0 6 0 0 16 3 0 2 0 6 3 0 43 0 0 0 0 0 8 0 12 0 12 13 0 0 16 20 2 19 11 6 10 0 0 18 27 0 0 0 49 54 0 0 113 40 0 0 0 95 63 0 0 0 33 0 3 0 0 0 0 7 0 23 0 0 14 0 11 47 0 0 61 19 0 0 23 0 0 8 33 9 0 38 17 1 20 0 17 0 
0 0 0 1 3 0 1 3 0 0 1 0 0 0 0 0 0 4 1 0 1 6 4 0 3 7 3 0 0 12 10 37 0 0 68 12 0 0 13 0 9 37 0 0 0 7 3 6 10 0 0 21 50 0 59 26 10 5 10 0 0 8 5 26 3 0 14 0 0 21 28 0 0 0 0 0 6 0 11 0 2 0 0 0 2 0 0 13 0 0 0 0 9 4 13 0 0 0 11 0 0 4 36 46 24 0 0 3 0 0 5 10 7 15 0 0 0 0 13 0 0 8 0 3 0 3 0 6 16 1 0 9 0 0 11 11 0 0 8 20 2 0 0 2 20 4 15 0 19 4 0 0 0 3 8 4 8 4 0 0 0 0 0 9 0 13 12 8 0 18 15 0 0 0 0 0 14 14 6 0 0 2 0 0 4 0 0 6 5 0 0 0 13 23 2 0 0 17 0 1 40 0 0 6 0 9 0 0 22 3 0 0 4 0 0 0 0 13 0 4 0 0 24 0 23 0 0 0 0 16 16 0 10 0 0 0 0 1 0 0 1 7 7 13 0 49 50 0 5 46 74 12 0 0 70 100 0 0 0 0 86 51 0 0 0 18 0 4 0 5 5 0 0 27 0 0 0 35 0 12 27 0 21 13 15 0 0 10 0 17 24 44 0 32 44 7 23 0 0 0 
0 0 8 1 3 0 0 1 0 2 2 0 0 0 0 0 0 0 12 0 0 4 4 0 0 13 0 0 0 8 37 0 0 5 14 0 22 8 0 0 12 17 0 0 0 0 0 0 21 33 0 56 89 0 33 36 4 5 9 0 0 14 9 27 0 12 28 0 0 30 0 0 0 17 0 0 17 21 10 0 0 0 6 0 1 3 0 0 0 9 2 8 0 0 7 0 0 0 96 0 0 18 30 25 0 0 0 0 0 12 0 0 0 4 4 3 1 0 1 0 0 2 0 12 0 3 2 0 0 14 0 6 2 0 0 0 7 0 0 13 10 22 12 0 0 0 6 0 0 4 6 9 6 0 4 0 5 7 0 0 0 0 0 2 1 0 0 6 0 0 18 4 11 0 0 0 0 12 6 8 0 0 0 0 0 6 0 0 9 15 0 0 0 33 34 0 0 0 3 7 14 2 5 14 0 0 0 0 15 9 0 0 6 0 0 43 12 31 0 22 6 23 18 0 6 10 0 0 0 0 0 9 0 0 0 9 0 0 0 0 1 0 0 3 0 41 31 0 1 4 0 0 54 0 0 103 75 0 0 0 0 104 46 0 0 3 0 10 0 0 0 6 0 0 0 0 0 30 3 0 32 0 0 0 53 0 0 55 0 16 23 37 0 0 36 18 26 0 0 0 
0 0 3 0 0 3 8 0 0 0 7 0 2 0 0 0 0 3 9 5 0 0 19 0 0 0 3 0 0 36 47 0 28 0 0 16 28 1 34 0 19 0 12 19 19 0 0 1 0 0 0 0 87 0 15 55 0 2 12 0 0 16 6 24 11 35 0 0 47 1 0 0 0 17 0 0 10 7 0 7 0 0 0 0 16 0 0 0 0 16 8 12 0 4 0 0 0 0 17 0 5 22 53 0 0 11 1 0 0 4 3 12 7 0 8 0 0 21 0 0 24 0 0 17 6 0 7 5 0 6 0 0 3 5 0 0 3 0 0 0 8 6 2 3 0 0 3 0 0 0 0 9 11 0 0 0 0 7 0 5 5 10 1 0 8 0 0 0 0 3 5 0 8 1 1 0 0 2 0 12 19 0 0 9 10 0 0 0 0 3 26 4 0 0 14 0 0 0 4 0 0 10 0 0 19 2 2 7 10 0 1 0 0 0 3 8 0 0 0 0 0 0 19 2 1 0 0 18 0 28 58 96 0 0 0 13 0 0 0 0 0 0 0 0 0 57 2 0 0 0 0 0 50 23 0 32 69 54 0 0 0 38 88 24 0 0 3 8 0 0 30 7 0 0 0 8 0 20 38 0 0 47 0 0 48 0 0 61 8 0 47 36 0 0 31 27 14 0 0 11 
0 0 2 0 0 1 2 0 0 0 11 0 4 0 0 0 0 2 6 1 0 0 6 12 8 15 0 0 28 76 0 0 35 27 0 22 0 0 37 4 0 0 2 21 13 4 11 42 18 0 0 53 99 0 0 60 12 0 0 0 0 4 3 11 22 34 0 0 27 0 0 9 15 0 0 0 0 0 0 22 2 0 0 0 0 0 6 0 2 6 0 0 7 0 0 2 11 0 0 40 5 40 50 0 0 17 0 0 0 0 0 12 0 0 7 0 0 19 0 0 20 7 0 8 13 9 4 0 6 15 5 0 0 10 0 0 7 7 0 0 0 0 8 20 22 0 1 4 5 11 0 0 0 3 5 2 2 1 0 0 1 11 0 0 20 6 0 0 14 11 14 0 0 0 13 11 0 0 0 0 11 13 0 0 4 0 4 0 0 0 18 27 0 0 7 9 9 7 9 0 0 0 11 1 0 0 5 5 7 0 0 8 18 5 0 3 0 0 0 11 2 0 27 0 21 0 0 23 0 61 22 66 29 0 0 0 4 0 0 1 4 2 0 0 8 25 0 0 0 11 28 0 22 12 0 0 43 51 48 0 0 0 36 71 0 0 0 11 0 0 12 33 0 8 0 4 0 0 4 31 0 0 6 0 36 21 0 0 56 0 42 59 1 0 23 15 23 15 0 9 
0 0 2 1 0 1 6 0 3 2 1 0 1 0 0 0 0 0 0 0 0 11 2 1 14 0 0 0 74 0 0 59 0 0 27 35 0 36 25 0 0 10 0 3 8 5 0 0 51 26 0 51 114 0 0 64 25 0 0 0 0 3 0 16 25 11 0 4 11 0 0 20 21 0 0 21 0 0 4 44 0 0 10 77 0 0 3 0 16 2 0 2 0 0 0 0 0 0 13 0 0 44 0 0 3 0 0 0 0 0 0 0 0 24 14 0 1 9 0 0 19 15 0 13 1 10 0 0 0 26 0 0 0 13 0 2 0 0 0 0 0 0 11 2 22 26 0 4 11 0 6 0 1 0 0 4 4 0 0 0 0 0 0 0 2 2 0 0 0 1 0 0 0 0 0 0 0 6 0 0 0 5 13 29 0 0 11 3 0 0 7 12 13 0 0 0 12 7 0 0 0 0 0 32 0 0 1 0 0 19 0 0 22 0 0 6 0 13 0 7 16 36 4 0 3 0 0 60 2 3 0 2 37 0 0 0 0 4 0 0 2 8 0 0 18 11 0 0 0 3 36 0 0 29 0 0 54 41 106 6 0 0 0 39 11 0 0 14 6 0 0 24 0 9 0 0 0 2 0 25 0 0 48 0 9 2 0 0 52 0 6 55 17 0 0 28 23 5 0 0 
0 0 3 0 4 2 0 1 0 3 0 0 5 0 0 4 7 6 3 7 0 0 1 0 10 6 15 31 0 0 12 55 0 0 13 0 0 37 0 0 6 24 11 0 8 13 0 0 53 0 0 80 90 0 0 73 17 0 4 20 4 0 0 20 33 0 0 0 0 4 0 4 0 0 16 19 0 0 18 44 0 0 18 130 7 0 0 0 8 7 0 2 0 4 0 0 0 21 0 0 62 40 0 0 7 0 12 25 28 0 11 14 0 0 0 0 9 0 0 2 0 2 0 0 0 5 0 0 0 36 0 0 0 0 0 8 4 25 0 0 0 0 0 0 3 23 0 0 0 0 0 0 0 0 2 0 9 22 0 12 1 0 0 0 0 20 4 19 0 0 0 0 17 14 0 0 0 0 3 0 0 8 0 12 0 0 0 11 0 0 4 0 7 7 0 7 5 0 0 8 6 0 11 0 0 4 2 6 10 12 2 0 0 0 0 3 0 0 10 1 19 25 0 0 0 0 32 82 0 0 0 0 44 11 0 0 0 0 0 0 0 19 4 5 52 8 0 0 19 98 55 0 0 43 12 0 11 17 59 0 63 0 0 24 58 0 0 14 0 0 0 8 0 25 0 0 0 21 11 0 36 0 4 0 8 8 0 0 18 0 0 23 30 0 0 39 18 20 0 0 
0 0 4 6 5 3 0 1 0 0 1 2 5 0 0 0 0 0 8 9 0 0 17 10 0 0 42 11 0 4 68 14 0 9 5 0 2 6 0 0 12 17 0 0 10 11 0 7 42 0 0 46 50 0 0 49 16 0 0 14 2 0 6 23 32 0 0 13 0 22 5 0 0 0 15 0 0 0 0 0 0 0 0 0 0 4 0 0 4 6 0 0 0 0 0 22 25 19 0 6 90 0 0 0 14 0 3 1 7 0 0 2 0 10 13 0 0 0 0 6 10 12 0 0 3 6 13 8 0 4 30 14 11 0 3 3 5 36 0 0 9 0 0 0 0 15 6 6 15 9 0 1 2 0 0 5 4 4 0 0 10 2 0 0 0 0 0 6 12 0 0 0 13 42 22 0 0 3 0 0 4 2 0 0 22 0 0 0 2 0 5 3 7 14 0 0 0 8 0 23 13 0 0 0 10 6 0 13 0 0 0 0 1 18 0 0 0 17 14 0 22 1 0 0 0 0 50 39 0 0 0 0 13 0 0 6 5 0 8 0 0 0 0 0 44 4 0 0 10 116 62 0 0 5 9 0 0 51 46 0 0 0 0 0 87 14 0 0 13 0 0 11 0 8 1 0 0 0 31 0 55 0 0 0 12 0 0 0 37 0 4 21 38 0 0 28 18 34 0 0 
0 0 1 0 3 0 0 2 3 0 7 4 5 0 0 1 0 0 5 4 9 0 21 0 0 41 0 0 0 8 12 0 18 38 3 18 19 2 0 6 15 8 0 5 11 0 0 8 42 0 0 28 17 33 0 27 10 0 4 0 0 0 3 33 23 0 30 0 0 17 14 0 0 0 6 3 0 8 0 0 5 0 0 0 0 19 17 0 0 6 0 0 0 0 26 26 1 0 0 70 65 0 0 2 0 0 3 0 2 0 5 0 0 10 2 0 0 0 0 0 0 0 0 0 0 0 1 0 0 8 17 0 2 0 7 0 15 4 0 3 6 0 0 0 0 11 3 11 0 3 3 1 0 0 0 0 0 0 3 1 2 0 6 11 0 0 0 0 6 9 0 0 0 2 1 0 26 0 0 9 4 0 6 0 5 5 4 0 0 10 0 0 1 17 8 0 0 15 0 21 2 13 0 0 12 8 0 0 0 0 0 6 7 1 3 3 0 5 6 19 39 0 0 0 0 1 40 8 0 0 0 5 14 0 0 3 0 0 2 0 0 0 0 0 52 0 0 0 0 49 64 64 0 4 30 0 0 29 27 39 0 67 0 0 57 38 0 0 11 8 0 17 0 6 0 3 0 0 56 0 45 28 0 0 34 0 0 0 32 0 2 26 47 23 0 13 27 34 0 0 
0 0 0 0 2 1 0 1 0 0 7 0 2 0 0 8 2 0 7 3 0 0 29 17 0 9 0 0 27 15 0 0 31 10 1 1 0 4 0 17 10 0 0 11 0 0 0 4 24 40 30 15 22 5 0 9 15 5 0 0 3 0 0 24 17 11 29 0 0 36 6 0 0 10 0 4 0 0 0 0 10 0 20 30 0 1 7 0 12 2 0 0 0 16 19 3 0 0 0 97 23 0 0 0 0 0 1 0 4 7 12 3 0 0 0 0 0 0 11 16 0 0 2 0 0 0 0 3 0 6 41 0 0 15 0 0 19 0 0 2 2 0 0 0 0 0 0 2 8 7 3 6 0 1 0 0 0 11 0 4 0 0 3 0 6 21 6 0 1 9 0 0 0 0 0 0 28 0 0 0 14 3 3 0 0 2 12 4 0 0 10 2 0 5 11 0 0 20 0 14 22 0 0 0 0 19 9 0 6 7 6 0 4 0 0 0 18 0 2 6 5 0 0 5 0 6 14 18 0 0 0 1 2 8 0 0 2 6 3 1 0 0 0 14 62 0 0 28 0 0 69 74 0 0 38 13 0 0 39 111 0 20 8 0 25 49 0 0 0 14 0 0 4 12 0 0 0 0 13 0 27 40 0 0 48 7 0 0 9 4 2 0 37 67 0 0 29 31 0 0 
0 0 0 0 0 2 0 1 0 1 3 4 2 1 0 4 6 1 4 10 0 0 1 22 3 0 18 21 23 0 0 55 27 0 0 0 0 1 0 4 11 8 0 3 0 0 0 5 6 2 10 0 0 57 0 0 22 8 5 0 5 1 0 14 19 24 0 0 18 22 0 0 9 11 0 1 5 16 0 0 0 3 1 4 0 3 0 1 2 0 6 10 0 10 0 1 0 0 3 94 5 0 0 0 0 0 18 3 0 0 0 0 9 0 5 6 11 9 0 0 4 7 0 0 0 8 14 2 0 0 21 0 0 0 3 7 13 0 30 3 0 0 17 18 0 0 0 0 0 10 6 0 0 0 2 0 4 0 0 6 0 4 0 0 0 6 2 4 0 0 0 0 0 0 12 0 0 0 3 0 0 2 0 17 0 0 11 4 0 0 7 14 0 0 7 0 0 6 0 0 15 0 0 11 1 7 0 1 0 0 1 13 0 0 0 4 3 0 0 0 18 6 0 0 1 15 0 26 0 0 0 0 0 8 3 2 0 8 0 0 0 0 0 17 32 0 0 43 0 0 0 56 22 0 49 15 0 0 51 99 0 0 60 0 0 39 5 0 1 5 0 4 0 4 6 0 0 3 0 0 0 24 4 0 9 6 0 0 0 10 0 0 0 55 0 0 28 30 1 0 
0 2 0 0 1 0 0 2 1 0 0 0 5 3 0 0 2 9 0 14 0 0 6 0 0 0 12 49 0 0 45 20 0 0 0 0 11 0 0 19 28 0 0 7 0 0 0 6 0 2 3 0 40 35 0 6 28 4 12 0 9 0 0 16 24 8 0 0 47 0 0 0 32 0 0 0 12 7 0 0 0 4 4 0 0 19 0 0 0 7 1 5 0 14 0 1 0 0 63 79 0 0 3 0 0 0 22 0 5 0 0 0 0 0 0 5 4 12 0 0 1 0 5 4 1 0 2 2 0 0 13 4 0 0 5 7 9 0 21 14 0 0 0 14 1 0 0 3 0 0 0 15 3 0 0 8 2 0 0 0 2 0 0 6 8 3 0 0 0 0 10 9 4 0 19 7 0 0 1 4 0 0 0 5 0 0 0 0 15 0 0 10 5 0 0 0 0 16 16 0 28 0 0 0 15 0 0 6 0 0 5 1 0 0 30 10 0 4 0 28 19 0 0 0 0 2 0 28 2 1 0 0 0 0 13 0 0 8 1 0 0 0 0 28 4 0 2 40 5 0 0 0 90 0 0 35 0 0 0 100 84 0 64 0 0 34 3 0 0 0 0 28 0 0 9 0 0 0 19 0 0 4 40 0 22 30 0 0 0 0 0 43 0 69 0 0 35 21 24 0 
0 0 0 7 8 6 1 0 1 1 2 0 4 0 0 0 0 1 0 3 11 12 3 0 14 28 46 0 0 0 0 0 0 9 11 12 8 0 0 30 0 0 28 19 14 1 0 4 0 0 10 10 12 0 0 0 24 8 0 0 1 4 0 11 27 27 0 0 17 2 0 0 13 0 0 0 0 0 0 0 0 5 2 0 4 11 0 0 1 0 9 0 17 9 0 0 0 0 105 60 0 0 0 0 1 4 19 0 0 0 8 0 0 0 0 2 0 0 0 0 0 0 13 0 9 3 0 19 0 0 16 12 0 0 0 16 0 0 11 25 0 0 0 0 16 14 0 0 0 2 2 4 7 1 0 0 0 1 4 1 1 0 18 5 0 0 11 0 0 8 0 0 15 0 3 9 0 0 0 2 5 0 5 0 0 0 0 0 10 0 0 0 23 0 0 19 0 0 4 5 14 8 4 0 10 0 0 21 0 0 4 0 7 2 1 0 0 0 0 41 19 0 0 0 13 0 0 26 0 0 0 6 0 3 15 3 0 3 6 0 0 0 0 27 5 0 28 0 16 0 0 0 55 0 0 50 0 0 0 64 128 0 7 28 0 58 2 0 0 18 0 1 6 2 7 0 0 0 41 7 0 0 16 0 26 15 0 0 0 0 0 59 0 78 0 0 39 17 29 0 
0 0 2 0 0 0 0 0 2 3 0 0 3 0 5 0 0 4 1 0 40 0 0 15 33 36 0 0 0 17 3 25 3 5 2 6 4 1 3 3 0 0 0 4 17 18 10 5 11 18 23 0 0 10 10 0 19 19 3 0 0 1 0 1 21 37 0 0 4 20 0 0 12 0 0 13 11 0 12 6 0 0 16 0 0 0 0 14 0 0 2 10 7 0 0 0 0 0 88 34 0 0 0 0 0 4 8 0 0 3 7 0 11 5 0 3 10 0 3 9 6 0 0 0 0 0 1 5 0 6 11 0 0 0 3 21 1 6 5 14 4 0 0 0 0 17 0 5 0 0 3 0 0 0 0 7 12 0 0 21 3 0 0 0 5 0 0 4 0 0 0 6 7 0 0 0 11 0 0 5 16 0 5 4 3 8 0 15 0 5 0 0 20 3 0 21 0 0 15 0 2 15 0 3 0 8 7 21 0 0 11 10 0 0 8 2 8 3 0 42 8 0 0 0 0 0 2 16 0 0 0 0 21 1 5 0 3 7 2 0 0 0 0 37 0 0 60 0 0 0 0 24 45 12 0 27 0 0 0 12 108 0 0 73 0 65 7 0 1 0 0 0 11 0 0 0 0 0 29 15 0 8 37 0 2 22 0 0 18 0 0 42 0 68 0 0 46 12 36 0 
0 0 0 0 0 0 0 0 3 6 0 0 0 1 0 0 0 3 2 7 18 0 0 41 32 21 0 5 23 10 18 4 0 6 6 10 7 16 0 0 21 43 10 0 0 13 4 1 7 29 0 0 9 20 26 0 8 19 3 0 6 2 0 17 13 37 0 0 0 3 0 21 21 0 16 4 0 0 6 13 19 0 2 0 0 0 0 5 0 5 2 3 3 0 0 0 0 26 76 43 0 0 0 6 4 0 0 5 0 1 2 0 0 2 6 0 0 0 0 4 0 0 0 1 0 0 1 7 0 7 37 0 0 3 3 16 0 0 0 4 2 13 16 0 0 0 14 0 0 0 0 2 0 0 0 0 0 13 0 0 0 0 3 0 2 1 0 25 10 0 0 0 0 0 0 3 9 0 0 0 4 0 0 0 13 10 0 2 0 3 10 0 1 0 0 9 0 0 10 0 0 11 0 0 0 0 0 0 2 0 13 11 0 0 5 11 2 0 0 9 0 10 0 10 0 0 1 31 0 0 0 6 2 0 0 8 0 0 4 2 0 0 3 32 0 23 19 14 0 25 0 0 33 11 0 0 27 0 0 0 83 100 0 70 0 25 2 0 4 0 0 5 12 0 0 16 0 0 15 0 0 11 45 6 17 21 0 0 3 5 0 0 0 89 0 0 60 19 43 0 
0 0 3 0 1 1 0 0 0 11 8 0 4 2 0 0 0 4 7 14 0 0 19 38 14 0 6 38 0 0 8 0 5 4 14 2 0 0 4 1 0 20 15 0 0 0 0 0 0 0 0 0 14 0 31 0 0 14 1 0 9 0 0 22 11 32 0 4 0 2 0 13 0 6 28 0 0 1 0 0 0 0 2 3 0 3 11 0 7 11 0 2 0 0 0 0 0 0 72 53 0 0 11 0 0 0 0 3 2 0 0 0 0 7 6 0 0 12 3 0 0 0 5 7 10 0 0 8 6 3 0 0 0 19 0 0 0 0 0 14 24 6 11 0 0 1 9 0 0 0 0 0 3 10 11 4 0 5 0 0 0 0 2 4 3 0 0 5 0 12 11 0 0 0 6 0 6 10 0 0 0 4 0 2 0 2 1 4 2 1 0 2 0 20 0 9 0 0 6 0 0 22 0 0 24 0 0 5 6 0 0 11 0 0 0 26 0 0 12 2 0 29 0 0 0 2 10 35 0 0 0 6 3 3 0 15 0 0 1 0 0 0 17 0 0 16 0 5 0 9 13 0 14 27 0 0 7 0 0 0 0 168 0 36 0 0 4 0 8 8 0 10 9 0 2 9 0 0 18 0 0 0 4 0 0 45 0 0 11 2 0 31 10 41 0 0 60 14 37 0 
0 0 6 0 0 5 0 4 0 0 0 4 14 0 3 0 1 9 6 0 0 28 14 5 0 0 18 6 3 1 8 0 5 0 0 0 2 0 0 5 0 0 5 1 25 2 25 5 0 0 36 19 0 0 28 0 0 9 2 0 3 0 0 7 23 26 0 1 15 0 0 15 0 7 0 0 0 7 0 4 17 18 0 2 0 3 17 0 5 3 0 0 0 0 0 0 27 0 39 52 0 0 21 0 0 2 0 0 0 0 1 0 0 13 0 0 3 0 0 0 3 0 0 0 0 4 0 5 6 11 0 3 5 0 0 0 0 6 6 11 23 9 0 0 0 0 12 10 0 0 0 0 0 1 4 1 3 2 0 0 11 0 0 5 12 0 0 0 5 7 2 0 6 0 0 0 3 13 0 10 12 8 0 0 0 0 20 0 0 0 0 0 0 21 0 0 0 0 9 26 0 0 42 0 12 0 0 12 6 0 5 20 0 2 0 28 0 13 1 0 5 28 0 0 0 3 0 32 0 0 0 0 15 1 0 0 0 4 8 0 0 5 47 0 0 0 0 5 0 0 23 0 0 55 0 0 0 0 0 0 0 118 0 0 88 0 0 0 4 0 0 5 0 0 23 0 0 11 27 0 0 0 16 5 9 65 0 0 23 0 0 14 42 38 0 0 65 13 28 0 
0 0 6 0 0 0 0 0 0 0 1 2 3 0 7 2 7 13 0 0 2 26 0 0 0 22 4 2 13 5 16 1 0 0 0 4 10 3 1 0 0 0 0 21 0 1 0 0 0 28 31 0 0 14 16 0 0 13 3 1 6 0 0 13 34 8 0 0 11 0 1 23 2 0 5 5 9 12 0 0 0 6 0 3 0 4 4 4 0 0 6 0 0 0 0 0 57 0 0 50 23 0 0 0 4 0 7 3 0 0 10 0 0 4 0 2 8 0 0 0 1 3 0 0 2 9 0 0 1 7 8 1 0 0 1 6 0 1 7 0 0 16 0 10 12 0 0 25 13 0 0 0 0 0 0 1 0 0 4 3 5 5 0 0 0 9 0 0 0 0 0 12 10 1 0 0 0 5 0 10 10 0 4 2 0 0 13 13 0 3 7 13 0 17 15 0 0 15 0 7 12 0 24 1 19 0 4 0 5 0 0 0 0 25 10 7 0 3 0 0 0 22 4 0 4 0 0 29 0 0 0 2 0 5 2 0 0 0 0 0 0 0 21 0 40 0 0 0 19 0 0 15 0 36 3 0 0 26 0 0 0 74 19 0 66 0 0 0 0 0 0 9 5 0 10 0 0 4 21 8 21 0 0 0 0 13 0 0 6 8 0 5 57 7 0 0 63 29 25 0 
0 0 3 0 0 8 6 5 4 7 2 3 5 0 2 0 1 8 0 10 0 0 0 0 10 4 0 0 0 0 0 4 0 7 11 10 1 4 0 4 17 18 2 0 0 0 4 26 12 19 14 0 0 16 27 13 0 14 10 6 0 0 0 13 28 9 0 0 10 0 9 0 2 0 0 2 6 0 5 18 0 0 8 9 0 2 2 4 1 0 0 0 0 0 0 65 25 0 0 46 20 0 0 0 0 0 20 5 0 0 0 0 0 5 0 0 2 0 2 0 0 0 0 0 6 0 0 0 22 16 0 2 0 0 1 0 4 5 16 0 0 21 26 3 0 5 0 27 15 0 1 0 0 0 0 0 0 1 1 0 1 0 0 0 0 18 11 0 0 2 0 12 26 5 0 0 0 17 0 0 0 0 20 4 0 0 8 8 0 0 0 0 11 0 15 0 0 0 0 6 3 0 10 0 0 0 0 0 10 0 0 12 0 12 4 0 0 13 15 0 5 17 0 3 8 0 25 5 0 0 0 0 3 0 9 16 4 0 0 4 0 0 2 0 98 15 0 0 0 24 0 12 0 0 30 0 0 21 0 0 0 47 49 11 24 0 0 0 9 0 1 9 19 0 12 0 0 0 6 0 52 33 0 0 27 34 0 0 19 21 0 0 25 35 0 0 41 28 30 0 
0 0 0 0 0 4 0 0 0 0 1 0 5 0 6 4 0 0 6 24 14 0 0 16 13 9 12 0 0 0 7 0 0 0 11 0 0 0 15 0 14 2 0 0 6 14 24 6 0 19 0 0 0 33 10 0 0 6 19 0 1 5 0 24 22 0 0 0 7 0 10 0 0 0 0 0 28 0 15 27 0 0 4 4 0 2 9 0 0 0 0 0 0 0 6 74 0 0 0 11 33 18 0 0 0 0 16 2 0 4 5 0 13 3 1 0 0 1 6 14 6 0 0 0 12 0 0 0 13 5 2 0 1 0 0 0 0 0 0 0 0 14 22 0 11 20 0 0 22 24 0 0 0 2 0 0 3 0 0 0 0 0 0 0 0 0 6 8 12 3 0 3 22 0 0 0 12 17 0 0 0 10 0 0 8 5 0 0 0 8 7 0 0 0 10 5 0 0 28 11 0 2 0 0 0 0 4 5 12 0 0 3 0 0 1 2 9 0 26 0 0 25 0 0 0 6 7 0 0 0 0 4 2 0 0 0 1 0 0 0 0 17 0 0 52 73 0 0 0 6 0 0 15 0 26 0 24 5 0 0 0 0 33 0 0 2 0 0 0 0 0 8 1 0 2 3 0 6 13 0 30 42 30 0 40 29 0 0 21 17 0 0 33 31 0 0 38 0 33 0 
0 0 0 1 0 0 0 0 0 0 4 0 6 3 6 10 2 0 0 6 9 0 18 7 9 0 0 0 8 11 20 0 0 2 5 7 0 0 2 0 0 0 0 19 23 13 9 0 4 9 0 0 20 19 7 0 0 0 25 0 2 5 0 9 23 16 23 0 0 0 22 0 0 0 0 11 14 0 23 6 2 3 0 0 0 0 5 1 3 4 0 0 0 0 60 78 0 0 0 1 9 30 4 0 0 0 0 19 0 0 0 6 0 0 0 4 0 0 0 0 0 0 0 0 11 3 3 6 0 0 0 2 4 3 0 0 2 0 3 0 0 0 27 0 10 30 0 0 5 42 21 0 1 0 0 0 7 0 0 0 4 0 6 0 0 0 0 0 10 0 0 2 0 0 1 0 0 11 0 0 0 0 0 0 1 1 0 11 0 0 0 0 3 0 4 16 1 0 0 10 24 30 0 0 0 14 1 0 2 1 0 15 12 0 8 6 4 0 0 0 19 17 0 17 0 5 0 0 4 1 6 7 2 6 0 4 0 0 0 0 0 21 0 23 0 0 8 0 0 0 0 0 0 0 6 8 43 0 0 0 20 0 0 23 27 0 0 2 0 0 0 34 10 0 0 17 0 0 31 0 14 13 0 0 39 19 3 0 24 13 0 0 46 27 0 0 48 1 28 0 
0 0 5 2 5 0 0 0 2 1 2 0 3 2 1 2 1 0 0 1 0 0 0 6 14 4 4 8 11 16 16 0 0 0 10 7 0 0 0 0 0 1 11 11 0 0 0 0 2 0 12 0 27 6 0 0 17 0 8 0 0 0 0 7 27 13 0 0 0 0 49 0 0 0 0 24 0 0 15 0 9 14 0 0 12 3 0 0 0 4 4 0 0 0 71 48 0 0 0 0 0 13 37 5 0 0 0 0 6 0 0 0 0 8 0 11 4 0 0 11 9 0 5 0 3 0 0 0 0 0 0 0 0 0 0 0 0 0 0 4 3 1 20 0 0 0 0 0 0 0 38 4 0 0 0 0 3 0 0 3 6 0 4 0 0 0 6 0 0 5 0 1 6 0 0 0 0 13 0 1 5 0 1 4 0 0 0 11 0 0 6 0 18 0 1 0 0 1 0 0 0 19 16 0 5 9 0 0 0 0 3 3 0 0 7 0 0 12 0 10 21 0 0 9 0 49 34 4 1 16 41 17 9 3 0 16 7 0 0 0 24 36 0 0 75 8 0 22 0 0 0 7 0 0 0 0 17 0 0 0 37 40 0 38 30 0 0 0 0 0 0 11 0 1 14 36 0 0 24 0 56 84 47 0 30 41 36 0 0 11 0 36 58 0 0 6 47 16 30 0 
0 1 2 0 3 0 0 2 1 0 2 1 3 0 0 0 5 11 1 0 1 0 0 8 0 0 0 3 0 0 0 0 3 0 0 0 0 8 3 0 7 14 9 0 0 0 0 3 0 3 16 0 0 0 4 4 24 0 0 0 0 5 6 21 27 0 0 0 0 0 39 0 0 3 12 5 0 0 0 0 0 11 0 0 4 0 0 0 0 0 0 0 0 0 55 51 0 0 8 9 0 0 5 28 17 3 0 0 1 7 4 0 0 4 0 9 9 0 0 0 6 2 16 15 6 0 0 0 0 0 0 0 0 0 1 0 1 0 0 0 3 21 0 21 0 0 3 1 0 0 22 46 3 0 3 0 0 0 0 5 2 0 0 0 3 0 6 0 0 11 0 0 3 1 4 0 0 15 0 0 8 2 2 0 9 4 0 15 0 0 4 0 7 0 13 0 6 10 0 3 0 0 0 0 5 4 0 2 12 0 6 0 13 11 0 1 25 0 0 3 12 0 18 0 0 55 0 0 0 0 0 30 28 0 0 0 12 0 0 0 27 21 2 0 28 71 21 0 0 0 3 0 3 0 0 4 46 2 0 0 41 60 0 49 20 0 0 3 0 0 7 16 0 12 1 7 0 0 24 0 0 19 10 0 12 60 9 0 3 21 0 44 71 0 0 20 24 12 41 0 
0 0 6 0 4 0 0 0 3 2 1 1 4 0 0 1 0 3 2 0 11 7 9 10 1 0 0 0 1 0 0 12 14 1 1 0 0 0 0 3 3 5 0 0 8 3 0 2 2 8 1 0 1 17 4 10 26 0 5 0 0 5 0 10 17 3 19 0 0 0 9 0 2 0 1 0 0 24 19 0 0 0 0 1 0 0 10 0 0 0 0 0 0 0 11 78 17 0 4 38 63 2 0 0 20 11 0 0 0 9 14 0 0 3 0 0 0 0 0 0 5 15 6 0 0 0 0 0 0 4 3 14 0 0 0 0 0 0 0 0 0 12 14 17 0 0 0 12 0 0 0 32 39 0 0 0 0 12 0 0 0 0 0 8 0 0 1 4 0 10 14 0 0 6 12 0 0 7 2 0 2 15 0 0 3 0 0 16 0 0 7 0 0 16 16 0 8 4 0 0 14 16 0 11 1 2 0 11 0 0 0 0 10 6 0 0 22 0 0 3 11 0 30 0 3 18 0 1 0 0 0 16 34 0 0 0 0 0 0 21 21 3 0 0 0 31 86 8 12 0 42 0 0 8 0 0 18 0 13 0 0 26 0 46 45 0 0 0 0 0 20 29 0 3 8 12 0 0 27 44 0 0 39 0 48 82 0 0 0 7 0 47 56 0 0 53 23 0 27 0 
0 0 3 0 2 0 0 0 0 1 0 0 6 0 0 6 0 3 0 0 0 0 0 6 16 12 7 0 1 0 2 7 0 10 6 4 2 0 8 6 0 9 0 3 2 7 7 10 14 8 0 0 13 25 7 52 0 0 24 0 0 18 0 12 0 0 0 10 0 0 7 0 0 17 6 0 5 33 6 0 2 4 0 0 0 0 0 2 1 0 0 0 9 0 0 91 103 4 0 0 31 62 22 0 0 16 0 0 0 0 0 0 17 15 0 10 0 0 12 5 6 0 0 0 0 30 86 119 91 114 132 120 148 111 2 0 0 0 0 0 0 15 24 0 0 0 0 10 0 0 0 0 45 42 0 0 0 0 0 15 7 17 0 5 0 0 6 3 0 2 17 0 0 4 6 0 0 4 19 0 0 0 0 1 4 21 0 0 0 0 0 0 0 22 15 0 7 0 0 0 19 2 0 14 7 6 4 8 0 0 25 0 0 19 0 0 4 7 0 14 14 0 8 0 19 0 0 7 6 5 0 0 34 26 0 0 0 0 21 51 0 8 0 27 0 0 52 45 80 0 0 41 0 0 3 0 27 32 26 0 0 25 0 77 0 0 4 0 0 0 12 0 0 0 15 28 0 0 0 0 19 7 18 0 17 96 10 0 0 7 0 88 19 29 0 57 30 22 20 0 
0 0 2 0 1 3 4 2 0 0 3 0 5 4 1 3 7 7 0 10 4 0 8 0 0 0 0 0 0 3 13 3 1 5 5 0 0 3 3 6 0 10 0 2 6 2 15 6 0 0 0 0 20 41 40 0 0 5 6 0 13 15 0 17 19 0 0 4 0 0 21 0 0 19 11 0 6 1 0 0 4 0 0 0 1 10 5 0 0 0 0 0 15 0 0 13 47 100 35 0 0 27 45 45 0 0 0 0 0 0 5 0 0 0 0 17 0 0 0 4 0 0 0 41 65 50 17 11 0 0 0 0 0 31 48 66 24 0 0 0 0 42 55 15 0 2 0 10 0 0 0 0 5 50 31 0 3 0 0 10 10 9 0 3 2 5 5 0 0 0 1 0 1 0 0 0 4 1 3 0 7 0 1 17 0 0 0 0 58 31 0 0 0 0 0 0 7 0 0 5 9 9 0 0 0 0 1 11 13 0 1 10 0 0 8 5 0 7 0 24 7 0 4 0 5 0 0 0 12 0 0 0 35 29 0 0 0 16 50 0 0 16 0 38 38 0 0 18 45 52 0 24 33 0 1 0 7 12 0 20 1 21 0 101 0 0 0 0 0 0 0 2 28 0 15 37 0 0 23 4 0 56 15 0 4 91 49 0 0 20 0 93 10 11 0 51 12 38 0 0 
0 0 1 1 4 0 0 4 2 8 0 0 0 0 0 0 6 0 0 7 2 0 16 2 5 0 3 9 5 0 8 24 26 0 0 0 0 14 11 18 0 0 15 15 9 14 1 0 0 0 20 18 23 21 0 0 0 49 2 0 21 1 0 17 23 3 0 0 0 25 11 0 9 9 0 0 4 0 14 20 0 0 2 0 0 0 0 0 4 0 0 0 8 0 0 0 0 29 71 39 6 11 5 53 33 0 0 0 0 0 0 0 10 1 15 0 2 1 0 0 0 23 72 58 0 0 0 0 0 0 0 0 0 0 0 0 0 8 3 12 52 13 0 0 0 0 0 4 0 11 0 0 0 0 50 0 0 0 0 0 0 0 0 0 2 1 4 3 0 4 2 9 2 0 0 11 0 0 5 0 0 8 3 0 0 0 0 0 95 64 0 0 4 0 0 0 4 0 0 0 0 3 10 6 0 0 0 0 0 5 0 24 27 0 10 0 0 0 0 5 3 24 6 0 0 0 0 0 0 0 0 0 28 21 0 0 35 54 6 0 20 59 0 0 42 32 0 0 9 125 0 0 58 7 0 17 2 0 0 32 0 0 0 124 0 0 15 0 0 0 12 2 4 0 0 46 0 0 21 14 3 13 53 0 0 19 84 0 0 0 0 81 38 0 0 17 1 56 0 0 
0 0 0 4 7 0 0 3 0 5 0 2 0 0 0 2 0 5 0 9 0 1 8 4 1 11 4 0 9 1 0 0 23 11 6 20 0 0 7 17 0 0 25 10 12 5 0 1 41 32 66 76 0 0 0 0 77 10 0 12 18 5 0 14 18 8 0 0 0 0 32 0 2 19 3 1 5 0 16 0 0 6 2 0 0 1 0 0 5 0 5 24 0 0 0 0 0 0 0 0 27 16 0 32 58 44 1 0 0 0 0 1 2 0 5 0 0 0 0 8 84 92 0 0 0 0 0 0 0 0 0 0 0 0 0 0 0 0 19 39 45 0 0 0 15 0 10 0 4 13 9 0 0 0 37 43 0 0 0 0 3 0 0 0 0 0 2 4 0 0 0 1 5 0 0 0 0 0 10 0 0 13 0 0 4 0 0 0 24 30 0 0 7 8 1 0 0 0 0 0 0 19 4 0 1 14 0 0 23 9 0 16 4 0 11 0 0 3 8 7 0 32 3 0 0 0 0 1 0 0 0 0 7 0 0 43 61 0 0 0 16 20 21 0 0 48 0 0 0 53 47 0 0 51 0 10 0 0 0 22 0 0 0 109 0 0 0 0 0 0 11 2 6 0 0 40 0 0 28 0 35 0 44 0 2 10 33 0 9 0 0 56 13 0 41 40 13 34 0 0 
0 0 0 2 0 0 0 3 0 3 2 4 6 0 0 1 1 3 0 0 0 4 0 2 0 4 0 1 9 11 0 0 0 11 30 15 20 0 0 3 0 0 9 0 0 5 30 39 61 75 16 0 0 4 0 47 0 0 0 14 5 0 0 12 29 8 0 0 0 3 21 0 0 13 16 0 25 0 0 0 0 0 5 0 0 0 2 0 0 0 0 0 0 22 12 0 0 35 0 0 0 6 0 65 61 68 73 48 0 0 0 0 0 0 2 6 23 32 30 33 29 0 0 0 0 0 29 7 0 1 4 1 4 16 12 5 3 31 42 5 0 0 0 0 0 0 0 4 12 6 0 0 0 0 0 19 37 0 0 3 0 0 0 2 6 0 0 0 0 12 0 0 2 0 8 0 0 0 9 7 0 0 2 19 32 0 0 0 7 10 0 0 2 0 0 1 0 10 14 0 8 9 14 9 0 0 10 0 0 0 0 0 0 0 15 9 0 0 6 0 28 46 0 0 0 0 0 2 0 0 0 0 14 10 20 55 0 0 0 19 10 0 21 0 0 6 25 0 0 0 39 71 0 50 11 0 0 0 0 39 10 0 41 62 0 0 0 1 0 0 3 0 0 0 21 24 0 0 43 0 4 28 1 0 0 15 17 0 19 0 30 54 0 0 60 34 21 18 0 0 
0 0 1 0 0 0 2 0 0 3 0 1 7 0 0 8 0 8 1 0 0 0 1 1 1 5 0 7 0 2 22 24 0 0 0 12 48 40 14 3 0 0 0 0 0 0 12 29 0 0 0 0 53 0 20 0 0 18 4 5 0 0 0 9 34 3 0 0 0 0 17 8 0 0 32 0 0 14 9 0 8 2 0 0 0 12 6 0 0 1 2 0 36 50 0 0 0 0 9 38 17 0 0 0 0 6 63 88 51 36 15 0 3 8 0 11 21 4 10 0 0 0 0 1 0 0 13 5 23 3 14 0 0 3 0 0 11 5 0 0 0 0 8 23 0 0 0 1 10 4 0 2 11 8 0 0 68 8 0 0 0 0 2 0 6 0 0 2 0 3 0 7 3 0 0 0 70 25 0 0 0 9 0 0 2 0 0 0 0 0 7 7 9 0 0 2 0 18 3 0 13 18 0 0 0 0 0 7 3 14 3 0 3 0 15 0 0 0 0 0 26 25 0 0 0 7 0 1 0 0 0 0 17 31 7 0 0 0 0 30 48 0 0 0 16 0 0 16 0 0 0 34 41 8 59 0 0 0 0 39 31 0 44 0 0 0 1 0 0 0 1 18 0 0 21 41 11 0 20 0 0 1 94 0 5 33 10 0 2 0 18 32 0 0 0 10 33 0 0 10 
0 0 2 1 0 0 1 1 0 3 2 3 6 0 0 1 0 4 4 1 0 0 3 0 2 0 0 0 0 4 4 15 44 0 0 0 0 52 72 48 37 24 24 50 39 12 0 0 0 0 66 133 58 0 0 0 31 0 4 10 0 7 2 7 36 0 13 22 0 0 19 0 16 0 23 0 0 0 13 0 5 0 0 5 2 1 0 0 0 20 31 0 0 0 24 0 0 0 0 0 0 0 3 0 0 0 0 0 32 102 101 77 47 40 38 18 16 4 0 0 0 0 12 32 0 5 0 13 10 0 6 0 0 0 13 14 0 0 0 0 0 11 1 19 4 3 14 0 6 0 0 0 0 0 0 0 19 19 0 0 0 0 3 0 0 2 10 10 0 6 8 0 4 0 10 0 35 24 0 0 0 2 0 0 0 3 0 2 0 4 2 0 3 8 0 0 0 16 2 0 7 11 0 1 7 9 0 0 0 26 3 0 0 6 5 0 0 0 0 0 18 4 0 0 0 7 4 0 0 0 0 0 6 18 0 0 0 0 0 10 30 0 8 0 28 16 0 0 0 0 0 0 0 0 57 30 0 0 2 14 11 0 74 0 0 0 1 0 0 5 0 32 2 0 34 30 18 0 3 30 11 0 67 0 19 43 0 0 0 4 25 0 0 33 0 33 41 0 0 16 
0 0 0 4 1 0 0 0 2 5 0 0 2 2 0 0 0 1 0 1 4 0 7 4 0 3 0 4 1 0 0 0 11 40 36 3 0 0 0 9 59 56 24 4 0 0 0 0 80 131 81 29 0 0 0 8 28 5 0 6 0 2 6 3 20 0 0 0 0 0 5 0 26 10 9 6 11 0 9 0 0 3 9 3 0 0 6 0 0 34 3 0 18 33 38 0 0 70 20 0 0 0 34 28 0 0 0 0 0 0 0 0 0 0 0 0 0 0 0 0 0 15 55 49 0 0 0 61 0 0 15 34 11 0 1 26 0 0 9 3 0 0 0 0 0 0 0 0 16 0 0 0 18 0 11 0 0 20 32 0 21 0 6 0 0 0 0 1 0 0 0 0 1 1 0 0 0 0 0 0 2 3 12 12 15 0 4 2 4 7 0 0 0 10 7 0 4 11 0 0 14 26 0 11 0 0 0 2 0 0 4 15 0 5 5 0 2 0 0 19 31 8 0 0 0 3 10 2 5 0 0 0 8 22 0 3 0 0 12 29 24 2 4 0 14 46 0 8 13 11 0 15 0 0 14 60 0 0 8 0 7 0 147 0 0 3 0 0 0 14 14 22 0 0 27 12 2 0 25 49 0 0 0 0 15 48 0 0 8 33 0 0 0 40 0 35 12 0 27 0 
0 0 0 1 0 0 0 0 2 6 0 0 2 0 0 3 0 2 0 2 0 0 3 1 0 0 0 0 0 0 0 0 0 2 9 57 54 0 0 0 0 0 46 61 54 64 5 8 0 0 0 0 0 56 21 0 13 6 6 0 9 4 0 28 43 0 0 0 0 0 0 6 0 7 4 0 0 0 3 3 0 0 12 2 0 5 3 0 5 0 4 0 0 4 0 0 0 21 17 0 42 64 0 2 0 22 0 26 0 0 0 0 0 0 0 0 0 0 4 0 15 15 0 0 0 0 19 29 0 0 0 11 13 2 0 0 0 0 13 0 0 0 3 0 0 1 0 0 41 0 0 1 19 0 12 24 0 0 83 47 0 0 0 4 0 0 4 0 0 0 0 0 0 0 0 0 11 0 0 2 0 0 3 0 0 0 0 1 0 0 0 0 0 18 9 0 0 5 0 0 2 20 3 6 0 0 9 0 13 14 0 2 0 8 17 0 2 0 9 9 11 0 0 0 0 3 13 0 0 0 0 0 31 51 0 0 0 11 13 0 30 3 0 0 0 19 1 23 18 0 0 0 26 0 0 32 7 0 0 0 16 0 83 0 0 12 0 0 0 0 6 15 0 0 6 19 45 0 0 29 0 48 3 15 56 0 0 0 0 5 0 0 10 28 18 64 0 0 47 0 
0 0 2 5 0 2 0 2 0 2 0 4 3 2 0 0 0 2 1 1 0 0 0 3 0 0 0 0 0 0 0 0 0 1 0 1 24 64 62 8 0 0 0 0 0 0 0 0 0 0 0 55 48 30 0 0 17 12 8 0 7 0 0 18 19 0 0 0 0 0 15 3 0 10 1 0 0 0 0 13 2 0 0 0 0 25 0 0 14 11 0 0 0 1 0 20 46 0 0 0 0 0 0 0 0 18 19 0 1 2 0 1 0 0 18 15 0 17 31 0 7 59 35 0 15 6 0 0 0 19 0 0 31 4 0 5 0 0 20 0 0 23 24 0 0 0 0 2 49 10 0 0 0 4 0 0 8 0 0 0 0 3 5 25 1 0 2 0 0 5 0 0 0 0 0 7 15 13 0 0 0 9 24 0 8 2 0 8 0 0 0 5 0 0 0 2 0 4 5 0 15 16 9 19 0 0 0 0 14 17 0 22 0 0 2 0 0 0 13 24 28 0 2 0 0 0 0 0 0 2 0 0 0 23 0 0 0 15 10 31 16 0 0 5 20 0 11 22 42 0 17 0 0 67 5 0 38 28 0 0 14 33 0 0 0 0 0 3 14 0 3 20 0 0 0 28 84 0 0 6 0 40 2 27 62 0 0 0 4 0 0 0 36 30 75 0 0 0 32 0 
0 0 0 2 0 0 0 2 0 0 3 1 2 1 1 0 0 1 3 0 1 0 2 1 0 0 0 0 0 0 0 0 0 0 1 0 0 2 27 46 62 71 59 18 0 0 19 47 58 75 73 25 17 10 0 0 8 3 11 0 7 0 0 12 0 0 6 0 0 0 0 0 3 11 2 11 0 2 0 5 0 10 0 0 2 0 0 27 11 0 3 17 96 26 0 8 0 0 0 0 18 21 20 0 0 0 3 0 0 0 0 17 1 0 5 16 0 16 41 0 0 0 17 17 26 0 6 16 0 4 15 0 37 0 7 13 1 0 24 0 1 7 4 0 9 3 0 0 2 2 0 0 0 0 1 0 0 18 0 0 73 0 0 15 0 0 2 4 0 5 0 0 0 2 0 5 2 2 0 5 7 4 0 0 0 0 20 18 0 0 0 11 0 5 0 0 0 8 9 0 7 6 0 12 0 0 1 2 5 0 0 0 0 0 2 0 0 0 1 28 10 0 11 0 1 0 0 3 0 0 2 0 0 12 0 0 9 6 33 26 0 0 0 23 25 0 0 18 0 0 27 27 0 0 85 0 0 43 5 0 6 72 0 0 0 0 0 9 0 0 19 22 0 0 0 24 34 0 0 26 5 56 46 2 0 0 28 9 0 0 0 4 30 42 66 0 0 56 15 0 
0 0 0 1 2 0 0 0 0 0 0 1 2 1 0 0 0 0 3 0 4 2 6 0 0 1 0 0 0 0 0 2 0 2 0 0 0 1 0 0 16 29 31 39 47 53 37 26 9 20 0 0 0 0 0 0 15 0 2 0 7 0 0 15 19 2 8 0 23 0 0 7 9 19 12 5 0 26 9 0 0 5 0 0 22 6 15 0 7 0 30 0 33 0 0 0 0 0 29 36 0 0 0 3 0 25 0 0 0 0 0 0 0 0 0 1 0 0 15 63 0 0 0 3 0 0 14 24 0 0 7 0 32 4 0 0 21 20 0 0 17 6 0 7 22 18 0 0 0 0 0 0 0 0 0 0 37 21 0 29 53 0 0 0 0 0 0 5 5 1 0 0 1 2 5 6 0 4 0 0 0 0 0 2 3 0 0 0 0 0 0 5 0 6 0 0 0 9 18 0 0 22 0 0 0 7 0 5 21 0 4 5 0 10 0 3 0 0 0 46 0 0 0 0 2 0 0 5 0 0 0 0 17 1 0 16 47 4 0 0 0 0 28 27 0 0 23 0 0 10 0 40 0 0 41 25 0 15 8 5 7 28 0 0 0 0 0 3 0 3 13 15 0 0 0 56 0 0 2 12 0 63 7 0 0 3 0 0 0 29 9 17 30 57 0 0 34 35 0 0 
0 0 0 1 0 4 1 1 1 9 0 0 2 0 2 0 1 9 6 0 4 2 0 0 6 2 0 0 0 1 0 0 6 0 0 0 0 0 1 0 0 0 0 9 7 0 0 0 0 25 1 0 7 4 0 4 25 0 0 1 6 0 0 17 33 1 8 0 9 2 0 0 10 35 12 0 1 0 0 8 0 0 0 0 8 14 19 0 2 0 0 0 0 0 0 16 42 0 6 2 0 0 2 0 0 26 0 4 0 0 0 1 7 0 2 0 0 20 0 24 0 3 5 0 9 0 0 14 0 0 9 0 21 22 0 0 0 20 12 0 0 1 9 7 0 27 33 34 14 0 0 8 25 34 7 0 0 0 14 20 0 58 0 0 9 11 0 0 4 5 0 3 0 0 0 0 1 9 0 0 0 6 20 0 0 5 3 0 0 0 0 4 0 0 2 0 0 0 1 3 0 6 0 0 0 0 0 6 4 0 3 0 12 17 0 9 0 0 0 43 0 0 9 13 17 11 5 0 0 0 0 0 27 11 0 40 26 0 0 35 0 0 72 32 2 28 47 0 0 4 0 20 23 0 0 86 12 0 0 0 12 0 0 7 8 11 6 0 0 8 29 4 0 0 5 102 0 0 32 0 0 37 11 0 16 17 0 0 31 31 0 22 74 17 0 0 15 6 1 0 
0 0 0 1 0 3 0 0 0 8 0 0 2 1 0 0 0 0 0 1 3 1 0 0 7 2 0 0 0 1 0 0 5 0 0 0 0 0 0 0 0 0 0 2 0 0 5 6 1 21 0 0 16 4 0 0 17 4 16 3 0 0 5 12 19 0 0 0 0 15 0 0 22 7 1 0 32 0 0 19 23 3 0 10 0 0 0 0 16 20 35 26 0 17 0 28 15 0 0 0 0 0 0 28 0 0 0 0 19 12 10 8 10 20 6 0 0 36 1 4 0 0 0 0 0 0 0 9 31 14 0 0 0 0 0 0 0 0 12 0 0 0 0 0 0 3 37 26 0 20 39 0 0 33 19 8 0 0 26 0 0 67 43 0 3 8 0 0 9 0 9 0 0 0 14 4 0 0 0 7 1 0 1 0 10 2 0 0 2 0 2 15 2 0 13 6 10 7 0 0 0 8 20 2 0 0 12 16 0 0 21 0 0 8 11 0 12 11 29 42 0 0 0 3 6 12 14 0 0 0 0 13 5 0 6 20 0 0 81 23 0 18 49 0 38 23 0 47 12 0 0 0 0 0 0 0 13 0 2 17 0 0 3 21 0 0 6 9 0 0 10 0 0 0 0 82 20 0 23 26 29 26 0 2 12 0 0 0 86 0 0 99 7 0 0 28 15 8 0 0 
0 2 0 0 1 2 0 0 2 0 0 1 3 0 1 0 0 0 0 6 7 0 0 1 0 1 0 0 0 0 0 1 3 1 0 0 0 0 0 0 2 1 2 3 1 0 8 3 11 1 0 16 17 15 3 0 9 16 18 0 0 1 14 13 25 25 0 0 0 1 0 0 37 17 15 0 18 0 0 0 0 5 0 11 0 20 21 28 3 24 58 0 0 13 7 58 9 0 0 0 18 1 0 2 7 0 7 9 6 0 1 1 0 7 9 0 0 19 3 0 0 0 3 5 3 0 0 0 15 22 0 33 1 44 20 0 25 0 0 0 0 0 12 0 0 0 0 12 10 0 2 0 0 0 18 38 6 2 12 0 0 0 55 22 0 0 8 3 0 0 1 0 6 18 0 0 11 0 0 0 15 0 0 3 0 0 5 12 0 1 0 2 0 0 1 0 0 0 4 12 6 30 0 4 0 8 16 0 0 6 16 0 0 1 0 0 9 0 37 38 0 0 0 1 13 9 0 0 0 0 0 9 0 0 30 37 42 109 32 0 13 22 0 0 0 0 0 0 0 0 0 0 0 20 5 0 30 53 3 26 0 0 24 0 0 0 9 61 0 0 0 7 0 0 17 93 0 0 0 78 52 0 0 29 0 0 0 0 0 0 43 0 0 0 26 21 3 6 0 0 
0 3 0 0 0 0 0 0 0 0 2 1 4 0 1 7 7 4 2 0 1 0 0 0 0 0 0 0 0 0 0 0 0 0 0 0 0 0 0 0 0 2 1 8 1 0 3 2 16 0 0 11 1 23 23 16 33 1 0 0 3 0 0 6 28 24 0 0 0 21 0 0 21 0 0 0 13 0 0 15 24 16 13 0 0 35 17 16 0 0 0 0 1 26 1 0 5 0 0 0 6 0 3 33 0 7 12 0 4 0 0 2 0 0 23 0 0 3 3 0 10 9 32 0 0 0 11 0 0 0 0 5 11 0 24 0 6 4 0 10 0 0 0 5 42 0 2 12 0 1 0 0 24 48 0 0 0 0 0 5 0 0 10 30 0 0 0 4 0 4 0 0 0 0 0 6 0 0 12 0 20 18 0 0 0 15 0 6 0 0 0 0 0 0 7 0 0 2 12 0 0 12 0 0 0 14 0 6 0 14 4 2 0 11 0 10 0 0 37 22 0 0 0 2 2 7 25 0 0 0 0 0 14 0 0 0 0 0 0 0 14 0 0 0 0 2 20 40 76 32 11 0 17 24 10 0 34 44 0 0 0 29 0 0 0 0 23 19 0 0 1 32 0 0 41 93 0 33 36 0 0 0 27 0 0 0 0 12 19 20 0 0 6 37 0 9 0 1 1 0 
0 0 4 1 0 0 0 1 0 0 4 4 2 0 0 0 0 2 8 0 0 1 0 1 0 1 3 1 0 0 1 1 0 0 0 0 1 1 0 0 3 4 0 7 1 0 0 0 2 5 0 0 0 8 0 0 0 0 0 1 0 9 0 6 28 24 0 0 0 1 0 12 11 0 2 32 27 0 0 26 16 0 0 30 0 0 0 5 7 7 0 0 0 0 0 0 37 0 0 19 0 0 19 11 0 0 1 14 12 0 0 18 0 0 7 0 0 21 12 0 15 0 17 0 0 0 9 7 13 0 0 0 33 0 11 0 0 0 8 11 0 0 0 0 47 18 0 0 0 0 0 0 0 14 22 17 0 12 18 0 0 0 0 13 40 0 0 0 5 0 0 6 0 0 18 0 0 0 4 5 11 4 9 0 0 3 0 4 0 3 3 0 16 3 0 6 5 0 7 0 0 23 9 0 7 17 10 0 0 13 3 9 0 0 8 11 0 26 41 0 0 0 0 8 1 0 9 13 0 2 0 10 0 0 25 53 38 0 0 14 0 0 0 0 0 24 44 33 48 44 8 0 24 32 22 0 0 0 0 0 29 0 0 0 0 24 22 7 0 0 0 25 0 5 77 82 11 0 0 0 0 9 0 0 22 13 11 14 10 0 9 21 35 6 6 6 0 2 0 0 
0 0 9 6 0 0 0 1 1 0 0 0 1 0 0 3 0 0 3 1 8 2 0 6 0 0 0 0 0 1 2 4 0 1 0 0 0 0 0 4 2 0 0 0 4 8 3 9 18 13 0 0 0 0 0 0 0 8 11 10 0 11 4 10 39 0 0 0 0 0 0 5 24 6 2 16 21 0 22 2 0 26 0 37 18 0 0 86 0 0 20 11 10 40 28 0 36 12 2 33 4 0 0 0 9 0 0 14 15 0 10 29 0 9 0 0 9 27 0 0 0 0 7 0 0 0 1 0 10 0 0 0 0 3 28 0 0 13 0 17 0 4 32 0 0 20 0 0 19 0 10 30 0 0 0 51 1 0 0 1 30 0 0 0 67 33 9 0 1 1 3 3 0 1 1 0 10 8 5 0 8 0 7 0 0 0 0 10 0 0 3 0 0 0 0 12 6 0 1 1 4 8 3 0 14 0 27 0 0 14 0 0 12 0 0 0 0 15 40 9 0 0 0 0 0 0 8 22 0 3 0 4 0 0 21 18 0 0 0 0 0 18 96 39 0 0 0 0 0 0 3 0 0 0 0 0 0 0 23 13 6 0 0 0 0 0 22 52 0 0 0 44 2 38 0 0 0 0 0 5 0 0 18 19 0 44 60 0 10 13 19 20 0 0 0 4 1 1 0 0 
0 0 0 0 6 0 0 4 3 0 0 0 3 0 0 5 0 0 0 1 4 0 0 4 0 2 0 1 0 1 2 5 0 1 0 5 1 6 7 0 0 0 0 0 0 6 0 0 6 11 0 0 27 14 12 0 14 27 3 0 6 4 0 0 53 0 0 1 0 8 0 0 18 0 12 0 0 0 0 1 0 11 0 4 0 0 0 16 0 0 5 0 0 33 3 0 31 32 0 0 2 1 0 0 3 61 20 0 0 0 25 0 0 0 0 0 14 0 0 0 0 13 0 0 0 0 1 22 6 0 0 17 5 0 6 0 16 0 0 6 0 0 6 32 38 2 0 13 8 0 0 12 0 27 20 0 0 55 1 0 0 0 0 0 0 0 0 0 5 1 0 4 0 0 9 4 0 0 8 0 0 0 10 0 0 0 12 19 0 0 0 4 5 0 0 0 0 0 0 17 19 8 0 0 20 0 10 2 0 20 0 0 0 0 16 2 0 5 32 4 0 0 1 2 5 0 0 3 0 0 0 0 0 4 30 0 0 0 0 39 85 0 0 79 0 0 0 0 0 0 0 9 15 0 2 0 15 14 0 0 0 0 0 23 13 0 43 0 0 0 0 11 0 0 0 0 0 17 44 31 20 0 0 0 44 38 0 0 15 0 0 0 0 2 0 5 0 0 0 0 
0 3 1 0 3 2 1 0 0 3 0 0 2 0 0 0 0 3 0 2 0 3 2 2 0 0 1 2 0 0 1 0 0 0 0 0 5 0 0 0 0 1 1 0 0 5 1 0 5 0 2 0 21 12 6 0 7 0 1 5 4 0 4 0 30 33 0 0 0 9 0 19 12 0 29 0 21 17 0 0 9 0 0 31 0 0 1 0 16 0 0 0 0 6 16 0 0 9 0 0 7 5 0 0 0 0 0 0 7 38 7 0 8 0 0 0 27 0 0 0 0 0 0 9 0 0 7 0 0 1 0 3 26 32 23 0 6 3 0 20 15 0 0 0 3 6 10 1 0 7 4 0 6 0 13 0 0 37 0 6 6 27 9 0 0 34 40 0 0 0 2 1 0 0 3 0 0 0 0 6 9 0 8 0 3 5 0 1 8 2 0 0 6 10 0 0 9 6 18 0 10 0 0 0 3 7 0 0 5 10 1 0 2 12 3 0 6 12 29 1 0 0 0 0 0 9 0 0 4 6 0 0 0 36 32 0 0 40 71 44 49 24 5 65 151 18 0 0 0 0 0 0 12 0 0 0 0 0 0 0 0 9 5 19 24 29 56 0 0 0 0 0 0 0 10 2 0 7 31 18 14 1 0 13 24 0 6 18 9 0 0 0 12 12 0 0 11 0 0 0 
0 0 2 0 0 1 6 0 0 1 1 0 1 3 0 0 0 2 1 0 0 0 1 2 0 1 1 0 0 0 0 0 1 2 0 0 1 0 0 0 2 0 0 1 0 1 4 0 0 0 10 0 0 15 0 0 0 0 13 1 2 0 1 0 15 46 0 0 0 0 0 0 0 13 10 12 13 0 25 0 0 37 0 34 0 0 34 0 0 35 0 0 5 0 37 18 0 19 8 0 0 0 0 0 0 0 37 42 0 16 2 0 0 11 8 12 27 0 8 49 0 0 0 0 0 9 50 9 0 24 0 0 10 15 11 0 0 13 0 0 13 9 0 26 49 18 0 0 22 5 3 0 12 0 0 0 19 6 0 1 13 20 8 7 0 1 51 0 0 0 0 0 8 7 3 13 4 0 0 0 5 0 1 0 7 0 0 0 0 0 0 0 0 0 0 4 23 0 0 9 0 9 6 0 6 19 0 0 9 0 0 22 0 0 0 0 37 22 0 0 0 0 0 1 0 14 0 0 21 0 0 0 2 13 0 0 0 0 0 14 6 49 55 0 0 35 0 1 0 0 16 22 17 0 0 16 4 18 14 0 20 0 0 0 22 6 23 0 0 0 21 28 30 35 67 0 0 24 47 47 12 0 30 19 0 10 13 0 0 0 1 6 0 0 0 3 18 0 0 0 
0 4 0 0 0 0 3 0 0 0 2 2 3 3 0 0 7 9 0 0 0 0 1 4 0 0 0 2 2 0 4 6 3 0 1 0 4 0 2 5 3 0 8 1 0 3 1 0 2 0 22 1 0 8 0 1 3 13 7 0 2 0 0 2 27 15 0 14 0 0 0 8 23 0 4 24 5 0 7 0 12 53 0 4 0 30 0 0 8 79 10 0 0 0 39 13 10 6 0 0 0 28 45 0 57 24 40 0 0 12 6 0 0 2 4 23 29 0 0 0 0 60 42 8 16 0 10 0 6 2 0 0 4 1 0 0 33 40 0 0 0 0 18 0 7 9 0 0 33 5 0 0 0 1 0 0 31 25 17 0 0 6 0 3 22 12 28 17 14 25 0 4 2 0 0 5 0 2 4 0 7 0 0 5 0 0 0 12 0 2 3 1 14 0 0 0 0 0 0 15 23 0 0 0 27 25 0 0 4 0 0 0 0 0 10 0 22 26 7 0 0 0 0 0 0 9 0 0 25 8 0 0 13 0 0 13 31 0 0 0 0 0 6 0 0 0 0 18 33 8 0 0 0 16 9 10 9 0 0 0 23 0 0 50 0 0 13 21 30 21 0 0 0 58 77 0 0 50 49 10 0 14 19 8 20 7 0 0 4 0 0 0 0 0 2 4 2 0 0 0 
0 0 0 2 2 2 1 6 6 5 1 0 0 1 0 3 0 0 0 0 0 0 3 0 0 0 0 1 1 0 4 6 5 0 0 0 6 4 0 0 12 0 0 3 0 8 3 7 7 0 32 8 0 0 1 11 16 9 0 0 0 2 3 0 29 8 0 31 0 0 0 9 35 0 36 29 9 0 0 0 15 43 16 17 0 64 0 0 0 7 19 0 0 0 66 0 5 0 0 0 16 65 23 0 0 0 2 0 0 0 0 0 0 0 0 0 0 1 0 0 0 25 0 0 1 24 7 0 0 0 0 35 54 0 0 0 28 4 0 9 0 7 0 0 0 22 16 0 0 25 0 0 0 25 59 0 2 43 32 0 23 64 0 0 0 11 0 0 0 40 10 0 0 0 0 0 1 15 1 0 0 2 16 0 0 19 4 15 0 0 14 10 0 0 7 0 0 12 0 0 0 4 17 0 2 0 0 19 15 0 10 1 10 0 10 0 15 0 0 0 65 0 0 0 0 2 0 0 17 1 0 0 45 16 2 49 76 62 62 20 0 0 0 0 54 14 0 0 0 29 36 26 0 0 0 0 0 0 0 16 6 0 4 43 0 0 14 36 19 0 0 0 0 82 0 0 0 50 22 0 0 6 2 4 1 0 0 2 15 0 7 0 0 5 0 0 0 0 0 0 
0 0 0 0 2 2 2 1 0 0 0 0 0 0 0 0 0 0 0 0 0 0 3 0 0 0 0 1 3 0 2 0 0 4 0 0 4 4 1 0 12 0 0 5 0 0 9 5 0 0 0 0 0 0 16 8 0 0 0 0 0 0 0 5 18 23 0 11 0 0 0 0 31 0 0 16 1 0 0 7 15 0 0 0 0 34 0 0 0 0 0 0 33 5 0 0 6 2 29 0 0 0 0 32 0 0 25 0 0 13 13 0 20 0 0 0 3 0 0 23 25 0 0 0 0 16 0 0 0 0 20 65 0 0 5 19 0 0 0 25 39 7 0 0 0 6 3 0 0 0 21 2 0 0 44 0 0 49 0 0 0 65 0 42 0 0 41 35 0 0 11 5 0 0 0 0 0 0 0 0 0 0 15 0 8 0 0 0 0 0 0 5 0 0 21 0 14 22 1 22 8 3 0 0 5 0 0 0 0 1 14 9 0 0 0 7 34 13 0 36 126 0 0 0 0 0 0 0 10 0 0 15 0 0 23 30 0 0 3 0 37 60 46 46 24 0 0 30 0 0 0 23 89 60 19 9 43 57 19 0 0 0 27 42 37 20 13 0 10 4 0 0 28 107 0 0 46 23 0 0 19 2 7 7 0 5 0 0 0 0 2 6 0 7 8 1 5 0 0 0 
0 0 4 0 4 1 2 1 0 0 1 0 0 0 0 0 0 0 0 0 0 0 2 0 1 0 0 4 0 1 0 0 0 0 0 0 2 2 6 0 0 1 4 8 8 0 0 0 3 0 0 7 13 0 11 0 0 0 0 1 2 1 0 5 3 36 15 0 0 0 0 22 27 0 0 24 1 0 0 13 14 5 4 0 0 0 56 0 10 16 0 0 30 15 0 0 20 25 16 0 0 0 0 14 1 0 36 0 0 8 0 1 2 0 0 0 52 0 10 37 0 0 0 5 9 0 39 5 0 19 51 0 0 0 3 48 0 0 10 51 0 10 25 42 1 0 0 0 37 0 0 0 18 0 16 0 0 50 1 0 0 54 0 2 0 0 0 10 0 0 3 14 0 0 4 6 0 0 10 0 0 0 1 0 0 0 7 9 0 2 4 0 0 4 2 6 4 0 0 17 7 16 0 0 19 2 5 0 1 12 1 0 0 0 0 16 22 0 0 67 99 57 0 0 0 0 0 0 0 0 0 51 19 23 20 5 0 0 7 0 26 11 8 0 0 12 64 57 58 43 0 0 0 0 0 0 0 0 0 0 0 0 21 9 4 0 15 0 55 26 0 0 76 18 0 0 55 14 0 7 9 0 0 0 0 4 6 6 3 0 0 4 3 0 1 0 0 0 0 0 
0 0 4 1 0 0 0 0 0 0 0 0 0 0 0 0 0 0 0 0 0 0 1 1 0 0 1 1 0 0 0 4 0 0 0 6 1 0 0 3 3 0 1 0 2 13 11 4 0 0 0 0 11 0 0 16 11 18 2 0 3 0 0 1 3 25 10 0 0 16 0 0 28 0 0 19 1 0 3 3 0 37 72 0 0 0 28 21 1 5 22 0 0 28 6 21 0 0 0 0 10 0 0 36 27 0 0 11 0 0 41 18 0 23 0 2 12 8 11 17 0 0 18 0 12 16 40 0 0 21 32 0 0 0 0 0 26 0 20 16 0 35 0 0 0 37 0 0 95 43 0 0 0 10 56 0 0 16 8 16 0 0 0 45 0 0 14 3 0 11 1 22 7 4 0 0 0 0 14 0 0 20 8 8 1 6 0 2 7 0 5 0 0 27 0 0 8 15 2 0 13 0 3 16 0 11 0 0 16 13 0 2 7 0 0 9 9 0 0 56 45 67 46 0 0 0 0 0 0 11 50 31 22 1 3 8 10 8 5 0 9 5 0 8 18 24 24 16 0 19 65 27 0 0 0 0 0 0 0 0 0 35 49 10 0 12 15 0 31 1 0 0 99 0 0 22 25 4 5 1 5 1 0 9 1 0 0 0 7 6 0 0 4 0 8 7 3 0 0 0 
0 0 5 9 3 0 0 1 0 0 2 0 1 3 3 3 3 2 0 0 0 0 0 4 0 0 1 2 0 0 0 3 0 0 0 1 5 2 0 1 0 0 0 0 0 5 6 5 8 0 17 4 0 9 0 0 9 4 0 0 2 0 0 2 0 25 18 0 0 2 0 0 0 34 8 6 2 0 16 2 0 0 22 6 68 0 0 0 16 0 0 84 0 29 11 0 9 0 9 26 30 0 0 6 1 17 0 0 0 0 33 12 0 0 0 20 0 0 0 10 0 0 63 9 0 0 0 24 19 0 0 0 3 64 0 0 53 0 0 0 4 39 0 0 4 45 0 0 22 0 27 0 1 0 24 0 0 25 0 34 0 0 0 17 1 0 17 42 14 18 0 0 0 0 0 5 3 11 2 0 8 14 0 0 8 1 2 0 15 0 0 0 0 12 0 0 0 0 0 0 39 0 11 20 0 0 0 11 15 1 1 0 4 0 16 14 1 0 0 0 27 35 60 36 0 0 0 13 25 48 16 14 0 1 9 8 0 1 0 2 0 4 7 16 0 2 15 8 11 19 0 10 35 8 0 0 0 0 12 0 13 45 17 0 27 19 0 0 38 5 0 0 0 0 5 33 2 4 0 3 2 4 8 0 4 7 0 0 4 4 0 0 6 0 0 12 0 0 0 0 
0 0 0 0 0 3 0 2 3 4 0 0 0 0 0 0 0 0 2 0 0 0 0 0 5 3 0 0 2 2 3 1 3 4 0 1 0 0 2 0 1 3 4 0 1 0 0 0 1 0 1 0 0 15 0 0 0 3 1 0 2 0 0 0 4 20 26 2 0 0 0 57 0 5 3 4 7 0 0 2 0 0 25 21 50 20 0 0 0 31 0 12 0 9 2 0 0 0 0 0 0 0 0 61 0 28 37 0 11 0 1 13 0 2 0 31 14 0 0 7 59 0 0 0 0 32 53 13 0 0 50 0 25 28 0 19 0 54 7 0 0 0 0 0 0 0 2 24 0 0 11 0 20 0 8 19 0 0 4 0 0 18 0 0 18 23 0 0 0 1 6 5 33 11 0 3 0 0 0 6 6 6 0 0 0 0 0 0 0 0 0 0 38 32 0 16 0 10 11 0 0 10 6 5 17 0 0 3 0 0 5 0 0 0 6 16 0 0 15 0 36 30 19 49 56 43 48 50 26 10 0 1 0 0 2 0 0 1 0 1 0 2 1 0 0 0 4 10 8 6 21 0 0 0 11 48 39 21 3 7 27 12 0 0 20 0 0 25 44 13 0 0 0 0 13 26 24 11 6 0 0 1 1 0 5 10 0 0 0 5 2 0 2 3 0 0 2 9 0 0 
0 0 0 0 0 5 0 0 1 2 0 0 0 0 0 0 0 0 2 0 0 0 0 0 2 0 0 0 0 0 0 0 0 0 0 0 0 0 3 0 0 0 0 0 0 3 4 5 2 0 9 0 1 2 13 4 0 8 3 0 2 0 0 0 2 15 1 0 17 0 0 31 0 0 3 23 9 0 0 22 10 0 7 1 0 20 0 50 0 18 68 32 0 0 2 0 25 9 0 0 20 9 0 11 67 19 0 0 19 0 47 0 33 18 0 0 0 50 55 0 40 40 0 0 0 34 39 0 0 80 36 0 38 0 0 20 0 4 0 0 0 40 45 32 1 0 26 30 0 0 28 0 45 11 0 6 0 46 39 0 1 0 0 31 0 28 29 0 7 0 0 5 12 0 0 0 0 0 2 0 6 11 12 0 0 12 0 2 0 0 8 4 0 0 6 22 0 0 6 7 0 0 0 0 13 0 0 12 4 0 0 0 8 0 5 0 0 0 17 0 0 32 23 18 29 22 12 9 2 0 0 13 0 0 2 4 0 4 0 0 0 1 1 9 5 0 0 0 0 14 24 21 12 50 30 15 6 14 12 17 12 0 0 0 2 5 26 22 17 0 0 0 10 34 11 3 11 0 1 0 0 0 5 6 0 0 0 0 0 7 0 0 0 0 0 0 2 10 0 0 
0 0 0 0 0 1 1 3 0 1 0 3 1 0 0 0 0 0 2 0 0 0 0 0 1 0 0 1 1 0 0 0 0 0 0 0 0 0 3 0 1 0 0 0 0 3 2 2 4 2 3 0 4 4 0 1 8 0 0 1 1 0 2 1 0 9 41 8 0 0 0 10 9 0 27 38 0 0 2 0 0 5 3 0 0 34 0 42 0 0 24 71 0 0 7 33 0 15 34 0 0 23 0 0 0 18 48 0 0 0 0 31 42 0 0 0 0 1 25 3 0 0 3 0 0 0 0 0 3 0 0 66 35 0 16 84 0 42 27 0 9 38 52 51 0 46 9 18 8 0 0 0 0 29 0 0 0 32 0 0 0 2 0 0 0 0 0 0 9 0 0 0 0 0 0 0 4 2 8 0 0 1 0 0 0 11 0 7 0 0 3 0 6 5 0 2 0 0 6 0 26 18 0 17 0 0 0 2 14 0 0 3 11 0 24 11 0 13 0 0 0 11 29 12 0 6 9 0 6 4 12 5 0 0 3 2 0 1 1 0 0 0 2 1 0 11 0 0 4 14 0 14 26 12 4 0 3 10 0 0 7 0 0 0 1 10 0 4 0 0 12 0 25 16 6 0 0 0 5 7 0 5 0 0 0 3 0 4 0 0 0 0 0 8 3 3 0 0 0 0 
0 0 2 1 1 0 1 2 0 0 1 3 3 0 0 0 0 0 2 0 0 0 0 0 0 1 2 5 0 0 0 0 0 0 0 0 0 0 3 1 0 0 5 2 0 1 1 2 0 0 0 0 3 0 0 2 1 2 1 0 0 1 3 0 0 3 30 7 0 34 0 0 0 0 21 8 0 0 0 0 0 2 1 0 0 10 1 0 9 17 0 81 16 0 0 68 0 8 17 69 0 13 0 0 40 0 0 44 0 0 28 34 0 0 0 0 0 0 0 3 0 0 0 0 0 39 23 0 0 0 11 27 39 0 26 0 0 49 0 0 50 0 0 14 0 49 0 31 0 0 0 0 0 11 0 0 40 0 20 12 0 5 0 0 4 10 1 0 47 38 12 0 8 16 0 6 13 0 0 0 7 19 0 0 11 0 0 14 0 5 0 0 7 0 0 0 0 8 9 18 19 0 0 1 0 2 0 7 10 0 0 0 8 0 2 0 0 30 5 0 0 30 0 0 0 11 5 0 1 1 1 0 0 0 0 1 0 0 0 1 1 0 0 0 0 0 0 0 0 9 0 0 5 4 0 0 6 4 0 0 5 0 0 5 0 2 0 1 0 3 10 8 8 16 10 0 0 5 4 11 0 2 6 0 2 7 4 17 1 0 9 1 0 10 4 0 0 0 3 0 
0 0 4 0 5 2 3 3 0 0 0 2 0 0 0 0 0 0 2 0 0 0 0 0 0 0 0 3 0 0 2 2 0 4 3 3 0 0 6 4 0 0 1 0 0 1 1 2 0 0 2 2 11 1 0 0 1 0 0 0 0 0 2 0 0 7 17 35 0 19 0 8 0 0 4 8 12 2 2 0 0 0 12 0 0 77 78 0 0 40 9 5 0 29 0 62 0 0 0 0 23 33 16 0 0 35 0 21 0 0 0 13 0 30 49 19 95 4 14 26 18 12 51 5 0 39 0 0 32 79 36 0 0 46 0 0 17 0 8 37 74 45 0 18 0 0 0 3 0 0 35 35 32 0 1 0 7 10 0 5 71 0 0 16 0 0 22 0 5 28 7 0 11 16 2 11 3 7 0 3 2 0 3 1 6 0 0 0 11 0 0 0 0 0 0 13 0 0 0 21 25 0 27 6 0 1 0 1 0 6 6 9 7 0 0 0 0 24 0 0 0 27 0 10 13 13 0 0 1 0 2 0 0 0 2 3 0 0 2 2 1 1 2 3 2 2 8 7 5 0 1 0 0 4 3 0 7 9 0 0 2 0 0 12 5 0 0 15 21 8 0 4 2 0 0 3 3 0 0 5 3 0 10 3 5 15 0 0 0 1 7 11 0 0 13 3 0 4 7 0 
0 4 0 0 0 0 0 2 1 0 0 0 6 0 0 5 9 0 1 0 0 0 0 0 0 0 0 3 0 1 0 0 4 0 1 2 0 2 0 0 0 5 5 1 0 1 1 1 2 0 1 0 3 0 0 3 0 0 0 0 0 0 2 0 0 2 7 51 0 0 0 0 0 0 10 24 21 12 7 0 0 0 0 20 0 0 76 0 0 23 0 0 0 61 65 0 0 0 0 0 0 18 38 12 0 38 2 37 34 25 34 0 0 31 21 18 41 63 0 38 35 0 56 2 0 69 23 21 89 0 0 0 0 8 21 42 0 0 35 0 0 0 0 0 0 0 25 0 0 152 59 0 39 0 4 73 33 0 0 0 67 0 0 0 9 0 0 18 0 0 4 0 0 3 0 0 0 0 0 8 8 0 1 0 13 8 3 0 10 0 0 3 9 0 0 9 0 0 38 0 5 0 13 0 0 2 5 8 0 11 0 0 4 1 12 0 9 43 0 0 17 0 2 23 8 4 5 0 0 0 0 3 4 0 0 0 1 0 2 2 0 2 0 0 0 0 1 0 2 0 10 0 0 5 2 0 1 1 2 2 5 0 0 1 7 0 1 0 0 3 10 2 6 3 0 4 6 5 0 0 0 0 0 0 0 4 0 2 0 0 0 0 0 1 0 0 2 9 1 0 
0 0 0 0 0 1 1 2 3 0 0 0 3 0 4 0 4 0 3 0 0 0 0 0 0 0 0 3 0 2 0 0 4 0 0 0 1 0 0 0 0 6 1 0 0 1 1 1 2 0 2 0 8 0 0 2 0 0 0 0 0 0 2 0 0 1 5 40 0 0 4 0 28 0 0 35 8 0 0 0 3 0 0 14 13 0 18 38 0 31 21 0 0 8 7 12 0 72 0 34 0 0 48 33 0 19 0 15 78 0 46 13 0 50 10 8 0 0 0 0 21 23 0 0 0 50 0 5 12 0 0 32 0 0 45 0 0 10 36 0 50 44 38 32 17 0 0 0 0 0 0 0 0 7 37 31 47 0 0 0 0 0 0 22 10 17 0 6 14 0 0 0 0 7 0 0 7 0 7 0 7 0 2 0 10 1 0 0 0 3 8 15 5 0 3 1 6 0 21 13 10 17 0 0 3 0 9 9 0 0 0 0 16 1 0 0 46 0 0 14 19 8 17 2 2 4 2 0 0 1 1 1 5 0 0 4 2 0 0 10 0 0 0 0 0 0 0 1 2 0 7 0 0 0 0 0 0 0 0 0 3 0 4 7 0 0 2 0 0 0 13 4 0 12 2 0 5 0 7 0 8 6 4 0 0 5 0 1 1 3 0 0 0 8 7 0 0 0 0 0 
0 0 0 0 1 0 0 2 4 2 0 0 6 0 4 0 0 0 3 0 0 0 0 0 0 0 0 2 0 1 0 0 1 4 4 1 1 3 1 0 0 4 4 0 2 0 1 1 0 0 2 0 1 0 0 3 0 0 0 0 0 0 2 0 0 3 8 44 0 0 0 0 17 0 0 23 42 12 0 0 0 0 1 0 0 0 0 9 2 0 50 71 22 0 0 37 1 55 37 0 14 92 46 0 0 21 52 0 0 36 56 0 0 1 26 29 15 66 72 0 0 12 0 5 0 3 0 0 0 24 35 17 0 30 8 0 45 62 0 0 28 39 0 0 0 27 53 2 0 0 107 0 0 71 52 0 0 0 0 21 35 13 0 42 12 0 0 14 22 6 0 5 0 3 0 6 16 0 7 5 0 11 4 0 7 0 0 2 0 3 4 0 0 0 6 4 0 0 35 34 0 5 0 0 2 0 0 0 1 12 5 10 8 2 0 0 30 0 0 0 0 6 4 0 1 2 7 0 0 1 0 0 0 0 1 0 2 3 0 4 0 2 0 0 0 4 0 2 1 0 3 0 5 3 0 2 1 1 0 6 0 0 7 14 0 0 1 0 9 1 0 0 0 0 0 1 0 0 0 5 7 0 8 1 0 3 5 1 4 9 0 0 1 0 0 6 1 0 0 0 
0 0 4 0 1 2 0 0 0 1 1 1 4 0 0 1 0 1 2 0 0 0 0 0 0 0 0 1 3 0 2 4 0 4 3 0 0 8 0 0 2 0 2 1 8 0 0 0 1 2 2 3 0 0 0 0 1 0 0 0 0 0 2 0 0 3 0 52 0 0 0 0 37 18 0 0 60 50 0 0 0 14 0 0 0 0 0 0 53 17 0 0 27 7 0 0 16 12 14 0 34 95 0 0 8 13 1 7 0 69 20 0 9 0 0 0 0 13 59 35 23 0 29 46 0 33 13 25 0 7 0 23 0 1 10 8 0 33 0 0 0 26 20 0 6 0 29 27 0 113 0 0 48 0 0 0 76 0 0 66 46 9 0 0 0 7 0 9 0 0 6 0 0 0 3 0 2 0 5 4 0 9 0 0 12 0 0 0 1 7 1 2 0 0 0 6 8 0 5 4 0 0 0 3 6 7 0 0 0 0 0 10 0 0 0 4 0 6 36 29 17 3 1 0 0 0 4 0 0 0 0 0 0 4 0 0 0 3 0 0 0 2 4 1 1 2 0 0 3 0 0 0 5 4 0 2 0 0 3 0 0 0 0 2 0 0 0 0 13 0 0 0 12 10 6 3 20 15 0 0 6 0 0 0 11 2 0 0 0 11 8 9 10 4 0 0 2 1 0 0 
0 0 1 0 0 0 0 0 2 0 2 3 7 0 1 3 0 0 2 0 0 0 0 0 0 1 2 3 2 0 0 0 0 1 0 6 6 0 2 0 2 0 2 1 9 0 0 0 0 0 1 1 0 0 0 0 1 0 0 0 0 0 1 0 0 2 0 23 48 0 0 0 25 11 0 0 30 46 0 8 1 8 0 0 0 0 0 0 0 1 0 0 18 49 32 0 0 4 0 6 21 36 0 0 27 0 0 10 0 0 0 0 0 0 0 0 0 0 8 43 50 0 0 0 0 0 1 57 0 0 19 22 0 9 19 0 0 0 0 11 41 0 7 27 8 0 0 0 0 0 0 64 40 37 33 61 42 0 63 9 0 0 0 0 0 24 12 56 0 2 0 0 0 0 2 0 1 0 6 11 0 3 0 0 3 22 17 0 0 4 0 0 0 3 0 6 23 0 19 50 0 0 12 0 0 17 0 9 0 0 0 18 0 0 0 4 0 10 35 5 0 3 0 3 6 0 5 0 0 0 3 8 7 2 0 0 0 8 0 0 3 0 0 12 0 0 4 2 0 0 5 6 0 0 6 0 0 0 9 0 9 13 0 0 8 8 0 0 0 0 1 5 4 0 2 5 5 0 0 0 5 4 7 0 0 0 0 0 0 19 0 0 6 5 11 10 1 0 0 0 
0 0 0 0 0 5 2 0 0 10 0 0 2 0 0 2 0 0 2 0 0 0 0 0 1 0 0 0 3 7 2 2 2 2 2 1 0 0 5 0 0 1 4 0 0 0 1 0 0 0 0 2 0 4 2 1 0 0 0 0 0 0 0 1 2 5 0 10 60 0 0 0 0 0 0 0 0 44 0 0 0 0 6 0 0 0 0 0 0 0 0 0 37 36 0 0 7 6 0 0 0 0 0 0 1 0 0 0 9 0 19 0 1 7 0 2 7 0 0 0 18 14 0 0 10 0 29 69 0 0 0 0 0 0 20 0 0 17 27 19 20 0 0 11 2 0 0 0 42 38 0 73 65 0 0 7 0 0 56 34 0 0 17 9 0 0 5 0 0 17 3 10 0 0 9 14 7 0 0 5 9 2 0 8 0 0 0 5 0 0 3 0 0 4 4 0 0 0 43 45 0 1 0 0 0 7 0 6 8 16 7 20 0 0 0 0 0 34 8 0 4 0 0 3 0 1 0 1 0 0 0 9 0 0 1 2 0 0 2 0 1 0 1 5 3 0 0 0 2 0 1 1 0 0 5 0 4 0 3 0 0 0 1 0 0 14 4 0 0 2 0 0 11 0 0 0 0 1 0 0 4 2 1 0 4 0 5 7 4 9 0 0 0 0 0 11 0 0 6 0 
0 0 3 2 0 2 0 0 0 9 0 0 6 0 0 5 0 0 3 1 0 0 0 0 2 0 0 1 0 0 2 0 2 0 0 0 0 0 1 0 0 2 6 0 0 1 1 0 0 0 0 0 1 0 0 0 0 0 0 0 0 0 0 0 0 2 0 0 38 43 0 0 0 30 0 0 5 5 63 0 0 3 0 0 0 1 4 11 0 5 0 0 0 0 4 50 20 0 0 0 61 17 0 0 4 8 0 0 47 4 0 0 0 0 4 0 0 0 12 0 22 3 0 7 12 7 0 0 0 0 3 0 6 14 9 1 0 22 17 0 0 0 4 14 0 0 37 39 49 79 0 0 90 37 0 0 33 0 5 7 0 0 7 0 0 0 0 0 8 0 0 0 10 0 0 1 0 6 0 0 0 0 0 16 0 0 7 2 0 2 1 0 0 7 10 0 0 0 51 0 0 0 0 0 2 2 1 0 0 0 3 15 0 0 13 42 34 11 1 0 5 0 0 2 1 0 0 0 0 1 0 1 0 1 4 1 0 2 1 0 7 1 2 0 0 3 0 0 3 0 0 0 0 0 0 4 5 0 0 0 0 0 0 14 4 10 0 0 0 6 8 0 2 2 2 0 0 0 7 3 0 5 9 4 1 1 0 1 4 0 0 5 0 0 0 0 2 12 0 0 
0 0 3 12 0 1 0 0 0 6 3 0 4 0 0 0 0 0 2 0 1 2 0 0 2 0 0 0 0 0 0 0 3 0 0 0 0 0 1 0 0 2 7 0 0 0 1 0 0 0 0 0 0 0 0 0 0 0 0 0 0 0 0 0 0 2 0 5 18 27 0 0 0 22 0 0 20 0 70 9 0 0 0 2 4 7 0 0 0 0 2 5 0 0 35 53 0 0 0 96 69 0 0 0 12 19 0 0 31 0 11 0 0 0 55 15 8 34 0 0 15 0 0 6 0 0 0 2 0 0 16 7 2 0 0 1 7 0 0 5 0 0 6 0 0 26 55 19 24 13 0 29 6 0 2 0 0 2 0 0 33 0 0 0 0 0 29 79 8 0 0 0 0 0 0 0 0 17 6 3 6 1 7 0 5 1 8 0 0 10 0 0 1 1 0 0 0 9 71 0 0 0 3 2 0 0 15 0 17 0 19 0 0 6 43 33 12 0 0 0 4 1 0 3 8 0 0 0 6 1 9 0 8 10 4 0 4 7 0 0 2 1 5 0 0 0 0 0 3 3 2 0 0 2 0 4 2 0 2 13 1 0 1 7 0 0 0 0 0 8 11 4 0 4 0 0 5 0 8 10 0 0 0 0 2 2 6 6 0 0 2 15 9 4 12 10 11 11 0 0 
0 0 0 4 0 0 0 1 2 1 0 0 1 6 0 0 8 0 0 0 0 6 0 0 2 0 0 0 0 0 0 0 0 3 3 2 2 1 0 0 0 0 0 0 3 2 0 0 0 0 0 0 0 0 0 0 0 0 0 0 0 0 0 0 0 2 0 0 9 49 9 0 0 0 13 0 9 10 38 36 0 0 0 0 0 0 0 0 0 0 0 3 0 0 13 55 0 0 0 110 3 0 0 0 23 5 0 0 13 1 0 0 0 11 49 16 0 0 0 6 0 0 5 11 7 0 4 10 13 4 0 2 16 14 2 0 0 0 0 17 0 6 10 0 0 53 29 35 14 0 22 79 0 0 26 0 0 0 13 5 51 13 0 59 0 0 25 40 0 0 7 5 0 0 8 4 0 0 1 4 0 3 9 0 4 0 0 1 0 0 0 0 12 3 0 0 0 40 34 0 2 0 8 7 0 0 0 0 5 0 1 0 0 54 21 8 0 0 0 6 2 1 0 0 1 6 8 5 11 0 0 0 2 0 0 3 4 3 0 7 0 0 0 0 0 0 0 7 0 4 3 1 0 9 0 1 0 1 0 0 1 0 0 0 0 0 7 10 9 0 0 0 0 3 0 5 8 3 0 0 0 12 0 5 0 0 0 0 0 0 3 3 7 2 0 2 21 6 0 0 
0 0 7 0 0 0 0 0 2 0 1 0 0 4 0 0 7 0 0 0 0 6 0 0 2 0 0 0 2 2 0 2 1 0 0 1 2 1 0 0 0 1 2 0 3 1 0 0 0 0 1 0 0 0 0 0 0 0 0 0 0 0 0 0 0 2 0 0 0 40 65 0 0 0 10 0 0 0 2 77 11 0 0 0 0 0 1 6 0 0 5 10 3 0 0 0 0 0 10 58 0 9 0 0 23 0 0 0 0 0 0 4 13 0 0 3 0 0 0 37 57 0 0 0 0 23 8 0 0 4 0 2 2 0 0 3 0 0 0 0 20 0 1 0 0 55 9 0 0 0 31 5 0 0 0 7 17 27 52 0 0 14 0 4 0 0 37 9 0 1 0 1 17 0 2 7 0 10 2 0 0 1 0 11 0 0 1 0 0 0 0 1 0 0 5 0 0 68 1 0 0 0 0 0 0 21 0 0 0 3 0 0 66 46 0 2 0 0 0 7 4 2 0 0 3 0 0 0 1 7 0 6 1 0 0 0 0 0 0 9 3 0 0 0 12 14 0 0 0 0 0 0 0 0 0 0 0 0 0 0 0 0 0 2 8 0 0 4 4 0 0 0 0 1 0 0 0 3 3 4 0 12 0 0 3 3 0 8 11 0 0 0 0 5 12 8 0 3 4 0 
0 1 0 0 0 3 3 2 0 1 0 4 4 0 0 0 2 0 4 3 0 2 0 0 2 0 0 0 1 1 0 0 0 1 1 0 0 0 1 0 0 1 3 0 2 3 0 0 2 6 0 1 0 0 0 0 0 0 0 0 0 0 0 0 0 2 0 1 0 10 53 0 0 0 0 9 0 0 0 55 27 0 0 0 0 0 0 1 12 0 0 0 4 0 0 0 8 0 61 29 0 9 0 4 3 0 1 0 12 0 5 7 9 0 0 0 0 0 0 60 37 0 4 6 2 18 3 0 0 7 10 37 5 0 0 18 0 0 7 0 18 3 0 0 33 26 0 0 19 47 0 0 0 44 13 3 34 27 0 0 0 14 20 0 4 1 26 0 0 0 0 0 0 0 0 5 16 12 2 0 2 7 0 0 5 6 0 1 4 1 0 0 3 0 0 0 26 78 0 0 0 12 0 0 0 9 6 14 6 0 0 38 41 9 0 8 6 0 0 0 0 0 0 2 2 1 11 0 0 2 0 5 3 0 0 1 1 1 2 0 0 5 0 2 0 8 0 0 2 0 0 13 5 0 0 0 1 0 2 8 0 0 5 0 0 0 4 0 0 7 3 1 12 0 1 0 0 2 6 13 0 0 4 0 0 0 7 0 0 9 8 8 0 0 3 10 0 8 0 0 
0 0 0 2 8 0 0 0 0 0 3 0 6 0 0 0 0 4 0 0 0 0 0 0 2 0 0 0 0 7 0 0 0 2 0 1 0 0 2 0 0 2 6 0 0 2 0 0 5 1 3 0 0 0 0 0 0 0 0 0 0 0 0 0 0 2 0 0 0 5 37 32 0 0 20 9 0 0 0 8 85 0 0 15 3 9 0 0 0 0 22 29 0 0 0 21 0 0 103 3 0 3 0 9 12 0 9 0 13 3 4 11 0 0 0 0 29 13 39 8 0 0 9 0 0 3 0 0 0 8 10 5 0 0 0 0 24 2 0 0 0 0 0 0 55 0 3 25 15 43 0 0 0 1 0 14 16 0 0 0 14 4 5 13 0 0 23 4 8 0 0 0 0 5 0 3 5 0 0 1 1 2 0 0 9 0 0 9 0 4 0 0 9 0 0 0 40 35 0 0 0 0 0 22 0 0 0 0 0 0 34 52 15 0 0 4 1 0 0 0 5 7 4 5 0 3 8 0 0 0 0 0 1 2 0 5 0 0 3 0 0 7 0 0 0 2 6 0 9 0 0 5 4 8 4 0 5 0 2 6 0 0 5 0 0 0 3 0 1 1 5 12 1 0 6 10 20 7 0 10 0 0 4 1 0 0 0 0 0 6 12 2 1 21 6 0 1 0 0 0 
0 0 0 7 8 0 0 1 0 0 1 0 5 0 0 0 0 2 0 0 0 0 0 0 2 0 0 0 1 2 0 0 0 0 3 0 0 0 1 0 0 2 4 0 0 0 1 0 2 6 0 1 0 0 0 0 0 0 0 0 0 0 0 0 0 1 0 0 2 6 19 53 0 0 6 0 0 0 4 0 78 47 0 0 0 3 12 0 0 11 35 34 0 0 0 12 0 1 83 11 0 6 0 1 0 0 15 0 10 8 0 16 0 0 25 0 60 16 0 7 1 0 2 0 8 0 0 0 0 5 10 3 0 0 0 9 0 0 1 7 1 0 0 8 51 0 27 25 0 0 0 1 0 0 0 17 16 0 0 0 0 0 0 16 0 0 20 0 0 0 4 10 1 1 0 0 0 0 11 4 0 0 0 3 2 0 0 12 0 7 0 0 12 0 0 3 46 0 0 0 1 0 0 25 5 14 0 0 0 20 63 10 0 0 0 1 0 0 0 3 1 0 0 2 4 0 0 0 0 3 0 0 5 1 5 5 0 2 0 0 0 7 0 0 1 0 14 10 14 0 0 0 7 0 0 2 6 4 3 6 0 0 1 1 0 1 1 0 5 0 0 0 0 4 12 0 0 0 2 2 4 0 9 8 0 0 0 0 6 14 0 0 19 37 0 22 13 0 0 0 
0 0 0 0 1 0 0 2 3 1 0 0 3 0 3 6 1 0 0 0 0 0 0 0 2 0 0 0 2 3 1 0 0 3 4 0 2 1 0 0 1 0 0 0 0 4 1 0 0 0 1 0 0 0 0 0 0 0 0 0 0 0 0 0 0 0 1 2 2 3 10 37 14 0 0 8 0 0 0 0 20 106 0 0 0 1 0 3 0 0 4 0 0 0 0 0 0 22 84 10 0 14 0 3 1 0 17 0 0 0 0 6 16 0 0 0 44 0 0 0 0 0 0 17 13 0 0 0 0 13 19 5 0 1 13 4 0 0 12 11 0 0 0 21 31 0 0 0 0 0 0 13 5 0 0 15 0 0 3 0 0 0 0 11 0 5 22 5 0 0 0 0 0 2 2 4 21 0 9 0 0 0 0 0 4 0 0 0 5 0 0 14 0 0 0 51 42 0 8 0 9 0 13 13 0 0 0 0 33 51 15 3 5 10 5 0 3 4 0 0 0 2 5 0 3 0 0 0 2 1 0 0 2 0 0 3 0 2 9 4 0 0 1 6 4 0 0 0 0 12 5 5 2 0 4 3 0 0 5 4 0 0 4 4 1 0 0 16 12 0 0 0 7 13 3 0 0 0 4 2 3 0 4 22 2 1 7 0 4 0 4 10 11 0 0 11 0 0 61 0 
0 0 0 1 4 0 0 0 0 0 0 0 3 0 0 2 0 0 0 0 0 0 0 0 2 0 0 0 0 0 0 0 0 2 4 0 0 0 0 0 0 0 0 0 0 3 1 0 0 0 0 0 0 0 0 0 0 0 0 0 0 0 0 0 0 0 0 0 3 0 0 22 47 0 0 23 0 0 0 0 0 84 10 0 0 0 0 3 1 1 5 0 0 0 0 0 0 17 68 53 0 0 0 0 0 10 0 0 0 24 8 0 22 0 0 14 4 0 0 6 24 0 9 16 0 0 7 0 7 0 16 13 0 8 30 6 16 13 6 18 16 0 12 28 0 3 18 0 0 0 10 10 0 0 10 19 0 0 0 0 0 1 16 0 0 2 4 9 0 2 0 0 0 0 4 0 13 0 0 0 0 0 0 7 8 0 1 0 0 0 9 7 0 0 0 47 11 0 14 1 0 0 18 0 0 0 0 18 50 20 0 0 3 3 0 0 0 3 0 0 0 0 4 0 6 0 1 0 0 1 3 2 4 1 0 6 0 2 8 9 0 0 3 4 0 3 0 0 0 3 0 2 1 0 0 4 2 4 4 0 0 0 3 1 0 0 5 5 2 7 9 3 2 1 12 0 0 9 0 0 4 0 5 0 0 0 9 7 9 0 23 12 0 0 0 10 15 66 0 0 
0 0 2 0 1 0 1 2 2 0 0 0 1 0 2 0 0 0 0 0 0 0 0 0 2 0 0 0 0 2 3 0 1 1 1 0 0 0 0 0 3 5 0 0 0 4 3 2 0 0 0 0 0 0 0 0 0 0 0 0 0 0 0 0 0 0 0 1 0 4 0 0 56 36 0 0 1 0 0 0 0 44 54 0 0 0 0 2 6 4 0 0 0 0 0 0 0 30 46 45 0 0 0 0 3 2 0 0 4 22 10 0 7 0 12 10 3 7 6 52 52 8 0 27 0 0 0 10 30 0 20 17 0 4 9 0 9 0 0 0 10 0 18 9 46 41 0 0 0 14 2 0 0 0 0 0 0 0 0 0 0 1 0 4 3 14 0 7 0 0 0 0 1 6 16 6 12 0 3 10 9 2 0 0 0 8 0 0 0 3 10 0 0 0 19 58 0 0 0 0 0 0 3 0 0 0 32 45 30 4 1 0 0 0 0 7 6 1 5 4 8 5 0 4 2 0 0 1 4 3 0 0 7 0 0 3 0 2 0 0 0 0 0 3 2 11 0 2 17 0 0 8 5 3 12 1 9 1 0 0 1 3 2 6 3 0 0 0 0 0 0 5 0 0 3 0 0 0 2 5 0 0 12 0 0 0 6 0 4 24 41 0 0 32 6 0 5 9 0 0 
0 0 3 0 0 0 7 2 0 0 0 0 0 1 3 0 0 0 0 0 0 0 0 0 2 0 0 0 0 0 5 0 3 1 0 0 0 0 0 0 5 6 0 0 1 5 1 0 3 0 0 0 0 0 0 0 0 0 0 0 0 0 0 0 0 0 0 2 0 6 0 2 25 53 0 0 13 0 0 0 0 0 89 21 0 0 0 0 0 0 0 1 0 0 0 0 0 51 54 64 0 0 10 5 11 11 15 5 0 0 5 0 24 0 3 0 0 17 0 0 0 0 0 29 5 2 0 8 27 0 9 6 0 28 10 0 0 0 36 7 0 11 0 19 23 0 0 0 0 0 0 1 4 3 4 10 0 0 0 4 7 0 0 14 3 20 3 3 0 0 8 6 11 0 0 11 19 0 0 0 0 16 4 0 1 2 1 0 0 3 0 0 0 0 51 40 0 3 0 0 0 35 0 0 0 52 51 24 2 0 2 2 0 0 4 1 3 2 2 2 1 1 3 3 0 0 7 0 0 5 0 0 6 0 2 0 0 0 0 0 0 5 0 3 0 0 4 0 0 8 5 0 1 0 15 0 0 0 0 5 8 0 3 2 0 1 0 0 8 4 0 0 4 8 17 11 0 0 0 9 0 8 15 5 0 0 0 0 10 36 0 0 9 14 17 11 8 0 0 0 
0 0 3 0 0 0 4 5 0 1 0 0 1 0 1 0 2 0 0 0 0 0 0 3 5 1 0 0 0 0 4 0 2 1 0 0 0 0 0 0 3 5 0 0 3 0 0 0 3 3 2 2 2 0 0 0 0 0 0 0 0 0 0 0 0 0 0 1 0 2 3 4 2 64 26 0 0 8 0 0 0 0 67 70 0 0 0 0 0 0 0 5 0 0 0 0 0 45 55 82 0 0 19 0 0 0 0 0 12 7 0 0 6 0 0 0 0 0 0 7 0 0 0 27 0 0 47 5 0 0 2 23 27 12 0 0 0 49 12 21 0 25 21 6 0 0 0 7 13 0 0 1 0 0 3 0 0 0 4 0 1 0 0 0 1 29 0 1 0 0 0 0 0 0 0 15 1 0 0 0 2 1 0 0 7 0 10 0 0 12 0 0 0 0 62 0 0 0 0 0 0 0 0 11 56 54 7 0 1 0 0 7 1 0 4 1 0 0 0 0 0 0 0 0 0 0 8 0 0 8 5 2 0 0 0 2 1 0 12 4 5 5 4 0 0 0 7 4 0 4 0 0 1 0 0 1 0 0 9 11 13 0 0 7 0 5 0 0 5 4 9 2 0 0 0 5 2 5 5 15 0 10 0 2 0 7 0 13 30 21 0 0 8 0 41 29 22 5 0 0 
0 0 3 1 0 2 0 0 0 0 4 3 0 1 0 4 0 0 1 0 0 0 3 0 0 1 0 0 0 0 4 0 2 1 0 0 0 0 0 0 0 0 0 0 0 0 0 0 0 0 0 0 0 2 0 0 0 0 0 0 0 0 0 0 0 0 0 0 0 0 3 0 0 21 52 0 0 0 0 0 0 0 0 101 0 0 0 0 0 2 2 0 0 0 0 0 0 62 46 47 0 0 0 0 35 27 16 4 7 0 17 18 0 9 9 11 6 0 37 65 21 0 0 10 0 0 15 0 0 21 0 0 0 0 0 0 5 44 0 0 2 12 2 0 0 3 2 15 9 0 2 17 12 0 0 0 2 0 0 0 5 0 0 0 0 22 0 0 0 1 0 0 0 7 0 8 3 0 1 1 0 0 12 0 0 2 0 1 0 0 0 0 0 14 73 0 0 0 0 0 0 0 0 58 46 5 2 0 0 7 0 0 0 4 4 0 0 0 0 0 0 0 0 0 4 0 0 0 1 1 0 1 0 4 0 7 8 0 6 6 0 0 3 7 0 0 3 11 0 0 5 0 6 17 0 0 7 10 0 0 0 0 0 7 0 8 0 0 8 0 10 1 0 14 0 0 0 8 0 0 2 0 0 0 2 0 7 33 0 0 0 0 16 0 0 0 49 0 0 0 
0 0 2 4 0 0 0 1 0 0 3 1 4 0 0 5 0 0 3 2 2 2 4 0 0 0 0 0 0 0 2 0 0 0 0 0 1 0 0 1 0 0 0 0 0 0 1 0 0 0 0 0 0 2 0 0 0 0 0 0 0 0 0 1 0 0 0 0 0 2 5 0 1 12 55 28 0 0 0 0 0 0 0 98 50 0 0 0 0 0 4 6 4 0 0 0 0 34 47 31 0 0 0 4 0 0 8 6 4 0 12 9 0 27 44 35 17 0 0 24 26 10 11 19 0 13 0 0 0 37 5 0 0 0 55 0 0 19 5 0 42 18 0 0 0 0 19 0 13 0 4 11 17 11 0 0 0 0 6 5 14 0 0 7 7 0 17 0 7 0 0 0 1 0 4 21 13 11 1 0 0 0 7 5 0 5 0 0 12 0 0 0 0 79 21 0 0 0 0 0 0 0 42 43 10 8 2 0 0 6 0 0 0 4 2 4 0 2 4 0 0 0 0 2 1 0 0 0 5 1 4 2 0 5 6 1 0 6 2 0 0 0 3 9 3 12 1 0 0 0 11 0 0 0 0 2 6 2 0 0 3 9 18 6 9 0 0 9 3 10 5 0 2 2 13 0 0 10 0 0 0 0 0 3 10 19 18 0 0 31 0 0 38 7 0 0 83 0 0 0 
0 0 0 0 3 0 0 1 0 1 2 1 0 5 3 0 2 4 0 0 0 0 1 3 5 3 0 0 0 0 5 1 2 1 1 2 2 0 0 3 3 0 0 0 0 0 1 0 7 2 3 0 0 2 0 0 0 0 0 0 0 0 1 0 2 1 1 1 3 0 0 3 3 0 19 57 0 0 0 7 7 0 0 14 121 0 0 0 0 1 1 0 0 0 0 0 0 22 35 57 20 0 0 0 0 0 0 0 28 4 0 0 0 0 0 24 20 0 0 0 0 24 0 0 3 10 2 21 0 4 0 1 10 0 24 0 0 8 3 1 63 0 0 0 7 7 6 0 15 13 14 0 0 0 0 0 0 0 2 8 13 0 0 0 17 17 4 7 0 0 8 0 14 0 2 8 6 0 0 0 0 5 0 0 3 3 1 0 1 0 18 0 0 66 0 0 0 0 0 0 0 73 54 8 0 0 2 4 0 0 2 1 2 0 0 3 0 1 2 0 0 0 1 5 0 1 0 1 1 0 2 2 2 3 0 10 0 2 0 0 0 4 6 0 0 3 6 3 0 4 10 0 0 0 7 0 0 0 3 8 8 0 0 0 7 0 0 0 0 0 0 0 15 0 0 14 0 0 5 8 10 9 0 0 13 19 0 0 5 22 41 0 0 93 9 0 0 0 34 0 
0 5 0 0 1 1 0 1 1 0 0 0 2 4 0 3 4 0 0 0 0 0 2 3 0 5 0 0 0 0 5 4 0 2 1 4 1 0 0 3 2 0 0 0 0 0 1 0 5 2 1 1 0 3 0 0 0 0 0 0 0 0 0 2 2 1 1 1 4 2 0 0 2 0 6 39 14 0 0 0 0 0 0 0 109 36 0 0 0 0 0 0 0 6 0 0 0 37 42 46 36 0 12 7 0 0 0 0 0 29 0 0 11 3 0 0 0 0 19 11 2 29 27 0 0 11 10 14 18 21 0 0 0 39 0 0 0 11 0 13 56 0 0 0 22 1 0 1 0 8 5 0 0 0 0 0 17 1 0 10 2 0 0 1 0 0 8 0 0 0 5 0 5 3 18 6 0 0 0 0 0 1 1 1 0 1 0 9 0 0 0 4 38 13 0 0 0 0 0 0 73 54 3 0 3 0 1 2 0 0 5 2 1 0 0 0 0 0 7 0 1 0 2 2 0 8 0 0 0 0 0 6 0 0 0 3 6 0 4 3 14 12 0 0 0 0 4 0 1 4 0 0 12 6 0 2 4 7 6 0 2 0 11 9 0 0 10 8 10 0 19 0 0 2 0 0 3 0 6 0 3 6 0 0 11 4 4 5 0 0 5 0 0 23 2 1 0 10 3 0 
0 3 0 0 2 1 0 2 3 2 1 0 5 0 0 14 2 0 0 0 0 0 0 0 0 0 0 2 2 0 6 4 0 4 4 1 3 0 0 4 4 0 1 0 0 1 1 0 0 0 0 0 1 0 3 2 2 2 2 2 1 0 0 3 4 3 3 4 1 3 0 0 1 2 1 22 41 17 0 0 2 2 0 0 32 127 0 0 0 2 0 3 0 10 4 0 0 44 33 35 48 0 0 12 0 0 32 8 0 21 26 0 6 0 0 0 14 0 27 35 0 0 53 8 0 0 0 5 6 20 0 11 0 13 14 21 27 4 20 9 30 0 0 9 0 0 8 12 27 0 0 0 0 0 0 0 0 0 0 6 1 0 2 0 0 35 26 0 0 0 1 0 0 0 21 27 0 0 3 7 4 0 8 5 0 2 0 1 0 0 0 2 91 0 0 0 0 0 0 72 44 3 6 10 10 9 0 0 0 0 0 5 2 0 0 0 0 0 6 0 1 0 0 0 9 6 0 0 0 2 1 6 0 0 7 4 1 0 8 0 0 0 0 0 8 9 0 0 0 0 0 0 6 0 3 19 1 0 1 3 7 6 0 0 0 4 0 0 1 0 3 0 4 0 0 8 10 4 6 0 0 0 0 11 21 2 0 35 0 0 23 14 0 0 0 46 0 0 0 0 
0 0 0 0 2 1 0 1 0 0 1 6 2 0 0 6 0 0 1 0 3 4 4 0 0 0 0 1 1 0 7 0 5 0 0 0 1 0 0 2 0 0 0 0 0 0 2 4 0 0 1 1 0 1 0 0 0 0 0 0 0 1 0 0 0 0 0 0 0 1 4 0 0 0 0 2 34 41 0 0 0 0 0 0 0 127 1 0 0 0 5 0 0 0 3 0 0 55 39 25 78 14 0 12 0 16 42 10 0 2 26 18 0 0 0 9 28 23 13 0 0 0 8 52 0 0 0 21 5 3 5 0 0 0 0 0 41 25 23 20 0 0 10 8 3 2 17 0 0 0 8 0 4 2 10 0 0 6 12 0 0 0 0 0 0 15 5 0 10 7 0 0 0 20 17 10 0 0 3 0 0 0 0 0 0 2 5 1 0 0 0 52 59 0 0 0 0 0 66 59 9 6 9 0 0 0 0 0 5 4 0 0 0 5 4 0 0 7 0 0 2 0 5 1 0 3 0 0 6 0 0 12 0 0 11 8 0 2 10 0 0 0 1 0 9 2 11 17 8 5 1 0 0 0 0 0 0 0 0 0 5 0 0 8 0 1 0 0 5 7 0 1 17 0 4 11 0 0 0 6 5 7 20 24 0 0 19 0 0 0 2 47 42 13 0 1 0 0 17 0 
0 0 2 0 5 3 2 1 1 1 1 1 1 0 0 3 3 2 1 0 3 0 0 5 8 0 0 3 4 0 1 0 0 3 0 0 0 0 0 0 5 3 4 1 0 0 0 7 1 0 2 2 1 0 0 0 0 0 0 0 0 3 1 0 0 0 0 0 0 0 1 1 3 0 0 0 11 44 34 0 0 0 2 0 0 78 58 0 0 0 0 0 0 0 0 0 0 32 52 28 34 0 0 0 0 0 14 7 0 0 0 0 13 27 0 0 0 28 30 10 0 3 0 29 23 8 14 0 18 9 3 0 0 0 0 0 14 0 10 30 0 0 0 0 0 0 15 24 0 1 11 0 0 0 0 1 0 0 0 0 0 0 0 11 0 9 15 0 1 0 0 0 0 0 11 5 2 0 0 0 2 0 0 0 0 2 0 0 0 0 6 81 0 0 0 0 0 67 78 2 1 8 1 0 5 0 0 5 3 4 0 0 0 1 2 0 2 11 2 0 3 0 2 0 0 1 0 0 7 3 0 3 0 0 0 3 7 5 1 1 0 1 11 1 0 0 10 0 0 1 3 3 6 8 0 0 4 3 0 0 5 0 0 8 0 7 6 0 0 18 9 0 0 0 0 2 8 0 0 6 4 24 23 0 0 0 0 0 19 78 0 0 22 4 19 0 0 35 2 0 
0 0 2 2 0 2 0 0 0 1 0 0 1 0 0 4 2 4 1 0 0 4 11 5 12 0 1 3 0 0 0 0 0 1 0 0 0 0 0 0 0 3 3 1 0 1 1 0 0 0 0 2 0 1 0 0 0 0 0 0 1 2 0 3 6 4 0 0 0 0 0 1 2 0 0 0 1 17 47 52 0 0 0 0 0 36 103 0 0 2 0 0 7 5 4 0 0 2 62 27 58 0 0 0 0 0 0 0 0 11 6 0 0 41 1 0 0 12 15 0 0 0 0 0 0 0 10 17 11 0 0 0 0 0 6 10 4 0 18 24 0 0 0 0 15 20 0 0 28 5 15 0 0 0 0 21 0 0 10 1 0 1 5 0 0 7 30 0 0 0 0 0 0 0 49 6 0 2 0 5 0 0 0 0 0 0 1 0 5 0 36 37 0 0 0 0 60 73 15 0 2 0 2 0 16 11 0 0 0 2 1 1 1 5 0 0 1 2 1 0 0 6 8 0 0 0 5 0 0 3 0 6 3 5 0 0 0 0 0 0 2 8 5 3 0 7 1 0 0 0 8 13 5 8 8 4 11 6 0 2 10 1 4 4 0 4 1 0 0 0 0 1 16 2 0 16 0 2 1 6 22 12 0 0 0 0 0 44 55 31 0 0 0 0 10 29 9 0 0 0 
0 0 0 0 0 0 0 0 0 0 0 0 2 0 0 0 0 0 0 3 0 3 7 0 0 0 0 0 0 3 2 0 0 2 0 0 0 0 0 0 0 0 0 0 0 0 0 0 4 0 0 0 0 3 0 0 0 0 0 0 0 0 0 0 3 9 0 0 0 0 0 0 0 3 0 2 0 0 37 43 0 0 0 0 0 0 119 0 0 1 0 0 0 2 2 0 0 0 59 25 63 17 0 0 0 0 0 22 35 0 8 16 0 5 16 0 10 21 34 0 21 0 0 0 24 10 0 0 0 13 15 0 8 10 54 0 0 0 36 22 0 6 6 0 15 14 0 0 0 0 0 1 0 0 6 14 0 0 5 6 0 4 0 0 0 0 19 0 0 0 0 0 0 23 49 0 0 0 1 0 0 0 1 0 0 0 3 0 0 0 75 0 0 0 0 79 72 18 0 1 1 0 1 1 2 0 0 0 0 0 4 0 4 4 0 0 0 0 0 0 0 0 6 1 0 0 7 0 0 0 6 5 6 1 0 0 0 0 1 0 2 12 0 0 10 0 3 10 13 0 0 0 0 0 0 2 0 3 5 2 0 0 0 0 0 3 5 6 8 9 4 0 5 0 0 0 0 7 11 5 18 0 34 24 8 0 0 13 0 0 7 2 0 0 51 0 0 6 0 0 
0 0 1 5 0 6 2 1 0 0 1 2 4 0 0 5 3 3 6 9 0 0 0 0 0 0 0 0 0 2 3 0 0 2 0 0 0 0 0 0 0 0 0 0 0 0 0 0 2 4 1 0 1 2 3 1 2 2 3 2 1 2 1 0 0 4 1 0 0 0 0 0 0 3 7 5 0 0 16 54 29 0 0 9 0 0 102 21 0 0 2 2 1 0 0 0 0 0 61 39 54 0 0 0 0 0 14 16 0 0 15 0 0 0 8 1 0 25 0 0 13 17 25 0 11 32 0 29 0 14 0 0 0 0 28 21 0 0 56 0 0 0 11 8 26 2 0 5 0 0 0 0 0 0 54 38 0 0 0 0 0 0 2 0 4 0 3 10 0 0 0 0 0 23 37 0 0 0 0 0 0 0 5 5 0 0 2 0 0 39 32 0 0 0 102 58 3 0 2 0 2 0 9 4 0 0 0 6 0 0 3 0 3 0 0 3 0 0 2 0 4 0 0 0 0 2 0 2 11 0 0 2 0 4 0 3 0 5 3 0 0 3 0 2 4 0 9 7 0 2 0 13 4 0 0 0 0 9 4 0 0 5 3 0 2 4 0 0 6 8 9 0 10 0 14 0 0 12 8 15 0 0 0 0 0 0 0 52 38 0 0 6 23 0 33 0 0 29 22 0 
0 0 1 0 0 0 0 0 4 4 1 0 0 10 7 0 5 9 3 0 0 0 7 0 8 2 0 0 0 7 0 0 0 2 0 0 0 0 0 0 0 0 0 0 0 0 0 0 0 0 1 1 0 0 0 1 0 0 0 0 1 0 0 1 2 0 0 1 4 5 2 0 0 1 0 1 0 2 5 21 76 0 0 0 0 0 51 94 0 0 0 0 0 6 0 17 0 0 59 38 56 0 0 0 16 10 0 0 0 0 25 0 0 0 10 0 0 12 0 0 0 0 30 0 0 33 0 27 0 13 13 0 0 0 0 0 0 14 28 0 0 0 28 0 9 5 0 0 0 0 0 0 0 25 43 25 0 0 6 0 0 3 0 1 0 0 9 0 0 2 6 0 0 37 30 0 0 0 4 0 0 0 2 0 0 0 10 0 0 81 0 0 0 79 54 12 0 0 4 6 0 3 0 0 4 8 11 0 0 4 4 5 4 1 0 3 4 1 0 3 3 3 0 0 1 3 8 4 0 3 0 0 0 3 4 0 0 0 4 0 2 13 5 0 0 0 5 13 1 8 12 6 0 3 0 5 13 0 2 8 0 0 1 2 0 1 0 5 7 0 0 9 6 0 0 9 0 10 9 1 13 0 0 12 47 0 0 72 0 0 0 0 0 6 0 0 27 12 0 0 
0 0 0 0 0 5 0 3 0 0 0 0 1 7 7 1 0 0 3 0 0 0 6 0 2 3 0 0 0 9 0 0 0 2 0 0 0 0 1 1 0 0 0 1 1 0 0 0 0 0 0 3 2 0 1 3 0 0 0 0 4 0 0 3 0 1 0 0 4 2 5 0 0 0 0 0 0 0 1 8 64 0 0 0 0 0 0 139 0 0 0 0 0 4 8 4 0 0 49 40 29 29 0 0 0 0 0 25 43 33 7 1 0 9 15 0 18 15 0 4 0 0 7 19 25 0 0 0 0 8 21 6 27 25 0 0 0 43 19 0 42 6 32 15 0 0 0 25 22 0 0 1 0 18 0 0 0 4 0 0 0 0 0 0 1 4 4 0 1 5 0 0 0 37 20 0 5 0 0 5 0 0 0 0 8 1 0 0 53 5 0 0 95 59 10 6 1 0 6 6 0 3 2 0 6 3 6 0 0 6 0 0 0 0 0 0 0 0 3 0 0 1 3 0 7 0 6 0 0 9 0 0 7 4 1 2 0 0 7 0 8 3 1 0 14 14 0 0 0 0 2 1 0 2 3 1 0 0 10 0 8 6 0 13 6 0 0 0 1 0 0 1 3 0 1 5 9 27 0 0 48 0 0 33 19 6 42 4 0 22 53 14 0 0 0 0 0 0 0 0 
0 0 0 0 1 0 3 0 0 5 6 8 7 0 5 2 2 0 0 0 0 0 4 0 0 0 4 0 1 2 0 0 0 2 0 0 0 1 0 0 2 0 1 0 0 2 0 0 0 0 0 4 1 0 3 0 2 0 0 2 0 1 0 2 0 1 0 2 2 3 1 2 0 0 0 1 1 0 4 0 52 49 0 0 1 0 0 132 38 0 0 0 0 3 3 0 0 0 34 63 41 57 0 3 0 0 5 0 0 29 0 0 0 17 0 0 18 27 0 23 27 0 0 15 43 0 5 39 16 3 0 0 31 6 7 2 16 66 0 0 0 0 5 5 10 0 0 16 9 0 0 8 1 5 17 0 0 0 0 3 2 3 4 4 1 0 0 7 1 0 0 0 0 46 1 0 1 0 0 6 1 0 0 0 0 0 0 10 37 0 0 80 45 3 10 0 0 0 7 10 0 1 1 0 1 1 1 0 0 4 0 0 1 7 3 0 0 0 5 2 0 1 6 0 5 0 0 2 0 0 0 0 3 0 0 1 0 0 0 0 11 3 2 1 2 7 7 6 0 0 0 0 0 0 0 10 0 8 6 0 10 2 0 0 4 17 13 0 1 5 2 0 13 3 1 19 7 17 22 15 0 0 0 0 0 5 35 0 0 15 26 52 48 27 58 32 0 0 0 0 
0 0 1 0 0 0 0 5 3 5 16 7 0 0 0 0 8 0 2 6 0 0 0 2 4 0 2 1 0 0 0 0 0 2 0 0 0 2 0 0 0 1 2 0 0 0 1 0 0 0 0 0 0 4 0 0 0 0 0 5 0 0 0 0 0 0 7 1 0 0 0 4 2 2 2 5 0 0 0 0 12 70 9 0 0 0 0 49 113 0 0 0 5 2 0 0 0 0 16 59 31 65 0 0 6 0 0 8 0 22 0 2 0 0 21 12 20 18 0 0 13 12 19 0 0 0 0 41 10 0 0 0 0 20 5 16 41 0 0 17 5 15 3 0 7 0 0 0 0 0 0 12 0 7 0 0 10 0 0 2 4 1 5 2 0 2 10 0 1 2 0 0 19 41 0 0 0 0 0 0 0 0 11 8 0 0 0 9 0 0 64 50 0 6 1 0 6 2 0 0 0 0 0 0 0 0 0 1 0 0 7 0 8 6 0 2 0 0 1 0 0 0 0 0 0 4 0 5 0 0 3 12 13 0 0 0 0 7 2 0 0 0 14 7 0 0 8 8 1 0 3 7 11 0 0 7 1 0 0 7 5 0 1 0 10 0 0 1 0 7 10 1 0 0 8 36 2 0 0 0 0 22 26 0 0 0 0 0 0 0 0 19 27 0 24 17 1 5 0 0 
0 0 0 2 1 0 5 17 6 0 0 0 0 0 0 0 7 0 0 2 0 0 0 1 4 0 2 0 0 0 0 0 0 4 2 2 2 4 0 0 0 1 2 0 0 0 1 0 0 0 0 0 0 0 0 1 0 0 0 5 0 3 3 1 0 0 0 0 1 0 0 6 3 1 0 3 0 0 1 0 5 35 60 0 0 0 0 0 145 0 0 0 0 3 5 3 0 0 29 66 15 58 0 0 0 4 10 0 0 0 0 0 15 14 36 3 0 8 23 0 0 14 6 2 0 8 0 6 0 12 0 0 0 8 5 40 16 0 10 24 35 0 0 0 0 11 2 0 5 2 10 21 0 0 0 8 0 0 0 10 17 0 0 2 0 0 0 1 0 0 0 0 25 31 0 0 0 1 1 0 0 2 7 0 0 0 0 0 5 81 19 5 7 6 0 0 4 12 0 0 18 5 1 2 1 0 0 0 1 4 2 0 4 4 2 0 0 2 3 2 0 0 0 0 0 12 0 0 1 0 0 1 7 0 0 0 0 4 0 1 0 2 4 0 0 0 0 0 0 0 0 0 0 0 0 2 0 0 0 0 0 0 0 0 2 0 0 1 0 12 4 0 0 14 29 0 0 0 0 0 0 46 0 0 34 68 0 0 10 0 0 0 49 4 45 0 0 12 0 0 
0 5 0 5 14 14 11 7 0 0 2 0 6 6 0 0 9 0 3 1 0 0 0 3 9 1 1 6 1 4 6 0 0 0 0 0 0 0 4 2 1 0 0 2 2 1 0 0 0 0 0 0 4 7 7 3 2 0 0 3 0 0 0 0 0 0 3 0 0 0 2 0 0 0 1 0 3 5 1 0 0 11 70 16 0 0 0 0 109 55 0 0 1 0 6 8 0 0 0 68 20 61 4 0 0 9 0 0 0 0 13 9 0 0 8 0 0 24 0 0 0 2 0 29 4 0 9 4 0 0 0 0 4 6 0 45 19 0 26 27 0 0 1 0 5 0 0 8 30 0 0 0 19 1 0 10 0 0 0 0 0 0 2 0 0 0 0 0 5 7 0 0 41 3 0 0 0 2 0 2 0 1 0 0 0 0 14 31 39 24 0 0 6 0 0 1 0 0 2 1 2 0 0 0 3 1 0 2 0 0 6 0 0 3 6 0 2 0 0 0 2 0 0 0 0 3 1 0 0 0 9 0 5 8 0 0 3 5 4 22 0 0 0 5 0 5 6 4 6 3 2 0 0 3 17 0 1 3 0 8 11 10 5 0 0 0 2 11 0 0 4 0 7 19 18 0 0 15 26 0 7 12 0 0 63 32 0 0 6 42 21 9 55 0 35 69 19 0 0 0 
0 1 6 15 9 13 0 0 0 0 5 0 4 1 0 1 5 3 4 0 0 0 0 0 0 10 9 0 3 5 3 0 0 0 0 0 0 0 2 0 0 0 0 0 1 0 1 1 0 0 0 4 0 1 0 0 0 1 1 0 6 0 0 2 1 0 1 0 3 0 0 0 0 1 1 0 0 2 0 0 4 1 39 73 0 0 0 0 27 130 0 0 0 0 7 3 8 0 0 66 33 56 0 0 0 7 8 0 13 33 13 0 1 0 0 18 17 9 0 0 12 3 0 26 0 2 3 2 0 0 0 0 0 0 0 47 3 0 40 21 0 2 0 0 3 0 0 7 7 6 0 0 13 0 0 0 0 0 0 3 0 0 1 2 4 0 0 0 1 0 0 0 67 0 0 0 0 2 0 0 0 0 0 0 0 21 52 43 17 8 2 0 5 0 8 1 0 0 20 0 0 0 0 0 7 0 0 0 0 0 3 0 0 4 0 5 9 0 0 0 2 0 0 0 0 1 1 0 3 0 0 3 0 5 2 3 0 0 0 0 0 0 11 11 1 7 0 3 14 4 1 7 3 0 16 2 0 12 7 0 0 5 0 10 5 0 6 24 8 0 6 20 31 11 0 17 4 16 6 0 0 15 9 0 50 0 0 0 0 0 37 0 0 0 0 8 0 40 0 0 
0 12 11 0 0 0 0 0 0 0 1 0 0 0 6 2 0 0 0 0 0 0 0 0 5 0 0 0 4 5 1 0 1 2 2 0 0 0 2 0 2 0 3 1 0 3 0 0 2 0 6 2 0 0 0 1 1 2 2 3 0 0 0 1 2 0 3 0 2 0 1 1 0 3 0 0 0 1 1 0 0 0 16 55 3 0 0 0 0 138 0 0 0 0 0 1 0 0 0 57 39 41 21 0 0 0 5 11 4 0 0 0 0 0 0 29 20 13 0 0 7 14 0 22 21 0 16 5 0 0 0 13 5 0 24 23 0 18 13 0 0 2 24 3 0 0 8 13 0 0 0 0 5 0 1 0 0 0 0 3 2 1 0 3 1 0 0 0 0 0 0 19 50 0 0 0 0 2 0 2 0 0 0 0 0 84 27 0 7 0 0 4 3 0 9 9 6 4 1 0 10 6 4 0 5 0 0 4 0 0 2 3 8 3 0 0 5 1 0 1 0 2 4 0 3 2 1 2 3 0 0 12 0 9 8 0 0 0 0 0 9 8 0 0 0 0 1 0 0 0 0 15 6 0 0 24 0 0 3 0 0 0 0 17 8 0 10 0 0 0 7 15 12 0 0 0 0 4 0 23 20 0 0 0 10 0 0 38 34 0 0 19 0 20 0 0 0 0 24 0 
0 0 0 0 0 0 0 0 0 5 2 1 0 0 1 3 12 0 3 9 9 0 0 8 12 0 0 0 1 2 0 0 0 3 2 2 0 0 2 0 7 0 4 0 0 5 0 0 0 6 0 0 0 0 0 1 0 0 0 0 0 0 0 0 0 0 0 3 1 0 0 5 2 0 0 0 0 0 3 2 0 0 0 37 82 0 0 0 0 108 61 0 0 9 7 0 0 0 0 42 44 18 64 0 0 0 0 0 18 0 0 16 0 0 15 33 0 0 13 0 0 0 0 27 37 0 28 28 0 11 10 0 10 0 12 11 0 0 4 0 4 2 4 0 7 21 2 0 0 0 14 0 0 0 0 13 0 0 0 0 0 3 0 0 0 7 0 0 2 0 0 53 18 0 4 0 0 4 0 6 0 0 0 0 59 42 13 0 6 3 3 0 2 0 0 0 0 0 0 6 0 0 6 0 0 0 3 7 4 0 5 0 0 8 0 0 0 0 0 3 3 0 0 0 8 0 0 8 0 0 14 8 0 2 10 0 6 7 9 0 1 0 3 10 2 0 6 0 0 18 6 2 0 0 0 10 0 0 10 13 7 0 8 11 3 0 0 0 0 8 22 15 0 0 0 12 17 0 1 15 43 0 0 69 34 0 6 6 13 0 49 19 14 0 27 28 0 0 37 0 
0 0 0 0 0 0 0 0 0 1 0 0 0 11 0 0 7 0 0 0 6 0 0 1 5 3 0 0 8 5 7 0 1 5 2 1 0 0 3 0 4 0 6 0 0 3 0 0 0 4 6 0 3 0 1 3 1 0 0 2 1 0 1 0 0 0 2 5 5 1 0 3 0 0 0 0 0 0 3 2 0 0 0 6 53 33 0 0 0 53 110 0 0 3 0 0 4 0 0 34 51 17 59 0 0 0 12 0 0 0 0 10 0 0 0 27 19 6 0 8 1 0 0 29 0 0 16 0 0 5 7 0 0 24 46 47 0 0 7 26 9 0 0 0 14 5 0 0 0 0 3 4 0 0 0 5 0 0 0 4 4 6 0 0 0 0 1 0 0 0 0 44 0 0 0 2 2 0 0 0 0 0 0 46 35 13 0 0 4 0 1 2 5 0 1 0 2 0 3 10 0 0 4 0 1 10 3 0 0 6 7 1 0 0 0 7 3 2 0 0 10 5 0 0 1 0 0 4 0 0 11 9 3 0 0 0 0 0 0 2 4 0 13 0 0 0 1 1 5 0 0 7 0 2 0 1 0 0 14 0 0 0 10 3 13 12 4 20 15 19 14 0 1 20 0 12 5 5 33 18 36 0 0 12 21 0 0 13 0 23 33 0 10 30 0 0 0 0 0 0 
0 0 5 2 0 3 6 0 0 0 5 2 0 1 0 0 0 9 2 0 0 0 0 1 0 4 7 1 0 0 0 3 0 0 1 2 0 0 0 0 0 0 0 5 0 0 0 0 2 0 1 0 0 2 2 1 0 0 0 0 6 0 0 5 3 1 0 0 0 0 1 6 3 1 0 0 0 1 1 0 2 0 0 1 30 73 0 0 0 0 149 0 0 0 0 0 2 0 0 17 60 22 40 0 0 0 0 0 0 4 6 0 22 0 0 27 26 0 0 0 0 0 9 19 0 0 15 0 0 8 1 4 0 9 21 2 0 1 2 0 0 0 14 28 15 0 0 0 3 5 14 5 0 0 4 0 0 6 0 0 0 0 0 2 4 0 0 0 0 0 42 40 0 0 0 0 1 0 7 0 0 0 42 65 18 7 0 0 4 5 0 0 5 0 0 8 0 7 4 0 9 0 12 0 1 2 0 0 0 5 6 3 7 2 0 6 17 0 1 4 0 3 0 1 0 1 5 6 9 8 1 0 0 0 0 0 0 2 3 8 7 0 0 2 7 0 0 0 7 0 0 0 1 8 2 0 0 11 0 0 12 0 0 0 0 0 0 14 3 27 0 0 5 10 4 0 0 0 0 20 0 0 63 34 0 10 47 44 0 38 14 0 20 0 0 0 29 0 0 0 
0 0 0 0 3 0 9 0 0 0 6 1 0 0 0 11 8 4 0 6 0 0 0 1 0 0 5 0 0 3 0 7 1 0 4 2 0 0 2 5 1 0 0 6 0 0 1 0 0 0 0 0 0 2 0 0 0 1 4 0 0 0 4 2 1 1 0 0 0 0 2 1 0 3 2 0 0 2 0 0 2 0 0 0 2 64 26 0 0 0 120 51 0 0 1 1 0 1 0 0 62 32 17 59 15 0 0 6 0 4 12 5 16 0 0 10 5 11 0 0 0 19 5 6 26 8 2 16 3 0 0 9 6 5 31 0 3 16 0 0 0 0 9 0 0 0 0 0 0 5 0 3 0 1 0 0 11 7 0 0 0 0 0 2 1 1 0 0 0 0 53 3 0 0 3 0 1 0 0 0 0 54 62 7 2 9 0 0 0 7 5 0 3 1 0 0 3 4 2 0 0 1 0 0 0 0 0 5 0 0 0 0 6 0 0 2 0 0 0 8 0 6 0 0 1 4 0 1 12 0 0 0 5 12 4 11 7 6 9 0 0 0 0 19 0 0 13 10 6 0 3 0 0 1 0 0 0 6 5 3 19 0 2 0 2 4 0 18 0 24 3 4 0 0 49 24 0 23 0 15 0 0 25 8 0 0 14 44 0 0 2 0 0 0 30 49 0 0 0 0 
0 0 0 0 0 0 5 0 10 11 0 0 0 13 12 3 0 0 0 3 0 3 0 7 7 7 0 2 2 0 1 4 2 0 3 1 0 0 5 3 0 0 0 2 0 0 0 4 1 0 0 2 0 1 0 0 0 1 3 0 0 0 2 2 1 0 1 0 0 0 5 0 0 0 3 2 0 2 0 0 1 0 0 6 6 21 83 0 0 0 52 106 0 0 0 0 0 11 0 0 38 43 10 42 58 0 0 0 0 6 0 0 26 10 16 28 0 2 0 8 14 8 6 0 4 0 0 0 12 0 9 20 14 10 13 0 11 10 0 17 18 2 6 2 3 0 0 3 0 6 0 7 0 0 6 0 0 2 0 1 1 2 0 1 5 0 0 0 1 20 37 0 0 0 0 0 0 0 0 0 44 58 9 5 0 0 7 3 0 7 13 0 0 1 0 0 0 0 3 0 0 6 0 0 0 0 0 10 6 0 0 1 6 0 1 2 4 0 4 2 0 5 2 0 0 8 2 0 0 6 0 0 8 1 0 1 0 0 0 0 9 13 11 3 0 8 0 3 7 0 2 0 13 0 0 5 7 0 3 0 0 1 0 2 1 21 4 28 0 0 0 4 0 1 37 44 31 2 0 0 0 27 0 0 75 43 0 0 4 27 19 0 48 10 0 34 1 0 0 0 
0 0 0 1 1 0 5 0 0 3 0 0 0 14 11 4 5 0 7 0 0 8 0 0 3 1 5 2 1 0 0 0 0 0 0 2 1 0 0 0 0 0 3 0 0 0 0 6 0 0 2 2 1 0 0 0 0 0 1 1 2 0 0 0 0 0 2 1 0 0 1 0 0 0 0 0 1 2 0 0 0 1 2 0 0 12 51 0 0 0 0 162 0 0 0 18 14 0 0 0 0 62 19 3 66 0 0 0 1 0 0 10 0 9 0 0 14 0 0 0 21 7 14 9 0 0 0 14 0 0 13 0 1 34 19 0 5 0 14 16 5 0 0 0 0 0 6 0 0 4 0 5 0 3 2 2 0 0 0 6 1 2 0 1 5 0 0 0 63 45 0 0 0 0 0 4 0 0 0 56 59 27 1 0 0 0 3 8 5 8 0 0 6 5 0 6 0 0 3 0 11 6 0 2 4 9 0 0 6 0 0 0 0 0 0 0 0 0 5 0 0 12 8 0 0 6 7 0 10 0 0 0 0 0 4 5 7 3 4 0 21 2 0 1 0 5 1 0 10 0 0 0 17 15 7 1 8 0 6 0 0 6 0 1 0 18 29 0 0 0 16 40 26 47 0 0 0 9 10 0 32 109 0 0 2 0 0 0 44 26 0 0 0 0 11 6 6 0 0 0 
0 0 0 3 2 0 0 11 0 0 6 0 3 0 0 0 2 0 0 0 13 0 0 0 3 2 0 0 0 12 0 1 2 0 0 5 0 0 8 10 4 0 2 0 0 0 0 5 0 0 0 1 0 0 0 0 0 0 0 0 2 0 0 2 0 2 5 2 0 0 5 2 1 0 2 1 3 4 1 0 0 0 1 1 0 0 40 54 0 0 0 131 58 0 0 0 0 0 0 0 0 66 45 6 44 26 0 0 0 11 15 0 0 0 0 0 18 15 3 0 4 43 0 0 0 0 8 20 0 0 17 0 20 5 0 14 8 0 0 0 0 0 10 13 0 0 5 0 0 16 0 0 0 0 0 6 2 0 0 0 0 0 2 4 0 0 0 0 43 33 0 0 2 0 2 0 0 0 63 64 14 8 0 0 0 1 3 0 0 0 1 0 0 2 8 0 3 6 0 0 0 12 0 0 2 5 0 0 6 0 2 8 8 10 2 6 6 0 3 1 7 10 0 0 14 0 2 3 6 0 0 0 7 3 10 6 0 0 3 2 0 0 0 0 0 4 4 0 0 0 0 0 7 10 0 0 0 5 0 0 19 8 5 0 0 0 25 0 16 32 0 0 40 24 0 0 0 48 0 0 42 39 0 12 0 0 0 31 21 35 40 0 6 17 28 18 0 0 36 0 
0 0 0 1 8 7 0 7 0 0 0 0 0 0 0 0 0 1 3 8 7 0 0 7 3 2 0 1 4 8 0 2 3 0 0 0 2 0 4 1 0 0 2 0 0 2 4 0 2 2 1 0 0 0 0 0 0 0 0 0 2 3 0 3 0 0 0 0 2 0 0 0 0 0 1 7 0 1 0 0 0 0 1 1 0 3 6 39 73 0 0 32 115 0 0 0 0 0 10 0 0 0 52 20 21 38 0 0 0 5 11 0 4 0 0 11 0 7 7 0 12 1 0 0 0 14 16 0 0 9 36 18 30 0 0 0 0 0 1 0 0 5 6 0 0 0 2 2 0 6 0 0 1 1 1 0 0 0 0 8 2 0 0 0 6 0 0 0 0 15 0 0 1 0 0 0 0 69 54 9 9 2 1 1 2 6 14 2 1 1 0 4 0 0 4 1 6 0 0 4 0 1 0 8 0 0 3 4 0 2 1 0 0 0 2 3 10 4 0 6 0 0 0 0 9 0 5 4 0 4 6 2 0 11 7 5 0 0 7 0 0 0 13 0 0 0 5 8 0 0 0 0 14 8 0 0 0 6 0 4 5 5 8 4 7 14 32 4 0 5 11 0 0 0 0 65 70 0 0 0 46 0 0 32 8 12 47 13 0 0 0 0 15 3 34 28 0 14 18 0 
0 0 2 4 0 1 0 6 1 0 0 0 14 7 9 1 7 0 5 7 0 0 0 0 0 0 4 0 0 0 0 2 0 4 0 1 1 0 2 0 2 0 1 3 0 5 0 0 0 0 0 0 0 0 0 0 0 0 0 0 0 0 0 0 0 1 0 4 0 0 0 0 0 0 3 0 2 0 0 0 0 0 0 0 0 3 3 6 56 25 0 0 131 6 0 0 13 8 0 0 0 0 33 45 11 59 11 0 0 1 16 0 1 0 20 14 6 0 1 22 8 6 31 9 0 5 0 0 0 12 10 43 0 0 0 0 0 2 6 0 0 0 0 3 1 0 5 0 0 4 0 0 0 1 1 0 2 0 1 0 1 0 0 4 0 0 1 0 26 0 0 2 0 0 0 0 109 55 2 0 6 0 3 0 4 4 0 0 0 4 3 14 0 0 15 3 0 7 4 13 0 0 0 2 8 0 0 0 0 0 3 0 0 0 0 2 2 2 0 2 0 1 0 0 6 0 4 0 0 6 10 8 0 0 0 0 6 2 2 0 0 18 14 11 2 11 0 10 6 0 0 0 0 0 0 0 0 0 0 16 0 0 0 23 28 0 0 3 0 0 5 0 0 0 14 0 0 0 0 0 15 0 0 15 28 0 5 10 0 5 14 0 0 0 5 0 0 63 0 0 
0 0 5 5 0 3 0 7 0 12 3 0 1 0 0 6 0 0 4 0 0 0 8 7 9 2 2 2 0 0 0 2 5 4 2 2 0 0 3 1 2 0 1 0 0 3 0 0 0 0 0 0 0 0 0 0 0 0 0 0 0 0 0 0 0 0 0 0 5 0 0 2 0 0 0 1 2 0 0 0 0 0 3 6 0 1 0 7 43 37 0 0 110 75 0 0 0 0 0 0 0 0 0 69 17 30 38 0 0 8 0 0 0 0 3 13 12 15 0 0 0 7 0 0 0 0 4 0 4 33 25 22 0 0 0 0 1 11 0 0 0 0 0 8 3 0 3 0 0 3 0 0 1 4 0 1 0 11 0 0 0 9 4 0 2 10 0 6 36 0 0 0 0 0 0 85 44 4 8 1 0 0 0 5 0 0 6 6 1 1 6 10 9 0 0 7 7 0 0 2 1 0 0 8 0 0 0 0 0 0 3 0 0 4 0 0 0 0 8 0 0 2 0 0 12 13 0 0 12 10 7 0 0 2 2 0 6 1 2 0 7 0 0 0 0 8 0 4 2 0 5 19 0 10 0 9 0 13 14 0 0 14 31 39 25 0 0 19 12 0 25 72 0 0 25 15 6 0 1 52 25 0 0 55 45 0 0 39 21 7 0 0 9 0 0 0 9 0 0 0 
0 0 0 0 0 4 4 0 0 4 0 0 5 1 0 3 0 5 10 0 0 0 0 0 4 0 4 6 0 5 7 5 6 0 0 2 0 0 3 0 2 0 0 0 0 0 0 0 0 0 0 0 0 0 0 0 0 0 0 0 0 0 0 0 0 0 0 0 2 6 5 1 0 0 0 1 3 5 2 0 1 0 4 9 3 0 0 0 12 51 0 0 8 125 0 0 0 1 0 4 0 0 0 67 36 17 49 28 0 0 15 0 20 9 0 7 26 17 0 2 15 1 6 0 1 6 0 0 11 40 16 0 0 0 0 0 0 4 0 0 0 0 0 0 11 1 0 3 7 0 0 0 0 1 0 0 0 0 0 8 0 0 0 0 0 0 0 34 12 0 0 0 0 30 101 34 11 6 4 0 0 10 7 0 0 0 0 7 0 0 2 4 0 2 0 7 0 0 0 0 0 0 6 3 0 0 0 0 0 0 3 0 0 3 1 7 0 0 8 3 0 0 0 5 12 0 0 6 0 0 5 0 14 11 0 0 0 9 16 2 7 0 0 0 0 9 4 0 6 0 0 0 0 10 0 0 3 13 0 7 0 11 23 15 0 0 0 10 0 0 0 13 2 10 19 0 0 15 0 0 0 0 1 13 8 0 0 31 31 7 9 0 7 0 0 49 54 17 0 0 
0 0 8 7 0 9 13 0 6 0 0 11 0 0 2 1 1 0 0 0 3 1 18 0 0 0 0 6 5 4 10 0 0 0 0 2 0 0 2 4 2 0 0 6 6 3 0 3 0 0 0 0 0 0 0 0 0 0 0 0 0 0 0 0 0 0 0 1 0 0 0 0 1 0 1 4 0 0 0 4 3 0 0 0 0 0 0 0 0 33 70 0 0 107 72 0 0 4 0 6 4 0 0 17 50 19 28 57 0 0 9 0 11 0 0 36 18 0 0 0 13 12 7 0 1 13 0 14 29 35 0 0 2 5 0 0 0 0 0 0 3 2 0 0 8 2 0 0 0 1 0 3 9 0 0 0 0 1 0 0 0 0 6 2 0 0 10 27 0 0 0 0 27 107 30 0 0 18 13 0 0 5 5 0 0 4 0 0 0 0 6 8 0 0 0 7 0 0 2 0 0 2 3 0 0 2 0 0 0 0 4 0 0 2 0 6 0 0 4 0 5 2 8 15 0 0 4 8 0 0 5 14 0 0 2 0 0 11 7 0 0 0 0 0 0 0 0 0 12 13 4 5 0 10 0 14 6 4 0 3 18 41 0 0 0 0 13 3 60 0 0 18 1 0 14 0 0 0 0 26 0 10 32 0 0 0 8 0 0 0 0 9 6 0 36 45 0 0 19 0 
0 0 5 2 0 3 1 0 13 0 0 6 0 3 9 0 0 1 0 0 16 4 0 0 0 0 0 0 0 7 6 0 0 4 7 0 2 0 1 3 0 0 1 2 1 2 0 1 2 0 0 0 0 0 0 0 0 0 0 0 0 3 3 0 0 0 0 0 1 0 0 2 1 1 0 0 0 0 1 0 0 4 4 0 0 5 2 2 1 0 39 38 0 0 115 3 0 0 0 0 7 0 0 0 54 50 20 49 7 0 0 14 6 0 41 0 0 21 25 0 0 0 10 0 0 14 11 16 23 7 0 0 5 0 3 5 5 0 0 3 0 0 0 0 4 8 1 0 5 0 0 0 1 0 0 0 0 4 0 5 2 0 0 6 7 0 31 0 0 0 0 60 68 22 19 0 1 0 0 0 0 9 2 4 0 3 0 9 7 2 0 2 8 9 0 1 4 1 2 0 2 0 0 1 0 4 0 0 0 0 0 0 0 1 0 2 0 8 5 0 0 8 5 0 0 7 15 11 0 0 11 10 1 5 13 0 0 0 0 0 0 8 0 4 8 3 0 0 0 0 16 6 0 0 6 6 2 18 0 16 33 14 9 20 8 0 0 5 28 0 0 0 40 0 0 9 4 0 16 85 0 0 6 4 0 0 18 11 21 0 0 0 15 49 0 0 34 19 0 0 
0 0 6 8 0 0 0 0 0 0 2 4 0 22 0 0 9 0 4 0 6 17 0 0 0 1 8 0 0 9 0 0 1 6 3 0 3 2 0 9 0 0 0 0 0 5 0 1 1 0 0 0 0 0 0 0 0 0 0 0 2 4 4 1 0 0 0 0 0 0 0 4 2 0 0 0 2 0 0 0 0 2 2 4 0 0 0 0 0 0 8 47 0 0 68 69 0 0 19 0 0 5 0 0 12 65 22 25 44 9 0 0 3 0 23 29 0 0 23 18 0 0 0 0 0 0 0 37 36 0 0 0 2 0 3 0 4 1 0 6 1 2 1 0 0 3 2 0 0 3 0 3 1 0 2 0 0 3 0 0 1 2 0 3 0 0 30 0 0 0 89 71 13 6 0 4 0 0 0 14 0 9 1 0 3 10 0 0 0 1 3 2 0 2 12 0 0 5 1 0 5 0 0 0 0 1 0 0 0 2 1 1 3 0 0 5 0 6 0 0 0 6 3 0 9 12 0 4 7 8 0 0 0 8 0 4 0 0 0 0 3 16 5 0 8 0 14 9 0 1 1 0 3 0 20 3 0 0 1 33 0 0 9 0 0 7 23 0 0 0 42 0 0 0 5 0 0 49 5 0 0 37 0 0 0 0 3 2 0 0 0 0 0 25 0 0 0 8 0 0 
0 0 4 16 0 0 0 26 0 0 3 7 3 1 0 0 15 6 13 6 0 0 0 13 5 9 14 0 0 0 0 0 0 0 0 2 0 5 0 4 1 0 0 0 0 1 0 1 2 0 0 0 0 0 0 0 0 0 0 0 0 3 2 3 0 0 0 0 0 0 0 3 3 2 0 0 4 2 2 0 2 1 1 1 0 0 0 0 1 0 0 17 50 0 0 87 42 0 0 2 0 0 0 0 0 50 51 10 33 72 0 0 12 2 19 0 1 0 0 0 0 17 0 0 12 0 4 48 0 0 0 0 1 0 0 0 3 7 3 8 6 4 1 10 2 5 0 0 4 0 3 8 8 0 2 0 0 1 0 0 0 8 0 0 7 20 0 0 26 79 42 8 0 0 0 0 0 2 6 4 0 4 1 0 0 0 1 7 1 6 0 7 0 2 12 0 0 11 0 0 4 0 0 0 3 3 0 0 0 1 2 6 3 0 0 1 0 6 0 6 10 6 0 10 1 19 0 0 0 0 3 13 0 2 0 17 18 17 15 2 0 0 0 0 0 0 2 14 6 9 5 0 9 2 3 1 0 15 15 0 0 0 0 0 0 0 0 0 0 0 29 0 26 0 9 54 1 21 4 0 0 21 4 0 16 53 0 0 29 0 0 0 23 28 0 25 18 0 11 0 
0 0 16 0 0 4 4 16 22 5 0 0 0 10 0 0 3 18 0 0 17 9 1 2 0 4 0 0 9 2 0 0 5 0 1 0 0 8 0 0 1 0 0 0 0 2 0 2 0 0 0 0 0 0 0 0 0 0 0 0 0 0 0 0 0 0 0 0 0 0 0 0 0 9 4 9 3 0 1 1 5 1 1 1 0 0 0 0 4 7 7 0 31 0 0 40 39 0 0 0 3 0 0 0 0 16 73 29 4 66 0 0 3 1 18 0 2 0 9 0 0 0 2 0 0 0 51 33 0 0 1 3 0 0 0 0 0 0 0 0 3 0 0 15 0 0 1 3 0 0 0 1 0 0 7 1 0 6 4 0 0 4 0 1 0 0 0 53 93 36 4 0 0 0 3 0 1 7 2 0 0 0 2 2 1 5 3 2 4 0 0 2 1 1 0 0 5 0 0 2 0 0 1 0 3 1 0 0 0 0 1 0 0 6 0 0 0 0 2 7 8 0 0 10 0 18 0 0 6 5 5 0 0 17 0 0 0 0 5 0 0 10 8 2 0 0 0 0 0 0 0 4 1 0 0 0 17 3 10 11 11 0 17 27 44 2 0 0 0 0 0 9 15 0 0 0 28 69 0 15 20 23 13 1 0 15 83 4 7 20 45 0 27 0 0 0 3 0 0 0 
0 0 5 0 3 5 0 0 8 3 0 2 0 0 8 0 0 0 0 0 0 8 0 0 11 7 1 3 11 5 0 0 1 0 1 5 6 0 0 0 0 0 0 0 0 0 0 0 0 0 0 0 0 2 0 1 1 2 0 2 1 0 0 0 0 0 0 1 2 0 1 0 1 3 0 6 0 0 0 0 0 7 2 1 0 2 0 0 0 0 0 5 11 26 0 0 41 62 0 0 6 0 4 6 0 0 33 66 13 30 77 0 0 0 10 0 10 38 13 0 19 4 0 5 0 42 25 0 0 0 0 4 4 3 0 0 0 0 8 0 0 5 9 0 0 3 1 5 2 0 1 1 0 0 4 2 0 6 0 3 0 0 0 0 0 0 55 68 12 12 1 0 8 6 0 0 0 6 3 0 1 5 1 0 0 3 0 1 6 0 0 2 0 0 0 0 4 10 0 11 2 0 0 5 2 1 0 0 2 2 0 0 3 0 2 2 2 13 0 0 0 0 0 0 8 7 0 15 18 22 8 0 0 14 0 0 0 0 2 2 2 11 2 0 5 10 0 3 13 0 0 2 15 0 0 0 12 14 6 0 40 0 0 0 16 0 31 11 24 43 36 9 0 0 81 0 0 84 2 14 0 0 45 0 0 0 45 16 0 0 6 0 0 43 47 13 0 7 0 0 
0 0 3 8 1 0 0 0 0 15 8 6 2 0 13 0 0 0 4 0 0 10 0 0 10 0 0 0 6 4 0 0 0 0 6 5 0 0 3 0 0 0 0 2 3 0 1 3 0 0 0 0 3 3 9 3 0 2 0 1 2 1 0 0 0 0 0 3 0 0 1 0 2 3 0 0 1 6 0 0 1 1 5 6 0 3 1 0 0 1 0 5 0 6 16 0 0 37 59 4 0 0 0 0 0 0 0 50 44 13 45 24 0 0 0 0 14 0 15 0 0 0 0 14 23 67 0 0 0 3 3 0 0 2 2 1 0 0 2 0 0 0 0 2 2 5 3 0 0 6 2 2 0 0 2 3 0 0 0 0 3 0 0 0 31 85 50 0 0 0 6 0 0 0 2 0 3 0 0 0 0 6 0 0 0 0 0 10 0 0 0 10 3 0 0 0 0 1 0 4 0 0 0 0 2 3 0 0 0 1 1 1 5 1 1 2 7 0 5 0 6 7 12 1 9 0 2 13 0 17 11 2 0 17 5 0 6 14 5 2 0 2 4 0 1 10 3 0 6 4 12 0 0 3 11 18 33 0 0 0 18 0 38 15 42 12 0 11 28 30 0 0 0 0 0 0 25 0 3 0 0 0 18 25 4 17 5 0 23 3 0 0 3 4 17 0 0 40 2 0 
0 0 0 0 10 4 14 4 0 11 0 0 2 0 0 3 13 12 0 7 11 8 4 0 0 0 9 10 2 1 0 0 7 0 1 0 0 0 4 0 0 0 0 3 7 0 1 4 0 0 0 0 2 0 0 0 7 0 0 0 6 0 0 0 0 0 0 7 2 0 0 0 0 5 2 0 1 0 2 0 0 0 1 0 0 6 0 0 0 0 0 0 0 2 5 5 0 0 35 28 0 0 2 0 0 0 0 0 70 26 25 54 38 0 0 0 0 0 0 8 1 0 0 49 74 4 0 0 0 6 7 0 0 0 0 5 10 0 0 0 0 0 5 0 4 4 4 0 0 6 1 0 0 3 0 0 3 0 0 2 0 0 0 36 67 35 11 3 9 10 0 0 0 2 2 3 2 0 0 0 0 8 0 0 4 0 0 3 0 2 3 3 6 2 3 6 0 0 0 0 0 6 0 0 0 0 0 0 5 3 0 1 0 1 1 1 2 0 0 5 7 8 0 6 19 10 0 0 0 0 0 0 0 6 2 0 3 0 0 5 0 0 0 0 0 18 0 0 13 0 8 0 0 0 16 7 0 0 12 0 0 3 0 5 0 0 0 10 0 0 21 25 28 0 0 27 84 0 46 52 0 10 6 44 0 0 0 0 0 0 31 13 0 11 8 0 0 17 5 0 
0 0 7 0 18 4 0 0 0 0 14 0 4 0 0 13 0 0 1 0 0 0 0 0 9 2 0 11 10 0 0 0 16 0 5 2 2 6 3 2 0 0 0 1 6 0 0 3 0 0 0 2 3 0 0 0 4 1 0 1 1 0 0 3 2 0 0 2 2 0 1 0 2 4 7 3 0 0 4 3 0 6 0 0 2 4 0 0 0 0 0 0 0 0 1 12 2 2 10 44 35 0 0 3 0 18 0 0 21 47 22 20 45 18 0 0 0 0 0 0 0 0 35 92 0 0 0 4 4 0 10 0 0 1 0 3 6 0 7 0 1 3 10 1 0 0 0 1 2 5 0 0 0 2 5 0 0 2 5 0 0 0 50 57 23 8 1 0 0 0 1 0 3 10 8 0 0 1 3 6 6 2 0 0 2 7 5 1 0 8 9 0 0 0 11 14 1 0 1 2 4 4 1 0 4 0 2 0 5 3 0 0 0 0 1 1 0 0 9 4 0 0 0 1 0 8 0 0 19 10 13 0 4 8 1 12 1 0 4 9 0 0 0 0 10 0 0 0 0 0 0 0 0 0 25 14 14 0 0 0 0 24 0 7 0 0 43 29 0 0 0 12 0 0 16 69 36 0 0 39 0 0 10 0 0 53 40 0 0 0 75 17 15 0 5 0 0 12 0 0 
0 0 4 0 0 0 0 0 4 0 0 16 8 0 0 0 0 4 13 0 12 0 0 2 3 0 0 7 21 0 0 0 0 0 0 0 3 0 0 1 1 0 0 0 0 1 1 3 0 0 2 0 0 9 10 6 0 12 2 0 2 5 0 0 2 6 0 0 4 0 4 6 5 0 0 2 0 5 3 0 0 2 0 0 2 3 1 2 2 2 2 2 2 1 0 3 1 0 0 18 49 44 0 0 0 1 0 0 0 36 59 22 25 39 35 35 37 0 0 0 0 57 97 0 0 0 2 3 1 0 7 0 0 0 8 0 0 0 8 0 0 0 0 0 9 0 0 4 0 0 1 2 0 0 1 0 0 0 0 0 0 95 34 16 3 0 4 0 5 1 2 0 0 3 0 0 1 2 0 1 0 2 4 1 2 0 0 7 0 0 3 0 4 0 6 9 9 0 3 3 0 0 8 1 0 0 6 0 0 0 0 2 0 0 9 0 0 0 8 10 7 0 8 11 0 0 6 14 1 0 1 14 7 7 1 9 9 11 5 0 0 13 7 5 8 0 10 15 0 0 0 5 35 28 0 10 10 16 0 57 11 16 0 0 0 13 20 14 0 0 20 4 0 12 42 24 17 0 0 0 0 2 0 11 3 0 0 25 36 13 0 0 12 0 13 37 4 0 0 0 
0 0 2 0 0 2 13 0 19 7 0 0 16 0 17 11 3 0 0 6 0 0 0 8 0 0 10 0 6 17 1 2 0 0 5 0 3 0 3 5 1 1 1 0 0 0 4 5 0 0 0 0 0 0 1 0 0 2 0 0 0 5 6 0 1 6 0 0 6 0 0 0 0 0 0 3 5 0 0 0 0 0 0 0 2 3 0 0 0 0 0 0 0 0 0 0 5 4 0 1 13 56 30 0 0 0 0 0 0 0 29 60 49 33 28 42 51 55 78 94 113 87 0 0 0 4 7 0 0 7 0 3 0 0 8 3 1 0 0 0 0 0 0 6 1 2 0 4 0 2 2 0 0 0 0 3 0 0 0 35 77 51 0 15 0 0 3 0 6 0 8 2 0 8 4 7 3 0 2 0 0 3 3 2 1 0 0 0 7 0 2 3 13 0 0 0 4 0 5 0 0 7 0 1 0 8 5 0 0 3 7 11 10 0 0 5 4 0 0 0 0 0 6 8 9 3 3 0 10 0 0 0 0 0 0 2 0 0 0 0 0 9 4 0 1 6 14 2 1 9 11 0 23 7 0 0 0 47 0 11 0 0 12 0 0 36 51 5 0 0 11 0 0 0 8 89 56 0 0 0 0 0 3 25 45 0 0 44 56 0 0 18 37 16 0 0 0 27 1 0 
0 0 7 0 0 12 21 9 0 0 0 0 13 3 0 0 0 0 0 12 0 10 22 0 12 0 18 1 0 0 0 13 7 0 16 0 0 0 0 1 5 0 0 3 1 1 1 0 2 3 0 0 0 0 0 0 0 0 6 9 5 0 3 0 0 0 1 0 0 0 7 0 0 0 0 0 0 0 0 3 0 0 1 1 0 5 4 0 0 0 0 0 0 0 0 0 5 1 2 0 4 24 68 0 0 0 0 21 0 0 0 0 45 69 70 71 66 89 85 52 25 0 0 0 8 0 0 4 1 4 0 0 0 2 0 0 11 3 0 1 0 0 0 0 0 1 3 0 0 0 0 1 0 0 0 0 0 0 70 78 10 9 0 0 0 4 0 1 3 1 0 0 0 4 0 0 0 4 4 7 0 3 0 0 0 0 7 5 2 0 7 3 4 0 0 0 0 0 2 5 0 0 0 0 0 5 3 0 0 4 7 6 9 9 0 0 0 1 3 5 0 0 7 0 0 15 0 1 0 0 0 1 6 6 0 0 0 7 0 8 13 0 4 12 0 0 7 0 0 2 12 16 11 0 0 2 19 0 0 0 0 22 0 0 0 0 17 0 0 0 23 41 29 7 12 0 0 25 32 8 10 0 0 0 48 1 0 8 17 0 18 12 11 33 0 0 19 8 0 0 
0 0 4 12 0 0 0 0 0 7 16 6 0 0 11 9 10 10 10 0 0 0 13 0 1 0 5 14 0 2 0 0 0 0 8 0 0 3 0 3 5 0 1 0 0 0 0 0 4 2 2 0 0 0 0 1 3 0 0 0 0 0 0 3 0 3 0 0 0 1 1 5 0 0 1 1 6 9 4 0 2 0 1 5 0 4 1 0 0 0 0 0 0 0 0 0 5 0 0 0 2 3 44 41 0 0 0 11 12 0 0 0 0 0 5 0 0 0 0 0 0 0 0 0 0 4 0 0 10 4 7 0 11 14 2 0 0 2 0 0 0 1 0 0 1 0 2 1 0 0 0 6 0 0 0 0 0 74 45 26 0 1 0 2 1 0 0 5 1 3 0 0 1 0 0 0 0 4 5 4 0 0 0 0 0 0 5 6 0 1 2 4 0 5 0 4 21 11 0 9 7 3 1 0 0 3 9 0 0 0 0 11 0 0 0 5 0 5 6 0 2 2 0 0 18 0 0 9 0 5 0 0 7 0 4 13 0 19 0 3 6 0 0 0 1 2 5 3 0 2 29 22 0 0 0 42 0 0 29 0 31 52 0 0 0 0 0 0 13 29 14 0 0 66 24 0 20 12 0 0 44 13 1 28 51 15 15 0 27 0 7 0 0 0 11 43 16 0 0 0 
0 0 0 0 0 0 0 0 0 2 13 0 0 0 0 4 0 2 0 0 0 5 7 0 0 0 0 19 18 0 0 12 13 6 8 1 8 2 0 6 7 0 1 0 0 0 1 0 1 0 2 3 3 3 4 3 0 0 1 0 0 0 0 4 1 4 0 0 0 0 3 0 0 1 9 3 0 0 0 2 1 0 3 3 0 2 6 2 2 1 2 0 1 1 0 1 2 1 0 0 0 0 3 50 25 0 0 6 32 0 3 0 0 0 0 0 0 0 0 0 0 9 0 0 0 0 2 0 5 7 0 0 6 0 4 0 0 0 0 0 0 0 1 4 2 0 4 6 1 0 0 0 0 0 0 40 72 41 2 0 0 6 0 3 5 0 0 0 11 0 0 8 1 0 0 0 0 0 0 0 2 2 1 2 0 2 0 0 0 7 0 0 0 0 0 0 14 1 0 0 0 0 0 11 0 9 17 1 0 1 5 0 0 0 5 5 0 6 3 0 0 0 6 16 11 0 0 6 9 8 2 2 17 7 3 12 13 0 0 0 0 0 0 6 0 0 3 0 0 11 18 0 0 29 0 29 23 21 33 0 0 0 0 32 36 49 17 23 1 0 38 0 22 52 0 0 1 0 0 49 0 0 0 0 0 31 0 4 12 0 8 14 0 0 9 6 0 0 0 0 
0 2 2 0 4 2 9 11 17 3 0 0 6 8 3 0 0 17 0 0 4 10 2 3 0 0 15 3 0 0 0 6 2 0 1 0 2 0 0 0 0 0 0 0 3 4 0 0 9 0 0 1 0 0 1 1 0 0 5 3 4 1 0 6 0 0 0 1 0 4 5 2 1 3 0 1 0 1 1 0 0 0 2 3 0 0 6 6 5 0 0 0 4 2 1 0 1 2 2 0 0 4 3 21 59 12 0 0 0 0 7 0 0 0 0 0 0 0 0 1 0 3 0 4 2 2 0 0 3 4 0 3 0 0 6 5 0 3 0 0 0 9 3 0 0 0 0 4 0 0 0 0 0 0 50 72 27 3 8 0 8 0 1 2 0 8 17 0 0 0 0 2 5 0 4 4 6 0 0 0 5 0 0 0 7 5 0 0 1 4 0 2 2 0 5 0 5 0 0 0 0 7 6 9 6 0 1 0 5 14 0 0 0 11 5 6 6 5 0 0 4 0 6 6 0 0 3 0 4 0 7 0 18 0 6 4 2 0 0 6 6 6 3 9 3 4 0 3 12 4 11 0 12 34 0 0 0 0 0 0 12 0 0 37 43 0 0 0 76 15 0 0 28 67 23 0 0 0 0 29 0 0 0 0 0 11 12 107 0 0 80 0 2 20 15 0 0 13 5 0 
0 0 0 1 0 0 2 17 3 0 0 5 0 9 6 0 0 3 1 0 0 7 0 0 0 23 5 1 0 3 0 23 0 0 0 0 0 0 0 0 1 9 4 0 1 1 0 0 8 0 0 1 0 0 1 0 0 0 0 2 9 0 0 2 3 0 0 0 0 0 3 0 0 0 0 0 2 1 5 12 0 4 0 2 0 4 0 3 1 0 0 0 4 1 0 0 0 0 3 0 0 2 0 3 28 35 14 0 0 0 0 20 14 0 0 37 13 0 2 0 0 6 1 0 4 1 0 0 0 0 0 11 2 0 1 0 0 5 0 1 0 12 8 9 0 0 0 0 0 0 0 0 12 75 52 0 0 0 6 1 0 0 1 0 0 0 0 0 0 11 11 0 2 0 3 1 1 1 1 3 0 1 0 0 2 8 8 9 6 0 10 11 3 0 9 4 7 0 0 1 8 13 0 0 0 0 0 0 7 3 0 0 0 7 9 1 0 2 2 4 0 0 0 0 4 0 3 6 6 0 0 0 0 0 0 0 0 4 10 0 2 0 0 0 0 0 0 20 13 0 3 0 11 12 23 0 0 15 18 1 0 0 35 0 4 0 51 0 24 2 0 2 19 0 0 24 43 0 21 9 0 63 20 0 27 0 0 48 37 0 0 0 0 0 37 30 0 12 10 0 
0 0 0 7 7 3 0 0 0 0 0 10 0 0 6 16 9 12 12 5 0 3 0 0 0 18 0 0 0 6 22 0 0 0 0 0 0 11 1 0 2 6 3 0 0 2 4 0 4 0 0 2 0 0 0 2 0 4 0 2 8 0 0 4 2 0 0 0 0 2 3 2 3 1 0 3 1 3 5 0 2 0 3 0 0 0 0 1 4 1 7 0 0 4 1 0 3 0 2 0 0 2 0 3 7 16 52 0 0 0 2 0 27 23 0 21 0 0 0 0 0 0 2 0 0 2 0 0 0 0 0 1 0 0 0 0 0 14 18 0 0 11 0 0 0 3 0 2 0 0 8 78 59 28 9 9 3 1 2 3 0 0 9 3 0 5 8 0 1 0 4 3 0 0 1 1 0 1 4 2 0 9 0 0 6 0 0 5 0 0 0 0 0 0 0 0 14 0 4 0 0 0 2 4 0 1 11 15 0 0 0 7 13 0 1 1 5 1 2 7 7 0 0 0 7 12 2 4 0 0 10 6 9 0 3 9 0 0 12 0 0 0 6 12 2 0 12 45 1 2 0 0 14 52 54 0 0 43 43 0 0 0 0 7 0 0 0 0 3 70 0 10 42 0 0 0 61 0 0 1 28 0 0 0 39 11 0 3 35 0 6 11 15 0 2 0 7 0 0 0 
0 0 0 11 1 2 0 0 7 0 0 4 9 5 0 0 0 16 9 0 0 0 11 0 10 0 4 5 0 0 10 0 0 0 3 0 3 9 0 0 0 5 0 1 0 1 4 1 2 0 0 3 0 0 0 0 1 2 0 0 1 0 0 0 0 3 7 9 0 6 0 2 6 2 0 3 0 0 0 0 1 0 0 0 0 0 3 0 3 2 6 3 0 0 0 2 0 0 0 0 0 2 0 4 0 5 39 29 0 0 0 0 0 0 0 17 8 2 0 30 10 0 5 7 0 7 7 0 0 1 16 0 0 0 7 12 0 0 5 0 0 0 0 0 0 0 0 0 0 10 81 45 4 0 11 0 0 5 1 0 3 0 0 9 0 0 3 6 3 0 4 0 0 0 4 0 0 0 1 4 0 7 0 0 9 0 0 8 0 7 9 0 6 3 0 0 3 0 2 1 0 0 0 0 6 3 0 0 0 8 0 0 8 0 0 4 13 2 0 0 6 0 0 3 7 0 0 21 1 0 14 0 1 2 14 9 3 0 6 5 0 10 9 0 0 11 10 7 0 11 3 40 0 0 0 19 0 28 37 0 0 0 33 14 1 0 0 0 49 31 0 44 41 19 43 15 12 0 11 0 0 0 33 29 18 0 21 0 0 10 0 24 0 5 2 0 10 0 0 0 
0 0 14 18 0 0 0 9 6 0 11 0 0 1 2 0 4 8 0 0 12 12 9 0 19 10 4 0 3 0 0 0 5 26 17 5 9 5 2 1 4 3 0 0 0 0 9 5 4 0 0 6 3 3 3 3 3 4 0 2 6 0 0 0 0 0 0 0 0 7 0 0 0 0 1 4 0 0 0 1 2 0 0 2 2 5 4 0 0 1 2 3 0 2 0 1 0 0 0 0 0 2 0 2 1 0 7 55 50 0 0 2 0 9 25 0 0 0 0 47 82 3 0 7 2 0 12 16 0 24 42 0 8 0 10 5 0 8 0 4 7 0 0 0 4 0 0 0 39 86 25 1 0 0 0 0 0 0 0 0 3 0 0 4 0 0 6 2 0 0 2 0 0 0 1 3 2 5 3 1 0 6 3 0 0 0 0 1 1 1 0 0 8 8 3 0 0 0 0 2 4 3 5 0 3 10 0 0 10 16 1 0 9 10 7 0 9 0 0 0 0 0 0 6 0 0 0 0 0 0 0 0 0 23 14 0 2 6 0 16 5 5 0 11 15 25 0 0 6 7 0 5 0 21 0 0 0 12 0 0 21 0 31 0 1 48 0 0 45 0 5 22 0 0 0 56 27 0 13 50 0 0 0 44 20 0 0 0 9 34 0 21 28 4 0 0 20 2 0 0 
0 0 0 5 4 0 0 10 12 1 0 0 1 7 4 2 17 0 0 9 20 0 0 0 18 0 0 0 0 0 0 8 20 7 3 2 6 0 0 0 2 3 0 0 4 3 0 0 6 6 2 0 0 0 0 0 0 0 0 0 0 7 0 1 0 0 0 1 1 0 0 0 0 0 0 7 3 0 2 0 2 0 0 2 1 4 0 0 0 8 0 1 4 4 1 0 1 2 2 2 2 0 0 5 5 0 0 9 51 0 0 0 0 0 30 0 0 0 0 0 0 0 0 0 0 0 8 7 0 34 0 0 20 6 19 0 0 19 2 0 0 0 0 0 0 0 14 69 61 14 5 3 0 0 2 6 1 0 15 8 2 0 0 0 2 0 0 0 0 0 1 7 7 7 6 0 0 3 0 0 0 0 0 2 0 0 1 0 1 2 0 0 6 0 1 9 5 5 0 0 0 5 3 8 0 0 0 2 16 0 0 2 0 3 3 0 0 5 6 0 9 9 3 12 7 19 0 0 4 10 8 0 0 0 2 0 3 3 0 0 4 6 0 7 23 25 0 0 0 0 2 0 0 15 5 45 34 0 0 12 0 21 57 39 0 0 14 45 0 0 37 23 0 0 0 11 29 0 0 32 26 0 0 0 0 0 14 17 5 0 0 0 18 0 0 28 0 0 0 0 
0 0 14 0 0 0 0 10 12 2 0 0 0 3 0 0 13 0 0 1 9 0 0 22 6 0 0 0 0 18 25 10 7 2 0 0 5 0 0 0 3 5 0 0 4 3 0 0 0 0 3 0 0 0 0 0 0 0 0 0 0 8 0 2 1 1 1 2 3 0 1 1 0 0 3 5 4 0 0 2 3 0 0 8 8 0 0 6 0 0 0 4 5 0 0 0 0 0 0 0 0 0 0 4 5 0 0 0 7 62 19 1 0 0 5 25 0 0 0 0 13 0 22 6 0 0 0 0 0 0 0 12 0 0 5 12 0 11 1 0 0 0 0 0 0 8 102 38 8 5 0 0 7 9 0 0 0 2 4 0 0 5 0 0 3 0 0 3 2 0 0 5 0 0 0 0 0 0 0 2 0 0 0 0 0 0 0 0 1 7 0 0 8 0 0 3 5 4 0 0 0 15 0 0 2 1 0 0 0 0 2 13 3 2 3 0 0 0 17 7 1 9 0 0 0 2 0 0 6 6 8 3 5 0 0 0 6 7 3 2 0 14 0 17 36 0 28 19 3 0 0 34 43 0 0 37 13 11 7 0 0 0 0 0 0 0 18 73 0 0 24 35 0 0 9 12 26 8 0 31 0 0 30 0 0 15 26 0 0 4 14 0 0 0 0 19 0 0 0 0 
0 0 11 10 0 0 2 2 8 0 0 8 0 4 1 0 0 0 0 3 0 0 0 0 6 0 0 3 13 19 13 5 0 0 0 0 6 1 0 0 2 3 0 0 7 3 0 0 1 0 0 1 0 0 0 0 0 0 0 0 0 3 1 0 2 2 1 0 6 1 5 1 0 0 0 6 0 0 0 0 0 0 0 1 0 6 3 2 0 0 0 0 0 1 10 0 0 0 0 0 0 0 0 6 1 0 3 1 2 16 70 0 0 18 0 0 10 0 0 0 0 0 0 11 2 0 0 14 0 0 18 16 0 0 0 0 3 10 0 16 0 0 0 0 67 66 19 5 8 0 0 1 0 0 4 0 0 5 0 0 3 2 0 0 1 0 1 2 5 2 3 3 0 0 0 0 3 0 4 5 0 2 5 5 4 1 6 1 0 3 0 0 6 0 1 2 8 0 0 8 0 0 13 2 0 0 9 0 0 22 16 1 0 0 4 0 9 1 0 0 0 0 0 0 0 0 14 0 0 0 0 3 4 0 3 1 0 5 0 7 0 0 12 25 10 0 0 47 0 0 0 30 40 0 0 24 0 0 35 44 10 0 0 0 0 51 28 27 0 0 21 0 3 20 0 0 5 13 0 0 0 4 62 36 0 28 0 0 25 1 30 26 0 0 24 0 12 21 0 0 
0 0 20 8 0 5 23 0 19 9 0 14 0 0 22 4 0 0 0 0 5 11 2 0 0 2 19 24 12 14 6 0 3 0 0 1 0 0 0 0 3 0 0 0 7 1 0 0 7 0 0 2 0 0 0 0 0 1 0 0 5 0 2 0 0 0 0 3 0 0 0 0 0 0 0 3 4 0 0 0 1 7 0 0 0 2 0 0 1 0 0 0 9 9 7 3 1 0 0 0 0 0 0 3 0 0 4 0 2 12 19 0 60 0 0 0 12 0 0 0 0 2 0 18 5 12 0 9 0 0 0 0 5 0 0 0 0 0 0 0 0 0 28 68 55 18 0 0 0 0 0 8 0 0 9 4 0 5 2 0 0 0 5 2 0 0 0 0 0 0 0 1 2 1 5 1 2 1 9 0 2 5 0 0 0 0 6 7 0 5 0 0 0 3 6 0 1 0 0 7 11 13 8 0 5 0 4 10 10 5 0 0 0 0 1 0 4 0 0 0 6 12 0 5 9 0 3 2 0 0 9 3 8 0 4 6 0 0 1 13 13 10 20 0 7 0 0 0 9 59 5 16 0 6 28 0 4 0 0 0 33 23 21 23 0 33 17 0 0 67 8 0 15 7 0 0 0 0 0 20 20 14 0 0 0 17 5 0 22 5 39 0 0 15 24 0 8 13 0 0 
0 0 12 0 0 10 0 0 11 0 0 18 0 9 0 16 0 0 1 6 13 0 0 4 20 21 8 6 8 0 0 3 0 0 0 1 1 0 1 3 3 0 0 6 4 0 2 0 7 0 0 2 0 0 0 3 0 1 0 2 2 1 2 0 1 0 1 0 0 2 3 0 0 7 6 0 5 0 2 7 5 0 0 0 0 3 0 0 1 0 0 0 2 0 5 6 3 0 0 0 1 2 0 4 0 0 3 0 0 12 0 25 51 0 0 0 0 5 0 12 0 8 0 0 0 18 0 4 0 0 0 0 8 12 0 0 6 0 0 0 0 42 58 24 5 10 3 0 3 0 0 8 0 0 0 0 0 3 0 0 1 0 10 6 1 0 0 0 0 0 0 0 2 6 0 0 0 1 10 2 0 0 3 6 0 0 0 4 0 3 0 0 1 6 8 0 0 0 4 2 21 0 0 0 20 7 0 0 6 0 0 0 13 8 0 0 9 8 15 0 0 0 4 3 0 9 0 0 11 2 0 0 0 0 3 0 6 0 1 4 6 20 9 0 27 0 0 0 0 6 48 36 0 9 24 7 0 0 19 13 44 11 8 0 0 0 6 0 0 50 47 0 0 0 21 0 15 0 0 40 0 14 0 0 11 0 35 0 0 36 0 4 0 0 17 0 0 4 0 0 
0 0 0 0 3 0 0 0 0 0 0 8 0 0 3 24 0 5 6 0 0 0 0 29 23 12 0 1 0 0 0 7 6 0 0 1 0 1 3 0 0 2 5 0 3 0 0 6 0 0 0 0 0 0 0 2 0 0 0 0 0 3 1 1 0 0 6 4 0 1 0 0 0 0 0 0 0 0 0 0 0 1 9 5 1 0 0 0 1 5 4 1 0 0 3 0 12 3 2 0 3 0 0 4 0 0 3 0 0 3 0 3 3 30 26 14 38 6 0 0 0 0 8 0 0 0 0 9 0 0 0 3 0 16 20 0 0 0 0 12 64 46 10 0 3 0 1 0 0 0 0 0 2 0 2 0 0 3 7 3 0 0 9 0 0 4 1 5 3 1 6 2 0 0 1 0 0 0 0 0 3 4 0 0 1 0 0 0 0 0 3 0 5 0 0 0 6 10 6 3 0 0 0 0 14 0 0 6 13 1 0 8 9 3 0 0 0 0 8 0 1 0 13 20 0 0 2 0 1 8 1 0 0 11 4 0 16 16 3 5 16 15 0 0 40 0 15 0 0 0 4 0 0 0 6 29 14 37 30 0 0 3 14 0 0 0 0 10 33 0 0 0 0 0 35 0 14 0 0 15 0 14 0 15 7 0 0 22 0 22 0 0 34 14 0 6 14 0 0 0 
0 0 0 0 10 14 0 6 8 10 24 15 0 0 0 7 0 4 0 0 0 4 20 11 3 0 0 0 0 0 0 8 4 0 0 0 0 0 10 0 0 0 7 0 0 3 0 0 7 2 4 1 0 0 0 2 0 0 3 0 0 0 0 4 0 0 6 2 0 0 2 0 0 0 4 3 0 7 0 0 0 5 3 3 0 0 0 0 0 2 0 3 4 0 0 0 7 4 0 0 6 0 0 3 1 0 1 0 0 0 0 0 0 5 10 16 19 32 37 43 34 34 22 27 31 0 0 0 0 0 0 0 0 0 0 0 0 26 29 49 21 9 1 0 3 0 0 5 0 14 0 0 0 0 5 8 0 0 0 9 6 0 0 2 6 0 3 6 0 0 2 5 0 0 0 0 1 2 1 0 4 2 0 0 0 9 7 11 11 0 6 0 8 3 8 0 7 1 2 2 0 0 27 1 15 0 0 6 14 9 0 1 0 0 0 2 0 5 0 0 16 0 3 0 11 2 0 11 0 0 16 0 9 0 0 0 9 0 14 8 27 0 0 10 5 0 28 17 26 0 24 5 0 0 0 0 23 9 0 18 0 24 4 19 40 0 0 30 27 0 52 0 21 78 45 22 0 12 15 0 0 17 0 0 26 4 0 37 8 0 0 0 29 12 0 12 25 0 0 0 
0 0 9 0 0 17 9 3 0 0 2 24 0 0 0 17 0 0 0 6 21 29 13 5 1 0 0 0 0 0 0 3 5 0 0 0 2 1 0 0 0 3 4 0 0 7 0 0 8 3 1 1 0 0 0 2 0 0 4 2 2 2 0 1 2 0 0 6 0 0 0 0 0 0 6 2 2 7 0 1 0 3 0 1 0 1 0 0 0 2 5 10 6 0 0 0 13 0 1 1 3 1 3 9 13 11 18 15 1 0 2 0 0 0 3 4 0 6 29 48 61 66 53 52 65 33 60 28 27 11 0 0 0 6 18 38 25 28 37 14 0 1 6 5 3 0 0 2 0 3 0 9 1 0 2 4 3 0 0 0 0 1 0 7 8 0 0 3 1 0 2 4 0 0 0 0 0 3 5 3 0 3 0 0 0 0 0 0 0 1 0 0 6 0 0 10 8 8 0 0 0 16 8 0 0 6 0 0 0 6 3 0 0 0 0 9 13 15 0 0 6 0 0 0 11 0 0 0 0 1 7 2 4 0 0 0 0 6 3 18 0 0 0 0 0 30 0 3 5 0 0 0 10 3 31 10 0 0 0 15 53 24 0 0 68 0 0 14 7 0 0 0 18 0 0 17 12 0 0 27 27 0 0 6 0 0 29 5 0 0 0 28 5 19 0 0 14 0 0 0 
0 0 36 0 0 19 8 10 0 4 0 10 15 0 5 0 0 0 11 31 11 6 7 0 0 0 1 2 2 3 0 0 1 8 0 1 6 0 0 0 1 0 0 0 1 9 7 1 0 0 1 0 0 0 0 1 0 0 0 0 4 1 0 0 2 1 0 0 4 0 1 3 7 3 0 0 0 0 7 2 2 0 0 6 2 1 2 0 2 0 4 0 15 0 0 3 18 14 6 5 3 3 15 44 32 30 52 49 24 18 5 1 0 0 1 3 6 4 0 0 9 41 62 61 68 83 105 109 101 112 112 119 91 35 25 19 20 11 8 6 5 0 1 0 0 0 6 0 0 1 0 1 0 1 0 0 0 6 0 0 0 0 0 0 4 0 0 0 0 0 0 0 0 0 0 0 1 1 4 5 0 0 4 0 6 9 1 1 0 0 0 3 10 0 0 6 11 0 0 1 6 14 10 0 0 0 0 0 0 0 9 13 0 2 11 8 0 0 0 0 6 1 1 0 9 16 0 11 0 3 0 0 0 2 7 20 0 10 0 26 3 0 59 0 0 0 5 5 0 26 28 0 4 0 39 0 0 24 0 50 0 0 42 25 6 0 0 28 38 2 0 0 10 0 0 2 0 28 0 0 35 15 40 0 0 16 24 0 6 0 0 10 18 2 3 0 0 0 0 0 
0 0 19 11 0 2 0 0 0 15 2 0 0 0 0 0 0 30 22 4 3 2 5 1 0 1 2 0 2 4 0 0 1 7 0 0 5 0 0 3 2 1 0 0 2 5 0 0 0 1 0 1 2 0 1 7 0 0 2 2 5 0 1 4 0 5 0 0 0 0 0 1 0 0 0 0 0 4 8 3 0 0 0 4 0 3 1 6 5 1 0 0 31 0 11 16 0 0 5 21 6 0 45 13 0 0 0 51 75 39 22 9 0 0 1 0 1 23 0 0 0 0 0 0 0 0 0 0 0 0 0 29 0 0 0 0 21 12 0 0 0 0 3 0 2 8 2 0 0 2 0 0 0 5 0 0 0 7 4 0 0 0 0 0 0 0 2 0 0 0 0 0 5 3 1 1 0 0 0 2 1 3 8 0 2 6 0 13 9 0 3 0 7 1 5 8 0 0 0 7 13 0 0 14 8 0 0 0 0 0 0 0 0 17 7 0 0 1 14 0 9 6 0 15 0 0 0 7 7 0 0 7 0 6 9 5 20 25 2 17 14 0 4 3 0 0 6 17 37 56 59 4 0 1 0 17 37 17 35 48 0 0 0 0 0 0 0 18 50 27 68 4 0 24 43 7 0 0 11 0 0 0 39 0 20 3 6 0 4 0 1 8 11 1 24 10 0 24 10 0 
0 0 0 0 5 8 0 0 0 5 4 0 0 0 0 6 29 25 5 0 1 0 0 0 1 3 1 0 0 0 4 3 2 0 0 3 5 0 0 4 6 0 0 4 0 0 0 1 2 3 0 4 0 2 1 0 0 0 1 4 0 0 0 2 0 2 3 4 2 0 0 1 2 7 8 8 0 0 0 2 0 4 1 1 0 0 5 1 4 5 11 0 6 0 12 0 0 25 1 9 4 16 83 0 0 0 0 0 0 67 84 51 29 18 0 6 6 11 16 26 0 0 0 0 0 0 0 0 0 0 0 0 0 0 50 41 2 0 0 0 5 0 1 0 3 5 5 0 2 0 0 3 8 0 0 4 4 0 0 1 4 2 4 1 0 6 0 1 0 0 4 0 4 6 4 0 1 2 0 0 0 0 2 7 0 0 0 2 3 0 7 0 7 13 3 0 0 4 16 3 3 0 0 22 9 0 19 14 0 8 0 1 9 11 0 0 0 0 7 0 0 4 0 11 13 7 0 5 0 0 0 0 1 0 1 18 44 0 0 0 0 16 0 2 20 29 24 0 0 15 0 45 0 0 0 4 0 0 0 13 0 19 0 0 0 0 9 9 0 4 45 32 0 29 50 4 24 25 44 8 13 8 0 0 28 0 8 30 0 0 26 0 0 19 0 6 0 0 0 0 
0 0 0 12 0 0 34 0 0 13 0 0 5 0 7 21 22 4 0 0 0 0 0 1 0 2 2 0 0 0 2 2 0 0 0 0 0 0 0 8 5 0 0 7 0 0 1 0 0 9 0 4 0 10 0 0 5 0 2 0 3 0 0 4 0 2 2 2 1 0 2 0 0 0 0 0 9 0 3 0 0 6 0 0 0 0 1 1 5 16 11 0 15 0 0 26 0 24 0 7 14 43 73 0 0 0 0 0 0 0 8 57 72 76 49 7 0 13 23 44 31 0 0 0 0 0 0 0 0 0 0 0 42 83 36 0 0 1 3 2 0 2 7 6 2 0 0 3 0 0 0 0 0 4 1 0 0 0 3 1 0 1 0 0 6 10 0 0 1 0 4 0 0 0 0 1 0 5 0 8 1 0 0 0 0 0 2 0 0 2 0 0 3 12 2 0 0 0 7 4 0 0 1 2 0 0 0 9 0 2 2 4 0 0 0 18 8 0 0 0 1 0 2 0 18 5 0 12 7 0 0 0 0 2 30 51 0 0 0 0 0 0 0 0 0 0 0 2 14 5 0 16 0 19 8 41 0 0 30 9 31 25 52 66 3 0 61 12 0 0 0 0 0 0 1 27 18 5 0 42 14 0 0 0 26 0 0 21 0 9 22 3 0 27 0 2 24 0 0 0 
0 0 0 22 0 0 11 0 0 6 0 0 0 24 19 6 6 0 0 0 1 0 0 0 0 2 2 0 0 0 1 4 1 2 3 0 0 0 0 6 2 0 0 3 1 0 0 0 0 3 0 0 0 0 0 1 9 7 3 0 5 0 0 2 0 3 0 3 0 0 0 0 0 0 0 0 8 0 4 0 0 0 1 4 2 1 3 10 13 0 0 5 0 5 0 12 0 0 0 0 26 72 33 0 0 0 0 0 0 0 0 0 0 14 64 86 10 6 0 10 44 67 46 0 0 0 0 0 0 0 0 101 65 24 12 0 8 8 5 2 1 1 0 0 0 0 0 0 0 0 0 2 0 2 8 0 0 8 5 1 0 0 0 0 0 1 3 0 0 0 0 4 0 0 0 0 0 2 0 1 10 3 9 5 0 3 0 0 5 3 6 7 8 0 0 5 0 0 0 13 8 0 0 0 11 16 0 6 0 0 11 7 0 0 0 4 3 3 0 0 9 0 14 0 0 1 0 0 0 0 2 14 9 14 8 0 0 24 8 0 0 31 57 27 0 0 0 64 24 23 0 45 17 8 0 0 0 0 0 0 25 0 9 34 6 61 18 0 0 0 23 0 0 0 0 0 26 52 3 37 1 0 59 9 36 0 0 0 0 17 19 8 1 25 0 0 28 0 0 0 
0 0 0 10 18 0 0 0 11 0 0 0 29 19 8 0 0 0 0 4 3 2 1 0 0 2 1 0 3 1 2 0 0 2 6 0 0 0 1 0 0 4 0 1 0 0 0 1 0 3 3 0 2 0 2 0 0 0 1 0 2 0 1 5 0 0 1 0 0 0 0 2 8 6 0 1 3 0 2 5 7 0 0 4 0 0 4 11 6 0 0 11 0 51 4 11 19 0 10 0 43 66 0 0 0 0 0 0 2 0 0 0 0 0 0 37 86 13 1 0 0 24 46 64 65 0 0 0 0 18 66 49 0 0 0 1 1 0 0 0 0 0 5 2 0 0 1 0 2 0 0 8 7 1 0 0 9 3 4 3 0 0 0 0 0 1 2 0 0 0 0 8 2 0 0 0 0 7 9 0 0 0 0 0 5 13 0 0 1 0 0 9 4 0 0 14 9 0 0 5 6 14 0 11 4 0 0 0 11 8 2 0 8 0 3 1 0 0 0 3 12 0 0 7 0 12 3 0 0 1 3 4 0 3 0 0 4 24 0 4 38 0 1 57 0 14 0 0 0 0 0 0 0 0 34 12 17 11 0 9 53 0 0 0 0 70 0 0 56 0 0 0 33 0 0 0 43 0 0 0 0 1 35 8 7 8 32 0 0 25 10 0 0 26 0 0 5 1 0 0 
0 0 27 0 0 5 0 4 0 0 15 20 25 2 1 0 0 0 0 4 1 0 0 0 0 3 1 0 0 0 0 0 0 4 5 0 0 0 0 0 0 0 0 0 0 0 2 2 0 3 1 0 0 1 0 0 0 1 0 4 1 0 0 2 0 0 2 0 0 0 0 0 4 4 0 0 9 10 0 3 4 4 0 0 5 3 4 3 0 14 3 22 0 7 0 0 35 0 0 2 69 63 0 0 0 0 0 6 1 0 0 0 0 0 0 0 39 62 19 3 23 52 51 39 54 48 25 0 47 74 32 0 0 1 1 0 3 0 0 0 0 0 0 10 6 0 0 0 0 8 0 0 4 0 10 0 0 0 0 0 0 3 0 0 0 0 0 0 0 5 4 0 0 0 0 1 0 0 0 4 0 0 4 0 4 3 5 5 10 0 7 7 0 1 5 7 9 0 4 17 0 0 3 0 0 17 3 0 3 0 0 0 10 0 0 12 0 1 10 0 0 24 2 0 15 0 2 2 3 12 3 0 12 30 32 0 0 0 0 0 46 58 0 0 3 0 0 31 34 0 0 33 25 0 13 4 49 0 0 0 24 0 6 0 0 70 1 0 32 0 18 36 2 0 0 0 0 17 28 0 0 0 0 0 10 7 1 0 0 21 2 15 5 16 13 0 0 9 0 0 
0 0 0 0 4 4 0 0 0 5 22 18 0 0 0 2 5 4 0 0 4 0 0 6 6 0 0 4 1 0 0 0 0 0 5 3 0 0 3 4 0 0 0 8 0 3 0 1 0 3 1 0 0 2 5 3 4 5 0 1 1 1 1 3 6 6 0 0 0 0 0 3 2 0 0 4 0 0 0 0 2 4 1 3 3 9 2 8 0 0 13 0 0 0 0 0 0 0 0 32 98 0 0 0 9 2 0 0 0 0 0 0 27 35 0 0 0 15 55 60 79 0 52 108 91 37 37 18 23 4 12 0 1 2 0 1 0 0 7 1 0 0 1 3 0 0 0 0 0 10 8 0 0 2 0 0 0 5 0 0 2 1 3 0 0 0 0 0 0 2 0 0 0 0 3 2 2 4 1 1 8 10 2 0 2 0 0 0 6 15 2 0 0 4 5 8 0 0 17 21 0 0 9 4 5 7 0 0 0 0 5 12 3 0 17 0 0 0 0 25 0 0 0 0 4 0 5 10 3 8 7 8 15 13 0 0 0 44 0 0 0 40 0 0 69 0 23 13 13 0 30 0 9 0 0 0 3 38 54 0 12 0 0 0 48 0 0 0 0 8 25 15 0 0 86 0 0 58 25 0 30 41 13 0 8 0 0 0 18 10 2 5 0 0 0 0 12 15 14 0 
0 0 0 0 2 0 0 0 13 21 12 0 2 0 0 3 1 0 0 0 0 1 3 2 4 0 0 7 0 0 0 0 0 0 6 0 0 0 0 5 0 0 0 7 0 4 0 0 0 3 1 0 1 0 0 0 2 0 0 6 0 2 0 3 2 0 3 0 0 0 0 2 0 0 0 2 0 0 0 0 0 2 0 5 5 0 6 9 7 0 0 31 55 2 0 0 0 0 0 97 63 0 0 0 0 0 0 0 0 0 16 75 110 85 52 61 29 0 0 61 0 0 0 0 0 28 21 5 0 0 4 0 13 5 5 0 8 5 0 0 0 0 2 0 0 0 0 0 2 0 0 1 0 2 0 0 0 6 0 5 6 0 0 0 0 0 0 0 0 0 0 8 2 0 0 3 1 4 0 0 4 4 2 0 4 0 0 2 3 5 0 0 0 5 1 8 0 0 0 0 0 4 4 7 3 0 6 12 6 12 3 7 4 21 1 0 1 5 0 6 0 0 23 3 0 0 12 0 0 0 10 25 32 0 0 0 0 32 0 25 38 0 0 13 0 0 27 16 0 0 11 0 48 51 0 23 0 0 87 21 0 0 0 17 75 0 26 41 7 58 23 0 24 0 4 0 0 30 0 0 50 0 37 3 15 1 1 9 21 0 3 13 0 0 0 11 3 0 0 0 
0 5 17 0 0 0 0 22 17 10 1 0 6 8 0 1 0 3 0 0 2 1 2 0 0 0 3 4 0 0 0 0 2 0 5 4 0 0 0 4 0 0 1 4 0 2 0 0 0 3 2 0 0 0 0 0 4 0 0 1 0 0 7 0 0 0 2 0 1 0 0 3 4 0 0 4 4 1 6 1 0 1 1 8 11 0 0 0 11 40 0 24 10 0 4 24 10 0 0 102 3 0 0 0 0 0 0 16 67 80 30 31 9 2 0 0 0 0 0 73 0 0 0 0 0 45 15 0 3 8 4 0 0 0 0 9 0 0 6 3 0 0 5 0 1 0 0 0 1 0 0 2 1 4 0 1 0 5 0 0 0 3 3 0 0 1 1 0 0 2 11 0 0 0 1 3 1 6 0 0 5 3 1 0 5 8 0 6 5 0 0 0 7 4 0 0 0 3 11 0 2 1 4 0 2 0 2 0 7 6 0 15 0 0 0 10 0 0 4 0 7 8 0 0 1 12 0 0 0 15 22 0 0 0 41 0 0 4 0 0 0 0 10 12 0 18 23 35 0 47 35 0 9 5 83 27 0 0 27 0 2 31 0 13 41 0 12 0 0 0 0 26 15 10 0 0 0 8 3 0 14 0 15 0 0 0 0 4 5 0 4 14 0 2 12 25 0 0 0 0 
0 0 0 4 0 0 21 13 4 2 0 0 0 2 0 0 0 0 2 4 0 0 0 0 0 0 0 2 3 0 0 0 0 0 0 4 1 0 3 0 2 4 0 0 0 0 3 0 0 4 2 0 0 2 0 0 3 0 0 2 2 4 0 0 0 0 0 0 1 3 0 8 13 0 0 4 0 0 0 3 5 0 0 2 6 0 2 0 0 20 0 0 0 26 23 0 2 0 50 119 0 0 0 0 0 14 95 57 12 6 19 20 0 0 0 0 0 0 9 83 0 0 0 12 113 36 4 0 2 0 1 0 0 2 0 1 5 0 0 2 2 4 0 0 3 0 0 0 0 1 0 0 0 2 0 0 7 2 0 0 0 0 0 0 0 4 0 2 0 0 5 0 0 0 0 4 5 0 0 0 4 0 0 1 0 1 10 5 0 1 6 9 1 0 0 0 0 0 0 4 2 0 12 0 3 10 3 4 5 0 0 0 0 0 22 20 0 0 18 0 17 0 0 12 5 1 0 0 15 24 21 0 0 30 7 0 46 12 16 11 13 0 35 0 0 0 26 40 0 40 22 0 0 0 32 0 14 76 6 0 85 0 0 38 12 15 1 3 0 0 23 65 0 13 34 0 21 73 28 0 42 40 0 0 1 0 0 13 9 11 6 0 0 9 0 3 0 3 0 0 
0 7 0 0 0 18 21 4 0 2 2 0 1 0 0 0 0 0 0 2 0 0 0 4 1 6 0 0 2 0 0 0 1 0 0 6 1 4 0 0 2 3 0 1 1 4 6 0 0 3 2 5 5 0 3 8 3 0 0 0 4 6 0 0 1 0 0 0 3 0 0 0 0 0 0 5 0 0 0 2 2 0 0 1 0 11 15 0 12 28 0 54 23 0 0 1 1 25 119 27 0 0 0 0 55 95 41 3 0 0 21 16 0 19 18 4 15 0 47 41 0 0 70 105 22 0 3 0 0 0 1 0 6 5 0 9 1 0 0 5 3 8 0 0 3 0 0 0 2 0 0 0 1 0 3 3 0 0 10 7 2 4 0 0 0 4 0 5 0 0 0 8 0 0 0 0 0 0 0 0 5 0 0 12 5 2 0 0 0 14 0 2 4 0 0 4 7 1 0 2 0 0 6 0 0 16 0 0 0 0 0 0 11 13 18 0 1 0 17 2 0 0 0 5 0 0 4 0 24 10 9 27 22 20 0 0 95 21 0 0 8 8 0 0 20 18 0 1 0 0 0 0 34 0 0 0 34 33 0 0 0 0 0 52 1 0 0 25 0 0 24 2 0 24 15 33 0 0 0 0 0 0 0 1 15 0 0 16 0 2 9 0 5 8 0 14 14 14 6 0 
0 0 0 0 19 17 8 1 0 0 5 6 2 1 0 0 0 0 0 0 3 0 4 1 0 4 2 0 1 0 0 0 1 0 4 1 0 1 3 0 2 3 0 0 6 2 0 0 0 4 3 0 2 0 0 3 0 0 0 1 0 0 1 6 4 2 2 0 2 4 0 0 3 0 0 1 3 0 3 0 0 3 6 0 0 0 10 0 37 0 0 4 0 0 13 0 0 65 81 0 0 0 0 108 82 31 14 1 0 0 0 20 23 13 10 15 0 0 18 6 0 81 71 12 7 0 0 0 0 0 0 0 2 3 4 3 3 0 0 4 0 0 0 4 1 0 3 8 1 0 0 0 2 0 6 2 0 3 0 1 2 2 3 0 0 1 0 5 3 0 0 1 2 1 4 0 0 0 2 0 0 2 0 5 0 6 0 0 0 0 9 0 0 15 0 0 0 2 12 7 8 0 0 4 0 3 3 0 6 16 14 18 5 0 17 0 0 0 0 0 0 10 7 0 0 0 15 17 0 0 0 0 0 5 33 0 0 38 0 10 0 6 0 37 0 22 15 38 7 6 0 0 20 13 0 0 16 0 0 0 0 24 57 50 0 35 0 0 70 13 0 30 0 0 0 15 0 0 4 6 12 0 0 0 12 14 15 0 0 6 2 9 8 11 10 18 3 0 0 0 
0 0 0 25 17 0 3 0 0 3 2 1 2 2 0 0 0 0 0 0 0 1 0 0 0 0 0 1 0 0 0 0 2 0 4 1 0 4 3 0 2 2 0 0 5 1 0 7 0 3 0 0 0 0 0 0 3 0 0 0 4 0 0 0 0 0 5 0 0 0 4 0 5 5 0 0 2 0 0 0 3 1 0 0 5 9 1 0 0 35 20 0 0 20 10 0 19 116 0 0 0 0 107 66 9 0 4 0 0 0 0 14 0 0 0 0 0 0 0 11 61 57 3 0 1 0 0 0 0 0 1 3 6 0 2 0 3 0 0 0 3 0 0 1 1 0 0 5 0 2 6 4 0 0 1 3 0 8 0 0 3 1 1 0 0 0 0 0 5 0 0 0 4 2 2 5 0 0 5 0 3 3 4 5 0 0 1 5 0 0 7 0 0 0 10 2 19 0 0 0 2 1 0 0 13 9 13 2 4 14 14 0 0 0 0 0 15 24 10 8 0 9 6 0 0 4 23 25 0 0 0 0 6 0 31 0 0 37 45 19 0 2 0 6 0 11 48 0 0 45 0 4 49 39 0 0 38 0 0 9 0 20 18 8 0 0 8 7 60 44 0 0 16 5 11 25 0 0 27 17 12 46 0 0 0 0 12 0 5 10 0 7 0 0 3 1 0 0 0 0 
0 0 28 13 7 0 0 6 0 10 0 0 0 4 3 0 0 1 3 3 3 3 3 3 3 3 3 2 0 0 2 4 0 0 5 0 0 0 1 0 2 4 0 0 0 10 5 5 0 0 5 1 0 0 1 0 1 4 0 0 2 0 0 5 6 0 3 1 0 3 0 0 3 1 0 0 0 2 0 0 0 5 0 2 2 19 0 25 0 19 12 0 4 0 8 5 62 60 0 0 0 105 65 8 0 0 1 0 11 10 0 0 0 13 22 0 0 0 48 26 6 3 1 4 0 2 0 0 3 0 0 8 8 0 0 6 5 1 0 0 1 2 0 4 0 0 2 1 0 2 8 7 0 0 3 2 0 6 0 1 3 2 3 0 0 0 0 2 4 0 2 0 4 0 3 3 0 0 2 0 3 1 3 12 0 0 1 17 11 7 0 1 0 0 2 6 0 0 4 4 2 0 2 6 4 0 0 0 0 0 0 0 13 12 0 4 0 0 0 0 0 0 0 0 11 39 0 0 3 25 33 4 26 11 0 0 0 0 59 50 14 19 0 49 14 0 0 34 0 63 0 0 0 8 0 32 0 34 34 0 0 12 61 45 0 0 0 7 7 24 0 0 38 11 1 24 0 2 16 2 0 0 0 1 21 12 8 7 8 5 0 1 0 13 13 0 0 0 0 0 
0 4 28 0 1 0 1 8 0 0 0 0 0 0 0 3 1 0 0 0 0 0 0 0 0 0 0 0 2 2 0 0 0 3 0 0 16 8 0 0 0 4 6 3 0 3 7 7 5 0 0 0 0 6 2 2 0 0 3 0 2 3 4 2 3 0 0 3 5 0 0 0 0 0 0 0 4 4 0 6 2 8 2 7 12 14 0 9 0 7 17 0 0 0 0 27 121 0 0 0 63 78 24 18 6 10 0 0 0 10 19 2 0 0 0 0 0 16 30 12 6 1 0 0 0 2 0 0 7 0 0 3 0 0 0 0 3 2 0 1 0 4 4 0 0 0 0 0 0 2 2 1 0 4 0 0 0 0 0 3 3 4 0 0 0 0 0 2 9 1 1 3 2 0 2 3 0 7 6 11 4 0 1 0 11 10 8 12 2 0 0 16 5 5 4 5 0 0 13 0 10 11 5 0 6 1 0 0 17 15 0 0 15 0 0 2 0 0 0 2 3 8 0 4 26 15 0 18 11 0 0 0 0 0 0 0 27 0 0 12 2 3 41 13 22 7 0 7 11 0 40 0 0 33 0 0 0 0 63 17 0 8 9 0 62 0 0 0 1 5 0 21 2 0 0 0 0 11 26 0 22 0 0 0 0 24 0 7 1 0 0 9 10 0 2 14 0 0 0 0 
0 23 10 0 3 9 0 0 0 0 0 0 0 0 0 5 3 2 0 0 0 0 0 0 0 0 0 0 5 4 1 0 0 5 0 2 11 3 0 0 1 3 1 3 0 7 0 0 2 0 0 0 0 1 2 0 0 0 5 3 3 0 0 0 4 0 1 6 5 0 0 6 4 0 0 0 0 2 1 17 0 0 0 7 8 16 1 0 28 0 21 8 18 6 0 85 100 0 0 0 112 29 18 17 0 0 0 2 0 2 8 7 3 0 0 0 24 12 0 1 1 7 8 5 0 0 7 3 0 0 0 4 4 0 11 0 0 6 4 7 0 3 2 1 1 0 0 2 0 0 0 0 0 1 1 3 5 0 0 0 0 0 0 0 0 0 0 5 0 5 5 3 0 0 5 7 0 0 0 5 2 0 16 0 0 0 0 2 0 0 0 0 0 7 3 5 8 4 13 0 0 17 16 0 0 5 16 8 9 0 10 0 9 0 17 28 8 0 6 0 0 11 0 0 25 0 0 47 0 0 0 0 0 0 45 0 0 37 16 0 0 0 14 0 0 8 0 0 0 1 0 0 0 7 52 53 47 0 0 0 17 55 0 0 35 20 9 0 14 18 0 13 0 34 3 0 0 21 31 0 0 0 15 15 0 10 1 16 1 0 0 17 14 0 7 21 0 0 0 0 
0 9 0 0 2 0 0 0 7 3 3 3 3 3 4 0 0 3 0 0 0 0 0 3 3 0 0 1 1 1 0 0 1 1 1 0 0 0 0 5 0 5 10 0 0 0 0 0 1 1 0 0 0 2 8 3 2 0 0 1 1 0 4 6 3 0 0 0 2 2 0 4 3 0 0 3 0 2 6 3 0 0 0 30 36 0 0 0 47 0 0 0 21 0 0 140 0 0 0 86 73 26 2 5 0 0 22 19 0 0 0 0 0 0 21 41 30 0 4 3 0 0 2 0 4 0 0 8 0 0 3 4 1 0 6 2 0 0 4 0 0 0 0 0 0 0 1 3 0 0 4 0 0 4 7 0 4 0 0 3 0 0 6 4 0 2 1 3 0 4 0 0 3 0 5 0 0 3 7 7 3 0 0 0 0 0 6 2 2 1 5 8 11 0 0 10 4 12 0 0 5 0 13 2 6 12 0 0 10 0 0 18 5 0 0 8 0 13 2 0 7 0 4 24 3 0 45 15 0 3 0 32 24 0 0 0 0 0 0 19 0 0 0 0 19 8 7 0 0 0 0 31 25 0 2 8 0 0 0 0 68 34 5 37 0 36 36 0 7 0 0 0 0 0 32 40 0 38 27 5 0 0 13 0 16 11 8 26 0 0 1 14 18 8 0 5 0 0 0 0 
0 0 0 0 1 0 0 0 5 2 1 2 3 2 3 0 0 0 0 0 0 0 1 3 3 1 0 0 0 0 0 0 0 0 0 0 0 3 2 5 0 2 5 0 0 0 0 8 0 0 0 0 0 7 1 0 4 7 0 0 4 0 8 0 1 5 0 0 3 0 0 0 0 0 0 8 0 6 0 0 0 23 12 6 8 0 46 12 23 0 28 12 0 0 52 121 0 0 20 100 36 8 0 0 0 0 18 0 0 19 0 0 0 27 19 6 3 0 0 6 0 0 0 0 5 0 0 3 0 2 3 2 0 0 0 7 0 0 0 0 0 0 2 0 0 0 0 7 0 0 6 0 0 0 0 1 3 0 0 6 0 1 7 3 0 3 3 0 0 0 0 0 5 0 4 0 0 9 2 0 10 1 0 0 11 7 12 7 0 4 0 1 14 19 0 4 0 0 0 17 4 0 0 0 0 5 0 0 0 9 0 1 0 0 28 0 0 21 0 0 10 21 40 3 0 0 30 0 0 14 0 32 14 0 0 0 20 0 0 24 16 0 0 0 48 17 12 39 37 0 0 21 0 0 3 26 0 0 37 25 0 0 0 12 0 0 0 0 39 0 0 52 33 0 21 6 0 0 0 0 0 14 2 0 22 0 14 5 0 2 0 1 6 0 0 8 0 1 0 0 
0 4 0 0 1 0 0 1 0 0 1 0 0 0 0 1 2 0 0 0 0 0 0 3 5 0 0 0 0 0 0 0 2 0 0 0 7 7 2 3 0 0 0 0 0 0 0 2 4 0 3 0 0 7 0 0 6 4 0 2 2 0 0 0 5 4 0 0 3 3 0 0 0 0 3 0 2 7 5 11 0 12 19 0 0 0 1 0 0 3 0 0 0 3 115 24 0 0 119 48 2 0 0 0 0 4 0 0 0 0 0 10 18 19 6 0 5 0 0 5 0 0 0 0 5 0 0 4 0 0 2 2 0 0 6 5 0 0 0 0 0 0 1 0 0 3 1 3 0 0 4 0 6 0 0 6 4 0 0 1 0 0 7 2 0 4 8 0 0 0 0 2 1 0 11 8 0 0 0 0 4 11 0 6 0 0 0 0 4 2 0 0 12 0 8 9 7 9 1 0 0 0 9 9 11 1 9 0 0 13 0 0 0 0 13 0 0 2 5 0 13 46 0 0 0 35 30 4 41 12 12 33 23 0 55 47 19 0 0 14 51 54 0 0 38 51 0 0 11 0 10 39 0 0 32 2 19 26 41 8 31 0 0 0 0 39 20 30 74 0 0 0 0 0 10 0 0 18 26 0 0 0 0 12 22 5 9 0 0 29 6 0 0 0 0 0 0 8 0 0 
0 0 0 0 0 1 3 0 0 0 8 0 0 0 0 0 5 7 5 5 5 5 2 1 0 1 4 0 0 0 0 0 0 6 3 0 0 5 0 0 0 5 4 0 0 12 0 0 0 0 0 8 1 6 8 6 0 0 5 0 0 0 11 2 0 0 4 4 0 0 6 5 8 0 1 2 3 0 10 11 0 1 17 0 28 0 0 3 30 0 0 12 0 0 140 0 0 70 92 8 0 13 0 0 0 0 2 0 0 0 0 36 2 0 12 0 0 9 9 0 0 2 0 0 11 0 4 0 0 2 3 0 10 8 0 0 0 0 0 2 2 5 3 7 0 0 0 1 2 0 0 2 7 4 0 0 3 0 0 5 7 0 0 6 0 0 5 0 0 8 1 0 1 1 4 0 2 8 0 14 0 0 7 0 4 7 1 0 2 0 9 1 0 0 14 18 0 0 11 3 5 10 7 0 0 15 13 0 0 10 9 19 29 0 0 22 5 4 0 0 33 0 0 0 46 0 0 19 0 0 23 0 0 0 13 10 0 0 29 13 0 18 0 2 11 0 0 0 0 0 41 79 23 0 51 0 0 0 0 30 36 0 32 0 0 19 0 29 8 0 0 16 0 0 0 10 1 22 0 0 0 11 7 3 2 20 0 0 0 0 10 6 13 25 0 0 6 0 0 0 
0 2 0 0 2 0 1 3 0 2 0 0 1 1 0 0 0 3 0 0 0 0 2 5 0 2 3 0 3 7 0 0 0 3 0 5 0 0 0 0 1 0 4 0 6 0 3 16 0 0 0 0 0 2 0 0 0 0 5 0 0 8 0 0 0 0 1 0 0 0 3 0 0 0 6 6 3 9 11 8 0 12 0 0 29 0 0 21 0 4 0 6 12 51 124 0 0 129 49 0 0 0 0 19 17 9 8 0 0 10 20 2 0 1 7 0 0 0 10 3 0 7 0 0 2 0 7 0 0 1 1 2 0 5 0 0 2 0 0 6 10 3 0 0 0 0 2 0 2 4 5 0 9 9 0 0 5 0 0 6 5 0 3 1 4 7 0 0 0 0 7 0 0 1 10 0 0 4 0 3 15 0 7 0 8 4 0 0 3 0 0 13 0 18 5 0 0 0 1 14 6 0 8 1 0 0 0 7 5 3 0 0 27 0 0 16 6 0 0 24 29 0 0 17 21 0 0 19 0 0 0 0 0 0 33 13 0 0 58 54 0 31 62 2 0 20 98 1 0 0 11 2 0 0 91 64 0 0 0 19 2 17 0 0 0 0 0 21 15 0 0 78 15 0 12 9 0 0 0 30 0 17 0 16 4 14 0 2 2 5 0 11 0 0 3 16 0 0 0 0 
0 0 0 2 3 0 0 1 0 0 0 0 0 0 5 0 0 0 0 0 1 0 0 4 0 4 0 1 3 2 1 0 0 5 0 5 1 0 0 0 2 6 4 0 6 0 2 4 0 0 2 0 0 1 1 2 0 2 0 1 0 1 0 0 0 1 3 2 0 0 4 0 0 1 5 2 0 0 0 20 0 21 0 0 13 9 0 5 7 18 34 0 4 92 63 0 30 98 0 24 0 0 0 0 4 0 0 0 25 32 14 0 0 7 2 0 6 0 0 0 0 3 0 0 0 2 9 0 0 1 0 0 0 0 0 6 9 3 0 0 0 3 0 0 0 2 9 0 0 5 0 0 5 0 0 1 3 4 0 0 4 0 0 0 2 4 0 1 0 0 11 2 0 6 0 2 9 5 7 5 0 4 6 5 2 1 8 3 7 5 0 0 7 9 0 9 11 0 0 0 0 0 15 29 1 0 0 14 6 0 9 0 0 0 1 0 0 1 17 30 19 0 26 0 11 6 0 0 0 0 0 0 0 1 0 8 0 0 19 0 0 0 47 0 0 0 24 0 0 0 0 8 0 0 3 4 0 0 0 33 0 18 0 0 32 30 3 15 0 0 0 0 0 0 47 0 8 0 0 15 0 1 5 15 1 11 0 0 18 22 3 9 0 0 0 0 0 0 0 9 
0 0 0 0 5 0 0 0 1 0 0 0 0 0 7 0 0 1 0 6 0 0 0 0 0 0 0 0 0 0 0 0 1 1 0 2 0 0 0 0 2 0 0 4 1 4 0 0 0 5 7 1 0 0 6 5 4 2 0 0 3 0 0 1 0 4 1 1 3 0 2 3 0 5 14 19 0 30 0 0 8 10 1 0 0 3 11 0 0 0 0 0 0 123 0 0 114 59 0 8 0 0 12 20 0 0 0 22 22 11 0 6 7 0 2 1 3 0 6 0 0 0 0 8 13 0 0 0 2 4 0 0 0 0 0 0 0 11 0 0 0 1 4 0 1 2 0 0 0 2 0 2 0 0 0 0 0 2 0 0 0 0 0 0 0 3 0 0 0 0 9 0 0 4 0 1 0 0 5 0 0 4 4 3 0 1 8 5 0 0 0 1 0 7 0 9 3 2 9 13 9 5 0 0 0 18 9 7 0 0 0 10 9 4 14 8 0 18 31 6 0 0 15 25 52 0 0 0 0 25 0 1 14 17 14 29 0 3 38 0 0 0 0 16 30 26 11 0 0 0 47 18 0 0 47 0 0 3 10 54 28 0 0 32 25 0 0 30 0 44 31 0 0 0 46 0 16 14 0 0 7 0 16 12 3 0 10 21 0 0 0 17 0 0 1 2 0 0 12 0 
0 0 0 0 4 3 4 0 0 13 3 0 4 0 3 0 0 0 0 1 4 4 0 0 0 0 0 0 0 0 0 0 0 0 0 0 2 2 4 0 3 0 6 0 0 1 2 0 0 0 4 9 3 0 0 1 3 5 1 1 0 0 0 0 0 5 4 0 3 0 2 0 0 9 4 0 0 15 0 0 6 0 9 0 0 0 35 0 19 0 0 0 43 95 0 0 105 14 0 0 0 28 0 0 0 0 38 35 4 3 0 0 0 0 4 2 0 7 8 5 0 15 3 0 1 3 2 0 0 5 8 0 0 2 0 0 0 0 6 0 5 5 5 0 0 1 6 0 0 1 0 0 3 2 4 1 2 0 2 9 0 0 3 0 0 0 9 1 3 0 0 0 0 7 0 0 3 0 0 0 1 7 2 0 0 0 0 6 2 3 11 0 0 2 5 0 2 2 0 5 2 4 0 0 10 7 0 4 12 0 0 0 0 0 1 6 4 29 15 0 0 0 18 59 0 0 41 25 0 33 11 16 0 0 7 14 29 51 19 0 0 14 0 0 0 0 0 0 8 0 30 36 0 0 7 0 0 7 19 0 0 0 29 86 0 0 0 0 4 3 0 18 5 0 39 7 27 7 24 0 0 0 6 13 8 0 6 15 0 1 0 0 0 2 0 0 0 11 23 0 
0 0 4 3 0 0 0 1 0 1 0 10 5 0 0 2 0 0 0 3 0 3 0 0 0 0 0 0 0 0 0 0 0 0 3 1 4 0 2 0 10 0 10 4 0 0 4 3 1 1 0 5 2 0 0 7 0 0 2 0 0 8 0 0 5 7 0 0 6 0 0 6 9 15 0 0 7 0 0 0 54 0 0 0 16 16 6 0 0 9 13 0 46 38 0 73 29 10 0 0 8 13 0 0 0 26 29 0 2 3 0 11 9 0 0 0 0 0 5 8 0 0 0 0 2 4 1 5 9 0 0 9 3 3 1 0 5 0 0 2 0 0 0 0 0 1 3 2 1 3 2 3 0 0 0 10 3 0 10 0 0 0 3 0 6 0 2 0 0 0 5 8 0 0 6 6 2 0 0 0 0 0 5 0 0 0 4 3 0 7 4 0 0 0 0 0 9 0 0 0 17 2 0 8 20 9 0 17 0 4 8 0 11 7 0 15 26 29 4 0 0 0 0 0 0 0 0 0 0 14 29 40 28 0 0 0 24 0 0 0 52 19 16 0 4 1 25 0 42 27 0 24 0 70 0 0 0 42 31 0 0 0 0 0 10 34 2 0 0 11 11 0 0 0 0 0 0 0 22 0 0 25 21 19 5 0 0 0 7 1 15 2 0 0 0 0 28 53 22 0 
0 0 0 0 0 0 0 0 0 3 4 0 0 0 0 0 0 0 0 1 0 6 1 0 0 0 0 0 0 0 0 0 0 0 0 0 7 0 3 9 0 0 7 5 0 0 3 2 2 0 0 10 0 0 0 11 0 0 3 0 0 9 0 0 1 9 0 0 1 0 0 15 9 15 0 15 1 0 0 22 26 0 13 0 0 0 0 24 0 0 0 17 38 6 0 62 4 0 0 0 2 0 0 23 35 17 6 0 11 0 0 2 0 5 0 0 2 1 0 0 0 0 0 3 0 0 0 0 7 5 0 0 7 1 7 0 0 0 0 0 0 0 4 3 1 0 0 2 0 5 0 3 0 0 0 0 0 0 14 0 0 9 1 0 5 0 0 0 0 0 4 5 0 0 0 0 5 7 7 14 2 0 13 8 2 0 0 5 0 3 5 0 9 7 0 0 10 0 0 4 12 0 2 3 0 0 0 28 0 0 7 3 0 0 14 2 0 0 0 23 0 14 42 43 42 18 0 0 1 4 25 0 0 32 0 0 45 0 4 21 70 0 0 0 47 4 15 0 9 5 0 0 0 81 18 0 16 60 64 0 19 0 0 0 24 2 65 0 0 6 10 23 33 43 0 0 0 0 37 0 0 2 10 16 0 0 0 0 0 31 5 0 0 0 13 31 23 11 0 0 
0 0 2 0 4 1 0 4 1 0 3 0 0 0 0 0 2 1 3 0 0 4 0 0 1 1 4 1 0 0 0 0 1 0 5 1 1 0 0 1 0 0 0 0 0 0 4 0 0 2 5 2 3 0 1 1 0 6 6 0 0 7 0 0 1 2 3 4 4 2 1 14 0 0 0 7 18 23 24 0 0 0 28 0 2 3 0 41 40 0 0 18 27 8 15 37 7 0 0 0 0 0 5 40 22 0 3 0 0 2 0 0 6 10 0 0 0 2 9 0 0 6 7 1 0 0 0 1 0 7 0 0 3 0 0 1 10 1 0 0 0 0 0 6 4 0 3 1 0 5 1 0 0 0 4 2 0 0 8 0 0 5 1 0 2 0 6 12 7 5 0 1 3 3 0 6 5 0 0 0 0 0 0 11 7 1 2 8 0 3 0 2 13 9 0 0 0 5 16 0 0 8 13 0 0 18 0 0 0 13 23 0 0 16 35 35 0 0 0 8 0 30 50 0 20 13 13 15 24 12 0 0 0 52 0 0 38 0 19 0 0 34 0 0 31 5 32 0 0 34 0 2 0 0 0 0 65 0 0 0 37 19 5 54 32 0 5 5 0 0 11 27 47 10 0 0 8 0 19 0 10 7 7 20 0 0 7 20 0 22 0 0 0 0 43 35 1 0 0 0 
0 0 0 0 3 0 0 3 0 0 0 0 0 0 0 0 0 0 1 0 0 0 0 0 0 0 0 0 0 0 0 0 0 0 0 0 0 0 0 0 0 0 0 0 4 0 0 0 0 0 0 0 0 0 0 0 0 1 0 0 0 0 0 0 0 0 0 0 6 0 0 0 0 0 0 0 7 0 0 0 13 14 7 0 7 37 0 0 0 0 0 12 7 6 29 0 0 0 0 0 0 22 25 0 0 0 0 0 5 3 5 6 0 0 6 0 0 0 3 11 0 0 0 0 0 0 0 0 0 0 0 0 0 0 0 6 0 0 0 0 0 0 0 0 0 0 0 0 0 2 2 0 0 0 0 0 0 0 0 0 0 0 0 0 0 0 2 0 4 11 0 0 0 0 0 18 0 0 0 0 10 0 0 4 0 0 0 0 0 0 0 0 0 0 0 13 0 0 0 0 0 0 0 0 0 2 0 0 1 12 0 0 21 36 11 0 0 0 0 0 17 0 0 0 0 0 0 4 9 1 0 0 0 0 0 2 14 0 0 58 0 0 25 0 0 0 0 0 22 0 0 0 0 0 5 1 25 0 0 0 0 0 0 10 0 0 4 36 8 0 0 0 0 0 0 19 0 0 0 0 0 0 15 4 0 0 1 0 16 0 0 0 0 19 20 13 1 0 6 0 
0 0 0 0 0 0 0 0 0 0 0 0 0 0 0 0 0 0 0 0 0 0 0 0 0 0 0 0 0 0 0 0 0 0 0 0 0 0 0 0 0 0 0 0 0 0 0 0 0 0 0 0 0 0 0 0 0 0 0 0 0 0 0 0 0 0 0 0 0 0 0 0 0 0 0 0 0 0 0 0 0 0 0 0 0 0 0 0 0 0 0 5 0 0 0 0 0 0 0 0 19 7 0 0 0 0 0 0 0 0 0 0 0 0 0 0 0 0 0 0 0 0 0 0 0 0 0 0 0 0 0 0 0 0 0 0 0 0 0 0 0 0 0 0 0 0 0 0 0 0 0 0 0 0 0 0 0 0 0 0 0 0 0 0 0 0 0 0 0 0 0 0 0 0 0 0 0 0 0 0 0 0 0 0 0 0 0 0 0 0 0 0 0 0 0 0 0 0 0 0 0 0 0 0 0 0 0 0 0 0 0 0 0 0 0 0 0 0 0 0 0 0 0 0 0 0 0 0 0 0 0 0 0 0 0 0 0 0 0 0 0 0 0 0 0 0 0 0 0 0 0 0 0 0 0 0 0 0 0 0 0 0 0 0 0 0 0 0 0 0 0 0 0 0 0 0 0 0 0 0 0 0 0 0 0 0 0 0 0 0 0 0 4 0 0 0 0 0 0 0 
