P2
300 257
255
255 255 255 255 255 255 255 255 255 255 255 255 255 255 255 255 255 255 255 255 255 255 255 255 255 255 255 255 255 255 255 255 255 255 255 255 255 255 255 255 255 255 255 255 255 255 255 255 255 255 255 255 255 255 255 255 255 255 255 255 255 255 255 255 255 255 255 255 255 255 255 255 255 255 255 255 255 255 255 255 255 255 255 255 255 255 255 255 255 255 255 255 255 255 255 255 255 255 255 255 255 255 255 255 255 255 255 255 255 255 255 255 255 255 255 255 255 255 255 255 255 255 255 255 255 255 255 255 255 255 255 255 255 255 255 255 255 255 255 255 255 255 255 255 255 255 255 255 255 255 255 255 255 255 255 255 255 255 255 255 255 255 255 255 255 255 255 255 255 255 255 255 255 255 255 255 255 255 255 255 255 255 255 255 255 255 255 255 255 255 255 255 255 255 255 255 255 255 255 255 255 255 255 255 255 255 255 255 255 255 255 255 255 255 255 255 255 255 255 255 255 255 255 255 255 255 255 255 255 255 255 255 255 255 255 255 255 255 255 255 255 255 255 255 255 255 255 255 255 255 255 255 255 255 255 255 255 255 255 255 255 255 255 255 255 255 255 255 255 255 255 255 255 255 255 255 255 255 255 255 255 255 255 255 255 255 255 255 255 255 255 255 255 255 255 255 255 255 255 255 
255 255 255 255 255 255 255 255 255 255 255 255 255 255 255 255 255 255 255 255 255 255 255 255 255 255 255 255 255 255 255 255 255 255 255 255 255 255 255 255 255 255 255 255 255 255 255 255 255 255 255 255 255 255 255 255 255 255 255 255 255 255 255 255 255 255 255 255 255 255 255 255 255 255 255 255 255 255 255 255 255 255 255 255 255 255 255 255 255 255 255 255 255 255 255 255 255 255 255 255 255 255 255 255 255 255 255 255 255 255 255 255 255 255 255 255 255 255 255 255 255 255 255 255 255 255 255 255 255 255 255 255 255 255 255 255 255 255 255 255 255 255 255 255 255 255 255 255 255 255 255 255 255 255 255 255 255 255 255 255 255 255 255 255 255 255 255 255 255 255 255 255 255 255 255 255 255 255 255 255 255 255 255 255 255 255 255 255 255 255 255 255 255 255 255 255 255 255 255 255 255 255 255 255 255 255 255 255 255 255 255 255 255 255 255 255 255 255 255 255 255 255 255 255 255 255 255 255 255 255 255 255 255 255 255 255 255 255 255 255 255 255 255 255 255 255 255 255 255 255 255 255 255 255 255 255 255 255 255 255 255 255 255 255 255 255 255 255 255 255 255 255 255 255 255 255 255 255 255 255 255 255 255 255 255 255 255 255 255 255 255 255 255 255 255 255 255 255 255 255 
255 255 255 255 255 255 255 255 255 255 255 255 255 255 255 255 255 255 255 255 255 255 255 255 255 255 255 255 255 255 255 255 255 255 255 255 255 255 255 255 255 255 255 255 255 255 255 255 255 255 255 255 255 255 255 255 255 255 255 255 255 255 255 255 255 255 255 255 255 255 255 255 255 255 255 255 255 255 255 255 255 255 255 255 255 255 255 255 255 255 255 255 255 255 255 255 255 255 255 255 255 255 255 255 255 255 255 255 255 255 255 255 255 255 255 255 255 255 255 255 255 255 255 255 255 255 255 255 255 255 255 255 255 255 255 255 255 255 255 255 255 255 255 255 255 255 255 255 255 255 255 255 255 255 255 255 255 255 255 255 255 255 255 255 255 255 255 255 255 255 255 255 255 255 255 255 255 255 255 255 255 255 255 255 255 255 255 255 255 255 255 255 255 255 255 255 255 255 255 255 255 255 255 255 255 255 255 255 255 255 255 255 255 255 255 255 255 255 255 255 255 255 255 255 255 255 255 255 255 255 255 255 255 255 255 255 255 255 255 255 255 255 255 255 255 255 255 255 255 255 255 255 255 255 255 255 255 255 255 255 255 255 255 255 255 255 255 255 255 255 255 255 255 255 255 255 255 255 255 255 255 255 255 255 255 255 255 255 255 255 255 255 255 255 255 255 255 255 255 255 
255 255 255 255 255 255 255 255 255 255 255 255 255 255 255 255 255 255 255 255 255 255 255 255 255 255 255 255 255 255 255 255 255 255 255 255 255 255 255 255 255 255 255 255 255 255 255 255 255 255 255 255 255 255 255 255 255 255 255 255 255 255 255 255 255 255 255 255 255 255 255 255 255 255 255 255 255 255 255 255 255 255 255 255 255 255 255 255 255 255 255 255 255 255 255 255 255 255 255 255 255 255 255 255 255 255 255 255 255 255 255 255 255 255 255 255 255 255 255 255 255 255 255 255 255 255 255 255 255 255 255 255 255 255 255 255 255 255 255 255 255 255 255 255 255 255 255 255 255 255 255 255 255 255 255 255 255 255 255 255 255 255 255 255 255 255 255 255 255 255 255 255 255 255 255 255 255 255 255 255 255 255 255 255 255 255 255 255 255 255 255 255 255 255 255 255 255 255 255 255 255 255 255 255 255 255 255 255 255 255 255 255 255 255 255 255 255 255 255 255 255 255 255 255 255 255 255 255 255 255 255 255 255 255 255 255 255 255 255 255 255 255 255 255 255 255 255 255 255 255 255 255 255 255 255 255 255 255 255 255 255 255 255 255 255 255 255 255 255 255 255 255 255 255 255 255 255 255 255 255 255 255 255 255 255 255 255 255 255 255 255 255 255 255 255 255 255 255 255 255 
255 255 255 255 255 255 255 255 255 255 255 255 255 255 255 255 255 255 255 255 255 255 255 255 255 255 255 255 255 255 255 255 255 255 255 255 255 255 255 255 255 255 255 255 255 255 255 255 255 255 255 255 255 255 255 255 255 255 255 255 255 255 255 255 255 255 255 255 255 255 255 255 255 255 255 255 255 255 255 255 255 255 255 255 255 255 255 255 255 255 255 255 255 255 255 255 255 255 255 255 255 255 255 255 255 255 255 255 255 255 255 255 255 255 255 255 255 255 255 255 255 255 255 255 255 255 255 255 255 255 255 255 255 255 255 255 255 255 255 255 255 255 255 255 255 255 255 255 255 255 255 255 255 255 255 255 255 255 255 255 255 255 255 255 255 255 255 255 255 255 255 255 255 255 255 255 255 255 255 255 255 255 255 255 255 255 255 255 255 255 255 255 255 255 255 255 255 255 255 255 255 255 255 255 255 255 255 255 255 255 255 255 255 255 255 255 255 255 255 255 255 255 255 255 255 255 255 255 255 255 255 255 255 255 255 255 255 255 255 255 255 255 255 255 255 255 255 255 255 255 255 255 255 255 255 255 255 255 255 255 255 255 255 255 255 255 255 255 255 255 255 255 255 255 255 255 255 255 255 255 255 255 255 255 255 255 255 255 255 255 255 255 255 255 255 255 255 255 255 255 
255 255 255 255 255 255 255 255 255 255 255 255 255 255 255 255 255 255 255 255 255 255 255 255 255 255 255 255 255 255 255 255 255 255 255 255 255 255 255 255 255 255 255 255 255 255 255 255 255 255 255 255 255 255 255 255 255 255 255 255 255 255 255 255 255 255 255 255 255 255 255 255 255 255 255 255 255 255 255 255 255 255 255 255 255 255 255 255 255 255 255 255 255 255 255 255 255 255 255 255 255 255 255 255 255 255 255 255 255 255 255 255 255 255 255 255 255 255 255 255 255 255 255 255 255 255 255 255 255 255 255 255 255 255 255 255 255 255 255 255 255 255 255 255 255 255 255 255 255 255 255 255 255 255 255 255 255 255 255 255 255 255 255 255 255 255 255 255 255 255 255 255 255 255 255 255 255 255 255 255 255 255 255 255 255 255 255 255 255 255 255 255 255 255 255 255 255 255 255 255 255 255 255 255 255 255 255 255 255 255 255 255 255 255 255 255 255 255 255 255 255 255 255 255 255 255 255 255 255 255 255 255 255 255 255 255 255 255 255 255 255 255 255 255 255 255 255 255 255 255 255 255 255 255 255 255 255 255 255 255 255 255 255 255 255 255 255 255 255 255 255 255 255 255 255 255 255 255 255 255 255 255 255 255 255 255 255 255 255 255 255 255 255 255 255 255 255 255 255 255 
255 255 255 255 255 255 255 255 255 255 255 255 255 255 255 255 255 255 255 255 255 255 255 255 255 255 255 255 255 255 255 255 255 255 255 255 255 255 255 255 255 255 255 255 255 255 255 255 255 255 255 255 255 255 255 255 255 255 255 255 255 255 255 255 255 255 255 255 255 255 255 255 255 255 255 255 255 255 255 255 255 255 255 255 255 255 255 255 255 255 255 255 255 255 255 255 255 255 255 255 255 255 255 255 255 255 255 255 255 255 255 255 255 255 255 255 255 255 255 255 255 255 255 255 255 255 255 255 255 255 255 255 255 255 255 255 255 255 255 255 255 255 255 255 255 255 255 255 255 255 255 255 255 255 255 255 255 255 255 255 255 255 255 255 255 255 255 255 255 255 255 255 255 255 255 255 255 255 255 255 255 255 255 255 255 255 255 255 255 255 255 255 255 255 255 255 255 255 255 255 255 255 255 255 255 255 255 255 255 255 255 255 255 255 255 255 255 255 255 255 255 255 255 255 255 255 255 255 255 255 255 255 255 255 255 255 255 255 255 255 255 255 255 255 255 255 255 255 255 255 255 255 255 255 255 255 255 255 255 255 255 255 255 255 255 255 255 255 255 255 255 255 255 255 255 255 255 255 255 255 255 255 255 255 255 255 255 255 255 255 255 255 255 255 255 255 255 255 255 255 
255 255 255 255 255 255 255 255 255 255 255 255 255 255 255 255 255 255 255 255 255 255 255 255 255 255 255 255 255 255 255 255 255 255 255 255 255 255 255 255 255 255 255 255 255 255 255 255 255 255 255 255 255 255 255 255 255 255 255 255 255 255 255 255 255 255 255 255 255 255 255 255 255 255 255 255 255 255 255 255 255 255 255 255 255 255 255 255 255 255 255 255 255 255 255 255 255 255 255 255 255 255 255 255 255 255 255 255 255 255 255 255 255 255 255 255 255 255 255 255 255 255 255 255 255 255 255 255 255 255 255 255 255 255 255 255 255 255 255 255 255 255 255 255 255 255 255 255 255 255 255 255 255 255 255 255 255 255 255 255 255 255 255 255 255 255 255 255 255 255 255 255 255 255 255 255 255 255 255 255 255 255 255 255 255 255 255 255 255 255 255 255 255 255 255 255 255 255 255 255 255 255 255 255 255 255 255 255 255 255 255 255 255 255 255 255 255 255 255 255 255 255 255 255 255 255 255 255 255 255 255 255 255 255 255 255 255 255 255 255 255 255 255 255 255 255 255 255 255 255 255 255 255 255 255 255 255 255 255 255 255 255 255 255 255 255 255 255 255 255 255 255 255 255 255 255 255 255 255 255 255 255 255 255 255 255 255 255 255 255 255 255 255 255 255 255 255 255 255 255 
255 255 255 255 255 255 255 255 255 255 255 255 255 255 255 255 255 255 255 255 255 255 255 255 255 255 255 255 255 255 255 255 255 255 255 255 255 255 255 255 255 255 255 255 255 255 255 255 255 255 255 255 255 255 255 255 255 255 255 255 255 255 255 255 255 255 255 255 255 255 255 255 255 255 255 255 255 255 255 255 255 255 255 255 255 255 255 255 255 255 255 255 255 255 255 255 255 255 255 255 255 255 255 255 255 255 255 255 255 255 255 255 255 255 255 255 255 255 255 255 255 255 255 255 255 255 255 255 255 255 255 255 255 255 255 255 255 255 255 255 255 255 255 255 255 255 255 255 255 255 255 255 255 255 255 255 255 255 255 255 255 255 255 255 255 255 255 255 255 255 255 255 255 255 255 255 255 255 255 255 255 255 255 255 255 255 255 255 255 255 255 255 255 255 255 255 255 255 255 255 255 255 255 255 255 255 255 255 255 255 255 255 255 255 255 255 255 255 255 255 255 255 255 255 255 255 255 255 255 255 255 255 255 255 255 255 255 255 255 255 255 255 255 255 255 255 255 255 255 255 255 255 255 255 255 255 255 255 255 255 255 255 255 255 255 255 255 255 255 255 255 255 255 255 255 255 255 255 255 255 255 255 255 255 255 255 255 255 255 255 255 255 255 255 255 255 255 255 255 255 
255 255 255 255 255 255 255 255 255 255 255 255 255 255 255 255 255 255 255 255 255 255 255 255 255 255 255 255 255 255 255 255 255 255 255 255 255 255 255 255 255 255 255 255 255 255 255 255 255 255 255 255 255 255 255 255 255 255 255 255 255 255 255 255 255 255 255 255 255 255 255 255 255 255 255 255 255 255 255 255 255 255 255 255 255 255 255 255 255 255 255 255 255 255 255 255 255 255 255 255 255 255 255 255 255 255 255 255 255 255 255 255 255 255 255 255 255 255 255 255 255 255 255 255 255 255 255 255 255 255 255 255 255 255 255 255 255 255 255 255 255 255 255 255 255 255 255 255 255 255 255 255 255 255 255 255 255 255 255 255 255 255 255 255 255 255 255 255 255 255 255 255 255 255 255 255 255 255 255 255 255 255 255 255 255 255 255 255 255 255 255 255 255 255 255 255 255 255 255 255 255 255 255 255 255 255 255 255 255 255 255 255 255 255 255 255 255 255 255 255 255 255 255 255 255 255 255 255 255 255 255 255 255 255 255 255 255 255 255 255 255 255 255 255 255 255 255 255 255 255 255 255 255 255 255 255 255 255 255 255 255 255 255 255 255 255 255 255 255 255 255 255 255 255 255 255 255 255 255 255 255 255 255 255 255 255 255 255 255 255 255 255 255 255 255 255 255 255 255 255 
255 255 255 255 255 255 255 255 255 255 255 255 255 255 255 255 255 255 255 255 255 255 255 255 255 255 255 255 255 255 255 255 255 255 255 255 255 255 255 255 255 255 255 255 255 255 255 255 255 255 255 255 255 255 255 255 255 255 255 255 255 255 255 255 255 255 255 255 255 255 255 255 255 255 255 255 255 255 255 255 255 255 255 255 255 255 255 255 255 255 255 255 255 255 255 255 255 255 255 255 255 255 255 255 255 255 255 255 255 255 255 255 255 255 255 255 255 255 255 255 255 255 255 255 255 255 255 255 255 255 255 255 255 255 255 255 255 255 255 255 255 255 255 255 255 255 255 255 255 255 255 255 255 255 255 255 255 255 255 255 255 255 255 255 255 255 255 255 255 255 255 255 255 255 255 255 255 255 255 255 255 255 255 255 255 255 255 255 255 255 255 255 255 255 255 255 255 255 255 255 255 255 255 255 255 255 255 255 255 255 255 255 255 255 255 255 255 255 255 255 255 255 255 255 255 255 255 255 255 255 255 255 255 255 255 255 255 255 255 255 255 255 255 255 255 255 255 255 255 255 255 255 255 255 255 255 255 255 255 255 255 255 255 255 255 255 255 255 255 255 255 255 255 255 255 255 255 255 255 255 255 255 255 255 255 255 255 255 255 255 255 255 255 255 255 255 255 255 255 255 
255 255 255 255 255 255 255 255 255 255 255 255 255 255 255 255 255 255 255 255 255 255 255 255 255 255 255 255 255 255 255 255 255 255 255 255 255 255 255 255 255 255 255 255 255 255 255 255 255 255 255 255 255 255 255 255 255 255 255 255 255 255 255 255 255 255 255 255 255 255 255 255 255 255 255 255 255 255 255 255 255 255 255 255 255 255 255 255 255 255 255 255 255 255 255 255 255 255 255 255 255 255 255 255 255 255 255 255 255 255 255 255 255 255 255 255 255 255 255 255 255 255 255 255 255 255 255 255 255 255 255 255 255 255 255 255 255 255 255 255 255 255 255 255 255 255 255 255 255 255 255 255 255 255 255 255 255 255 255 255 255 255 255 255 255 255 255 255 255 255 255 255 255 255 255 255 255 255 255 255 255 255 255 255 255 255 255 255 255 255 255 255 255 255 255 255 255 255 255 255 255 255 255 255 255 255 255 255 255 255 255 255 255 255 255 255 255 255 255 255 255 255 255 255 255 255 255 255 255 255 255 255 255 255 255 255 255 255 255 255 255 255 255 255 255 255 255 255 255 255 255 255 255 255 255 255 255 255 255 255 255 255 255 255 255 255 255 255 255 255 255 255 255 255 255 255 255 255 255 255 255 255 255 255 255 255 255 255 255 255 255 255 255 255 255 255 255 255 255 255 
255 255 255 255 255 255 255 255 255 255 255 255 255 255 255 255 255 255 255 255 255 255 255 255 255 255 255 255 255 255 255 255 255 255 255 255 255 255 255 255 255 255 255 255 255 255 255 255 255 255 255 255 255 255 255 255 255 255 255 255 255 255 255 255 255 255 255 255 255 255 255 255 255 255 255 255 255 255 255 255 255 255 255 255 255 255 255 255 255 255 255 255 255 255 255 255 255 255 255 255 255 255 255 255 255 255 255 255 255 255 255 255 255 255 255 255 255 255 255 255 255 255 255 255 255 255 255 255 255 255 255 255 255 255 255 255 255 255 255 255 255 255 255 255 255 255 255 255 255 255 255 255 255 255 255 255 255 255 255 255 255 255 255 255 255 255 255 255 255 255 255 255 255 255 255 255 255 255 255 255 255 255 255 255 255 255 255 255 255 255 255 255 255 255 255 255 255 255 255 255 255 255 255 255 255 255 255 255 255 255 255 255 255 255 255 255 255 255 255 255 255 255 255 255 255 255 255 255 255 255 255 255 255 255 255 255 255 255 255 255 255 255 255 255 255 255 255 255 255 255 255 255 255 255 255 255 255 255 255 255 255 255 255 255 255 255 255 255 255 255 255 255 255 255 255 255 255 255 255 255 255 255 255 255 255 255 255 255 255 255 255 255 255 255 255 255 255 255 255 255 
255 255 255 255 255 255 255 255 255 255 255 255 255 255 255 255 255 255 255 255 255 255 255 255 255 255 255 255 255 255 255 255 255 255 255 255 255 255 255 255 255 255 255 255 255 255 255 255 255 255 255 255 255 255 255 255 255 255 255 255 255 255 255 255 255 255 255 255 255 255 255 255 255 255 255 255 255 255 255 255 255 255 255 255 255 255 255 255 255 255 255 255 255 255 255 255 255 255 255 255 255 255 255 255 255 255 255 255 255 255 255 255 255 255 255 255 255 255 255 255 255 255 255 255 255 255 255 255 255 255 255 255 255 255 255 255 255 255 255 255 255 255 255 255 255 255 255 255 255 255 255 255 255 255 255 255 255 255 255 255 255 255 255 255 255 255 255 255 255 255 255 255 255 255 255 255 255 255 255 255 255 255 255 255 255 255 255 255 255 255 255 255 255 255 255 255 255 255 255 255 255 255 255 255 255 255 255 255 255 255 255 255 255 255 255 255 255 255 255 255 255 255 255 255 255 255 255 255 255 255 255 255 255 255 255 255 255 255 255 255 255 255 255 255 255 255 255 255 255 255 255 255 255 255 255 255 255 255 255 255 255 255 255 255 255 255 255 255 255 255 255 255 255 255 255 255 255 255 255 255 255 255 255 255 255 255 255 255 255 255 255 255 255 255 255 255 255 255 255 255 
255 255 255 255 255 255 255 255 255 255 255 255 255 255 255 255 255 255 255 255 255 255 255 255 255 255 255 255 255 255 255 255 255 255 255 255 255 255 255 255 255 255 255 255 255 255 255 255 255 255 255 255 255 255 255 255 255 255 255 255 255 255 255 255 255 255 255 255 255 255 255 255 255 255 255 255 255 255 255 255 255 255 255 255 255 255 255 255 255 255 255 255 255 255 255 255 255 255 255 255 255 255 255 255 255 255 255 255 255 255 255 255 255 255 255 255 255 255 255 255 255 255 255 255 255 255 255 255 255 255 255 255 255 255 255 255 255 255 255 255 255 255 255 255 255 255 255 255 255 255 255 255 255 255 255 255 255 255 255 255 255 255 255 255 255 255 255 255 255 255 255 255 255 255 255 255 255 255 255 255 255 255 255 255 255 255 255 255 255 255 255 255 255 255 255 255 255 255 255 255 255 255 255 255 255 255 255 255 255 255 255 255 255 255 255 255 255 255 255 255 255 255 255 255 255 255 255 255 255 255 255 255 255 255 255 255 255 255 255 255 255 255 255 255 255 255 255 255 255 255 255 255 255 255 255 255 255 255 255 255 255 255 255 255 255 255 255 255 255 255 255 255 255 255 255 255 255 255 255 255 255 255 255 255 255 255 255 255 255 255 255 255 255 255 255 255 255 255 255 255 
255 255 255 255 255 255 255 255 255 255 255 255 255 255 255 255 255 255 255 255 255 255 255 255 255 255 255 255 255 255 255 255 255 255 255 255 255 255 255 255 255 255 255 255 255 255 255 255 255 255 255 255 255 255 255 255 255 255 255 255 255 255 255 255 255 255 255 255 255 255 255 255 255 255 255 255 255 255 255 255 255 255 255 255 255 255 255 255 255 255 255 255 255 255 255 255 255 255 255 255 255 255 255 255 255 255 255 255 255 255 255 255 255 255 255 255 255 255 255 255 255 255 255 255 255 255 255 255 255 255 255 255 255 255 255 255 255 255 255 255 255 255 255 255 255 255 255 255 255 255 255 255 255 255 255 255 255 255 255 255 255 255 255 255 255 255 255 255 255 255 255 255 255 255 255 255 255 255 255 255 255 255 255 255 255 255 255 255 255 255 255 255 255 255 255 255 255 255 255 255 255 255 255 255 255 255 255 255 255 255 255 255 255 255 255 255 255 255 255 255 255 255 255 255 255 255 255 255 255 255 255 255 255 255 255 255 255 255 255 255 255 255 255 255 255 255 255 255 255 255 255 255 255 255 255 255 255 255 255 255 255 255 255 255 255 255 255 255 255 255 255 255 255 255 255 255 255 255 255 255 255 255 255 255 255 255 255 255 255 255 255 255 255 255 255 255 255 255 255 255 
255 255 255 255 255 255 255 255 255 255 255 255 255 255 255 255 255 255 255 255 255 255 255 255 255 255 255 255 255 255 255 255 255 255 255 255 255 255 255 255 255 255 255 255 255 255 255 255 255 255 255 255 255 255 255 255 255 255 255 255 255 255 255 255 255 255 255 255 255 255 255 255 255 255 255 255 255 255 255 255 255 255 255 255 255 255 255 255 255 255 255 255 255 255 255 255 255 255 255 255 255 255 255 255 255 255 255 255 255 255 255 255 255 255 255 255 255 255 255 255 255 255 255 255 255 255 255 255 255 255 255 255 255 255 255 255 255 255 255 255 255 255 255 255 255 255 255 255 255 255 255 255 255 255 255 255 255 255 255 255 255 255 255 255 255 255 255 255 255 255 255 255 255 255 255 255 255 255 255 255 255 255 255 255 255 255 255 255 255 255 255 255 255 255 255 255 255 255 255 255 255 255 255 255 255 255 255 255 255 255 255 255 255 255 255 255 255 255 255 255 255 255 255 255 255 255 255 255 255 255 255 255 255 255 255 255 255 255 255 255 255 255 255 255 255 255 255 255 255 255 255 255 255 255 255 255 255 255 255 255 255 255 255 255 255 255 255 255 255 255 255 255 255 255 255 255 255 255 255 255 255 255 255 255 255 255 255 255 255 255 255 255 255 255 255 255 255 255 255 255 
255 255 255 255 255 255 255 255 255 255 255 255 255 255 255 255 255 255 255 255 255 255 255 255 255 255 255 255 255 255 255 255 255 255 255 255 255 255 255 255 255 255 255 255 255 255 255 255 255 255 255 255 255 255 255 255 255 255 255 255 255 255 255 255 255 255 255 255 255 255 255 255 255 255 255 255 255 255 255 255 255 255 255 255 255 255 255 255 255 255 255 255 255 255 255 255 255 255 255 255 255 255 255 255 255 255 255 255 255 255 255 255 255 255 255 255 255 255 255 255 255 255 255 255 255 255 255 255 255 255 255 255 255 255 255 255 255 255 255 255 255 255 255 255 255 255 255 255 255 255 255 255 255 255 255 255 255 255 255 255 255 255 255 255 255 255 255 255 255 255 255 255 255 255 255 255 255 255 255 255 255 255 255 255 255 255 255 255 255 255 255 255 255 255 255 255 255 255 255 255 255 255 255 255 255 255 255 255 255 255 255 255 255 255 255 255 255 255 255 255 255 255 255 255 255 255 255 255 255 255 255 255 255 255 255 255 255 255 255 255 255 255 255 255 255 255 255 255 255 255 255 255 255 255 255 255 255 255 255 255 255 255 255 255 255 255 255 255 255 255 255 255 255 255 255 255 255 255 255 255 255 255 255 255 255 255 255 255 255 255 255 255 255 255 255 255 255 255 255 255 
255 255 255 255 255 255 255 255 255 255 255 255 255 255 255 255 255 255 255 255 255 255 255 255 255 255 255 255 255 255 255 255 255 255 255 255 255 255 255 255 255 255 255 255 255 255 255 255 255 255 255 255 255 255 255 255 255 255 255 255 255 255 255 255 255 255 255 255 255 255 255 255 255 255 255 255 255 255 255 255 255 255 255 255 255 255 255 255 255 255 255 255 255 255 255 255 255 255 255 255 255 255 255 255 255 255 255 255 255 255 255 255 255 255 255 255 255 255 255 255 255 255 255 255 255 255 255 255 255 255 255 255 255 255 255 255 255 255 255 255 255 255 255 255 255 255 255 255 255 255 255 255 255 255 255 255 255 255 255 255 255 255 255 255 255 255 255 255 255 255 255 255 255 255 255 255 255 255 255 255 255 255 255 255 255 255 255 255 255 255 255 255 255 255 255 255 255 255 255 255 255 255 255 255 255 255 255 255 255 255 255 255 255 255 255 255 255 255 255 255 255 255 255 255 255 255 255 255 255 255 255 255 255 255 255 255 255 255 255 255 255 255 255 255 255 255 255 255 255 255 255 255 255 255 255 255 255 255 255 255 255 255 255 255 255 255 255 255 255 255 255 255 255 255 255 255 255 255 255 255 255 255 255 255 255 255 255 255 255 255 255 255 255 255 255 255 255 255 255 255 
255 255 255 255 255 255 255 255 255 255 255 255 255 255 255 255 255 255 255 255 255 255 255 255 255 255 255 255 255 255 255 255 255 255 255 255 255 255 255 255 255 255 255 255 255 255 255 255 255 255 255 255 255 255 255 255 255 255 255 255 255 255 255 255 255 255 255 255 255 255 255 255 255 255 255 255 255 255 255 255 255 255 255 255 255 255 255 255 255 255 255 255 255 255 255 255 255 255 255 255 255 255 255 255 255 255 255 255 255 255 255 255 255 255 255 255 255 255 255 255 255 255 255 255 255 255 255 255 255 255 255 255 255 255 255 255 255 255 255 255 255 255 255 255 255 255 255 255 255 255 255 255 255 255 255 255 255 255 255 255 255 255 255 255 255 255 255 255 255 255 255 255 255 255 255 255 255 255 255 255 255 255 255 255 255 255 255 255 255 255 255 255 255 255 255 255 255 255 255 255 255 255 255 255 255 255 255 255 255 255 255 255 255 255 255 255 255 255 255 255 255 255 255 255 255 255 255 255 255 255 255 255 255 255 255 255 255 255 255 255 255 255 255 255 255 255 255 255 255 255 255 255 255 255 255 255 255 255 255 255 255 255 255 255 255 255 255 255 255 255 255 255 255 255 255 255 255 255 255 255 255 255 255 255 255 255 255 255 255 255 255 255 255 255 255 255 255 255 255 255 
255 255 255 255 255 255 255 255 255 255 255 255 255 255 255 255 255 255 255 255 255 255 255 255 255 255 255 255 255 255 255 255 255 255 255 255 255 255 255 255 255 255 255 255 255 255 255 255 255 255 255 255 255 255 255 255 255 255 255 255 255 255 255 255 255 255 255 255 255 255 255 255 255 255 255 255 255 255 255 255 255 255 255 255 255 255 255 255 255 255 255 255 255 255 255 255 255 255 255 255 255 255 255 255 255 255 255 255 255 255 255 255 255 255 255 255 255 255 255 255 255 255 255 255 255 255 255 255 255 255 255 255 255 255 255 255 255 255 255 255 255 255 255 255 255 255 255 255 255 255 255 255 255 255 255 255 255 255 255 255 255 255 255 255 255 255 255 255 255 255 255 255 255 255 255 255 255 255 255 255 255 255 255 255 255 255 255 255 255 255 255 255 255 255 255 255 255 255 255 255 255 255 255 255 255 255 255 255 255 255 255 255 255 255 255 255 255 255 255 255 255 255 255 255 255 255 255 255 255 255 255 255 255 255 255 255 255 255 255 255 255 255 255 255 255 255 255 255 255 255 255 255 255 255 255 255 255 255 255 255 255 255 255 255 255 255 255 255 255 255 255 255 255 255 255 255 255 255 255 255 255 255 255 255 255 255 255 255 255 255 255 255 255 255 255 255 255 255 255 255 
255 255 255 255 255 255 255 255 255 255 255 255 255 255 255 255 255 255 255 255 255 255 255 255 255 255 255 255 255 255 255 255 255 255 255 255 255 255 255 255 255 255 255 255 255 255 255 255 255 255 255 255 255 255 255 255 255 255 255 255 255 255 255 255 255 255 255 255 255 255 255 255 255 255 255 255 255 255 255 255 255 255 255 255 255 255 255 255 255 255 255 255 255 255 255 255 255 255 255 255 255 255 255 255 255 255 255 255 255 255 255 255 255 255 255 255 255 255 255 255 255 255 255 255 255 255 255 255 255 255 255 255 255 255 255 255 255 255 255 255 255 255 255 255 255 255 255 255 255 255 255 255 255 255 255 255 255 255 255 255 255 255 255 255 255 255 255 255 255 255 255 255 255 255 255 255 255 255 255 255 255 255 255 255 255 255 255 255 255 255 255 255 255 255 255 255 255 255 255 255 255 255 255 255 255 255 255 255 255 255 255 255 255 255 255 255 255 255 255 255 255 255 255 255 255 255 255 255 255 255 255 255 255 255 255 255 255 255 255 255 255 255 255 255 255 255 255 255 255 255 255 255 255 255 255 255 255 255 255 255 255 255 255 255 255 255 255 255 255 255 255 255 255 255 255 255 255 255 255 255 255 255 255 255 255 255 255 255 255 255 255 255 255 255 255 255 255 255 255 255 
255 255 255 255 255 255 255 255 255 255 255 255 255 255 255 255 255 255 255 255 255 255 255 255 255 255 255 255 255 255 255 255 255 255 255 255 255 255 255 255 255 255 255 255 255 255 255 255 255 255 255 255 255 255 255 255 255 255 255 255 255 255 255 255 255 255 255 255 255 255 255 255 255 255 255 255 255 255 255 255 255 255 255 255 255 255 255 255 255 255 255 255 255 255 255 255 255 255 255 255 255 255 255 255 255 255 255 255 255 255 255 255 255 255 255 255 255 255 255 255 255 255 255 255 255 255 255 255 255 255 255 255 255 255 255 255 255 255 255 255 255 255 255 255 255 255 255 255 255 255 255 255 255 255 255 255 255 255 255 255 255 255 255 255 255 255 255 255 255 255 255 255 255 255 255 255 255 255 255 255 255 255 255 255 255 255 255 255 255 255 255 255 255 255 255 255 255 255 255 255 255 255 255 255 255 255 255 255 255 255 255 255 255 255 255 255 255 255 255 255 255 255 255 255 255 255 255 255 255 255 255 255 255 255 255 255 255 255 255 255 255 255 255 255 255 255 255 255 255 255 255 255 255 255 255 255 255 255 255 255 255 255 255 255 255 255 255 255 255 255 255 255 255 255 255 255 255 255 255 255 255 255 255 255 255 255 255 255 255 255 255 255 255 255 255 255 255 255 255 255 
255 255 255 255 255 255 255 255 255 255 255 255 255 255 255 255 255 255 255 255 255 255 255 255 255 255 255 255 255 255 255 255 255 255 255 255 255 255 255 255 255 255 255 255 255 255 255 255 255 255 255 255 255 255 255 255 255 255 255 255 255 255 255 255 255 255 255 255 255 255 255 255 255 255 255 255 255 255 255 255 255 255 255 255 255 255 255 255 255 255 255 255 255 255 255 255 255 255 255 255 255 255 255 255 255 255 255 255 255 255 255 255 255 255 255 255 255 255 255 255 255 255 255 255 255 255 255 255 255 255 255 255 255 255 255 255 255 255 255 255 255 255 255 255 255 255 255 255 255 255 255 255 255 255 255 255 255 255 255 255 255 255 255 255 255 255 255 255 255 255 255 255 255 255 255 255 255 255 255 255 255 255 255 255 255 255 255 255 255 255 255 255 255 255 255 255 255 255 255 255 255 255 255 255 255 255 255 255 255 255 255 255 255 255 255 255 255 255 255 255 255 255 255 255 255 255 255 255 255 255 255 255 255 255 255 255 255 255 255 255 255 255 255 255 255 255 255 255 255 255 255 255 255 255 255 255 255 255 255 255 255 255 255 255 255 255 255 255 255 255 255 255 255 255 255 255 255 255 255 255 255 255 255 255 255 255 255 255 255 255 255 255 255 255 255 255 255 255 255 255 
255 255 255 255 255 255 255 255 255 255 255 255 255 255 255 255 255 255 255 255 255 255 255 255 255 255 255 255 255 255 255 255 255 255 255 255 255 255 255 255 255 255 255 255 255 255 255 255 255 255 255 255 255 255 255 255 255 255 255 255 255 255 255 255 255 255 255 255 255 255 255 255 255 255 255 255 255 255 255 255 255 255 255 255 255 255 255 255 255 255 255 255 255 255 255 255 255 255 255 255 255 255 255 255 255 255 255 255 255 255 255 255 255 255 255 255 255 255 255 255 255 255 255 255 255 255 255 255 255 255 255 255 255 255 255 255 255 255 255 255 255 255 255 255 255 255 255 255 255 255 255 255 255 255 255 255 255 255 255 255 255 255 255 255 255 255 255 255 255 255 255 255 255 255 255 255 255 255 255 255 255 255 255 255 255 255 255 255 255 255 255 255 255 255 255 255 255 255 255 255 255 255 255 255 255 255 255 255 255 255 255 255 255 255 255 255 255 255 255 255 255 255 255 255 255 255 255 255 255 255 255 255 255 255 255 255 255 255 255 255 255 255 255 255 255 255 255 255 255 255 255 255 255 255 255 255 255 255 255 255 255 255 255 255 255 255 255 255 255 255 255 255 255 255 255 255 255 255 255 255 255 255 255 255 255 255 255 255 255 255 255 255 255 255 255 255 255 255 255 255 
255 255 255 255 255 255 255 255 255 255 255 255 255 255 255 255 255 255 255 255 255 255 255 255 255 255 255 255 255 255 255 255 255 255 255 255 255 255 255 255 255 255 255 255 255 255 255 255 255 255 255 255 255 255 255 255 255 255 255 255 255 255 255 255 255 255 255 255 255 255 255 255 255 255 255 255 255 255 255 255 255 255 255 255 255 255 255 255 255 255 255 255 255 255 255 255 255 255 255 255 255 255 255 255 255 255 255 255 255 255 255 255 255 255 255 255 255 255 255 255 255 255 255 255 255 255 255 255 255 255 255 255 255 255 255 255 255 255 255 255 255 255 255 255 255 255 255 255 255 255 255 255 255 255 255 255 255 255 255 255 255 255 255 255 255 255 255 255 255 255 255 255 255 255 255 255 255 255 255 255 255 255 255 255 255 255 255 255 255 255 255 255 255 255 255 255 255 255 255 255 255 255 255 255 255 255 255 255 255 255 255 255 255 255 255 255 255 255 255 255 255 255 255 255 255 255 255 255 255 255 255 255 255 255 255 255 255 255 255 255 255 255 255 255 255 255 255 255 255 255 255 255 255 255 255 255 255 255 255 255 255 255 255 255 255 255 255 255 255 255 255 255 255 255 255 255 255 255 255 255 255 255 255 255 255 255 255 255 255 255 255 255 255 255 255 255 255 255 255 255 
255 255 255 255 255 255 255 255 255 255 255 255 255 255 255 255 255 255 255 255 255 255 255 255 255 255 255 255 255 255 255 255 255 255 255 255 255 255 255 255 255 255 255 255 255 255 255 255 255 255 255 255 255 255 255 255 255 255 255 255 255 255 255 255 255 255 255 255 255 255 255 255 255 255 255 255 255 255 255 255 255 255 255 255 255 255 255 255 255 255 255 255 255 255 255 255 255 255 255 255 255 255 255 255 255 255 255 255 255 255 255 255 255 255 255 255 255 255 255 255 255 255 255 255 255 255 255 255 255 255 255 255 255 255 255 255 255 255 255 255 255 255 255 255 255 255 255 255 255 255 255 255 255 255 255 255 255 255 255 255 255 255 255 255 255 255 255 255 255 255 255 255 255 255 255 255 255 255 255 255 255 255 255 255 255 255 255 255 255 255 255 255 255 255 255 255 255 255 255 255 255 255 255 255 255 255 255 255 255 255 255 255 255 255 255 255 255 255 255 255 255 255 255 255 255 255 255 255 255 255 255 255 255 255 255 255 255 255 255 255 255 255 255 255 255 255 255 255 255 255 255 255 255 255 255 255 255 255 255 255 255 255 255 255 255 255 255 255 255 255 255 255 255 255 255 255 255 255 255 255 255 255 255 255 255 255 255 255 255 255 255 255 255 255 255 255 255 255 255 255 
255 255 255 255 255 255 255 255 255 255 255 255 255 255 255 255 255 255 255 255 255 255 255 255 255 255 255 255 255 255 255 255 255 255 255 255 255 255 255 255 255 255 255 255 255 255 255 255 255 255 255 255 255 255 255 255 255 255 255 255 255 255 255 255 255 255 255 255 255 255 255 255 255 255 255 255 255 255 255 255 255 255 255 255 255 255 255 255 255 255 255 255 255 255 255 255 255 255 255 255 255 255 255 255 255 255 255 255 255 255 255 255 255 255 255 255 255 255 255 255 255 255 255 255 255 255 255 255 255 255 255 255 255 255 255 255 255 255 255 255 255 255 255 255 255 255 255 255 255 255 255 255 255 255 255 255 255 255 255 255 255 255 255 255 255 255 255 255 255 255 255 255 255 255 255 255 255 255 255 255 255 255 255 255 255 255 255 255 255 255 255 255 255 255 255 255 255 255 255 255 255 255 255 255 255 255 255 255 255 255 255 255 255 255 255 255 255 255 255 255 255 255 255 255 255 255 255 255 255 255 255 255 255 255 255 255 255 255 255 255 255 255 255 255 255 255 255 255 255 255 255 255 255 255 255 255 255 255 255 255 255 255 255 255 255 255 255 255 255 255 255 255 255 255 255 255 255 255 255 255 255 255 255 255 255 255 255 255 255 255 255 255 255 255 255 255 255 255 255 255 
255 255 255 255 255 255 255 255 255 255 255 255 255 255 255 255 255 255 255 255 255 255 255 255 255 255 255 255 255 255 255 255 255 255 255 255 255 255 255 255 255 255 255 255 255 255 255 255 255 255 255 255 255 255 255 255 255 255 255 255 255 255 255 255 255 255 255 255 255 255 255 255 255 255 255 255 255 255 255 255 255 255 255 255 255 255 255 255 255 255 255 255 255 255 255 255 255 255 255 255 255 255 255 255 255 255 255 255 255 255 255 255 255 255 255 255 255 255 255 255 255 255 255 255 255 255 255 255 255 255 255 255 255 255 255 255 255 255 255 255 255 255 255 255 255 255 255 255 255 255 255 255 255 255 255 255 255 255 255 255 255 255 255 255 255 255 255 255 255 255 255 255 255 255 255 255 255 255 255 255 255 255 255 255 255 255 255 255 255 255 255 255 255 255 255 255 255 255 255 255 255 255 255 255 255 255 255 255 255 255 255 255 255 255 255 255 255 255 255 255 255 255 255 255 255 255 255 255 255 255 255 255 255 255 255 255 255 255 255 255 255 255 255 255 255 255 255 255 255 255 255 255 255 255 255 255 255 255 255 255 255 255 255 255 255 255 255 255 255 255 255 255 255 255 255 255 255 255 255 255 255 255 255 255 255 255 255 255 255 255 255 255 255 255 255 255 255 255 255 255 
255 255 255 255 255 255 255 255 255 255 255 255 255 255 255 255 255 255 255 255 255 255 255 255 255 255 255 255 255 255 255 255 255 255 255 255 255 255 255 255 255 255 255 255 255 255 255 255 255 255 255 255 255 255 255 255 255 255 255 255 255 255 255 255 255 255 255 255 255 255 255 255 255 255 255 255 255 255 255 255 255 255 255 255 255 255 255 255 255 255 255 255 255 255 255 255 255 255 255 255 255 255 255 255 255 255 255 255 255 255 255 255 255 255 255 255 255 255 255 255 255 255 255 255 255 255 255 255 255 255 255 255 255 255 255 255 255 255 255 255 255 255 255 255 255 255 255 255 255 255 255 255 255 255 255 255 255 255 255 255 255 255 255 255 255 255 255 255 255 255 255 255 255 255 255 255 255 255 255 255 255 255 255 255 255 255 255 255 255 255 255 255 255 255 255 255 255 255 255 255 255 255 255 255 255 255 255 255 255 255 255 255 255 255 255 255 255 255 255 255 255 255 255 255 255 255 255 255 255 255 255 255 255 255 255 255 255 255 255 255 255 255 255 255 255 255 255 255 255 255 255 255 255 255 255 255 255 255 255 255 255 255 255 255 255 255 255 255 255 255 255 255 255 255 255 255 255 255 255 255 255 255 255 255 255 255 255 255 255 255 255 255 255 255 255 255 255 255 255 255 
255 255 255 255 255 255 255 255 255 255 255 255 255 255 255 255 255 255 255 255 255 255 255 255 255 255 255 255 255 255 255 255 255 255 255 255 255 255 255 255 255 255 255 255 255 255 255 255 255 255 255 255 255 255 255 255 255 255 255 255 255 255 255 255 255 255 255 255 255 255 255 255 255 255 255 255 255 255 255 255 255 255 255 255 255 255 255 255 255 255 255 255 255 255 255 255 255 255 255 255 255 255 255 255 255 255 255 255 255 255 255 255 255 255 255 255 255 255 255 255 255 255 255 255 255 255 255 255 255 255 255 255 255 255 255 255 255 255 255 255 255 255 255 255 255 255 255 255 255 255 255 255 255 255 255 255 255 255 255 255 255 255 255 255 255 255 255 255 255 255 255 255 255 255 255 255 255 255 255 255 255 255 255 255 255 255 255 255 255 255 255 255 255 255 255 255 255 255 255 255 255 255 255 255 255 255 255 255 255 255 255 255 255 255 255 255 255 255 255 255 255 255 255 255 255 255 255 255 255 255 255 255 255 255 255 255 255 255 255 255 255 255 255 255 255 255 255 255 255 255 255 255 255 255 255 255 255 255 255 255 255 255 255 255 255 255 255 255 255 255 255 255 255 255 255 255 255 255 255 255 255 255 255 255 255 255 255 255 255 255 255 255 255 255 255 255 255 255 255 255 
255 255 255 255 255 255 255 255 255 255 255 255 255 255 255 255 255 255 255 255 255 255 255 255 255 255 255 255 255 255 255 255 255 255 255 255 255 255 255 255 255 255 255 255 255 255 255 255 255 255 255 255 255 255 255 255 255 255 255 255 255 255 255 255 255 255 255 255 255 255 255 255 255 255 255 255 255 255 255 255 255 255 255 255 255 255 255 255 255 255 255 255 255 255 255 255 255 255 255 255 255 255 255 255 255 255 255 255 255 255 255 255 255 255 255 255 255 255 255 255 255 255 255 255 255 255 255 255 255 255 255 255 255 255 255 255 255 255 255 255 255 255 255 255 255 255 255 255 255 255 255 255 255 255 255 255 255 255 255 255 255 255 255 255 255 255 255 255 255 255 255 255 255 255 255 255 255 255 255 255 255 255 255 255 255 255 255 255 255 255 255 255 255 255 255 255 255 255 255 255 255 255 255 255 255 255 255 255 255 255 255 255 255 255 255 255 255 255 255 255 255 255 255 255 255 255 255 255 255 255 255 255 255 255 255 255 255 255 255 255 255 255 255 255 255 255 255 255 255 255 255 255 255 255 255 255 255 255 255 255 255 255 255 255 255 255 255 255 255 255 255 255 255 255 255 255 255 255 255 255 255 255 255 255 255 255 255 255 255 255 255 255 255 255 255 255 255 255 255 255 
255 255 255 255 255 255 255 255 255 255 255 255 255 255 255 255 255 255 255 255 255 255 255 255 255 255 255 255 255 255 255 255 255 255 255 255 255 255 255 255 255 255 255 255 255 255 255 255 255 255 255 255 255 255 255 255 255 255 255 255 255 255 255 255 255 255 255 255 255 255 255 255 255 255 255 255 255 255 255 255 255 255 255 255 255 255 255 255 255 255 255 255 255 255 255 255 255 255 255 255 255 255 255 255 255 255 255 255 255 255 255 255 255 255 255 255 255 255 255 255 255 255 255 255 255 255 255 255 255 255 255 255 255 255 255 255 255 255 255 255 255 255 255 255 255 255 255 255 255 255 255 255 255 255 255 255 255 255 255 255 255 255 255 255 255 255 255 255 255 255 255 255 255 255 255 255 255 255 255 255 255 255 255 255 255 255 255 255 255 255 255 255 255 255 255 255 255 255 255 255 255 255 255 255 255 255 255 255 255 255 255 255 255 255 255 255 255 255 255 255 255 255 255 255 255 255 255 255 255 255 255 255 255 255 255 255 255 255 255 255 255 255 255 255 255 255 255 255 255 255 255 255 255 255 255 255 255 255 255 255 255 255 255 255 255 255 255 255 255 255 255 255 255 255 255 255 255 255 255 255 255 255 255 255 255 255 255 255 255 255 255 255 255 255 255 255 255 255 255 255 
255 255 255 255 255 255 255 255 255 255 255 255 255 255 255 255 255 255 255 255 255 255 255 255 255 255 255 255 255 255 255 255 255 255 255 255 255 255 255 255 255 255 255 255 255 255 255 255 255 255 255 255 255 255 255 255 255 255 255 255 255 255 255 255 255 255 255 255 255 255 255 255 255 255 255 255 255 255 255 255 255 255 255 255 255 255 255 255 255 255 255 255 255 255 255 255 255 255 255 255 255 255 255 255 255 255 255 255 255 255 255 255 255 255 255 255 255 255 255 255 255 255 255 255 255 255 255 255 255 255 255 255 255 255 255 255 255 255 255 255 255 255 255 255 255 255 255 255 255 255 255 255 255 255 255 255 255 255 255 255 255 255 255 255 255 255 255 255 255 255 255 255 255 255 255 255 255 255 255 255 255 255 255 255 255 255 255 255 255 255 255 255 255 255 255 255 255 255 255 255 255 255 255 255 255 255 255 255 255 255 255 255 255 255 255 255 255 255 255 255 255 255 255 255 255 255 255 255 255 255 255 255 255 255 255 255 255 255 255 255 255 255 255 255 255 255 255 255 255 255 255 255 255 255 255 255 255 255 255 255 255 255 255 255 255 255 255 255 255 255 255 255 255 255 255 255 255 255 255 255 255 255 255 255 255 255 255 255 255 255 255 255 255 255 255 255 255 255 255 255 
255 255 255 255 255 255 255 255 255 255 255 255 255 255 255 255 255 255 255 255 255 255 255 255 255 255 255 255 255 255 255 255 255 255 255 255 255 255 255 255 255 255 255 255 255 255 255 255 255 255 255 255 255 255 255 255 255 255 255 255 255 255 255 255 255 255 255 255 255 255 255 255 255 255 255 255 255 255 255 255 255 255 255 255 255 255 255 255 255 255 255 255 255 255 255 255 255 255 255 255 255 255 255 255 255 255 255 255 255 255 255 255 255 255 255 255 255 255 255 255 255 255 255 255 255 255 255 255 255 255 255 255 255 255 255 255 255 255 255 255 255 255 255 255 255 255 255 255 255 255 255 255 255 255 255 255 255 255 255 255 255 255 255 255 255 255 255 255 255 255 255 255 255 255 255 255 255 255 255 255 255 255 255 255 255 255 255 255 255 255 255 255 255 255 255 255 255 255 255 255 255 255 255 255 255 255 255 255 255 255 255 255 255 255 255 255 255 255 255 255 255 255 255 255 255 255 255 255 255 255 255 255 255 255 255 255 255 255 255 255 255 255 255 255 255 255 255 255 255 255 255 255 255 255 255 255 255 255 255 255 255 255 255 255 255 255 255 255 255 255 255 255 255 255 255 255 255 255 255 255 255 255 255 255 255 255 255 255 255 255 255 255 255 255 255 255 255 255 255 255 
255 255 255 255 255 255 255 255 255 255 255 255 255 255 255 255 255 255 255 255 255 255 255 255 255 255 255 255 255 255 255 255 255 255 255 255 255 255 255 255 255 255 255 255 255 255 255 255 255 255 255 255 255 255 255 255 255 255 255 255 255 255 255 255 255 255 255 255 255 255 255 255 255 255 255 255 255 255 255 255 255 255 255 255 255 255 255 255 255 255 255 255 255 255 255 255 255 255 255 255 255 255 255 255 255 255 255 255 255 255 255 255 255 255 255 255 255 255 255 255 255 255 255 255 255 255 255 255 255 255 255 255 255 255 255 255 255 255 255 255 255 255 255 255 255 255 255 255 255 255 255 255 255 255 255 255 255 255 255 255 255 255 255 255 255 255 255 255 255 255 255 255 255 255 255 255 255 255 255 255 255 255 255 255 255 255 255 255 255 255 255 255 255 255 255 255 255 255 255 255 255 255 255 255 255 255 255 255 255 255 255 255 255 255 255 255 255 255 255 255 255 255 255 255 255 255 255 255 255 255 255 255 255 255 255 255 255 255 255 255 255 255 255 255 255 255 255 255 255 255 255 255 255 255 255 255 255 255 255 255 255 255 255 255 255 255 255 255 255 255 255 255 255 255 255 255 255 255 255 255 255 255 255 255 255 255 255 255 255 255 255 255 255 255 255 255 255 255 255 255 
255 255 255 255 255 255 255 255 255 255 255 255 255 255 255 255 255 255 255 255 255 255 255 255 255 255 255 255 255 255 255 255 255 255 255 255 255 255 255 255 255 255 255 255 255 255 255 255 255 255 255 255 255 255 255 255 255 255 255 255 255 255 255 255 255 255 255 255 255 255 255 255 255 255 255 255 255 255 255 255 255 255 255 255 255 255 255 255 255 255 255 255 255 255 255 255 255 255 255 255 255 255 255 255 255 255 255 255 255 255 255 255 255 255 255 255 255 255 255 255 255 255 255 255 255 255 255 255 255 255 255 255 255 255 255 255 255 255 255 255 255 255 255 255 255 255 255 255 255 255 255 255 255 255 255 255 255 255 255 255 255 255 255 255 255 255 255 255 255 255 255 255 255 255 255 255 255 255 255 255 255 255 255 255 255 255 255 255 255 255 255 255 255 255 255 255 255 255 255 255 255 255 255 255 255 255 255 255 255 255 255 255 255 255 255 255 255 255 255 255 255 255 255 255 255 255 255 255 255 255 255 255 255 255 255 255 255 255 255 255 255 255 255 255 255 255 255 255 255 255 255 255 255 255 255 255 255 255 255 255 255 255 255 255 255 255 255 255 255 255 255 255 255 255 255 255 255 255 255 255 255 255 255 255 255 255 255 255 255 255 255 255 255 255 255 255 255 255 255 255 
255 255 255 255 255 255 255 255 255 255 255 255 255 255 255 255 255 255 255 255 255 255 255 255 255 255 255 255 255 255 255 255 255 255 255 255 255 255 255 255 255 255 255 255 255 255 255 255 255 255 255 255 255 255 255 255 255 255 255 255 255 255 255 255 255 255 255 255 255 255 255 255 255 255 255 255 255 255 255 255 255 255 255 255 255 255 255 255 255 255 255 255 255 255 255 255 255 255 255 255 255 255 255 255 255 255 255 255 255 255 255 255 255 255 255 255 255 255 255 255 255 255 255 255 255 255 255 255 255 255 255 255 255 252 252 255 255 255 251 255 255 255 255 255 255 255 255 255 251 255 255 255 255 255 255 255 255 255 255 255 255 255 255 255 255 251 255 255 255 255 255 255 255 255 255 255 255 255 255 255 255 255 255 255 255 255 255 255 255 255 255 255 255 255 255 255 255 255 255 255 255 255 255 255 255 255 255 255 255 255 255 255 255 255 255 255 255 255 255 255 255 255 255 255 255 255 255 255 255 255 255 255 255 255 255 255 255 255 255 255 255 255 255 255 255 255 255 255 255 255 255 255 255 255 255 255 255 255 255 255 255 255 255 255 255 255 255 255 255 255 255 255 255 255 255 255 255 255 255 255 255 255 255 255 255 255 255 255 255 255 255 255 255 255 255 255 255 255 255 255 
255 255 255 255 255 255 255 255 255 255 255 255 255 255 255 255 255 255 255 255 255 255 255 255 255 255 255 255 255 255 255 255 255 255 255 255 255 255 255 255 255 255 255 255 255 255 255 255 255 255 255 255 255 255 255 255 255 255 255 255 255 255 255 255 255 255 255 255 255 255 255 255 255 255 255 255 255 255 255 255 255 255 255 255 255 255 255 255 255 255 255 255 255 255 255 255 255 255 255 255 255 255 255 255 255 255 255 255 255 255 255 255 255 255 255 255 255 255 255 255 255 255 255 255 255 255 255 255 255 255 255 255 252 254 254 255 255 255 255 255 255 255 255 255 255 255 255 255 255 255 255 254 255 251 255 251 255 255 255 255 255 255 255 255 255 253 253 253 253 253 252 255 255 255 255 255 255 255 255 255 255 255 255 255 255 255 255 255 255 255 255 255 255 255 255 255 255 255 255 255 255 255 255 255 255 255 255 255 255 255 255 255 255 255 255 255 255 255 255 255 255 255 255 255 255 255 255 255 255 255 255 255 255 255 255 255 255 255 255 255 255 255 255 255 255 255 255 255 255 255 255 255 255 255 255 255 255 255 255 255 255 255 255 255 255 255 255 255 255 255 255 255 255 255 255 255 255 255 255 255 255 255 255 255 255 255 255 255 255 255 255 255 255 255 255 255 255 255 255 255 
255 255 255 255 255 255 255 255 255 255 255 255 255 255 255 255 255 255 255 255 255 255 255 255 255 255 255 255 255 255 255 255 255 255 255 255 255 255 255 255 255 255 255 255 255 255 255 255 255 255 255 255 255 255 255 255 255 255 255 255 255 255 255 255 255 255 255 255 255 255 255 255 255 255 255 255 255 255 255 255 255 255 255 255 255 255 255 255 255 255 255 255 255 255 255 255 255 255 255 255 255 255 255 255 255 255 255 255 255 255 255 255 255 255 255 255 255 255 255 255 255 255 255 255 255 252 252 255 255 255 255 255 255 255 255 255 255 255 255 255 255 255 255 255 255 255 255 255 255 255 255 255 255 255 255 255 255 255 255 255 255 255 255 255 255 255 255 255 255 255 255 255 255 255 255 255 252 253 252 255 255 255 255 255 255 255 255 255 255 255 255 255 255 255 255 255 255 255 255 255 255 255 255 255 255 255 255 255 255 255 255 255 255 255 255 255 255 255 255 255 255 255 255 255 255 255 255 255 255 255 255 255 255 255 255 255 255 255 255 255 255 255 255 255 255 255 255 255 255 255 255 255 255 255 255 255 255 255 255 255 255 255 255 255 255 255 255 255 255 255 255 255 255 255 255 255 255 255 255 255 255 255 255 255 255 255 255 255 255 255 255 255 255 255 255 255 255 255 255 255 
255 255 255 255 255 255 255 255 255 255 255 255 255 255 255 255 255 255 255 255 255 255 255 255 255 255 255 255 255 255 255 255 255 255 255 255 255 255 255 255 255 255 255 255 255 255 255 255 255 255 255 255 255 255 255 255 255 255 255 255 255 255 255 255 255 255 255 255 255 255 255 255 255 255 255 255 255 255 255 255 255 255 255 255 255 255 255 255 255 255 255 255 255 255 255 255 255 255 255 255 255 255 255 255 255 255 255 255 255 255 255 255 255 255 255 255 255 255 255 255 255 255 255 252 253 255 255 255 255 255 255 255 255 244 225 215 204 191 189 184 184 182 179 177 177 178 178 176 176 182 185 197 208 223 241 255 255 255 255 255 255 255 255 255 255 255 255 255 255 255 255 255 255 255 255 255 255 255 254 253 251 255 255 255 255 255 255 255 255 255 255 255 255 255 255 255 255 255 255 255 255 255 255 255 255 255 255 255 255 255 255 255 255 255 255 255 255 255 255 255 255 255 255 255 255 255 255 255 255 255 255 255 255 255 255 255 255 255 255 255 255 255 255 255 255 255 255 255 255 255 255 255 255 255 255 255 255 255 255 255 255 255 255 255 255 255 255 255 255 255 255 255 255 255 255 255 255 255 255 255 255 255 255 255 255 255 255 255 255 255 255 255 255 255 255 255 255 255 255 255 
255 255 255 255 255 255 255 255 255 255 255 255 255 255 255 255 255 255 255 255 255 255 255 255 255 255 255 255 255 255 255 255 255 255 255 255 255 255 255 255 255 255 255 255 255 255 255 255 255 255 255 255 255 255 255 255 255 255 255 255 255 255 255 255 255 255 255 255 255 255 255 255 255 255 255 255 255 255 255 255 255 255 255 255 255 255 255 255 255 255 255 255 255 255 255 255 255 255 255 255 255 255 255 255 255 255 255 255 255 255 255 255 255 255 255 255 255 255 255 255 255 255 255 255 255 255 255 255 237 213 197 190 180 186 187 192 195 204 205 206 207 208 211 207 208 208 209 203 209 202 196 194 187 179 174 170 175 184 158 247 255 255 255 255 255 255 255 255 255 255 255 255 255 255 255 255 255 255 255 255 255 255 255 255 255 255 255 255 255 255 255 255 255 255 255 255 255 255 255 255 255 255 255 255 255 255 255 255 255 255 255 255 255 255 255 255 255 255 255 255 255 255 255 255 255 255 255 255 255 255 255 255 255 255 255 255 255 255 255 255 255 255 255 255 255 255 255 255 255 255 255 255 255 255 255 255 255 255 255 255 255 255 255 255 255 255 255 255 255 255 255 255 255 255 255 255 255 255 255 255 255 255 255 255 255 255 255 255 255 255 255 255 255 255 255 255 255 255 255 255 
255 255 255 255 255 255 255 255 255 255 255 255 255 255 255 255 255 255 255 255 255 255 255 255 255 255 255 255 255 255 255 255 255 255 255 255 255 255 255 255 255 255 255 255 255 255 255 255 255 255 255 255 255 255 255 255 255 255 255 255 255 255 255 255 255 255 255 255 255 255 255 255 255 255 255 255 255 255 255 255 255 255 255 255 255 255 255 255 255 255 255 255 255 255 255 255 255 255 255 255 255 255 255 255 255 255 255 255 255 255 255 252 252 255 251 255 255 255 255 255 255 255 255 255 241 208 192 182 185 189 202 204 213 207 213 212 212 212 211 215 214 216 211 213 213 213 213 213 212 213 214 216 214 213 211 200 190 197 192 255 255 234 200 168 144 130 127 123 120 128 129 141 158 182 207 247 255 255 255 255 255 255 255 255 252 252 255 255 255 255 255 255 255 255 255 255 255 255 255 255 255 255 255 255 255 255 255 255 255 255 255 255 255 255 255 255 255 255 255 255 255 255 255 255 255 255 255 255 255 255 255 255 255 255 255 255 255 255 255 255 255 255 255 255 255 255 255 255 255 255 255 255 255 255 255 255 255 255 255 255 255 255 255 255 255 255 255 255 255 255 255 255 255 255 255 255 255 255 255 255 255 255 255 255 255 255 255 255 255 255 255 255 255 255 255 255 255 255 255 255 
255 255 255 255 255 255 255 255 255 255 255 255 255 255 255 255 255 255 255 255 255 255 255 255 255 255 255 255 255 255 255 255 255 255 255 255 255 255 255 255 255 255 255 255 255 255 255 255 255 255 255 255 255 255 255 255 255 255 255 255 255 255 255 255 255 255 255 255 255 255 255 255 255 255 255 255 255 255 255 255 255 255 255 255 255 255 255 255 255 255 255 255 255 255 255 255 255 255 255 255 255 255 255 255 255 255 255 255 255 255 255 253 254 252 254 253 255 255 255 255 255 228 198 182 186 198 205 209 215 216 210 210 214 213 217 215 216 212 212 216 216 211 213 213 213 213 211 217 215 216 217 214 214 210 196 224 255 255 252 172 136 110 115 126 135 142 144 153 148 147 146 136 131 120 116 115 138 184 233 255 255 255 255 255 254 254 252 255 255 255 255 255 255 255 255 255 255 255 255 255 255 255 255 255 255 255 255 255 255 255 255 255 255 255 255 255 255 255 255 255 255 255 255 255 255 255 255 255 255 255 255 255 255 255 255 255 255 255 255 255 255 255 255 255 255 255 255 255 255 255 255 255 255 255 255 255 255 255 255 255 255 255 255 255 255 255 255 255 255 255 255 255 255 255 255 255 255 255 255 255 255 255 255 255 255 255 255 255 255 255 255 255 255 255 255 255 255 255 255 255 
255 255 255 255 255 255 255 255 255 255 255 255 255 255 255 255 255 255 255 255 255 255 255 255 255 255 255 255 255 255 255 255 255 255 255 255 255 255 255 255 255 255 255 255 255 255 255 255 255 255 255 255 255 255 255 255 255 255 255 255 255 255 255 255 255 255 255 255 255 255 255 255 255 255 255 255 255 255 255 255 255 255 255 255 255 255 255 255 255 255 255 255 255 255 255 255 255 255 255 255 255 255 255 255 255 255 255 255 255 255 255 253 253 255 255 255 255 255 226 198 183 190 202 207 214 213 213 211 215 215 215 215 214 214 212 217 216 213 214 213 213 215 215 214 214 214 220 212 219 213 215 217 206 214 248 255 215 146 119 128 148 163 167 167 174 168 170 165 167 167 167 169 164 168 157 150 135 113 117 145 203 241 255 255 255 255 253 255 255 255 255 255 255 255 255 255 255 255 255 255 255 255 255 255 255 255 255 255 255 255 255 255 255 255 255 255 255 255 255 255 255 255 255 255 255 255 255 255 255 255 255 255 255 255 255 255 255 255 255 255 255 255 255 255 255 255 255 255 255 255 255 255 255 255 255 255 255 255 255 255 255 255 255 255 255 255 255 255 255 255 255 255 255 255 255 255 255 255 255 255 255 255 255 255 255 255 255 255 255 255 255 255 255 255 255 255 255 255 255 255 
255 255 255 255 255 255 255 255 255 255 255 255 255 255 255 255 255 255 255 255 255 255 255 255 255 255 255 255 255 255 255 255 255 255 255 255 255 255 255 255 255 255 255 255 255 255 255 255 255 255 255 255 255 255 255 255 255 255 255 255 255 255 255 255 255 255 255 255 255 255 255 255 255 255 255 255 255 255 255 255 255 255 255 255 255 255 255 255 255 255 255 255 255 255 255 255 255 255 255 255 255 255 255 255 255 255 255 255 255 255 252 255 255 255 255 237 207 183 193 204 211 213 212 217 215 214 213 218 217 211 217 216 215 215 215 214 220 214 215 215 216 211 212 217 218 213 213 214 213 213 222 201 214 227 215 157 142 146 159 168 172 171 166 169 165 168 170 167 169 169 167 167 168 162 164 165 167 164 151 127 110 143 193 235 255 255 255 252 255 255 255 255 255 255 255 255 255 255 255 255 255 255 255 255 255 255 255 255 255 255 255 255 255 255 255 255 255 255 255 255 255 255 255 255 255 255 255 255 255 255 255 255 255 255 255 255 255 255 255 255 255 255 255 255 255 255 255 255 255 255 255 255 255 255 255 255 255 255 255 255 255 255 255 255 255 255 255 255 255 255 255 255 255 255 255 255 255 255 255 255 255 255 255 255 255 255 255 255 255 255 255 255 255 255 255 255 255 255 255 255 
255 255 255 255 255 255 255 255 255 255 255 255 255 255 255 255 255 255 255 255 255 255 255 255 255 255 255 255 255 255 255 255 255 255 255 255 255 255 255 255 255 255 255 255 255 255 255 255 255 255 255 255 255 255 255 255 255 255 255 255 255 255 255 255 255 255 255 255 255 255 255 255 255 255 255 255 255 255 255 255 255 255 255 255 255 255 255 255 255 255 255 255 255 255 255 255 255 255 255 255 255 255 255 255 255 255 255 255 255 255 255 255 255 227 191 186 196 211 211 216 214 214 215 213 212 217 216 214 214 215 214 213 218 217 218 213 212 218 217 217 217 220 216 217 212 214 213 212 212 225 198 210 216 207 188 155 156 168 169 170 166 169 175 176 173 176 176 174 170 168 175 169 170 172 173 168 166 167 166 165 154 135 116 150 186 249 255 255 252 255 255 255 255 255 255 255 255 255 255 255 255 255 255 255 255 255 255 255 255 255 255 255 255 255 255 255 255 255 255 255 255 255 255 255 255 255 255 255 255 255 255 255 255 255 255 255 255 255 255 255 255 255 255 255 255 255 255 255 255 255 255 255 255 255 255 255 255 255 255 255 255 255 255 255 255 255 255 255 255 255 255 255 255 255 255 255 255 255 255 255 255 255 255 255 255 255 255 255 255 255 255 255 255 255 255 255 255 255 255 255 
255 255 255 255 255 255 255 255 255 255 255 255 255 255 255 255 255 255 255 255 255 255 255 255 255 255 255 255 255 255 255 255 255 255 255 255 255 255 255 255 255 255 255 255 255 255 255 255 255 255 255 255 255 255 255 255 255 255 255 255 255 255 255 255 255 255 255 255 255 255 255 255 255 255 255 255 255 255 255 255 255 255 255 255 255 255 255 255 255 255 255 255 255 255 255 255 255 255 255 255 255 251 255 255 255 255 252 255 255 255 255 217 183 192 206 212 217 215 215 212 217 216 211 217 215 214 213 218 217 217 217 216 216 216 215 217 217 216 216 216 218 214 211 213 213 211 214 220 220 203 200 237 220 202 142 156 172 167 171 173 173 176 176 181 185 180 177 184 183 183 187 185 179 169 165 169 171 173 162 168 170 163 153 133 132 152 218 255 255 252 255 255 255 255 255 255 255 255 255 255 255 255 255 255 255 255 255 255 255 255 255 255 255 255 255 255 255 255 255 255 255 255 255 255 255 255 255 255 255 255 255 255 255 255 255 255 255 255 255 255 255 255 255 255 255 255 255 255 255 255 255 255 255 255 255 255 255 255 255 255 255 255 255 255 255 255 255 255 255 255 255 255 255 255 255 255 255 255 255 255 255 255 255 255 255 255 255 255 255 255 255 255 255 255 255 255 255 255 255 255 
255 255 255 255 255 255 255 255 255 255 255 255 255 255 255 255 255 255 255 255 255 255 255 255 255 255 255 255 255 255 255 255 255 255 255 255 255 255 255 255 255 255 255 255 255 255 255 255 255 255 255 255 255 255 255 255 255 255 255 255 255 255 255 255 255 255 255 255 255 255 255 255 255 255 255 255 255 255 255 255 255 255 255 255 255 255 255 255 255 255 255 255 255 255 255 255 255 255 255 255 255 252 251 255 255 253 255 255 255 220 187 194 210 212 218 211 216 214 212 217 214 219 214 213 218 217 217 216 215 216 215 220 214 215 221 214 216 217 216 218 213 215 217 211 214 220 226 221 197 198 249 243 200 153 158 171 168 173 177 177 183 190 160 113 76 34 20 11 18 25 39 74 123 155 173 184 163 153 172 168 166 167 165 163 147 132 129 203 255 255 252 255 255 255 255 255 255 255 255 255 255 255 255 255 255 255 255 255 255 255 255 255 255 255 255 255 255 255 255 255 255 255 255 255 255 255 255 255 255 255 255 255 255 255 255 255 255 255 255 255 255 255 255 255 255 255 255 255 255 255 255 255 255 255 255 255 255 255 255 255 255 255 255 255 255 255 255 255 255 255 255 255 255 255 255 255 255 255 255 255 255 255 255 255 255 255 255 255 255 255 255 255 255 255 255 255 255 255 255 255 
255 255 255 255 255 255 255 255 255 255 255 255 255 255 255 255 255 255 255 255 255 255 255 255 255 255 255 255 255 255 255 255 255 255 255 255 255 255 255 255 255 255 255 255 255 255 255 255 255 255 255 255 255 255 255 255 255 255 255 255 255 255 255 255 255 255 255 255 255 255 255 255 255 255 255 255 255 255 255 255 255 255 255 255 255 255 255 255 255 255 255 255 255 255 255 255 255 255 255 255 255 255 255 255 255 255 255 222 185 195 212 211 212 213 213 214 212 215 218 215 214 217 216 217 215 216 215 214 220 214 214 218 219 215 214 220 216 212 218 213 215 214 214 212 225 220 209 193 218 255 255 190 148 159 170 171 179 176 190 165 98 29 0 0 21 54 64 60 59 45 25 10 2 9 50 127 179 180 157 146 175 167 165 167 162 153 137 114 183 255 255 252 255 255 255 255 255 255 255 255 255 255 255 255 255 255 255 255 255 255 255 255 255 255 255 255 255 255 255 255 255 255 255 255 255 255 255 255 255 255 255 255 255 255 255 255 255 255 255 255 255 255 255 255 255 255 255 255 255 255 255 255 255 255 255 255 255 255 255 255 255 255 255 255 255 255 255 255 255 255 255 255 255 255 255 255 255 255 255 255 255 255 255 255 255 255 255 255 255 255 255 255 255 255 255 255 255 255 255 255 
255 255 255 255 255 255 255 255 255 255 255 255 255 255 255 255 255 255 255 255 255 255 255 255 255 255 255 255 255 255 255 255 255 255 255 255 255 255 255 255 255 255 255 255 255 255 255 255 255 255 255 255 255 255 255 255 255 255 255 255 255 255 255 255 255 255 255 255 255 255 255 255 255 255 255 255 255 255 255 255 255 255 255 255 255 255 255 255 255 255 255 255 255 255 255 255 255 255 255 255 255 255 255 255 255 233 191 196 208 218 212 215 216 213 210 211 210 212 213 217 214 216 221 214 221 213 219 218 217 218 218 217 218 215 214 220 216 211 218 213 213 217 215 221 238 190 172 215 255 255 189 149 158 171 170 177 184 172 73 5 20 80 126 150 152 153 150 152 153 150 147 142 102 54 27 17 51 132 191 184 133 166 169 168 165 166 160 146 106 183 255 255 255 255 255 255 255 255 255 255 255 255 255 255 255 255 255 255 255 255 255 255 255 255 255 255 255 255 255 255 255 255 255 255 255 255 255 255 255 255 255 255 255 255 255 255 255 255 255 255 255 255 255 255 255 255 255 255 255 255 255 255 255 255 255 255 255 255 255 255 255 255 255 255 255 255 255 255 255 255 255 255 255 255 255 255 255 255 255 255 255 255 255 255 255 255 255 255 255 255 255 255 255 255 255 255 255 255 255 255 
255 255 255 255 255 255 255 255 255 255 255 255 255 255 255 255 255 255 255 255 255 255 255 255 255 255 255 255 255 255 255 255 255 255 255 255 255 255 255 255 255 255 255 255 255 255 255 255 255 255 255 255 255 255 255 255 255 255 255 255 255 255 255 255 255 255 255 255 255 255 255 255 255 255 255 255 255 255 255 255 255 255 255 255 255 255 255 255 255 255 255 255 255 255 255 255 255 255 255 255 255 255 255 245 206 189 213 214 216 215 218 213 215 213 211 212 211 213 215 212 215 218 215 215 214 219 217 217 217 217 217 217 218 214 220 214 215 222 214 216 215 219 218 232 179 140 235 255 255 196 151 155 171 169 178 212 94 32 23 110 141 136 123 117 116 118 118 126 126 126 129 135 133 137 121 68 20 25 97 192 191 157 145 178 168 166 162 158 146 101 200 255 255 255 255 255 255 255 255 255 255 255 255 255 255 255 255 255 255 255 255 255 255 255 255 255 255 255 255 255 255 255 255 255 255 255 255 255 255 255 255 255 255 255 255 255 255 255 255 255 255 255 255 255 255 255 255 255 255 255 255 255 255 255 255 255 255 255 255 255 255 255 255 255 255 255 255 255 255 255 255 255 255 255 255 255 255 255 255 255 255 255 255 255 255 255 255 255 255 255 255 255 255 255 255 255 255 255 255 255 
255 255 255 255 255 255 255 255 255 255 255 255 255 255 255 255 255 255 255 255 255 255 255 255 255 255 255 255 255 255 255 255 255 255 255 255 255 255 255 255 255 255 255 255 255 255 255 255 255 255 255 255 255 255 255 255 255 255 255 255 255 255 255 255 255 255 255 255 255 255 255 255 255 255 255 255 255 255 255 255 255 255 255 255 255 255 255 255 255 255 255 255 255 255 255 255 255 255 251 255 255 255 226 192 204 216 217 214 215 216 211 214 215 213 210 212 211 213 215 213 216 212 216 221 214 219 218 217 217 217 218 218 219 214 219 214 215 213 219 218 219 218 220 228 167 203 255 255 210 148 155 169 175 182 189 67 11 95 135 115 108 106 129 139 149 158 159 163 165 166 169 167 164 157 166 162 127 41 2 75 172 221 168 125 177 165 165 161 155 143 102 235 255 255 251 255 255 255 255 255 255 255 255 255 255 255 255 255 255 255 255 255 255 255 255 255 255 255 255 255 255 255 255 255 255 255 255 255 255 255 255 255 255 255 255 255 255 255 255 255 255 255 255 255 255 255 255 255 255 255 255 255 255 255 255 255 255 255 255 255 255 255 255 255 255 255 255 255 255 255 255 255 255 255 255 255 255 255 255 255 255 255 255 255 255 255 255 255 255 255 255 255 255 255 255 255 255 255 255 255 
255 255 255 255 255 255 255 255 255 255 255 255 255 255 255 255 255 255 255 255 255 255 255 255 255 255 255 255 255 255 255 255 255 255 255 255 255 255 255 255 255 255 255 255 255 255 255 255 255 255 255 255 255 255 255 255 255 255 255 255 255 255 255 255 255 255 255 255 255 255 255 255 255 255 255 255 255 255 255 255 255 255 255 255 255 255 255 255 255 255 255 255 255 255 255 255 255 252 255 255 248 205 195 212 216 216 218 214 215 214 217 213 215 211 214 211 210 213 215 212 215 218 216 215 215 214 213 218 217 218 213 214 215 214 218 218 218 218 217 219 215 218 217 199 205 255 255 240 164 149 172 172 188 164 50 39 124 98 95 107 137 146 150 159 162 161 162 159 162 156 161 160 164 152 153 148 153 172 84 0 40 179 237 168 126 179 163 161 162 154 132 131 255 255 253 255 255 255 255 255 255 255 255 255 255 255 255 255 255 255 255 255 255 255 255 255 255 255 255 255 255 255 255 255 255 255 255 255 255 255 255 255 255 255 255 255 255 255 255 255 255 255 255 255 255 255 255 255 255 255 255 255 255 255 255 255 255 255 255 255 255 255 255 255 255 255 255 255 255 255 255 255 255 255 255 255 255 255 255 255 255 255 255 255 255 255 255 255 255 255 255 255 255 255 255 255 255 255 255 255 
255 255 255 255 255 255 255 255 255 255 255 255 255 255 255 255 255 255 255 255 255 255 255 255 255 255 255 255 255 255 255 255 255 255 255 255 255 255 255 255 255 255 255 255 255 255 255 255 255 255 255 255 255 255 255 255 255 255 255 255 255 255 255 255 255 255 255 255 255 255 255 255 255 255 255 255 255 255 255 255 255 255 255 255 255 255 255 255 255 255 255 255 255 255 255 255 255 255 255 234 191 207 219 215 216 218 213 215 214 219 215 212 213 214 217 208 215 211 214 217 214 216 215 214 219 218 218 217 217 217 218 219 213 218 216 217 217 217 219 216 215 216 208 176 255 255 255 184 144 168 168 183 177 57 65 100 82 100 137 146 150 154 160 164 157 162 178 195 206 219 226 229 228 226 218 201 190 168 167 122 1 16 180 235 160 128 171 168 166 162 153 107 182 255 255 255 255 255 255 255 255 255 255 255 255 255 255 255 255 255 255 255 255 255 255 255 255 255 255 255 255 255 255 255 255 255 255 255 255 255 255 255 255 255 255 255 255 255 255 255 255 255 255 255 255 255 255 255 255 255 255 255 255 255 255 255 255 255 255 255 255 255 255 255 255 255 255 255 255 255 255 255 255 255 255 255 255 255 255 255 255 255 255 255 255 255 255 255 255 255 255 255 255 255 255 255 255 255 255 255 
255 255 255 255 255 255 255 255 255 255 255 255 255 255 255 255 255 255 255 255 255 255 255 255 255 255 255 255 255 255 255 255 255 255 255 255 255 255 255 255 255 255 255 255 255 255 255 255 255 255 255 255 255 255 255 255 255 255 255 255 255 255 255 255 255 255 255 255 255 255 255 255 255 255 255 255 255 255 255 255 255 255 255 255 255 255 255 255 255 255 255 255 255 251 253 254 255 255 218 191 214 214 215 216 218 213 214 214 213 218 214 216 217 218 212 207 201 203 197 200 195 202 200 201 202 206 210 212 215 217 216 217 217 221 221 217 219 220 217 216 218 212 174 228 255 255 218 145 162 164 180 191 75 52 85 74 132 145 149 158 160 165 162 179 204 228 248 252 254 255 252 252 252 249 250 255 252 249 238 224 189 35 33 188 228 158 146 171 164 163 159 147 99 253 255 255 255 255 255 255 255 255 255 255 255 255 255 255 255 255 255 255 255 255 255 255 255 255 255 255 255 255 255 255 255 255 255 255 255 255 255 255 255 255 255 255 255 255 255 255 255 255 255 255 255 255 255 255 255 255 255 255 255 255 255 255 255 255 255 255 255 255 255 255 255 255 255 255 255 255 255 255 255 255 255 255 255 255 255 255 255 255 255 255 255 255 255 255 255 255 255 255 255 255 255 255 255 255 255 255 
255 255 255 255 255 255 255 255 255 255 255 255 255 255 255 255 255 255 255 255 255 255 255 255 255 255 255 255 255 255 255 255 255 255 255 255 255 255 255 255 255 255 255 255 255 255 255 255 255 255 255 255 255 255 255 255 255 255 255 255 255 255 255 255 255 255 255 255 255 255 255 255 255 255 255 255 255 255 255 255 255 255 255 255 255 255 255 255 255 255 255 255 255 255 255 255 252 211 199 215 219 215 217 218 213 214 219 218 218 218 221 219 205 198 205 218 242 255 255 255 255 255 255 255 255 252 232 223 208 201 212 212 218 217 218 216 213 215 213 214 217 187 192 255 255 254 168 151 168 171 199 106 22 73 83 137 148 156 162 171 165 179 208 237 254 255 255 251 250 244 245 248 241 243 239 236 238 239 242 243 247 233 64 54 198 210 147 164 160 168 162 155 123 159 255 255 255 255 255 255 255 255 255 255 255 255 255 255 255 255 255 255 255 255 255 255 255 255 255 255 255 255 255 255 255 255 255 255 255 255 255 255 255 255 255 255 255 255 255 255 255 255 255 255 255 255 255 255 255 255 255 255 255 255 255 255 255 255 255 255 255 255 255 255 255 255 255 255 255 255 255 255 255 255 255 255 255 255 255 255 255 255 255 255 255 255 255 255 255 255 255 255 255 255 255 255 255 255 255 255 
255 255 255 255 255 255 255 255 255 255 255 255 255 255 255 255 255 255 255 255 255 255 255 255 255 255 255 255 255 255 255 255 255 255 255 255 255 255 255 255 255 255 255 255 255 255 255 255 255 255 255 255 255 255 255 255 255 255 255 255 255 255 255 255 255 255 255 255 255 255 255 255 255 255 255 255 255 255 255 255 255 255 255 255 255 255 255 255 255 255 255 251 255 255 255 243 202 204 215 218 213 217 213 214 215 215 215 215 217 219 179 191 232 255 255 255 255 234 213 198 190 199 199 207 235 250 255 255 255 255 247 217 201 209 215 216 213 217 215 217 203 154 255 255 255 202 141 164 169 186 155 38 57 89 143 150 157 165 170 165 193 230 255 255 255 252 247 248 244 242 245 241 241 240 240 242 239 233 236 238 236 251 235 68 93 212 173 132 167 162 160 159 151 95 244 255 252 255 255 255 255 255 255 255 255 255 255 255 255 255 255 255 255 255 255 255 255 255 255 255 255 255 255 255 255 255 255 255 255 255 255 255 255 255 255 255 255 255 255 255 255 255 255 255 255 255 255 255 255 255 255 255 255 255 255 255 255 255 255 255 255 255 255 255 255 255 255 255 255 255 255 255 255 255 255 255 255 255 255 255 255 255 255 255 255 255 255 255 255 255 255 255 255 255 255 255 255 255 255 255 
255 255 255 255 255 255 255 255 255 255 255 255 255 255 255 255 255 255 255 255 255 255 255 255 255 255 255 255 255 255 255 255 255 255 255 255 255 255 255 255 255 255 255 255 255 255 255 255 255 255 255 255 255 255 255 255 255 255 255 255 255 255 255 255 255 255 255 255 255 255 255 255 255 255 255 255 255 255 255 255 255 255 255 255 255 255 255 255 255 252 253 254 255 255 236 196 213 218 216 217 219 216 213 215 216 217 215 215 196 218 229 255 240 202 178 159 142 128 127 127 126 125 125 121 119 115 122 137 167 215 255 255 255 234 207 198 213 209 217 216 164 187 255 255 253 162 149 166 175 215 52 25 90 134 147 151 170 171 166 205 243 255 255 253 246 246 246 246 249 245 242 246 244 243 243 238 240 239 232 234 230 229 250 206 50 145 216 168 150 163 164 167 154 127 151 255 255 252 255 255 255 255 255 255 255 255 255 255 255 255 255 255 255 255 255 255 255 255 255 255 255 255 255 255 255 255 255 255 255 255 255 255 255 255 255 255 255 255 255 255 255 255 255 255 255 255 255 255 255 255 255 255 255 255 255 255 255 255 255 255 255 255 255 255 255 255 255 255 255 255 255 255 255 255 255 255 255 255 255 255 255 255 255 255 255 255 255 255 255 255 255 255 255 255 255 255 255 255 255 255 
255 255 255 255 255 255 255 255 255 255 255 255 255 255 255 255 255 255 255 255 255 255 255 255 255 255 255 255 255 255 255 255 255 255 255 255 255 255 255 255 255 255 255 255 255 255 255 255 255 255 255 255 255 255 255 255 255 255 255 255 255 255 255 255 255 255 255 255 255 255 255 255 255 255 255 255 255 255 255 255 255 255 255 255 255 255 255 252 253 254 254 255 255 228 199 215 216 219 216 217 218 215 219 215 213 220 199 206 222 236 216 198 202 204 184 179 177 167 166 170 172 173 168 170 165 161 155 146 130 116 124 153 202 255 255 247 207 188 208 203 134 255 255 255 209 143 166 171 196 125 0 74 119 144 153 159 167 176 211 245 255 253 246 245 250 245 246 247 242 251 248 245 244 243 243 239 241 237 236 235 230 234 233 255 124 34 194 205 150 161 158 166 159 154 103 254 255 252 255 255 255 255 255 255 255 255 255 255 255 255 255 255 255 255 255 255 255 255 255 255 255 255 255 255 255 255 255 255 255 255 255 255 255 255 255 255 255 255 255 255 255 255 255 255 255 255 255 255 255 255 255 255 255 255 255 255 255 255 255 255 255 255 255 255 255 255 255 255 255 255 255 255 255 255 255 255 255 255 255 255 255 255 255 255 255 255 255 255 255 255 255 255 255 255 255 255 255 255 255 255 
255 255 255 255 255 255 255 255 255 255 255 255 255 255 255 255 255 255 255 255 255 255 255 255 255 255 255 255 255 255 255 255 255 255 255 255 255 255 255 255 255 255 255 255 255 255 255 255 255 255 255 255 255 255 255 255 255 255 255 255 255 255 255 255 255 255 255 255 255 255 255 255 255 255 255 255 255 255 255 255 255 255 255 255 255 255 255 253 254 254 255 255 229 200 219 215 218 220 216 217 218 216 213 222 215 193 202 226 222 219 230 226 203 185 163 162 162 169 172 173 169 170 171 171 171 173 170 167 171 162 149 133 121 128 181 245 255 255 205 106 183 255 255 248 159 151 167 168 208 38 40 108 148 148 162 167 164 201 249 255 251 251 246 255 253 250 251 251 248 245 244 247 245 244 244 241 236 240 237 235 233 235 240 238 255 69 113 211 179 145 159 161 160 157 113 178 255 255 255 255 255 255 255 255 255 255 255 255 255 255 255 255 255 255 255 255 255 255 255 255 255 255 255 255 255 255 255 255 255 255 255 255 255 255 255 255 255 255 255 255 255 255 255 255 255 255 255 255 255 255 255 255 255 255 255 255 255 255 255 255 255 255 255 255 255 255 255 255 255 255 255 255 255 255 255 255 255 255 255 255 255 255 255 255 255 255 255 255 255 255 255 255 255 255 255 255 255 255 255 255 
255 255 255 255 255 255 255 255 255 255 255 255 255 255 255 255 255 255 255 255 255 255 255 255 255 255 255 255 255 255 255 255 255 255 255 255 255 255 255 255 255 255 255 255 255 255 255 255 255 255 255 255 255 255 255 255 255 255 255 255 255 255 255 255 255 255 255 255 255 255 255 255 255 255 255 255 255 255 255 255 255 255 255 255 255 255 252 254 254 255 255 228 199 218 219 217 219 215 217 217 218 215 223 197 191 199 235 251 255 239 207 171 159 162 162 172 171 175 173 176 173 174 174 172 175 172 171 170 169 172 170 169 160 145 123 124 169 244 255 239 255 255 255 200 144 162 167 186 162 0 82 135 147 155 163 165 195 245 255 254 252 253 254 255 255 255 255 255 255 252 245 249 246 245 245 240 244 235 234 233 230 231 236 234 254 186 49 203 208 168 155 160 159 158 136 124 255 255 255 255 255 255 255 255 255 255 255 255 255 255 255 255 255 255 255 255 255 255 255 255 255 255 255 255 255 255 255 255 255 255 255 255 255 255 255 255 255 255 255 255 255 255 255 255 255 255 255 255 255 255 255 255 255 255 255 255 255 255 255 255 255 255 255 255 255 255 255 255 255 255 255 255 255 255 255 255 255 255 255 255 255 255 255 255 255 255 255 255 255 255 255 255 255 255 255 255 255 255 255 255 
255 255 255 255 255 255 255 255 255 255 255 255 255 255 255 255 255 255 255 255 255 255 255 255 255 255 255 255 255 255 255 255 255 255 255 255 255 255 255 255 255 255 255 255 255 255 255 255 255 255 255 255 255 255 255 255 255 255 255 255 255 255 255 255 255 255 255 255 255 255 255 255 255 255 255 255 255 255 255 255 255 255 255 255 255 255 253 254 255 255 231 202 221 217 216 218 219 216 217 217 217 230 195 181 226 255 255 255 217 183 161 159 163 169 176 172 172 175 172 177 176 177 174 172 171 169 169 174 176 170 168 168 171 165 164 149 130 119 159 217 235 255 243 158 149 166 171 207 95 17 109 148 148 159 166 177 231 255 252 252 252 255 255 255 255 255 255 255 255 255 252 246 249 247 245 247 242 241 240 234 233 230 229 228 230 255 72 131 213 191 146 163 162 161 156 98 249 255 255 255 255 255 255 255 255 255 255 255 255 255 255 255 255 255 255 255 255 255 255 255 255 255 255 255 255 255 255 255 255 255 255 255 255 255 255 255 255 255 255 255 255 255 255 255 255 255 255 255 255 255 255 255 255 255 255 255 255 255 255 255 255 255 255 255 255 255 255 255 255 255 255 255 255 255 255 255 255 255 255 255 255 255 255 255 255 255 255 255 255 255 255 255 255 255 255 255 255 255 255 255 
255 255 255 255 255 255 255 255 255 255 255 255 255 255 255 255 255 255 255 255 255 255 255 255 255 255 255 255 255 255 255 255 255 255 255 255 255 255 255 255 255 255 255 255 255 255 255 255 255 255 255 255 255 255 255 255 255 255 255 255 255 255 255 255 255 255 255 255 255 255 255 255 255 255 255 255 255 255 255 255 255 255 255 255 255 255 253 255 255 238 199 220 220 220 217 218 219 216 217 217 227 185 184 249 255 255 240 197 165 156 163 172 175 177 173 187 193 180 162 145 141 141 144 158 174 189 190 171 154 164 173 169 170 165 168 165 163 155 135 115 130 255 210 147 164 164 173 208 41 50 125 139 153 168 171 208 255 255 254 254 255 255 240 101 9 0 0 46 166 255 255 255 248 244 249 242 245 241 241 235 235 233 234 226 224 238 161 68 200 222 148 158 160 160 153 114 192 255 253 255 255 255 255 255 255 255 255 255 255 255 255 255 255 255 255 255 255 255 255 255 255 255 255 255 255 255 255 255 255 255 255 255 255 255 255 255 255 255 255 255 255 255 255 255 255 255 255 255 255 255 255 255 255 255 255 255 255 255 255 255 255 255 255 255 255 255 255 255 255 255 255 255 255 255 255 255 255 255 255 255 255 255 255 255 255 255 255 255 255 255 255 255 255 255 255 255 255 255 255 255 
255 255 255 255 255 255 255 255 255 255 255 255 255 255 255 255 255 255 255 255 255 255 255 255 255 255 255 255 255 255 255 255 255 255 255 255 255 255 255 255 255 255 255 255 255 255 255 255 255 255 255 255 255 255 255 255 255 255 255 255 255 255 255 255 255 255 255 255 255 255 255 255 255 255 255 255 255 255 255 255 255 255 255 255 255 255 254 255 244 200 219 215 220 216 218 218 219 216 226 228 188 191 255 255 255 228 175 152 160 167 178 170 187 195 145 101 38 2 0 0 0 0 3 3 13 43 96 159 184 194 156 161 173 170 164 170 166 169 166 153 132 185 171 158 166 167 177 194 4 92 187 164 157 166 184 240 255 254 255 255 255 97 0 0 48 69 28 18 0 2 208 255 255 249 246 247 240 244 237 238 232 232 233 225 223 225 232 61 169 226 179 147 164 163 159 130 141 255 255 255 255 255 255 255 255 255 255 255 255 255 255 255 255 255 255 255 255 255 255 255 255 255 255 255 255 255 255 255 255 255 255 255 255 255 255 255 255 255 255 255 255 255 255 255 255 255 255 255 255 255 255 255 255 255 255 255 255 255 255 255 255 255 255 255 255 255 255 255 255 255 255 255 255 255 255 255 255 255 255 255 255 255 255 255 255 255 255 255 255 255 255 255 255 255 255 255 255 255 255 255 
255 255 255 255 255 255 255 255 255 255 255 255 255 255 255 255 255 255 255 255 255 255 255 255 255 255 255 255 255 255 255 255 255 255 255 255 255 255 255 255 255 255 255 255 255 255 255 255 255 255 255 255 255 255 255 255 255 255 255 255 255 255 255 255 255 255 255 255 255 255 255 255 255 255 255 255 255 255 255 255 255 255 255 255 255 255 255 253 204 215 220 220 216 218 218 218 219 236 191 176 202 255 255 255 224 179 154 157 173 178 186 182 100 34 0 22 55 89 107 113 127 125 113 94 67 29 5 9 42 130 172 192 154 161 176 170 164 163 168 169 166 157 158 170 163 169 189 163 9 98 155 169 177 171 209 255 255 253 255 255 53 0 41 104 143 140 98 149 86 22 0 173 255 253 245 243 249 245 239 239 235 230 232 223 223 223 249 92 140 210 205 142 161 161 158 145 110 255 255 252 255 255 255 255 255 255 255 255 255 255 255 255 255 255 255 255 255 255 255 255 255 255 255 255 255 255 255 255 255 255 255 255 255 255 255 255 255 255 255 255 255 255 255 255 255 255 255 255 255 255 255 255 255 255 255 255 255 255 255 255 255 255 255 255 255 255 255 255 255 255 255 255 255 255 255 255 255 255 255 255 255 255 255 255 255 255 255 255 255 255 255 255 255 255 255 255 255 255 255 255 
255 255 255 255 255 255 255 255 255 255 255 255 255 255 255 255 255 255 255 255 255 255 255 255 255 255 255 255 255 255 255 255 255 255 255 255 255 255 255 255 255 255 255 255 255 255 255 255 255 255 255 255 255 255 255 255 255 255 255 255 255 255 255 255 255 255 255 255 255 255 255 255 255 255 255 255 255 255 255 255 255 255 255 255 255 255 255 211 215 218 218 216 217 218 217 218 231 187 167 223 255 255 255 229 170 148 164 179 176 187 98 32 13 78 121 139 139 130 126 124 124 123 131 133 139 137 124 81 33 21 50 148 177 181 140 176 166 167 170 169 164 167 172 167 167 165 194 134 20 111 142 156 173 192 237 255 255 255 255 128 2 123 72 175 154 149 121 186 98 70 20 0 242 255 250 247 246 243 242 241 236 232 235 225 225 221 235 141 110 203 228 141 163 165 157 146 102 255 255 253 255 255 255 255 255 255 255 255 255 255 255 255 255 255 255 255 255 255 255 255 255 255 255 255 255 255 255 255 255 255 255 255 255 255 255 255 255 255 255 255 255 255 255 255 255 255 255 255 255 255 255 255 255 255 255 255 255 255 255 255 255 255 255 255 255 255 255 255 255 255 255 255 255 255 255 255 255 255 255 255 255 255 255 255 255 255 255 255 255 255 255 255 255 255 255 255 255 255 255 255 
255 255 255 255 255 255 255 255 255 255 255 255 255 255 255 255 255 255 255 255 255 255 255 255 255 255 255 255 255 255 255 255 255 255 255 255 255 255 255 255 255 255 255 255 255 255 255 255 255 255 255 255 255 255 255 255 255 255 255 255 255 255 255 255 255 255 255 255 255 255 255 255 255 255 255 255 255 255 255 255 255 255 255 255 255 255 222 207 216 222 220 215 222 216 223 218 229 156 196 255 255 255 227 180 148 163 173 197 144 51 8 88 128 120 113 110 110 124 131 143 144 154 149 153 150 146 143 147 135 78 13 28 93 189 186 136 175 171 165 170 165 166 165 168 164 167 201 114 23 123 142 164 168 187 247 255 254 255 255 11 56 113 120 112 69 100 92 103 144 144 92 32 52 255 255 245 245 243 241 239 239 235 232 228 222 216 232 180 101 191 239 144 160 163 162 156 98 251 255 253 255 255 255 255 255 255 255 255 255 255 255 255 255 255 255 255 255 255 255 255 255 255 255 255 255 255 255 255 255 255 255 255 255 255 255 255 255 255 255 255 255 255 255 255 255 255 255 255 255 255 255 255 255 255 255 255 255 255 255 255 255 255 255 255 255 255 255 255 255 255 255 255 255 255 255 255 255 255 255 255 255 255 255 255 255 255 255 255 255 255 255 255 255 255 255 255 255 255 255 255 
255 255 255 255 255 255 255 255 255 255 255 255 255 255 255 255 255 255 255 255 255 255 255 255 255 255 255 255 255 255 255 255 255 255 255 255 255 255 255 255 255 255 255 255 255 255 255 255 255 255 255 255 255 255 255 255 255 255 255 255 255 255 255 255 255 255 255 255 255 255 255 255 255 255 255 255 255 255 255 255 255 252 252 255 255 236 201 219 221 218 215 221 220 217 217 220 217 196 255 255 255 235 181 151 160 175 210 95 22 57 127 108 106 119 132 142 150 153 160 156 164 156 158 150 151 142 140 135 137 145 110 41 4 66 198 184 145 166 167 167 167 163 165 161 162 168 203 106 35 120 140 163 162 205 253 255 255 255 164 0 87 217 173 29 32 38 32 24 112 180 139 124 0 255 255 250 250 242 241 239 238 234 231 232 225 218 229 202 102 188 243 144 158 165 157 154 100 228 255 252 255 255 255 255 255 255 255 255 255 255 255 255 255 255 255 255 255 255 255 255 255 255 255 255 255 255 255 255 255 255 255 255 255 255 255 255 255 255 255 255 255 255 255 255 255 255 255 255 255 255 255 255 255 255 255 255 255 255 255 255 255 255 255 255 255 255 255 255 255 255 255 255 255 255 255 255 255 255 255 255 255 255 255 255 255 255 255 255 255 255 255 255 255 255 255 255 255 255 255 255 
255 255 255 255 255 255 255 255 255 255 255 255 255 255 255 255 255 255 255 255 255 255 255 255 255 255 255 255 255 255 255 255 255 255 255 255 255 255 255 255 255 255 255 255 255 255 255 255 255 255 255 255 255 255 255 255 255 255 255 255 255 255 255 255 255 255 255 255 255 255 255 255 255 255 255 255 255 255 255 255 255 252 254 255 254 203 219 223 216 220 215 220 221 217 219 218 180 233 255 255 235 195 151 164 177 211 83 12 103 96 98 114 146 144 154 160 165 165 166 168 170 180 183 192 197 194 186 185 173 164 153 152 82 7 48 194 186 154 166 166 168 164 166 163 162 168 201 105 34 135 145 168 159 222 253 251 255 255 69 15 197 255 255 29 34 56 57 24 47 172 222 117 0 181 255 252 244 242 240 239 238 234 232 226 225 217 223 211 116 182 244 146 164 159 161 151 105 223 255 255 255 255 255 255 255 255 255 255 255 255 255 255 255 255 255 255 255 255 255 255 255 255 255 255 255 255 255 255 255 255 255 255 255 255 255 255 255 255 255 255 255 255 255 255 255 255 255 255 255 255 255 255 255 255 255 255 255 255 255 255 255 255 255 255 255 255 255 255 255 255 255 255 255 255 255 255 255 255 255 255 255 255 255 255 255 255 255 255 255 255 255 255 255 255 255 255 255 255 255 255 
255 255 255 255 255 255 255 255 255 255 255 255 255 255 255 255 255 255 255 255 255 255 255 255 255 255 255 255 255 255 255 255 255 255 255 255 255 255 255 255 255 255 255 255 255 255 255 255 255 255 255 255 255 255 255 255 255 255 255 255 255 255 255 255 255 255 255 255 255 255 255 255 255 255 255 255 255 255 255 255 255 255 255 255 218 214 220 220 218 219 220 220 216 218 221 200 210 255 255 255 218 159 155 179 205 80 26 105 83 97 142 151 151 159 167 173 171 183 194 215 235 246 249 255 254 255 255 254 253 246 229 208 205 136 0 32 203 178 147 170 169 164 166 162 167 166 200 123 32 141 146 152 162 235 255 248 255 255 7 14 153 255 215 26 52 64 59 39 37 106 127 69 2 128 255 248 245 247 245 238 238 234 232 227 226 219 217 214 121 177 249 145 158 162 158 149 103 233 255 255 255 255 255 255 255 255 255 255 255 255 255 255 255 255 255 255 255 255 255 255 255 255 255 255 255 255 255 255 255 255 255 255 255 255 255 255 255 255 255 255 255 255 255 255 255 255 255 255 255 255 255 255 255 255 255 255 255 255 255 255 255 255 255 255 255 255 255 255 255 255 255 255 255 255 255 255 255 255 255 255 255 255 255 255 255 255 255 255 255 255 255 255 255 255 255 255 255 255 255 255 
255 255 255 255 255 255 255 255 255 255 255 255 255 255 255 255 255 255 255 255 255 255 255 255 255 255 255 255 255 255 255 255 255 255 255 255 255 255 255 255 255 255 255 255 255 255 255 255 255 255 255 255 255 255 255 255 255 255 255 255 255 255 255 255 255 255 255 255 255 255 255 255 255 255 255 255 255 255 255 255 255 252 255 243 204 222 219 218 219 219 219 220 217 220 213 182 255 255 255 230 168 146 177 182 109 48 92 78 114 153 157 162 166 175 171 187 213 233 252 255 255 255 254 252 253 251 246 249 250 245 248 250 244 241 187 22 37 202 174 145 177 163 166 161 167 167 191 146 24 136 159 164 174 242 255 247 255 255 31 9 112 120 47 26 65 65 66 21 53 211 233 177 37 131 255 249 246 242 240 239 239 235 233 229 223 217 216 212 132 180 244 148 159 164 156 146 106 239 255 252 255 255 255 255 255 255 255 255 255 255 255 255 255 255 255 255 255 255 255 255 255 255 255 255 255 255 255 255 255 255 255 255 255 255 255 255 255 255 255 255 255 255 255 255 255 255 255 255 255 255 255 255 255 255 255 255 255 255 255 255 255 255 255 255 255 255 255 255 255 255 255 255 255 255 255 255 255 255 255 255 255 255 255 255 255 255 255 255 255 255 255 255 255 255 255 255 255 255 255 255 
255 255 255 255 255 255 255 255 255 255 255 255 255 255 255 255 255 255 255 255 255 255 255 255 255 255 255 255 255 255 255 255 255 255 255 255 255 255 255 255 255 255 255 255 255 255 255 255 255 255 255 255 255 255 255 255 255 255 255 255 255 255 255 255 255 255 255 255 255 255 255 255 255 255 255 255 255 255 255 255 255 255 255 208 216 222 217 215 220 219 220 221 218 212 200 226 255 255 247 199 147 165 182 158 62 69 64 124 158 149 163 167 174 183 207 228 253 255 255 253 252 250 251 247 249 246 246 246 242 241 243 238 243 245 255 221 36 59 209 178 148 173 164 168 162 163 182 175 24 123 166 159 180 242 254 253 255 255 135 0 112 143 93 54 44 52 37 17 114 255 255 178 0 197 255 249 247 244 242 241 236 233 231 227 222 217 211 207 129 175 240 143 164 161 156 142 107 236 255 252 255 255 255 255 255 255 255 255 255 255 255 255 255 255 255 255 255 255 255 255 255 255 255 255 255 255 255 255 255 255 255 255 255 255 255 255 255 255 255 255 255 255 255 255 255 255 255 255 255 255 255 255 255 255 255 255 255 255 255 255 255 255 255 255 255 255 255 255 255 255 255 255 255 255 255 255 255 255 255 255 255 255 255 255 255 255 255 255 255 255 255 255 255 255 255 255 255 255 255 255 
255 255 255 255 255 255 255 255 255 255 255 255 255 255 255 255 255 255 255 255 255 255 255 255 255 255 255 255 255 255 255 255 255 255 255 255 255 255 255 255 255 255 255 255 255 255 255 255 255 255 255 255 255 255 255 255 255 255 255 255 255 255 255 255 255 255 255 255 255 255 255 255 255 255 255 255 255 255 255 255 253 255 235 203 221 220 219 215 220 220 216 217 217 212 205 255 255 255 230 169 151 180 200 69 37 67 123 162 153 167 171 177 190 217 252 255 255 254 255 246 252 246 249 245 246 249 247 246 246 248 246 243 236 236 236 255 214 30 111 191 174 163 166 162 164 164 172 202 39 99 164 157 174 241 254 246 249 255 247 0 99 184 126 108 62 45 45 81 213 179 194 114 0 255 255 244 244 241 240 239 235 232 230 227 222 218 213 198 134 199 230 135 158 162 149 142 111 248 255 255 255 255 255 255 255 255 255 255 255 255 255 255 255 255 255 255 255 255 255 255 255 255 255 255 255 255 255 255 255 255 255 255 255 255 255 255 255 255 255 255 255 255 255 255 255 255 255 255 255 255 255 255 255 255 255 255 255 255 255 255 255 255 255 255 255 255 255 255 255 255 255 255 255 255 255 255 255 255 255 255 255 255 255 255 255 255 255 255 255 255 255 255 255 255 255 255 255 255 255 255 
255 255 255 255 255 255 255 255 255 255 255 255 255 255 255 255 255 255 255 255 255 255 255 255 255 255 255 255 255 255 255 255 255 255 255 255 255 255 255 255 255 255 255 255 255 255 255 255 255 255 255 255 255 255 255 255 255 255 255 255 255 255 255 255 255 255 255 255 255 255 255 255 255 255 255 255 255 255 251 253 255 255 208 215 220 217 219 220 219 221 217 218 209 224 223 255 255 249 189 152 168 194 124 7 66 110 159 152 167 169 180 196 230 252 255 255 251 254 246 253 250 253 248 250 251 248 248 247 247 242 240 239 241 238 236 234 255 159 19 161 196 157 166 163 164 164 166 207 82 69 158 161 172 242 250 248 247 255 255 69 0 132 166 197 187 138 160 178 255 224 155 0 108 255 253 246 247 245 238 238 234 231 231 223 220 211 219 181 139 227 205 145 162 161 149 137 115 255 255 255 255 255 255 255 255 255 255 255 255 255 255 255 255 255 255 255 255 255 255 255 255 255 255 255 255 255 255 255 255 255 255 255 255 255 255 255 255 255 255 255 255 255 255 255 255 255 255 255 255 255 255 255 255 255 255 255 255 255 255 255 255 255 255 255 255 255 255 255 255 255 255 255 255 255 255 255 255 255 255 255 255 255 255 255 255 255 255 255 255 255 255 255 255 255 255 255 255 255 255 255 
255 255 255 255 255 255 255 255 255 255 255 255 255 255 255 255 255 255 255 255 255 255 255 255 255 255 255 255 255 255 255 255 255 255 255 255 255 255 255 255 255 255 255 255 255 255 255 255 255 255 255 255 255 255 255 255 255 255 255 255 255 255 255 255 255 255 255 255 255 255 255 255 255 255 255 255 255 255 255 254 255 235 208 222 216 220 219 219 220 216 218 216 217 217 243 255 255 225 156 156 176 205 28 44 98 150 152 164 169 174 196 233 255 255 253 253 250 249 251 249 255 252 255 255 255 251 245 245 244 245 241 240 234 235 232 234 246 255 75 56 211 183 159 165 166 164 164 195 136 37 134 149 168 235 253 244 248 255 255 255 0 0 159 166 216 158 178 175 198 173 35 23 255 255 250 244 241 239 239 238 234 232 228 222 222 201 224 161 137 255 171 151 161 157 145 133 128 255 255 255 255 255 255 255 255 255 255 255 255 255 255 255 255 255 255 255 255 255 255 255 255 255 255 255 255 255 255 255 255 255 255 255 255 255 255 255 255 255 255 255 255 255 255 255 255 255 255 255 255 255 255 255 255 255 255 255 255 255 255 255 255 255 255 255 255 255 255 255 255 255 255 255 255 255 255 255 255 255 255 255 255 255 255 255 255 255 255 255 255 255 255 255 255 255 255 255 255 255 255 255 
255 255 255 255 255 255 255 255 255 255 255 255 255 255 255 255 255 255 255 255 255 255 255 255 255 255 255 255 255 255 255 255 255 255 255 255 255 255 255 255 255 255 255 255 255 255 255 255 255 255 255 255 255 255 255 255 255 255 255 255 255 255 255 255 255 255 255 255 255 255 255 255 255 255 255 255 255 255 255 255 255 210 218 218 219 215 220 219 221 217 219 203 238 203 255 255 255 200 154 160 193 125 0 83 131 156 158 171 181 191 228 255 255 255 250 248 253 253 250 255 255 255 255 255 255 255 255 249 246 245 246 244 239 239 235 231 239 245 212 34 140 204 163 156 158 167 164 176 190 38 103 149 151 224 250 245 246 245 250 255 245 0 0 40 135 100 157 110 17 0 0 255 255 252 247 244 242 241 234 234 230 231 222 218 214 200 220 149 161 251 142 158 162 157 129 125 169 255 255 252 253 252 255 255 255 255 255 255 255 255 255 255 255 255 255 255 255 255 255 255 255 255 255 255 255 255 255 255 255 255 255 255 255 255 255 255 255 255 255 255 255 255 255 255 255 255 255 255 255 255 255 255 255 255 255 255 255 255 255 255 255 255 255 255 255 255 255 255 255 255 255 255 255 255 255 255 255 255 255 255 255 255 255 255 255 255 255 255 255 255 255 255 255 255 255 255 255 255 255 255 
255 255 255 255 255 255 255 255 255 255 255 255 255 255 255 255 255 255 255 255 255 255 255 255 255 255 255 255 255 255 255 255 255 255 255 255 255 255 255 255 255 255 255 255 255 255 255 255 255 255 255 255 255 255 255 255 255 255 255 255 255 255 255 255 255 255 255 255 255 255 255 255 255 255 255 255 255 252 253 255 235 206 220 221 219 216 220 221 216 218 217 224 247 211 255 255 241 185 148 170 216 46 40 101 152 160 165 175 180 219 255 255 255 248 252 252 251 255 255 255 240 140 84 81 136 252 255 255 254 247 246 244 238 239 233 234 236 232 255 114 54 213 190 142 159 161 165 165 208 107 59 131 137 210 248 242 245 248 246 253 255 255 114 0 0 0 0 0 0 115 255 255 248 243 243 240 238 236 236 234 233 223 222 221 206 206 205 129 218 222 142 162 159 152 120 122 232 255 253 254 254 254 251 255 255 255 255 255 255 255 255 255 255 255 255 255 255 255 255 255 255 255 255 255 255 255 255 255 255 255 255 255 255 255 255 255 255 255 255 255 255 255 255 255 255 255 255 255 255 255 255 255 255 255 255 255 255 255 255 255 255 255 255 255 255 255 255 255 255 255 255 255 255 255 255 255 255 255 255 255 255 255 255 255 255 255 255 255 255 255 255 255 255 255 255 255 255 255 255 255 
255 255 255 255 255 255 255 255 255 255 255 255 255 255 255 255 255 255 255 255 255 255 255 255 255 255 255 255 255 255 255 255 255 255 255 255 255 255 255 255 255 255 255 255 255 255 255 255 255 255 255 255 255 255 255 255 255 255 255 255 255 255 255 255 255 255 255 255 255 255 255 255 255 255 255 255 255 253 255 255 216 216 219 218 221 215 221 216 218 220 219 214 166 246 255 255 226 169 147 181 187 0 66 123 151 160 168 179 205 249 255 255 253 251 255 250 255 255 234 33 0 0 19 8 0 0 49 244 255 253 249 244 244 238 238 239 233 235 236 219 71 172 198 157 168 164 164 164 182 170 49 114 128 190 247 243 241 246 247 247 248 255 255 255 233 173 168 227 255 255 255 246 248 242 244 241 239 238 230 237 230 222 224 213 197 218 173 123 247 157 155 159 161 141 117 143 255 255 254 254 254 252 255 255 255 255 255 255 255 255 255 255 255 255 255 255 255 255 255 255 255 255 255 255 255 255 255 255 255 255 255 255 255 255 255 255 255 255 255 255 255 255 255 255 255 255 255 255 255 255 255 255 255 255 255 255 255 255 255 255 255 255 255 255 255 255 255 255 255 255 255 255 255 255 255 255 255 255 255 255 255 255 255 255 255 255 255 255 255 255 255 255 255 255 255 255 255 255 255 255 
255 255 255 255 255 255 255 255 255 255 255 255 255 255 255 255 255 255 255 255 255 255 255 255 255 255 255 255 255 255 255 255 255 255 255 255 255 255 255 255 255 255 255 255 255 255 255 255 255 255 255 255 255 255 255 255 255 255 255 255 255 255 255 255 255 255 255 255 255 255 255 255 255 255 255 255 252 254 255 252 204 219 217 216 216 221 220 217 220 217 222 199 180 255 255 255 207 149 158 193 130 0 95 178 182 165 171 189 233 255 255 250 252 250 254 255 255 184 0 0 94 93 127 125 143 98 0 0 192 255 252 247 245 239 239 235 230 230 232 243 122 108 217 165 160 165 164 164 166 205 109 63 126 166 240 245 234 243 245 248 244 248 250 255 255 255 255 255 255 255 246 249 247 244 241 238 236 234 235 230 225 225 216 206 209 213 129 213 235 136 166 159 155 120 141 148 217 255 255 254 253 255 255 255 255 255 255 255 255 255 255 255 255 255 255 255 255 255 255 255 255 255 255 255 255 255 255 255 255 255 255 255 255 255 255 255 255 255 255 255 255 255 255 255 255 255 255 255 255 255 255 255 255 255 255 255 255 255 255 255 255 255 255 255 255 255 255 255 255 255 255 255 255 255 255 255 255 255 255 255 255 255 255 255 255 255 255 255 255 255 255 255 255 255 255 255 255 255 255 255 
255 255 255 255 255 255 255 255 255 255 255 255 255 255 255 255 255 255 255 255 255 255 255 255 255 255 255 255 255 255 255 255 255 255 255 255 255 255 255 255 255 255 255 255 255 255 255 255 255 255 255 255 255 255 255 255 255 255 255 255 255 255 255 255 255 255 255 255 255 255 255 255 255 255 255 255 253 255 255 230 208 223 219 217 217 221 220 218 216 213 227 152 192 255 255 255 196 149 159 208 80 20 125 170 172 191 182 208 246 255 254 249 252 249 255 255 235 0 90 110 124 117 170 133 218 123 68 4 0 228 255 247 242 241 241 238 232 230 229 232 172 97 224 190 153 154 166 164 164 178 182 70 102 139 219 245 237 235 241 246 245 246 250 248 249 244 250 250 247 244 243 241 241 237 234 237 234 233 228 226 223 218 212 198 221 168 124 238 154 155 160 158 146 106 175 163 148 255 255 254 252 255 255 255 255 255 255 255 255 255 255 255 255 255 255 255 255 255 255 255 255 255 255 255 255 255 255 255 255 255 255 255 255 255 255 255 255 255 255 255 255 255 255 255 255 255 255 255 255 255 255 255 255 255 255 255 255 255 255 255 255 255 255 255 255 255 255 255 255 255 255 255 255 255 255 255 255 255 255 255 255 255 255 255 255 255 255 255 255 255 255 255 255 255 255 255 255 255 255 255 
255 255 255 255 255 255 255 255 255 255 255 255 255 255 255 255 255 255 255 255 255 255 255 255 255 255 255 255 255 255 255 255 255 255 255 255 255 255 255 255 255 255 255 255 255 255 255 255 255 255 255 255 255 255 255 255 255 255 255 255 255 255 255 255 255 255 255 255 255 255 255 255 255 255 255 255 252 255 255 206 220 220 216 219 218 216 222 219 216 215 235 189 191 255 255 240 188 145 165 214 41 45 149 152 160 178 191 241 255 255 251 248 250 253 255 255 59 12 165 98 113 98 116 94 150 150 143 75 28 20 255 255 246 244 238 235 235 232 226 226 218 106 191 217 148 158 165 164 164 166 194 139 56 119 188 243 239 236 239 242 245 244 241 246 245 245 245 246 244 242 241 239 239 240 237 234 232 232 228 228 221 213 204 216 208 112 239 216 134 157 164 158 120 121 199 156 110 255 255 253 255 255 255 255 255 255 255 255 255 255 255 255 255 255 255 255 255 255 255 255 255 255 255 255 255 255 255 255 255 255 255 255 255 255 255 255 255 255 255 255 255 255 255 255 255 255 255 255 255 255 255 255 255 255 255 255 255 255 255 255 255 255 255 255 255 255 255 255 255 255 255 255 255 255 255 255 255 255 255 255 255 255 255 255 255 255 255 255 255 255 255 255 255 255 255 255 255 255 255 255 
255 255 255 255 255 255 255 255 255 255 255 255 255 255 255 255 255 255 255 255 255 255 255 255 255 255 255 255 255 255 255 255 255 255 255 255 255 255 255 255 255 255 255 255 255 255 255 255 255 255 255 255 255 255 255 255 255 255 255 255 255 255 255 255 255 255 255 255 255 255 255 255 255 255 255 255 255 255 249 203 221 219 214 215 220 218 218 215 219 205 237 248 199 255 255 237 179 150 170 205 22 64 160 160 166 171 198 249 255 255 249 252 253 255 255 249 0 113 182 184 111 21 25 27 46 153 202 130 144 0 202 255 245 241 242 239 232 229 226 227 226 113 156 231 148 165 163 165 166 160 169 205 112 57 151 226 240 231 236 237 236 246 242 240 239 245 239 242 238 242 238 243 237 237 234 232 232 227 225 221 217 208 208 223 120 182 236 130 158 159 163 139 90 171 194 154 107 224 255 253 255 255 255 255 255 255 255 255 255 255 255 255 255 255 255 255 255 255 255 255 255 255 255 255 255 255 255 255 255 255 255 255 255 255 255 255 255 255 255 255 255 255 255 255 255 255 255 255 255 255 255 255 255 255 255 255 255 255 255 255 255 255 255 255 255 255 255 255 255 255 255 255 255 255 255 255 255 255 255 255 255 255 255 255 255 255 255 255 255 255 255 255 255 255 255 255 255 255 255 255 
255 255 255 255 255 255 255 255 255 255 255 255 255 255 255 255 255 255 255 255 255 255 255 255 255 255 255 255 255 255 255 255 255 255 255 255 255 255 255 255 255 255 255 255 255 255 255 255 255 255 255 255 255 255 255 255 255 255 255 255 255 255 255 255 255 255 255 255 255 255 255 255 255 255 255 255 255 255 230 211 220 217 217 217 215 221 229 228 227 203 240 251 186 255 255 233 168 146 175 197 17 77 150 149 164 171 212 250 255 253 248 250 251 255 255 170 0 119 255 255 90 7 43 44 11 44 192 234 207 0 98 255 253 246 240 237 236 232 227 229 226 141 137 247 154 160 163 160 162 163 161 171 198 106 71 193 230 231 231 234 237 238 238 241 240 239 241 237 240 235 239 237 231 237 233 233 227 224 224 216 208 208 217 157 162 233 142 160 160 162 154 107 113 201 158 159 134 163 255 255 255 255 255 255 255 255 255 255 255 255 255 255 255 255 255 255 255 255 255 255 255 255 255 255 255 255 255 255 255 255 255 255 255 255 255 255 255 255 255 255 255 255 255 255 255 255 255 255 255 255 255 255 255 255 255 255 255 255 255 255 255 255 255 255 255 255 255 255 255 255 255 255 255 255 255 255 255 255 255 255 255 255 255 255 255 255 255 255 255 255 255 255 255 255 255 255 255 255 255 255 
255 255 255 255 255 255 255 255 255 255 255 255 255 255 255 255 255 255 255 255 255 255 255 255 255 255 255 255 255 255 255 255 255 255 255 255 255 255 255 255 255 255 255 255 255 255 255 255 255 255 255 255 255 255 255 255 255 255 255 255 255 255 255 255 255 255 255 255 255 255 255 255 255 255 255 255 255 255 209 215 219 215 212 219 227 246 210 223 249 255 255 247 184 255 255 219 164 151 177 194 16 84 142 151 167 183 230 255 254 251 252 253 255 255 255 99 0 125 255 255 70 27 55 58 31 56 152 194 130 14 35 255 255 239 241 237 235 231 226 224 228 161 129 239 165 156 168 166 162 164 163 166 172 191 99 104 215 233 227 230 235 233 236 237 236 236 237 234 235 237 234 233 233 232 230 222 224 220 216 219 210 207 171 168 210 167 151 161 157 154 120 80 204 188 149 165 148 116 255 255 255 255 255 255 255 255 255 255 255 255 255 255 255 255 255 255 255 255 255 255 255 255 255 255 255 255 255 255 255 255 255 255 255 255 255 255 255 255 255 255 255 255 255 255 255 255 255 255 255 255 255 255 255 255 255 255 255 255 255 255 255 255 255 255 255 255 255 255 255 255 255 255 255 255 255 255 255 255 255 255 255 255 255 255 255 255 255 255 255 255 255 255 255 255 255 255 255 255 255 255 
255 255 255 255 255 255 255 255 255 255 255 255 255 255 255 255 255 255 255 255 255 255 255 255 255 255 255 255 255 255 255 255 255 255 255 255 255 255 255 255 255 255 255 255 255 255 255 255 255 255 255 255 255 255 255 255 255 255 255 255 255 255 255 255 255 255 255 255 255 255 255 255 255 255 255 255 255 255 207 221 216 217 220 225 219 129 162 208 58 75 255 255 171 255 255 223 164 153 170 198 14 89 171 161 169 186 237 253 255 250 252 254 252 255 255 106 1 158 138 65 9 45 57 56 41 19 153 183 151 90 32 255 255 246 241 237 235 232 227 223 229 177 116 247 165 156 163 161 166 162 161 164 167 170 188 125 144 216 226 222 225 230 235 234 233 232 233 229 231 231 229 228 226 226 221 226 221 229 220 211 194 176 191 199 166 152 162 162 157 137 77 167 212 139 158 162 161 105 246 255 253 252 255 255 255 255 255 255 255 255 255 255 255 255 255 255 255 255 255 255 255 255 255 255 255 255 255 255 255 255 255 255 255 255 255 255 255 255 255 255 255 255 255 255 255 255 255 255 255 255 255 255 255 255 255 255 255 255 255 255 255 255 255 255 255 255 255 255 255 255 255 255 255 255 255 255 255 255 255 255 255 255 255 255 255 255 255 255 255 255 255 255 255 255 255 255 255 255 255 255 
255 255 255 255 255 255 255 255 255 255 255 255 255 255 255 255 255 255 255 255 255 255 255 255 255 255 255 255 255 255 255 255 255 255 255 255 255 255 255 255 255 255 255 255 255 255 255 255 255 255 255 255 255 255 255 255 255 255 255 255 255 255 255 255 255 255 255 255 255 255 255 255 255 255 255 255 255 242 208 220 215 215 219 238 178 255 255 107 52 0 168 255 167 255 255 219 162 153 174 199 22 72 176 162 163 188 244 255 249 253 248 251 249 255 255 162 0 110 158 69 16 36 51 52 0 61 255 255 255 79 68 255 251 242 237 239 237 228 225 219 232 173 120 248 162 155 164 165 160 159 165 160 161 163 165 173 149 180 214 218 230 231 230 232 227 231 229 231 225 232 229 227 232 232 235 237 227 218 200 189 185 212 193 157 155 160 164 157 146 81 121 221 149 150 158 161 160 121 188 255 255 253 255 255 255 255 255 255 255 255 255 255 255 255 255 255 255 255 255 255 255 255 255 255 255 255 255 255 255 255 255 255 255 255 255 255 255 255 255 255 255 255 255 255 255 255 255 255 255 255 255 255 255 255 255 255 255 255 255 255 255 255 255 255 255 255 255 255 255 255 255 255 255 255 255 255 255 255 255 255 255 255 255 255 255 255 255 255 255 255 255 255 255 255 255 255 255 255 255 255 
255 255 255 255 255 255 255 255 255 255 255 255 255 255 255 255 255 255 255 255 255 255 255 255 255 255 255 255 255 255 255 255 255 255 255 255 255 255 255 255 255 255 255 255 255 255 255 255 255 255 255 255 255 255 255 255 255 255 255 255 255 255 255 255 255 255 255 255 255 255 255 255 255 255 255 255 255 231 213 220 213 213 231 187 107 183 255 115 118 0 96 255 174 251 255 221 161 153 169 207 37 69 162 165 173 197 249 255 249 247 250 253 251 249 255 255 0 102 213 136 76 14 12 0 17 199 247 255 214 11 151 255 246 243 239 236 234 232 223 217 231 175 130 255 160 161 165 164 158 159 160 164 166 163 168 168 157 155 189 214 211 226 235 239 240 238 239 236 238 239 237 238 234 229 226 212 209 196 206 222 217 181 144 161 163 166 163 147 85 121 228 164 143 153 157 158 162 143 133 255 255 253 255 255 255 255 255 255 255 255 255 255 255 255 255 255 255 255 255 255 255 255 255 255 255 255 255 255 255 255 255 255 255 255 255 255 255 255 255 255 255 255 255 255 255 255 255 255 255 255 255 255 255 255 255 255 255 255 255 255 255 255 255 255 255 255 255 255 255 255 255 255 255 255 255 255 255 255 255 255 255 255 255 255 255 255 255 255 255 255 255 255 255 255 255 255 255 255 255 255 
255 255 255 255 255 255 255 255 255 255 255 255 255 255 255 255 255 255 255 255 255 255 255 255 255 255 255 255 255 255 255 255 255 255 255 255 255 255 255 255 255 255 255 255 255 255 255 255 255 255 255 255 255 255 255 255 255 255 255 255 255 255 255 255 255 255 255 255 255 255 255 255 255 255 255 255 255 213 213 213 217 215 230 205 185 100 204 170 125 0 94 255 184 216 255 226 167 151 165 212 60 53 158 169 164 204 249 255 254 252 250 248 251 255 255 255 66 1 170 192 172 157 96 110 145 255 239 193 135 0 255 255 246 244 241 234 233 230 223 215 237 168 136 255 144 160 164 159 164 147 151 162 164 165 162 164 169 157 143 174 199 219 210 217 220 224 230 237 231 227 226 221 220 211 206 211 225 232 222 185 150 150 167 164 160 157 140 79 90 197 167 130 153 157 153 160 162 156 107 255 255 254 251 255 255 255 255 255 255 255 255 255 255 255 255 255 255 255 255 255 255 255 255 255 255 255 255 255 255 255 255 255 255 255 255 255 255 255 255 255 255 255 255 255 255 255 255 255 255 255 255 255 255 255 255 255 255 255 255 255 255 255 255 255 255 255 255 255 255 255 255 255 255 255 255 255 255 255 255 255 255 255 255 255 255 255 255 255 255 255 255 255 255 255 255 255 255 255 255 255 
255 255 255 255 255 255 255 255 255 255 255 255 255 255 255 255 255 255 255 255 255 255 255 255 255 255 255 255 255 255 255 255 255 255 255 255 255 255 255 255 255 255 255 255 255 255 255 255 255 255 255 255 255 255 255 255 255 255 255 255 255 255 255 255 255 255 255 255 255 255 255 255 255 255 255 255 255 209 214 218 214 213 223 216 195 163 147 189 109 0 94 247 182 173 255 229 177 147 162 202 112 27 149 173 164 201 254 249 252 253 250 249 253 250 250 255 255 0 26 193 232 255 166 208 229 255 255 200 0 120 255 252 243 242 240 233 233 232 218 218 233 146 143 255 136 166 162 165 155 143 107 129 152 161 169 166 169 165 169 151 149 166 196 218 224 220 221 217 214 218 219 220 225 222 236 227 205 169 144 153 160 168 165 156 148 125 72 104 219 138 117 157 155 152 155 161 162 161 115 217 255 254 255 255 255 255 255 255 255 255 255 255 255 255 255 255 255 255 255 255 255 255 255 255 255 255 255 255 255 255 255 255 255 255 255 255 255 255 255 255 255 255 255 255 255 255 255 255 255 255 255 255 255 255 255 255 255 255 255 255 255 255 255 255 255 255 255 255 255 255 255 255 255 255 255 255 255 255 255 255 255 255 255 255 255 255 255 255 255 255 255 255 255 255 255 255 255 255 255 255 
255 255 255 255 255 255 255 255 255 255 255 255 255 255 255 255 255 255 255 255 255 255 255 255 255 255 255 255 255 255 255 255 255 255 255 255 255 255 255 255 255 255 255 255 255 255 255 255 255 255 255 255 255 255 255 255 255 255 255 255 255 255 255 255 255 255 255 255 255 255 255 255 255 255 255 255 255 208 214 216 213 211 220 251 190 208 118 228 124 7 77 225 180 142 255 239 184 145 165 186 161 8 129 174 164 197 247 247 247 251 252 250 248 253 252 253 255 210 0 26 124 225 179 190 159 141 91 0 86 255 255 245 243 243 235 235 230 224 218 215 227 124 186 238 142 164 164 158 161 116 65 56 88 123 155 162 169 171 169 165 162 157 143 149 165 183 203 212 215 221 222 213 203 189 170 143 143 157 168 165 167 162 162 146 97 67 146 246 187 93 160 152 150 154 156 156 163 162 135 158 255 255 255 255 255 255 255 255 255 255 255 255 255 255 255 255 255 255 255 255 255 255 255 255 255 255 255 255 255 255 255 255 255 255 255 255 255 255 255 255 255 255 255 255 255 255 255 255 255 255 255 255 255 255 255 255 255 255 255 255 255 255 255 255 255 255 255 255 255 255 255 255 255 255 255 255 255 255 255 255 255 255 255 255 255 255 255 255 255 255 255 255 255 255 255 255 255 255 255 255 
255 255 255 255 255 255 255 255 255 255 255 255 255 255 255 255 255 255 255 255 255 255 255 255 255 255 255 255 255 255 255 255 255 255 255 255 255 255 255 255 255 255 255 255 255 255 255 255 255 255 255 255 255 255 255 255 255 255 255 255 255 255 255 255 255 255 255 255 255 255 255 255 255 255 255 255 249 207 214 215 211 217 254 215 74 248 133 194 184 61 63 215 184 130 222 249 197 153 159 179 204 34 87 177 168 190 247 251 248 251 249 252 250 249 248 253 255 255 235 20 0 0 26 51 57 0 0 116 255 255 244 246 239 240 232 232 229 225 209 226 224 113 242 190 152 165 161 166 143 71 169 216 107 55 68 119 145 163 171 160 158 169 165 162 158 148 145 143 144 145 145 143 150 148 159 166 171 168 169 167 163 150 115 49 73 198 241 169 118 162 150 151 151 154 157 157 164 162 153 114 255 255 255 255 255 255 255 255 255 255 255 255 255 255 255 255 255 255 255 255 255 255 255 255 255 255 255 255 255 255 255 255 255 255 255 255 255 255 255 255 255 255 255 255 255 255 255 255 255 255 255 255 255 255 255 255 255 255 255 255 255 255 255 255 255 255 255 255 255 255 255 255 255 255 255 255 255 255 255 255 255 255 255 255 255 255 255 255 255 255 255 255 255 255 255 255 255 255 255 255 
255 255 255 255 255 255 255 255 255 255 255 255 255 255 255 255 255 255 255 255 255 255 255 255 255 255 255 255 255 255 255 255 255 255 255 255 255 255 255 255 255 255 255 255 255 255 255 255 255 255 255 255 255 255 255 255 255 255 255 255 255 255 255 255 255 255 255 255 255 255 255 255 255 255 252 255 243 204 214 214 212 251 249 119 0 237 178 152 227 62 28 199 192 135 159 255 213 155 158 168 212 104 41 159 167 173 240 248 247 247 250 250 253 251 250 248 254 253 255 255 214 77 0 0 47 136 255 255 255 248 244 242 236 237 236 231 224 221 209 234 187 104 255 151 157 163 159 155 111 102 255 255 255 218 102 50 55 103 141 160 169 169 173 168 167 169 165 168 165 168 166 167 171 166 168 167 163 164 162 149 117 60 52 142 255 233 133 125 150 151 148 151 151 155 152 160 160 163 162 108 233 255 255 255 255 255 255 255 255 255 255 255 255 255 255 255 255 255 255 255 255 255 255 255 255 255 255 255 255 255 255 255 255 255 255 255 255 255 255 255 255 255 255 255 255 255 255 255 255 255 255 255 255 255 255 255 255 255 255 255 255 255 255 255 255 255 255 255 255 255 255 255 255 255 255 255 255 255 255 255 255 255 255 255 255 255 255 255 255 255 255 255 255 255 255 255 255 255 255 255 
255 255 255 255 255 255 255 255 255 255 255 255 255 255 255 255 255 255 255 255 255 255 255 255 255 255 255 255 255 255 255 255 255 255 255 255 255 255 255 255 255 255 255 255 255 255 255 255 255 255 255 255 255 255 255 255 255 255 255 255 255 255 255 255 255 255 255 255 255 255 255 255 255 255 253 255 236 207 213 216 254 244 133 42 16 167 255 120 218 117 17 169 220 179 121 208 227 161 151 169 186 172 17 122 155 163 231 253 242 247 247 246 247 250 253 251 249 250 252 255 255 255 255 255 255 255 255 254 247 247 239 238 240 235 229 226 222 212 210 233 141 175 250 138 164 162 161 138 88 245 110 0 128 255 255 250 132 61 43 82 116 141 152 163 165 165 166 167 164 165 169 171 166 167 165 160 150 126 97 64 58 128 251 255 201 117 134 146 148 150 154 150 151 155 154 157 157 165 164 128 171 255 255 255 255 255 255 255 255 255 255 255 255 255 255 255 255 255 255 255 255 255 255 255 255 255 255 255 255 255 255 255 255 255 255 255 255 255 255 255 255 255 255 255 255 255 255 255 255 255 255 255 255 255 255 255 255 255 255 255 255 255 255 255 255 255 255 255 255 255 255 255 255 255 255 255 255 255 255 255 255 255 255 255 255 255 255 255 255 255 255 255 255 255 255 255 255 255 255 255 
255 255 255 255 255 255 255 255 255 255 255 255 255 255 255 255 255 255 255 255 255 255 255 255 255 255 255 255 255 255 255 255 255 255 255 255 255 255 255 255 255 255 255 255 255 255 255 255 255 255 255 255 255 255 255 255 255 255 255 255 255 255 255 255 255 255 255 255 255 255 255 255 255 255 254 255 225 204 219 255 237 88 41 70 65 92 255 137 133 164 37 120 238 210 133 146 229 186 148 164 174 220 81 62 150 147 211 248 243 242 245 247 249 245 248 250 254 252 252 253 255 255 255 255 255 247 249 242 243 244 242 242 231 235 229 228 219 205 229 214 100 253 179 153 163 159 157 108 138 233 0 70 38 0 89 255 255 255 184 99 55 54 63 93 113 133 135 143 145 153 150 148 139 126 102 76 61 51 87 160 255 255 223 134 105 142 151 148 152 150 147 151 151 156 156 153 161 160 165 148 124 255 255 255 255 255 255 255 255 255 255 255 255 255 255 255 255 255 255 255 255 255 255 255 255 255 255 255 255 255 255 255 255 255 255 255 255 255 255 255 255 255 255 255 255 255 255 255 255 255 255 255 255 255 255 255 255 255 255 255 255 255 255 255 255 255 255 255 255 255 255 255 255 255 255 255 255 255 255 255 255 255 255 255 255 255 255 255 255 255 255 255 255 255 255 255 255 255 255 255 
255 255 255 255 255 255 255 255 255 255 255 255 255 255 255 255 255 255 255 255 255 255 255 255 255 255 255 255 255 255 255 255 255 255 255 255 255 255 255 255 255 255 255 255 255 255 255 255 255 255 255 255 255 255 255 255 255 255 255 255 255 255 255 255 255 255 255 255 255 255 255 255 255 252 255 255 221 219 255 217 68 46 106 103 70 23 251 255 188 73 0 49 232 255 192 101 193 198 155 162 168 189 163 34 121 142 187 249 240 239 244 250 243 247 244 247 244 249 249 244 245 246 247 249 245 249 248 244 241 238 236 235 232 230 227 221 210 215 231 157 169 255 135 164 158 165 136 87 248 144 0 0 53 112 72 32 62 228 255 255 255 194 133 90 68 68 55 58 55 54 56 51 49 58 72 108 168 246 255 255 213 130 92 127 145 151 147 152 149 148 153 149 152 152 152 156 156 163 165 160 103 254 255 252 255 255 255 255 255 255 255 255 255 255 255 255 255 255 255 255 255 255 255 255 255 255 255 255 255 255 255 255 255 255 255 255 255 255 255 255 255 255 255 255 255 255 255 255 255 255 255 255 255 255 255 255 255 255 255 255 255 255 255 255 255 255 255 255 255 255 255 255 255 255 255 255 255 255 255 255 255 255 255 255 255 255 255 255 255 255 255 255 255 255 255 255 255 255 255 255 
255 255 255 255 255 255 255 255 255 255 255 255 255 255 255 255 255 255 255 255 255 255 255 255 255 255 255 255 255 255 255 255 255 255 255 255 255 255 255 255 255 255 255 255 255 255 255 255 255 255 255 255 255 255 255 255 255 255 255 255 255 255 255 255 255 255 255 255 255 255 255 251 253 254 255 255 224 255 177 59 63 109 103 67 56 0 156 171 114 217 107 31 159 146 164 169 117 196 164 155 168 169 217 106 54 139 160 233 247 238 241 243 247 248 244 248 247 246 245 246 246 247 247 249 247 246 240 242 239 237 235 235 232 228 220 215 208 224 208 99 247 173 151 161 161 154 97 133 249 6 51 67 22 0 14 103 89 53 78 141 242 255 255 255 255 241 212 198 190 184 196 214 238 255 255 255 255 242 140 83 78 123 142 149 152 152 150 148 153 152 150 154 151 153 153 157 159 159 167 165 114 201 255 254 255 255 255 255 255 255 255 255 255 255 255 255 255 255 255 255 255 255 255 255 255 255 255 255 255 255 255 255 255 255 255 255 255 255 255 255 255 255 255 255 255 255 255 255 255 255 255 255 255 255 255 255 255 255 255 255 255 255 255 255 255 255 255 255 255 255 255 255 255 255 255 255 255 255 255 255 255 255 255 255 255 255 255 255 255 255 255 255 255 255 255 255 255 255 255 255 
255 255 255 255 255 255 255 255 255 255 255 255 255 255 255 255 255 255 255 255 255 255 255 255 255 255 255 255 255 255 255 255 255 255 255 255 255 255 255 255 255 255 255 255 255 255 255 255 255 255 255 255 255 255 255 255 255 255 255 255 255 255 255 255 255 255 255 255 255 255 255 255 252 253 255 255 255 135 68 95 113 76 82 46 15 110 62 146 183 255 232 0 145 183 119 232 98 157 185 160 165 167 177 201 78 91 141 203 244 238 234 242 242 241 248 244 244 243 248 246 248 243 246 242 241 240 241 241 238 236 235 230 230 221 220 211 217 221 111 209 251 132 164 160 160 132 71 255 140 0 72 75 86 84 51 4 0 36 89 102 99 96 138 195 240 255 255 255 255 255 255 255 255 248 173 81 17 19 78 136 145 147 147 150 148 150 154 152 150 151 149 153 151 153 154 153 157 158 165 161 139 140 255 255 251 255 255 255 255 255 255 255 255 255 255 255 255 255 255 255 255 255 255 255 255 255 255 255 255 255 255 255 255 255 255 255 255 255 255 255 255 255 255 255 255 255 255 255 255 255 255 255 255 255 255 255 255 255 255 255 255 255 255 255 255 255 255 255 255 255 255 255 255 255 255 255 255 255 255 255 255 255 255 255 255 255 255 255 255 255 255 255 255 255 255 255 255 255 255 255 
255 255 255 255 255 255 255 255 255 255 255 255 255 255 255 255 255 255 255 255 255 255 255 255 255 255 255 255 255 255 255 255 255 255 255 255 255 255 255 255 255 255 255 255 255 255 255 255 255 255 255 255 255 255 255 255 255 255 255 255 255 255 255 255 255 255 255 255 255 255 255 255 255 255 255 255 102 59 143 104 82 59 39 77 129 98 17 246 184 117 210 40 49 210 117 204 221 76 157 160 159 166 167 191 164 75 108 173 235 242 238 235 241 237 242 244 242 242 240 246 240 244 239 243 241 241 236 237 234 232 232 229 223 216 212 218 220 153 182 252 130 161 162 162 145 76 155 253 7 56 78 82 83 82 93 94 88 59 24 1 27 50 64 64 77 98 103 107 95 75 57 17 0 0 11 65 130 152 149 144 144 146 149 147 153 149 147 151 156 149 154 152 151 153 155 156 154 156 163 163 153 109 255 255 255 252 252 255 255 255 255 255 255 255 255 255 255 255 255 255 255 255 255 255 255 255 255 255 255 255 255 255 255 255 255 255 255 255 255 255 255 255 255 255 255 255 255 255 255 255 255 255 255 255 255 255 255 255 255 255 255 255 255 255 255 255 255 255 255 255 255 255 255 255 255 255 255 255 255 255 255 255 255 255 255 255 255 255 255 255 255 255 255 255 255 255 255 255 255 255 
255 255 255 255 255 255 255 255 255 255 255 255 255 255 255 255 255 255 255 255 255 255 255 255 255 255 255 255 255 255 255 255 255 255 255 255 255 255 255 255 255 255 255 255 255 255 255 255 255 255 255 255 255 255 255 255 255 255 255 255 255 255 255 255 255 255 255 255 255 255 255 251 253 255 255 95 83 147 110 67 48 44 144 129 99 40 89 157 255 129 183 101 0 169 184 85 255 147 95 158 157 165 163 171 200 148 70 122 207 237 232 235 235 242 239 240 242 241 241 241 243 238 241 238 237 237 232 234 230 228 223 220 220 213 215 216 180 171 235 156 157 162 161 156 101 84 255 108 19 82 89 87 87 89 90 94 93 101 104 101 83 67 45 34 27 22 26 33 27 38 55 84 113 139 158 155 142 143 142 145 144 143 148 147 152 154 152 151 150 150 153 152 151 155 151 152 157 159 160 165 161 101 242 255 255 252 252 255 255 255 255 255 255 255 255 255 255 255 255 255 255 255 255 255 255 255 255 255 255 255 255 255 255 255 255 255 255 255 255 255 255 255 255 255 255 255 255 255 255 255 255 255 255 255 255 255 255 255 255 255 255 255 255 255 255 255 255 255 255 255 255 255 255 255 255 255 255 255 255 255 255 255 255 255 255 255 255 255 255 255 255 255 255 255 255 255 255 255 255 255 
255 255 255 255 255 255 255 255 255 255 255 255 255 255 255 255 255 255 255 255 255 255 255 255 255 255 255 255 255 255 255 255 255 255 255 255 255 255 255 255 255 255 255 255 255 255 255 255 255 255 255 255 255 255 255 255 255 255 255 255 255 255 255 255 255 255 255 255 255 255 255 255 251 255 255 100 143 95 57 25 123 154 103 48 91 114 103 36 255 171 155 166 11 56 203 114 148 255 97 81 157 163 167 166 170 199 148 89 141 226 237 229 230 232 235 233 240 237 238 233 234 234 235 233 231 230 231 225 227 230 225 225 228 221 204 186 189 224 177 146 159 161 159 129 63 229 213 0 81 91 88 87 93 93 93 93 94 94 96 97 105 108 112 114 118 120 121 123 125 133 138 139 142 139 138 137 139 141 145 144 145 146 147 148 148 149 153 151 151 150 154 153 152 150 153 154 153 156 158 161 163 123 183 255 255 255 255 255 255 255 255 255 255 255 255 255 255 255 255 255 255 255 255 255 255 255 255 255 255 255 255 255 255 255 255 255 255 255 255 255 255 255 255 255 255 255 255 255 255 255 255 255 255 255 255 255 255 255 255 255 255 255 255 255 255 255 255 255 255 255 255 255 255 255 255 255 255 255 255 255 255 255 255 255 255 255 255 255 255 255 255 255 255 255 255 255 255 255 255 255 
255 255 255 255 255 255 255 255 255 255 255 255 255 255 255 255 255 255 255 255 255 255 255 255 255 255 255 255 255 255 255 255 255 255 255 255 255 255 255 255 255 255 255 255 255 255 255 255 255 255 255 255 255 255 255 255 255 255 255 255 255 255 255 255 255 255 255 255 255 255 255 255 255 255 255 111 83 26 60 146 135 82 79 148 120 108 91 0 228 227 113 178 66 7 174 183 33 215 255 67 94 151 167 166 166 170 190 155 110 160 230 223 228 230 228 232 230 232 230 231 230 235 235 233 236 235 234 236 233 233 235 224 214 197 178 217 215 176 145 167 163 158 140 69 165 255 52 58 86 93 90 95 93 92 96 98 101 105 103 107 111 111 116 115 118 120 123 121 123 128 125 136 134 134 140 141 145 144 144 145 146 149 145 148 149 151 148 153 152 152 150 149 153 150 153 154 155 158 161 163 163 141 141 255 255 255 255 255 255 255 255 255 255 255 255 255 255 255 255 255 255 255 255 255 255 255 255 255 255 255 255 255 255 255 255 255 255 255 255 255 255 255 255 255 255 255 255 255 255 255 255 255 255 255 255 255 255 255 255 255 255 255 255 255 255 255 255 255 255 255 255 255 255 255 255 255 255 255 255 255 255 255 255 255 255 255 255 255 255 255 255 255 255 255 255 255 255 255 255 255 
255 255 255 255 255 255 255 255 255 255 255 255 255 255 255 255 255 255 255 255 255 255 255 255 255 255 255 255 255 255 255 255 255 255 255 255 255 255 255 255 255 255 255 255 255 255 255 255 255 255 255 255 255 255 255 255 255 255 255 255 255 255 255 255 255 255 255 255 255 255 255 255 255 255 255 96 0 102 160 117 76 154 120 119 97 87 87 16 116 255 113 192 139 5 35 215 159 27 255 243 70 91 157 163 168 167 171 177 164 142 172 222 230 232 235 232 233 237 240 238 238 238 240 232 238 231 234 233 231 226 215 198 188 200 248 219 154 150 166 161 157 146 72 122 255 112 24 93 93 94 96 97 100 102 103 109 110 113 117 120 119 114 120 119 122 125 130 128 131 133 136 132 136 138 140 143 143 144 145 147 149 146 150 147 150 152 150 149 149 147 152 150 152 156 152 155 150 156 153 160 165 149 106 255 255 255 255 255 255 255 255 255 255 255 255 255 255 255 255 255 255 255 255 255 255 255 255 255 255 255 255 255 255 255 255 255 255 255 255 255 255 255 255 255 255 255 255 255 255 255 255 255 255 255 255 255 255 255 255 255 255 255 255 255 255 255 255 255 255 255 255 255 255 255 255 255 255 255 255 255 255 255 255 255 255 255 255 255 255 255 255 255 255 255 255 255 255 255 255 255 
255 255 255 255 255 255 255 255 255 255 255 255 255 255 255 255 255 255 255 255 255 255 255 255 255 255 255 255 255 255 255 255 255 255 255 255 255 255 255 255 255 255 255 255 255 255 255 255 255 255 255 255 255 255 255 255 255 255 255 255 255 255 255 255 255 255 255 255 255 255 255 255 255 255 255 189 43 148 115 145 175 135 101 103 89 80 67 25 24 255 152 165 181 105 0 104 196 117 61 255 232 63 90 151 163 166 164 171 170 172 170 196 214 219 230 237 243 242 236 239 238 234 237 237 232 236 230 224 213 207 192 197 235 242 202 137 160 163 164 160 142 64 114 255 155 5 94 92 97 96 102 107 107 114 113 118 120 119 118 122 126 126 127 126 131 132 126 133 137 135 140 139 138 143 141 147 143 145 147 144 147 146 150 148 146 148 152 150 149 153 151 150 153 149 153 154 156 156 155 162 165 161 108 237 255 255 255 255 255 255 255 255 255 255 255 255 255 255 255 255 255 255 255 255 255 255 255 255 255 255 255 255 255 255 255 255 255 255 255 255 255 255 255 255 255 255 255 255 255 255 255 255 255 255 255 255 255 255 255 255 255 255 255 255 255 255 255 255 255 255 255 255 255 255 255 255 255 255 255 255 255 255 255 255 255 255 255 255 255 255 255 255 255 255 255 255 255 255 255 255 
255 255 255 255 255 255 255 255 255 255 255 255 255 255 255 255 255 255 255 255 255 255 255 255 255 255 255 255 255 255 255 255 255 255 255 255 255 255 255 255 255 255 255 255 255 255 255 255 255 255 255 255 255 255 255 255 255 255 255 255 255 255 255 255 255 255 255 255 255 255 255 255 255 255 255 255 79 127 216 160 126 107 91 73 51 36 27 0 0 189 228 134 174 114 19 15 114 169 57 110 255 240 73 75 146 165 165 168 168 165 152 163 186 220 216 214 217 228 229 232 235 231 228 229 221 220 214 205 201 213 245 241 202 151 143 165 163 162 159 133 66 106 255 184 9 85 93 99 107 112 110 116 116 115 120 124 127 127 127 126 129 135 129 136 136 133 138 134 135 137 136 142 142 143 144 146 144 146 149 147 152 145 144 149 146 151 146 151 149 152 151 150 151 155 152 154 155 157 156 159 162 163 122 185 255 254 255 255 255 255 255 255 255 255 255 255 255 255 255 255 255 255 255 255 255 255 255 255 255 255 255 255 255 255 255 255 255 255 255 255 255 255 255 255 255 255 255 255 255 255 255 255 255 255 255 255 255 255 255 255 255 255 255 255 255 255 255 255 255 255 255 255 255 255 255 255 255 255 255 255 255 255 255 255 255 255 255 255 255 255 255 255 255 255 255 255 255 255 255 255 
255 255 255 255 255 255 255 255 255 255 255 255 255 255 255 255 255 255 255 255 255 255 255 255 255 255 255 255 255 255 255 255 255 255 255 255 255 255 255 255 255 255 255 255 255 255 255 255 255 255 255 255 255 255 255 255 255 255 255 255 255 255 255 255 255 255 255 255 255 255 255 255 255 255 255 255 129 211 160 121 108 87 52 27 22 20 49 103 103 159 255 163 125 117 97 0 12 149 168 44 120 255 251 90 58 131 165 164 167 165 168 159 146 165 179 209 223 224 217 221 219 219 221 219 217 215 226 234 241 225 191 152 148 163 164 163 164 153 112 57 129 255 197 14 82 97 102 115 112 111 118 116 121 125 128 134 131 130 136 135 139 138 138 138 140 140 140 140 144 141 144 144 146 143 148 146 144 148 146 146 144 150 149 146 152 143 153 150 148 152 151 148 157 153 152 154 156 151 159 156 159 164 141 136 255 255 255 255 255 255 255 255 255 255 255 255 255 255 255 255 255 255 255 255 255 255 255 255 255 255 255 255 255 255 255 255 255 255 255 255 255 255 255 255 255 255 255 255 255 255 255 255 255 255 255 255 255 255 255 255 255 255 255 255 255 255 255 255 255 255 255 255 255 255 255 255 255 255 255 255 255 255 255 255 255 255 255 255 255 255 255 255 255 255 255 255 255 255 255 255 
255 255 255 255 255 255 255 255 255 255 255 255 255 255 255 255 255 255 255 255 255 255 255 255 255 255 255 255 255 255 255 255 255 255 255 255 255 255 255 255 255 255 255 255 255 255 255 255 255 255 255 255 255 255 255 255 255 255 255 255 255 255 255 255 255 255 255 255 255 255 255 255 255 255 255 255 161 162 136 80 59 21 18 23 75 127 156 159 151 123 205 242 238 240 111 79 111 67 156 134 111 138 244 255 120 56 105 152 161 166 165 166 162 160 145 149 153 179 196 212 218 214 214 217 214 205 192 170 157 144 150 160 166 166 164 158 141 81 53 158 255 178 19 81 104 110 117 113 114 121 119 125 128 131 135 135 137 141 140 140 145 142 151 148 151 146 145 143 145 146 144 148 151 151 146 144 150 148 148 148 148 148 147 151 148 148 151 148 153 151 149 154 149 154 151 154 155 158 153 158 161 165 154 112 255 255 251 255 255 255 255 255 255 255 255 255 255 255 255 255 255 255 255 255 255 255 255 255 255 255 255 255 255 255 255 255 255 255 255 255 255 255 255 255 255 255 255 255 255 255 255 255 255 255 255 255 255 255 255 255 255 255 255 255 255 255 255 255 255 255 255 255 255 255 255 255 255 255 255 255 255 255 255 255 255 255 255 255 255 255 255 255 255 255 255 255 255 255 255 255 
255 255 255 255 255 255 255 255 255 255 255 255 255 255 255 255 255 255 255 255 255 255 255 255 255 255 255 255 255 255 255 255 255 255 255 255 255 255 255 255 255 255 255 255 255 255 255 255 255 255 255 255 255 255 255 255 255 255 255 255 255 255 255 255 255 255 255 255 255 255 255 255 255 255 255 235 136 118 79 4 5 38 101 149 176 177 168 173 170 171 93 74 121 120 101 189 169 96 60 144 223 234 98 212 255 189 71 77 125 154 168 167 169 168 169 162 153 152 146 142 147 150 149 149 149 145 150 156 156 164 163 167 163 163 145 100 57 92 224 255 156 15 86 112 112 115 118 123 124 123 130 128 132 135 139 138 145 148 148 148 147 148 151 158 158 160 155 152 148 147 151 147 147 149 144 155 148 150 150 150 151 147 146 148 152 151 148 153 151 150 154 150 155 152 157 153 155 157 153 160 158 163 158 101 247 255 255 255 255 255 255 255 255 255 255 255 255 255 255 255 255 255 255 255 255 255 255 255 255 255 255 255 255 255 255 255 255 255 255 255 255 255 255 255 255 255 255 255 255 255 255 255 255 255 255 255 255 255 255 255 255 255 255 255 255 255 255 255 255 255 255 255 255 255 255 255 255 255 255 255 255 255 255 255 255 255 255 255 255 255 255 255 255 255 255 255 255 255 255 255 
255 255 255 255 255 255 255 255 255 255 255 255 255 255 255 255 255 255 255 255 255 255 255 255 255 255 255 255 255 255 255 255 255 255 255 255 255 255 255 255 255 255 255 255 255 255 255 255 255 255 255 255 255 255 255 255 255 255 255 255 255 255 255 255 255 255 255 255 255 255 255 255 251 255 255 254 66 9 0 47 148 205 216 211 208 213 209 209 209 206 211 197 176 156 164 151 158 163 107 80 85 56 149 109 192 255 255 143 65 69 113 152 162 170 165 166 170 168 169 167 165 162 161 168 164 170 165 167 165 161 166 156 141 103 56 68 157 255 255 120 7 102 113 114 119 119 119 125 124 131 129 134 137 140 143 149 151 149 148 154 149 158 164 168 168 169 164 163 156 156 154 149 153 150 147 154 151 148 149 149 150 145 149 151 149 147 152 150 150 149 152 155 153 153 151 154 155 157 160 155 156 160 162 115 207 255 255 255 255 255 255 255 255 255 255 255 255 255 255 255 255 255 255 255 255 255 255 255 255 255 255 255 255 255 255 255 255 255 255 255 255 255 255 255 255 255 255 255 255 255 255 255 255 255 255 255 255 255 255 255 255 255 255 255 255 255 255 255 255 255 255 255 255 255 255 255 255 255 255 255 255 255 255 255 255 255 255 255 255 255 255 255 255 255 255 255 255 255 255 255 
255 255 255 255 255 255 255 255 255 255 255 255 255 255 255 255 255 255 255 255 255 255 255 255 255 255 255 255 255 255 255 255 255 255 255 255 255 255 255 255 255 255 255 255 255 255 255 255 255 255 255 255 255 255 255 255 255 255 255 255 255 255 255 255 255 255 255 255 255 255 255 251 254 251 255 255 0 33 207 255 243 232 217 218 216 212 211 210 212 209 204 208 200 186 172 148 151 155 170 106 88 126 175 112 52 149 246 255 243 140 72 56 90 124 151 161 163 163 167 163 159 168 168 165 163 165 159 159 159 149 117 79 55 73 154 255 255 206 57 43 113 114 122 122 123 125 126 126 133 132 136 139 143 146 150 151 148 153 157 154 159 163 168 174 174 174 174 170 171 163 155 155 154 154 154 147 147 145 147 147 147 147 150 152 150 155 153 152 152 152 149 153 152 152 151 154 157 153 155 157 157 162 163 130 151 255 255 255 255 251 255 255 255 255 255 255 255 255 255 255 255 255 255 255 255 255 255 255 255 255 255 255 255 255 255 255 255 255 255 255 255 255 255 255 255 255 255 255 255 255 255 255 255 255 255 255 255 255 255 255 255 255 255 255 255 255 255 255 255 255 255 255 255 255 255 255 255 255 255 255 255 255 255 255 255 255 255 255 255 255 255 255 255 255 255 255 255 255 255 255 
255 255 255 255 255 255 255 255 255 255 255 255 255 255 255 255 255 255 255 255 255 255 255 255 255 255 255 255 255 255 255 255 255 255 255 255 255 255 255 255 255 255 255 255 255 255 255 255 255 255 255 255 255 255 255 255 255 255 255 255 255 255 255 255 255 255 255 255 255 255 255 255 251 255 255 255 0 105 255 222 212 216 213 211 211 206 208 208 210 204 208 200 206 204 195 160 147 150 156 181 139 118 141 175 119 88 96 173 255 255 255 169 98 63 57 85 106 124 135 142 150 152 149 141 147 135 121 100 93 77 68 108 191 255 255 247 111 22 89 116 121 120 126 122 125 127 133 134 135 133 143 146 145 149 154 155 159 157 161 156 163 172 179 175 177 177 174 175 174 169 164 158 160 154 157 154 154 153 150 151 152 152 151 154 153 152 151 155 154 152 157 155 155 155 155 155 152 155 157 158 159 158 165 147 112 255 255 255 255 253 252 255 255 255 255 255 255 255 255 255 255 255 255 255 255 255 255 255 255 255 255 255 255 255 255 255 255 255 255 255 255 255 255 255 255 255 255 255 255 255 255 255 255 255 255 255 255 255 255 255 255 255 255 255 255 255 255 255 255 255 255 255 255 255 255 255 255 255 255 255 255 255 255 255 255 255 255 255 255 255 255 255 255 255 255 255 255 255 255 255 
255 255 255 255 255 255 255 255 255 255 255 255 255 255 255 255 255 255 255 255 255 255 255 255 255 255 255 255 255 255 255 255 255 255 255 255 255 255 255 255 255 255 255 255 255 255 255 255 255 255 255 255 255 255 255 255 255 255 255 255 255 255 255 255 255 255 255 255 255 255 255 255 255 255 252 255 255 177 204 220 213 209 209 209 209 211 206 207 209 207 206 207 205 203 207 179 155 154 155 165 205 169 134 133 177 160 125 86 102 164 243 255 255 250 182 129 99 81 75 73 71 76 73 72 65 70 81 104 124 173 255 255 255 227 123 27 60 115 120 126 122 126 127 131 134 129 136 137 136 147 143 149 149 155 155 157 160 158 160 164 169 174 178 177 179 179 182 181 181 171 167 169 161 161 155 151 154 154 153 155 151 153 147 152 151 151 149 153 151 156 154 154 154 154 156 150 154 156 153 155 157 156 163 153 96 255 255 255 252 254 254 252 255 255 255 255 255 255 255 255 255 255 255 255 255 255 255 255 255 255 255 255 255 255 255 255 255 255 255 255 255 255 255 255 255 255 255 255 255 255 255 255 255 255 255 255 255 255 255 255 255 255 255 255 255 255 255 255 255 255 255 255 255 255 255 255 255 255 255 255 255 255 255 255 255 255 255 255 255 255 255 255 255 255 255 255 255 255 255 255 
255 255 255 255 255 255 255 255 255 255 255 255 255 255 255 255 255 255 255 255 255 255 255 255 255 255 255 255 255 255 255 255 255 255 255 255 255 255 255 255 255 255 255 255 255 255 255 255 255 255 255 255 255 255 255 255 255 255 255 255 255 255 255 255 255 255 255 255 255 255 255 255 255 255 255 255 255 141 180 213 211 210 209 208 207 207 208 210 205 209 204 209 201 206 207 199 175 161 158 177 197 209 180 137 129 165 190 185 137 90 81 152 203 255 255 255 255 252 224 211 201 185 182 198 215 233 250 255 255 255 255 148 61 28 65 108 124 126 127 130 129 128 133 131 132 139 139 139 145 147 153 153 155 155 158 160 162 165 163 170 177 179 181 182 185 181 180 182 183 175 177 146 171 175 167 157 153 153 149 153 151 152 154 153 154 152 156 154 155 154 154 154 154 155 150 151 154 157 155 158 153 160 159 160 106 227 255 255 253 254 254 253 255 255 255 255 255 255 255 255 255 255 255 255 255 255 255 255 255 255 255 255 255 255 255 255 255 255 255 255 255 255 255 255 255 255 255 255 255 255 255 255 255 255 255 255 255 255 255 255 255 255 255 255 255 255 255 255 255 255 255 255 255 255 255 255 255 255 255 255 255 255 255 255 255 255 255 255 255 255 255 255 255 255 255 255 255 255 255 255 
255 255 255 255 255 255 255 255 255 255 255 255 255 255 255 255 255 255 255 255 255 255 255 255 255 255 255 255 255 255 255 255 255 255 255 255 255 255 255 255 255 255 255 255 255 255 255 255 255 255 255 255 255 255 255 255 255 255 255 255 255 255 255 255 255 255 255 255 255 255 255 255 255 255 255 255 255 178 160 209 205 212 206 209 212 210 210 206 209 203 211 205 215 207 207 211 200 180 181 188 202 207 204 193 154 125 124 163 202 196 166 129 99 87 160 187 217 249 255 255 255 255 255 255 255 255 238 192 118 47 9 33 91 119 124 128 128 131 129 128 134 134 133 132 138 142 143 149 147 153 153 155 155 163 160 163 164 163 172 179 176 182 183 181 187 185 182 177 179 186 106 142 195 183 172 165 166 159 154 157 150 155 152 155 149 154 157 157 152 153 153 154 153 154 156 156 154 154 152 155 158 156 164 159 122 212 255 255 255 254 254 253 255 255 255 255 255 255 255 255 255 255 255 255 255 255 255 255 255 255 255 255 255 255 255 255 255 255 255 255 255 255 255 255 255 255 255 255 255 255 255 255 255 255 255 255 255 255 255 255 255 255 255 255 255 255 255 255 255 255 255 255 255 255 255 255 255 255 255 255 255 255 255 255 255 255 255 255 255 255 255 255 255 255 255 255 255 255 255 255 
255 255 255 255 255 255 255 255 255 255 255 255 255 255 255 255 255 255 255 255 255 255 255 255 255 255 255 255 255 255 255 255 255 255 255 255 255 255 255 255 255 255 255 255 255 255 255 255 255 255 255 255 255 255 255 255 255 255 255 255 255 255 255 255 255 255 255 255 255 255 255 255 252 252 255 255 255 178 165 226 205 205 208 207 207 209 213 208 210 211 211 207 208 212 206 203 212 203 202 201 209 201 207 208 198 178 150 119 117 121 148 171 214 152 208 126 132 117 121 131 142 139 148 143 91 39 0 0 29 88 123 131 131 125 128 131 130 129 134 134 134 133 138 136 141 147 142 148 153 153 155 156 163 164 162 165 170 174 175 180 180 191 185 183 180 181 180 185 167 105 133 227 194 187 184 176 174 164 164 157 161 157 153 152 155 154 154 154 155 156 157 151 159 154 151 151 156 150 156 154 151 158 158 161 172 111 0 76 255 255 254 253 255 255 255 255 255 255 255 255 255 255 255 255 255 255 255 255 255 255 255 255 255 255 255 255 255 255 255 255 255 255 255 255 255 255 255 255 255 255 255 255 255 255 255 255 255 255 255 255 255 255 255 255 255 255 255 255 255 255 255 255 255 255 255 255 255 255 255 255 255 255 255 255 255 255 255 255 255 255 255 255 255 255 255 255 255 255 255 255 
255 255 255 255 255 255 255 255 255 255 255 255 255 255 255 255 255 255 255 255 255 255 255 255 255 255 255 255 255 255 255 255 255 255 255 255 255 255 255 255 255 255 255 255 255 255 255 255 255 255 255 255 255 255 255 255 255 255 255 255 255 255 255 255 255 255 255 255 255 255 255 255 253 254 251 255 255 122 102 166 229 210 205 207 211 210 212 212 207 207 208 210 205 207 211 208 206 207 209 207 209 210 207 213 211 206 188 164 148 131 116 93 81 92 55 27 86 56 73 67 54 34 23 20 43 73 110 136 138 129 131 130 133 133 133 133 134 134 138 138 138 142 146 143 150 150 153 152 158 159 161 163 164 166 170 167 172 174 185 182 189 186 179 179 181 183 193 127 112 171 236 201 200 195 188 185 176 174 167 166 166 160 160 156 154 158 154 156 157 153 154 157 152 155 152 152 157 152 152 153 152 154 156 161 169 194 0 0 255 255 253 252 255 255 255 255 255 255 255 255 255 255 255 255 255 255 255 255 255 255 255 255 255 255 255 255 255 255 255 255 255 255 255 255 255 255 255 255 255 255 255 255 255 255 255 255 255 255 255 255 255 255 255 255 255 255 255 255 255 255 255 255 255 255 255 255 255 255 255 255 255 255 255 255 255 255 255 255 255 255 255 255 255 255 255 255 255 255 255 255 
255 255 255 255 255 255 255 255 255 255 255 255 255 255 255 255 255 255 255 255 255 255 255 255 255 255 255 255 255 255 255 255 255 255 255 255 255 255 255 255 255 255 255 255 255 255 255 255 255 255 255 255 255 255 255 255 255 255 255 255 255 255 255 255 255 255 255 255 255 255 255 255 252 252 255 255 255 86 101 124 177 207 224 207 207 210 209 212 210 214 209 210 212 209 204 211 212 207 209 209 208 208 212 205 209 207 211 203 179 161 150 146 139 135 127 129 108 109 98 98 105 118 127 133 136 136 133 129 135 134 130 135 134 135 136 137 138 137 142 142 142 147 144 149 150 151 152 159 159 162 164 166 169 171 174 171 177 183 187 179 179 181 182 188 185 146 119 138 221 226 200 203 196 196 197 193 188 181 182 171 169 166 161 160 163 157 157 155 158 155 157 154 152 155 151 153 152 153 155 151 152 151 158 158 171 140 6 0 255 255 255 255 255 255 255 255 255 255 255 255 255 255 255 255 255 255 255 255 255 255 255 255 255 255 255 255 255 255 255 255 255 255 255 255 255 255 255 255 255 255 255 255 255 255 255 255 255 255 255 255 255 255 255 255 255 255 255 255 255 255 255 255 255 255 255 255 255 255 255 255 255 255 255 255 255 255 255 255 255 255 255 255 255 255 255 255 255 255 255 255 
255 255 255 255 255 255 255 255 255 255 255 255 255 255 255 255 255 255 255 255 255 255 255 255 255 255 255 255 255 255 255 255 255 255 255 255 255 255 255 255 255 255 255 255 255 255 255 255 255 255 255 255 255 255 255 255 255 255 255 255 255 255 255 255 255 255 255 255 255 255 255 255 255 255 255 255 255 35 90 178 167 147 203 226 211 208 210 208 209 217 211 212 213 209 211 209 208 215 209 211 211 212 209 207 210 211 210 211 212 194 177 160 152 144 143 139 138 137 137 132 135 129 127 130 126 127 132 136 151 157 157 141 139 140 141 141 141 147 146 147 148 146 152 150 152 159 159 160 164 162 166 169 166 170 173 177 180 180 178 182 183 187 179 145 124 142 198 233 210 200 204 195 203 193 192 196 189 191 188 177 176 174 171 167 161 160 162 158 157 155 159 157 156 152 156 152 153 155 152 150 153 151 153 161 170 58 45 0 220 255 255 255 255 255 255 255 255 255 255 255 255 255 255 255 255 255 255 255 255 255 255 255 255 255 255 255 255 255 255 255 255 255 255 255 255 255 255 255 255 255 255 255 255 255 255 255 255 255 255 255 255 255 255 255 255 255 255 255 255 255 255 255 255 255 255 255 255 255 255 255 255 255 255 255 255 255 255 255 255 255 255 255 255 255 255 255 255 255 255 255 
255 255 255 255 255 255 255 255 255 255 255 255 255 255 255 255 255 255 255 255 255 255 255 255 255 255 255 255 255 255 255 255 255 255 255 255 255 255 255 255 255 255 255 255 255 255 255 255 255 255 255 255 255 255 255 255 255 255 255 255 255 255 255 255 255 255 255 255 255 255 255 255 255 255 255 255 255 21 115 134 148 153 132 163 218 222 209 214 211 211 211 210 210 211 210 214 213 212 215 209 211 213 209 211 212 210 210 210 215 215 208 192 174 158 146 146 140 132 135 132 132 131 132 132 132 132 131 141 108 62 133 186 176 159 151 153 151 150 150 151 150 156 154 154 158 158 165 167 167 168 167 172 177 176 177 178 182 186 187 183 158 125 115 149 192 229 215 203 205 206 199 199 197 200 191 192 194 191 190 187 185 177 175 172 169 164 165 158 160 160 155 155 153 157 154 152 155 151 151 150 150 149 157 160 95 54 92 0 133 255 253 255 255 255 255 255 255 255 255 255 255 255 255 255 255 255 255 255 255 255 255 255 255 255 255 255 255 255 255 255 255 255 255 255 255 255 255 255 255 255 255 255 255 255 255 255 255 255 255 255 255 255 255 255 255 255 255 255 255 255 255 255 255 255 255 255 255 255 255 255 255 255 255 255 255 255 255 255 255 255 255 255 255 255 255 255 255 255 255 255 
255 255 255 255 255 255 255 255 255 255 255 255 255 255 255 255 255 255 255 255 255 255 255 255 255 255 255 255 255 255 255 255 255 255 255 255 255 255 255 255 255 255 255 255 255 255 255 255 255 255 255 255 255 255 255 255 255 255 255 255 255 255 255 255 252 253 253 252 255 255 255 255 255 255 251 255 226 54 137 132 123 152 175 143 148 212 222 212 211 214 210 214 213 213 211 215 214 215 210 217 212 208 211 212 213 210 207 209 213 211 212 208 203 182 172 160 148 144 138 140 138 133 137 133 136 133 132 132 129 80 26 43 98 159 177 177 172 165 163 158 162 158 163 163 161 165 167 172 168 171 174 172 176 182 183 184 174 147 120 103 125 169 211 226 216 201 202 204 203 205 198 202 199 199 197 195 195 191 193 191 186 184 181 178 175 173 165 162 159 163 155 157 157 155 154 153 150 155 148 150 150 152 155 129 32 79 55 0 57 255 255 252 255 255 255 255 255 255 255 255 255 255 255 255 255 255 255 255 255 255 255 255 255 255 255 255 255 255 255 255 255 255 255 255 255 255 255 255 255 255 255 255 255 255 255 255 255 255 255 255 255 255 255 255 255 255 255 255 255 255 255 255 255 255 255 255 255 255 255 255 255 255 255 255 255 255 255 255 255 255 255 255 255 255 255 255 255 255 255 255 
255 255 255 255 255 255 255 255 255 255 255 255 255 255 255 255 255 255 255 255 255 255 255 255 255 255 255 255 255 255 255 255 255 255 255 255 255 255 255 255 255 255 255 255 255 255 255 255 255 255 255 255 255 252 252 255 252 253 252 255 251 255 255 255 253 254 253 252 255 255 255 255 255 255 255 255 151 87 129 140 141 144 152 151 104 128 196 221 219 214 213 214 212 210 215 213 213 214 209 214 214 216 212 209 210 212 213 214 210 210 206 212 212 209 195 172 157 148 150 144 141 139 140 139 138 138 137 135 135 138 140 92 30 9 27 69 111 147 168 176 174 178 177 173 177 175 175 177 176 176 177 167 154 133 107 92 94 114 156 205 227 227 213 205 200 202 200 205 198 200 198 199 202 201 190 200 198 194 194 195 193 188 184 182 179 178 171 168 168 162 158 157 153 154 154 153 152 150 152 150 151 150 138 44 45 81 57 34 0 255 255 253 255 255 255 255 255 255 255 255 255 255 255 255 255 255 255 255 255 255 255 255 255 255 255 255 255 255 255 255 255 255 255 255 255 255 255 255 255 255 255 255 255 255 255 255 255 255 255 255 255 255 255 255 255 255 255 255 255 255 255 255 255 255 255 255 255 255 255 255 255 255 255 255 255 255 255 255 255 255 255 255 255 255 255 255 255 255 255 255 
255 255 255 255 255 255 255 255 255 255 255 255 255 255 255 255 255 255 255 255 255 255 255 255 255 255 255 255 255 255 255 255 255 255 255 255 255 255 255 255 255 255 255 255 255 255 255 255 255 255 255 255 255 253 254 253 254 254 254 252 254 253 255 255 253 252 255 255 255 255 255 255 255 255 255 255 111 121 136 137 143 137 142 110 138 138 146 167 213 224 211 213 213 216 213 213 213 213 214 213 213 213 214 210 213 208 210 210 211 213 211 210 213 214 207 188 178 161 157 152 147 151 144 147 143 137 143 137 140 139 138 152 154 142 108 70 38 21 20 37 63 75 89 100 106 108 106 100 94 79 66 60 74 97 140 181 212 227 224 219 206 205 207 208 202 200 202 200 204 204 200 203 198 203 197 200 198 194 194 192 193 191 192 183 183 175 174 170 171 167 164 159 158 156 152 153 153 153 149 156 154 148 59 21 140 85 73 56 0 255 255 252 255 255 255 255 255 255 255 255 255 255 255 255 255 255 255 255 255 255 255 255 255 255 255 255 255 255 255 255 255 255 255 255 255 255 255 255 255 255 255 255 255 255 255 255 255 255 255 255 255 255 255 255 255 255 255 255 255 255 255 255 255 255 255 255 255 255 255 255 255 255 255 255 255 255 255 255 255 255 255 255 255 255 255 255 255 255 255 255 
255 255 255 255 255 255 255 255 255 255 255 255 255 255 255 255 255 255 255 255 255 255 255 255 255 255 255 255 255 255 255 255 255 255 255 255 255 255 255 255 255 255 255 255 255 255 255 255 255 255 255 255 255 253 254 254 254 255 255 255 255 255 255 255 253 255 255 255 255 255 255 255 255 255 255 255 146 150 182 156 160 141 132 121 136 147 142 154 186 188 227 217 215 213 215 213 213 212 213 213 213 212 217 217 213 216 211 212 213 213 215 213 213 211 208 204 194 180 172 165 161 153 149 150 148 150 149 148 147 145 149 151 150 153 160 163 159 154 140 118 98 86 81 75 73 77 84 88 102 128 161 187 211 226 228 220 218 213 203 207 202 202 205 207 201 200 197 196 204 202 204 199 203 200 200 197 200 194 194 197 197 193 193 190 183 181 177 174 170 167 165 161 162 156 156 153 149 151 153 157 149 90 33 99 100 63 65 65 0 203 255 255 255 255 255 255 255 255 255 255 255 255 255 255 255 255 255 255 255 255 255 255 255 255 255 255 255 255 255 255 255 255 255 255 255 255 255 255 255 255 255 255 255 255 255 255 255 255 255 255 255 255 255 255 255 255 255 255 255 255 255 255 255 255 255 255 255 255 255 255 255 255 255 255 255 255 255 255 255 255 255 255 255 255 255 255 255 255 255 255 
255 255 255 255 255 255 255 255 255 255 255 255 255 255 255 255 255 255 255 255 255 255 255 255 255 255 255 255 255 255 255 255 255 255 255 255 255 255 255 255 255 255 255 255 255 255 255 255 255 255 255 255 255 252 254 254 255 255 255 255 255 255 255 255 255 255 253 251 255 255 255 255 255 252 255 255 128 220 191 189 185 152 127 120 135 117 119 161 227 194 167 225 221 215 215 215 212 218 212 213 213 212 210 216 211 213 214 215 211 212 213 210 207 213 211 210 204 198 191 183 176 170 160 157 154 154 149 155 152 154 149 149 154 153 153 153 160 160 168 170 172 175 181 180 175 181 189 193 207 211 216 213 213 212 213 207 210 209 205 207 205 200 206 201 200 204 201 200 203 202 202 204 201 199 198 196 203 200 193 199 192 196 188 191 182 183 183 179 175 173 166 165 161 158 153 153 151 152 155 159 118 39 64 85 61 84 61 61 0 98 255 255 255 255 255 255 255 255 255 255 255 255 255 255 255 255 255 255 255 255 255 255 255 255 255 255 255 255 255 255 255 255 255 255 255 255 255 255 255 255 255 255 255 255 255 255 255 255 255 255 255 255 255 255 255 255 255 255 255 255 255 255 255 255 255 255 255 255 255 255 255 255 255 255 255 255 255 255 255 255 255 255 255 255 255 255 255 255 255 255 
255 255 255 255 255 255 255 255 255 255 255 255 255 255 255 255 255 255 255 255 255 255 255 255 255 255 255 255 255 255 255 255 255 255 255 255 255 255 255 255 255 255 255 255 255 255 255 252 253 253 253 252 255 255 254 255 255 173 175 148 70 30 127 175 255 255 255 255 251 255 255 255 255 253 255 255 4 109 189 164 168 146 101 136 134 119 121 129 143 185 169 158 196 226 218 217 217 213 213 213 212 217 216 214 216 212 213 214 210 212 211 213 215 212 211 212 212 206 202 201 193 181 175 165 164 156 157 152 151 157 157 156 159 161 163 165 166 168 168 173 172 175 175 179 185 194 196 207 205 206 208 208 210 210 208 209 205 205 208 204 202 205 204 206 204 201 197 204 203 203 202 204 200 203 202 195 195 202 201 194 197 193 193 188 185 184 182 177 179 175 169 164 162 160 157 152 155 155 155 133 54 76 72 50 57 64 71 62 0 65 255 255 255 255 255 255 255 255 255 255 255 255 255 255 255 255 255 255 255 255 255 255 255 255 255 255 255 255 255 255 255 255 255 255 255 255 255 255 255 255 255 255 255 255 255 255 255 255 255 255 255 255 255 255 255 255 255 255 255 255 255 255 255 255 255 255 255 255 255 255 255 255 255 255 255 255 255 255 255 255 255 255 255 255 255 255 255 255 255 255 
255 255 255 255 255 255 255 255 255 255 255 255 255 255 255 255 255 255 255 255 255 255 255 255 255 255 255 255 255 255 255 255 255 255 255 255 255 255 255 255 255 255 255 255 255 255 255 253 253 254 254 255 255 255 255 255 238 110 85 83 86 72 56 12 81 190 255 255 255 255 253 253 253 254 253 255 221 152 178 173 184 140 120 137 132 150 146 131 111 126 155 168 172 180 226 228 211 215 216 213 213 211 211 216 215 212 213 213 215 209 216 210 212 209 211 212 216 213 213 211 203 197 192 184 173 170 167 167 163 165 166 166 164 167 168 168 169 169 167 174 175 179 183 188 198 203 205 203 206 208 211 211 213 212 207 211 202 210 204 208 206 203 204 204 201 203 205 201 198 198 204 199 201 202 200 198 200 201 198 199 194 192 191 187 183 181 185 180 176 176 174 163 164 157 155 154 153 157 145 59 68 88 50 70 52 66 62 58 0 165 255 254 255 255 255 255 255 255 255 255 255 255 255 255 255 255 255 255 255 255 255 255 255 255 255 255 255 255 255 255 255 255 255 255 255 255 255 255 255 255 255 255 255 255 255 255 255 255 255 255 255 255 255 255 255 255 255 255 255 255 255 255 255 255 255 255 255 255 255 255 255 255 255 255 255 255 255 255 255 255 255 255 255 255 255 255 255 255 255 255 
255 255 255 255 255 255 255 255 255 255 255 255 255 255 255 255 255 255 255 255 255 255 255 255 255 255 255 255 255 255 255 255 255 255 255 255 255 255 255 255 255 255 255 255 255 252 253 253 255 255 255 255 255 255 255 154 115 129 140 137 105 129 129 111 43 29 67 210 255 255 255 255 255 253 255 255 255 247 197 145 188 159 142 156 121 131 151 131 124 163 131 153 168 125 153 212 234 214 211 217 212 217 212 211 216 212 213 213 213 214 213 214 214 211 212 212 213 212 212 210 206 208 207 199 192 188 180 177 171 172 170 171 171 169 170 175 174 178 180 186 185 196 193 201 203 202 209 212 207 209 210 209 208 208 211 208 207 207 210 206 204 201 202 208 203 205 206 204 202 204 204 200 201 202 199 203 200 196 200 197 199 194 194 190 186 185 183 180 171 175 175 170 164 158 159 158 158 154 82 64 116 86 57 65 53 65 66 56 0 174 255 255 255 255 255 255 255 255 255 255 255 255 255 255 255 255 255 255 255 255 255 255 255 255 255 255 255 255 255 255 255 255 255 255 255 255 255 255 255 255 255 255 255 255 255 255 255 255 255 255 255 255 255 255 255 255 255 255 255 255 255 255 255 255 255 255 255 255 255 255 255 255 255 255 255 255 255 255 255 255 255 255 255 255 255 255 255 255 255 255 
255 255 255 255 255 255 255 255 255 255 255 255 255 255 255 255 255 255 255 255 255 255 255 255 255 255 255 255 255 255 255 255 255 255 255 255 255 255 255 255 255 255 255 255 255 253 254 255 255 255 255 191 87 116 72 57 87 89 82 29 62 96 136 164 95 88 15 0 75 116 255 255 255 255 254 255 255 212 207 202 175 115 137 160 142 107 156 144 135 154 147 169 146 140 101 121 199 230 223 212 216 218 212 212 217 212 213 213 213 213 212 211 217 212 214 214 215 211 215 214 210 211 209 206 203 198 200 196 191 189 183 186 185 184 185 191 190 193 195 197 200 200 202 207 209 208 207 214 212 210 215 209 211 213 209 207 205 207 203 205 207 209 205 205 208 203 206 203 202 198 200 201 201 203 200 198 196 199 194 199 192 200 193 189 185 185 183 179 171 175 174 166 165 167 160 163 157 94 76 107 63 69 50 60 62 54 80 33 63 64 255 255 255 255 255 255 255 255 255 255 255 255 255 255 255 255 255 255 255 255 255 255 255 255 255 255 255 255 255 255 255 255 255 255 255 255 255 255 255 255 255 255 255 255 255 255 255 255 255 255 255 255 255 255 255 255 255 255 255 255 255 255 255 255 255 255 255 255 255 255 255 255 255 255 255 255 255 255 255 255 255 255 255 255 255 255 255 255 255 255 
255 255 255 255 255 255 255 255 255 255 255 255 255 255 255 255 255 255 255 255 255 255 255 255 255 255 255 255 255 255 255 255 255 255 255 255 255 255 251 255 255 255 255 255 255 254 255 255 255 188 140 90 117 89 69 91 98 89 44 182 184 184 220 168 145 194 234 99 0 9 14 65 255 255 255 255 255 204 212 212 202 137 140 190 155 132 142 120 145 178 111 113 135 144 151 164 138 156 221 227 217 214 217 214 213 212 213 213 212 211 216 215 214 216 211 212 213 215 210 213 211 214 213 209 210 212 208 202 202 198 198 194 200 198 203 198 199 203 206 206 205 210 209 213 212 215 214 212 212 212 211 214 210 206 209 212 209 211 207 210 205 208 205 207 202 205 201 204 200 204 199 200 201 197 201 198 197 198 201 198 194 196 189 190 186 180 184 183 174 174 174 171 170 163 164 158 113 79 123 102 70 74 50 49 53 52 74 34 126 83 145 255 255 255 255 251 255 255 255 255 255 255 255 255 255 255 255 255 255 255 255 255 255 255 255 255 255 255 255 255 255 255 255 255 255 255 255 255 255 255 255 255 255 255 255 255 255 255 255 255 255 255 255 255 255 255 255 255 255 255 255 255 255 255 255 255 255 255 255 255 255 255 255 255 255 255 255 255 255 255 255 255 255 255 255 255 255 255 255 255 
255 255 255 255 255 255 255 255 255 255 255 255 255 255 255 255 255 255 255 255 255 255 255 255 255 255 255 255 255 255 255 255 255 255 255 255 255 255 253 253 253 252 255 255 255 255 255 208 162 107 99 101 95 62 73 114 113 75 57 188 231 216 128 15 38 120 255 255 91 31 46 31 64 101 240 255 255 199 206 210 206 206 136 164 207 165 144 114 121 151 140 132 130 141 133 146 166 133 151 199 230 218 212 215 210 219 212 211 216 215 214 214 214 213 215 216 211 213 214 215 210 212 214 211 214 211 216 211 207 207 210 207 207 208 201 206 207 207 213 209 211 213 210 212 215 214 209 211 211 212 213 208 210 213 209 206 205 206 208 204 207 204 202 203 204 205 202 203 205 201 203 203 204 202 199 203 196 199 195 199 195 192 191 191 187 182 179 184 178 174 171 168 170 167 159 134 103 122 46 70 60 64 55 47 46 57 47 87 138 138 56 255 255 255 252 254 251 255 255 255 255 255 255 255 255 255 255 255 255 255 255 255 255 255 255 255 255 255 255 255 255 255 255 255 255 255 255 255 255 255 255 255 255 255 255 255 255 255 255 255 255 255 255 255 255 255 255 255 255 255 255 255 255 255 255 255 255 255 255 255 255 255 255 255 255 255 255 255 255 255 255 255 255 255 255 255 255 255 255 255 
255 255 255 255 255 255 255 255 255 255 255 255 255 255 255 255 255 255 255 255 255 255 255 255 255 255 255 255 255 255 255 255 255 255 255 255 255 255 252 253 254 254 253 255 255 254 165 80 46 106 107 114 84 94 69 90 86 96 80 46 164 179 169 245 235 226 155 92 56 76 99 84 62 47 25 246 255 204 207 206 206 205 210 140 137 252 201 143 166 139 118 126 148 134 143 144 135 171 204 162 180 205 220 216 211 216 212 216 214 214 214 214 212 218 212 214 215 211 212 211 218 212 213 214 215 211 213 216 214 212 214 210 211 211 212 210 214 211 214 211 215 214 214 212 211 211 214 210 212 208 209 210 212 207 209 213 205 207 208 205 207 204 202 204 205 206 202 204 205 201 202 202 204 202 199 202 195 200 196 200 195 193 192 187 183 184 183 175 180 175 169 171 169 161 146 105 129 137 70 80 56 86 54 48 67 34 69 128 115 156 103 159 255 255 254 253 255 255 255 255 255 255 255 255 255 255 255 255 255 255 255 255 255 255 255 255 255 255 255 255 255 255 255 255 255 255 255 255 255 255 255 255 255 255 255 255 255 255 255 255 255 255 255 255 255 255 255 255 255 255 255 255 255 255 255 255 255 255 255 255 255 255 255 255 255 255 255 255 255 255 255 255 255 255 255 255 255 255 255 255 
255 255 255 255 255 255 255 255 255 255 255 255 255 255 255 255 255 255 255 255 255 255 255 255 255 255 255 255 255 255 255 255 255 255 255 255 255 255 255 255 253 254 255 255 229 140 98 102 103 112 107 82 78 79 51 43 35 94 88 63 55 41 33 46 38 58 67 93 109 93 94 109 117 110 76 54 172 232 214 206 204 205 202 218 143 135 191 207 167 152 114 111 139 157 144 134 154 130 180 194 112 158 187 234 215 212 216 216 214 214 214 213 218 216 217 211 219 214 214 214 213 215 215 214 214 217 212 213 215 212 213 214 214 214 214 214 213 213 211 216 215 210 211 215 214 216 212 210 212 209 210 211 207 208 211 207 205 207 209 206 206 208 206 203 201 202 205 200 201 202 202 204 200 197 200 201 201 194 199 196 197 194 194 189 186 180 181 174 177 179 170 169 164 156 101 127 99 84 67 58 64 70 53 60 55 39 129 115 111 163 162 85 255 255 254 254 251 255 255 255 255 255 255 255 255 255 255 255 255 255 255 255 255 255 255 255 255 255 255 255 255 255 255 255 255 255 255 255 255 255 255 255 255 255 255 255 255 255 255 255 255 255 255 255 255 255 255 255 255 255 255 255 255 255 255 255 255 255 255 255 255 255 255 255 255 255 255 255 255 255 255 255 255 255 255 255 255 255 255 255 
255 255 255 255 255 255 255 255 255 255 255 255 255 255 255 255 255 255 255 255 255 255 255 255 255 255 255 255 255 255 255 255 255 255 255 255 255 255 255 255 253 255 255 179 89 99 91 78 123 100 90 70 44 52 82 144 125 11 17 104 88 74 85 66 81 61 48 66 112 73 83 102 85 109 106 93 55 166 236 210 205 204 201 202 215 173 124 179 201 157 151 132 113 135 150 145 155 151 145 151 114 182 174 175 218 218 215 216 217 215 215 214 213 212 217 218 212 212 217 216 217 212 212 217 217 212 214 214 216 211 213 213 214 213 213 214 213 213 214 213 213 215 210 215 215 210 213 210 213 209 210 211 206 215 205 209 212 207 204 201 207 207 204 208 201 204 200 202 202 202 204 200 201 205 200 202 201 197 196 196 195 193 187 188 183 184 178 178 177 176 174 168 151 113 142 155 67 73 82 65 56 61 69 62 21 104 141 110 116 167 179 107 179 255 255 252 255 255 255 255 255 255 255 255 255 255 255 255 255 255 255 255 255 255 255 255 255 255 255 255 255 255 255 255 255 255 255 255 255 255 255 255 255 255 255 255 255 255 255 255 255 255 255 255 255 255 255 255 255 255 255 255 255 255 255 255 255 255 255 255 255 255 255 255 255 255 255 255 255 255 255 255 255 255 255 255 255 255 255 255 
255 255 255 255 255 255 255 255 255 255 255 255 255 255 255 255 255 255 255 255 255 255 255 255 255 255 255 255 255 255 255 255 255 255 255 255 255 255 255 255 255 255 162 113 94 104 119 75 66 114 76 30 189 255 255 255 255 255 134 0 101 72 114 119 97 96 57 25 44 96 73 107 123 99 112 114 68 65 186 233 208 199 202 202 209 213 195 135 165 227 162 134 127 121 130 141 143 123 143 147 177 151 177 154 176 200 219 214 214 215 212 216 214 214 213 213 213 217 215 215 215 216 216 215 215 216 216 217 211 219 214 216 210 217 216 211 217 216 212 213 213 215 211 211 212 213 214 211 207 210 211 211 213 209 208 206 202 208 209 206 206 208 205 208 201 204 201 203 203 204 201 198 206 196 198 199 199 195 196 190 196 193 187 188 183 183 178 180 178 172 168 159 114 129 99 57 52 76 81 70 62 57 71 30 85 155 114 113 128 166 171 152 101 255 255 255 255 255 255 255 255 255 255 255 255 255 255 255 255 255 255 255 255 255 255 255 255 255 255 255 255 255 255 255 255 255 255 255 255 255 255 255 255 255 255 255 255 255 255 255 255 255 255 255 255 255 255 255 255 255 255 255 255 255 255 255 255 255 255 255 255 255 255 255 255 255 255 255 255 255 255 255 255 255 255 255 255 255 255 255 
255 255 255 255 255 255 255 255 255 255 255 255 255 255 255 255 255 255 255 255 255 255 255 255 255 255 255 255 255 255 255 255 255 255 255 255 255 255 255 255 255 227 121 100 110 135 112 120 67 96 90 189 213 192 240 177 150 255 255 46 38 76 81 97 84 75 93 53 37 83 115 105 110 134 113 96 108 82 106 226 217 201 197 204 206 204 212 211 153 132 144 172 160 175 104 111 124 138 153 140 168 130 169 177 221 164 173 225 215 214 214 213 216 215 214 214 213 217 216 216 216 215 215 215 216 215 215 215 217 217 213 214 216 209 217 212 211 217 213 213 215 210 212 214 209 211 211 211 214 210 207 209 210 206 210 207 204 209 209 206 208 204 202 205 203 205 202 199 201 203 200 199 201 196 203 204 198 195 197 193 193 190 192 188 184 185 182 176 174 171 161 117 165 169 57 67 75 73 79 69 50 68 52 56 140 124 115 117 123 156 166 168 78 255 255 252 255 255 255 255 255 255 255 255 255 255 255 255 255 255 255 255 255 255 255 255 255 255 255 255 255 255 255 255 255 255 255 255 255 255 255 255 255 255 255 255 255 255 255 255 255 255 255 255 255 255 255 255 255 255 255 255 255 255 255 255 255 255 255 255 255 255 255 255 255 255 255 255 255 255 255 255 255 255 255 255 255 255 255 255 
255 255 255 255 255 255 255 255 255 255 255 255 255 255 255 255 255 255 255 255 255 255 255 255 255 255 255 255 255 255 255 255 255 255 255 255 255 255 255 255 247 122 128 147 94 111 100 112 91 51 205 244 193 239 170 0 90 210 255 112 51 106 99 129 76 56 56 54 48 135 102 92 134 103 99 120 125 112 56 158 219 204 197 199 202 210 210 211 220 190 127 120 171 173 143 124 118 129 133 152 167 144 115 115 208 246 178 170 219 216 208 216 215 212 216 214 214 213 214 213 212 217 216 217 211 216 215 217 212 213 214 214 214 216 210 213 213 213 209 216 210 213 214 209 212 208 208 214 208 211 208 205 207 210 205 208 205 205 207 204 205 208 206 204 203 204 206 204 202 199 205 198 195 203 197 200 201 199 196 193 197 197 190 184 188 183 183 176 178 165 132 138 152 83 48 75 85 83 77 61 82 59 48 128 139 122 118 117 127 154 169 169 95 188 255 254 252 255 255 255 255 255 255 255 255 255 255 255 255 255 255 255 255 255 255 255 255 255 255 255 255 255 255 255 255 255 255 255 255 255 255 255 255 255 255 255 255 255 255 255 255 255 255 255 255 255 255 255 255 255 255 255 255 255 255 255 255 255 255 255 255 255 255 255 255 255 255 255 255 255 255 255 255 255 255 255 255 255 255 255 
255 255 255 255 255 255 255 255 255 255 255 255 255 255 255 255 255 255 255 255 255 255 255 255 255 255 255 255 255 255 255 255 255 255 255 255 255 252 255 255 166 141 118 107 98 105 93 104 91 110 255 191 255 169 34 142 251 211 227 43 63 108 64 101 81 73 53 18 30 117 138 140 128 98 97 114 110 114 100 117 214 211 198 202 204 201 206 213 210 222 216 139 143 158 160 141 157 110 129 146 157 149 127 152 144 166 204 156 159 198 228 213 212 212 213 216 214 215 209 215 214 213 214 213 213 217 216 212 214 214 214 214 214 215 217 213 215 216 212 212 214 210 210 211 213 209 211 209 211 211 214 211 209 206 209 211 207 210 208 206 209 206 206 207 200 203 208 206 207 209 205 207 208 209 213 216 209 203 203 212 203 198 186 190 185 180 165 179 156 118 150 134 38 91 59 73 80 90 45 85 90 1 112 147 126 124 119 115 124 161 167 181 137 110 255 255 253 255 255 255 255 255 255 255 255 255 255 255 255 255 255 255 255 255 255 255 255 255 255 255 255 255 255 255 255 255 255 255 255 255 255 255 255 255 255 255 255 255 255 255 255 255 255 255 255 255 255 255 255 255 255 255 255 255 255 255 255 255 255 255 255 255 255 255 255 255 255 255 255 255 255 255 255 255 255 255 255 255 255 255 
255 255 255 255 255 255 255 255 255 255 255 255 255 255 255 255 255 255 255 255 255 255 255 255 255 255 255 255 255 255 255 255 255 255 255 255 255 255 255 188 117 130 117 115 109 97 92 84 74 156 241 198 189 37 155 249 239 255 181 36 60 83 94 124 49 47 52 32 70 105 113 124 78 126 139 112 116 117 101 88 170 207 201 201 200 202 211 206 207 213 215 231 164 134 141 143 170 146 136 136 167 142 139 166 159 176 178 195 222 179 173 232 221 214 213 214 217 215 215 214 215 216 210 215 214 212 218 213 215 215 215 215 217 212 215 212 208 210 211 211 213 208 214 214 210 213 208 216 211 214 211 214 213 213 212 210 214 215 214 217 214 217 213 211 212 216 221 228 220 208 199 195 181 178 166 170 173 155 153 119 120 126 115 142 23 88 147 65 0 122 147 67 89 77 68 68 89 72 58 109 68 84 155 125 128 124 115 117 125 159 177 190 164 70 255 255 253 255 255 255 255 255 255 255 255 255 255 255 255 255 255 255 255 255 255 255 255 255 255 255 255 255 255 255 255 255 255 255 255 255 255 255 255 255 255 255 255 255 255 255 255 255 255 255 255 255 255 255 255 255 255 255 255 255 255 255 255 255 255 255 255 255 255 255 255 255 255 255 255 255 255 255 255 255 255 255 255 255 255 255 
255 255 255 255 255 255 255 255 255 255 255 255 255 255 255 255 255 255 255 255 255 255 255 255 255 255 255 255 255 255 255 255 255 255 255 255 255 255 252 120 147 137 113 107 110 90 119 129 80 97 243 249 201 184 231 235 255 174 17 73 93 73 103 125 89 115 62 74 116 106 85 84 151 230 207 104 119 111 113 74 133 196 204 203 203 204 206 206 209 207 210 216 228 201 152 108 125 176 159 148 140 101 128 144 150 155 167 183 179 222 111 152 224 232 215 212 213 214 217 216 211 212 212 216 215 215 214 217 212 213 213 215 210 213 209 212 215 212 213 214 210 214 215 218 215 220 219 218 220 225 224 228 230 229 223 212 210 209 196 186 186 170 170 148 144 152 89 93 83 111 98 122 92 157 113 34 120 127 141 118 73 108 169 124 7 118 83 0 80 255 60 51 81 49 80 68 78 75 60 34 75 143 128 127 127 123 125 110 117 164 180 188 179 76 220 255 252 255 255 255 255 255 255 255 255 255 255 255 255 255 255 255 255 255 255 255 255 255 255 255 255 255 255 255 255 255 255 255 255 255 255 255 255 255 255 255 255 255 255 255 255 255 255 255 255 255 255 255 255 255 255 255 255 255 255 255 255 255 255 255 255 255 255 255 255 255 255 255 255 255 255 255 255 255 255 255 255 255 255 255 
255 255 255 255 255 255 255 255 255 255 255 255 255 255 255 255 255 255 255 255 255 255 255 255 255 255 255 255 255 255 255 255 255 255 252 253 255 255 157 122 114 112 125 102 109 92 90 109 107 69 142 255 202 255 247 177 100 25 59 113 95 97 118 76 121 122 65 103 75 89 95 115 155 95 39 34 95 109 103 56 94 176 209 196 204 202 203 207 207 208 212 213 211 223 222 166 82 173 188 156 166 136 139 126 155 166 148 160 162 168 144 161 141 169 226 216 209 213 212 215 214 214 215 214 215 215 216 212 214 214 216 214 218 221 221 220 220 211 218 222 223 218 217 215 214 216 209 198 204 184 153 162 135 132 131 139 152 129 117 104 152 150 145 168 208 246 88 120 125 162 116 121 105 239 166 51 106 126 153 113 96 130 175 81 96 119 9 145 255 129 60 59 74 67 66 62 57 102 64 45 118 136 122 127 127 130 128 99 118 160 178 186 183 112 147 255 255 255 255 255 255 255 255 255 255 255 255 255 255 255 255 255 255 255 255 255 255 255 255 255 255 255 255 255 255 255 255 255 255 255 255 255 255 255 255 255 255 255 255 255 255 255 255 255 255 255 255 255 255 255 255 255 255 255 255 255 255 255 255 255 255 255 255 255 255 255 255 255 255 255 255 255 255 255 255 255 255 255 255 255 
255 255 255 255 255 255 255 255 255 255 255 255 255 255 255 255 255 255 255 255 255 255 255 255 255 255 255 255 255 255 255 255 255 252 254 254 255 255 142 111 102 100 104 105 107 103 121 104 100 89 85 106 58 85 90 51 43 85 88 94 106 84 126 119 102 47 108 134 73 109 124 91 0 8 23 65 101 98 120 93 79 166 204 199 199 200 205 208 206 212 207 212 213 215 218 232 164 137 234 217 137 204 160 120 148 150 157 169 166 165 181 193 197 175 167 210 214 215 216 215 220 222 219 221 220 220 226 224 227 226 232 229 231 224 219 208 198 212 198 191 177 180 158 142 175 109 138 168 121 123 141 186 144 116 139 192 244 138 148 154 163 128 128 166 166 117 64 168 147 138 100 110 123 129 36 54 97 92 132 101 70 106 101 38 27 25 161 206 95 39 52 45 92 71 44 47 77 132 75 100 136 121 123 129 130 125 135 95 124 157 176 191 187 143 85 255 255 255 255 255 255 255 255 255 255 255 255 255 255 255 255 255 255 255 255 255 255 255 255 255 255 255 255 255 255 255 255 255 255 255 255 255 255 255 255 255 255 255 255 255 255 255 255 255 255 255 255 255 255 255 255 255 255 255 255 255 255 255 255 255 255 255 255 255 255 255 255 255 255 255 255 255 255 255 255 255 255 255 255 255 
255 255 255 255 255 255 255 255 255 255 255 255 255 255 255 255 255 255 255 255 255 255 255 255 255 255 255 255 255 255 255 255 255 253 254 255 255 222 106 104 136 118 106 92 116 121 114 98 125 91 74 79 76 83 57 76 94 110 78 78 103 78 115 80 92 113 72 95 116 128 103 103 105 118 93 67 92 88 109 80 42 143 194 203 199 203 207 203 207 211 212 209 215 210 214 221 237 190 128 108 109 197 124 158 151 126 145 174 144 155 176 155 172 198 181 180 196 216 228 236 238 229 219 220 204 218 199 194 181 204 186 161 133 151 121 155 159 173 139 145 177 154 192 177 162 138 174 200 114 128 175 153 118 141 151 143 143 115 151 140 124 105 136 128 87 64 76 123 97 109 95 101 120 110 41 81 91 88 116 104 81 105 126 43 35 182 189 74 85 81 59 71 77 77 44 46 97 74 78 126 122 127 124 127 128 131 134 83 120 155 182 189 188 160 64 255 255 255 255 255 255 255 255 255 255 255 255 255 255 255 255 255 255 255 255 255 255 255 255 255 255 255 255 255 255 255 255 255 255 255 255 255 255 255 255 255 255 255 255 255 255 255 255 255 255 255 255 255 255 255 255 255 255 255 255 255 255 255 255 255 255 255 255 255 255 255 255 255 255 255 255 255 255 255 255 255 255 255 255 255 
255 255 255 255 255 255 255 255 255 255 255 255 255 255 255 255 255 255 255 255 255 255 255 255 255 255 255 255 255 255 255 255 255 255 255 255 255 176 92 105 104 105 125 103 103 81 120 90 126 115 111 95 107 85 92 106 80 87 90 113 124 118 82 75 119 109 90 93 127 119 119 87 100 102 97 100 107 83 75 58 53 127 183 202 200 200 203 205 208 206 212 210 209 209 213 215 213 228 220 150 104 228 217 173 161 133 135 131 156 136 146 154 162 176 238 203 170 144 143 163 144 141 143 174 156 157 131 147 177 188 119 147 148 175 162 187 198 164 149 157 150 146 162 133 173 193 156 133 88 120 112 105 124 126 107 102 78 93 111 131 116 108 123 113 90 82 108 96 97 87 104 112 112 121 100 102 103 114 127 108 133 163 85 80 221 153 48 34 2 35 73 71 64 72 86 38 79 74 110 120 116 123 128 126 127 132 131 78 122 153 176 196 189 168 75 234 255 255 255 255 255 255 255 255 255 255 255 255 255 255 255 255 255 255 255 255 255 255 255 255 255 255 255 255 255 255 255 255 255 255 255 255 255 255 255 255 255 255 255 255 255 255 255 255 255 255 255 255 255 255 255 255 255 255 255 255 255 255 255 255 255 255 255 255 255 255 255 255 255 255 255 255 255 255 255 255 255 255 255 255 
255 255 255 255 255 255 255 255 255 255 255 255 255 255 255 255 255 255 255 255 255 255 255 255 255 255 255 255 255 252 252 255 255 255 255 215 125 138 115 100 105 95 125 73 108 101 120 104 97 85 117 87 81 101 88 88 60 79 68 104 103 128 136 79 108 97 95 72 131 103 58 68 110 116 119 99 124 97 102 77 13 92 185 199 201 203 205 206 209 207 213 210 209 208 212 211 214 215 217 240 165 133 218 207 170 153 145 116 133 123 144 147 137 175 134 128 238 188 206 110 39 171 197 162 139 163 167 194 153 93 118 152 146 140 146 142 122 129 132 153 142 140 139 150 174 182 139 114 103 108 113 106 132 122 116 107 99 109 116 113 124 125 129 114 108 97 116 114 103 97 103 107 109 95 86 93 97 94 100 98 136 46 82 244 181 51 37 0 0 0 29 76 60 77 89 46 78 88 112 117 118 126 125 123 132 134 126 73 121 157 171 198 190 178 95 179 255 255 255 255 255 255 255 255 255 255 255 255 255 255 255 255 255 255 255 255 255 255 255 255 255 255 255 255 255 255 255 255 255 255 255 255 255 255 255 255 255 255 255 255 255 255 255 255 255 255 255 255 255 255 255 255 255 255 255 255 255 255 255 255 255 255 255 255 255 255 255 255 255 255 255 255 255 255 255 255 255 255 255 255 
255 255 255 255 255 255 255 255 255 255 255 255 255 255 255 255 255 255 255 255 255 255 255 255 255 255 255 255 252 254 254 255 255 203 113 94 83 86 63 61 119 92 95 90 121 98 99 91 112 102 75 76 105 113 99 103 73 105 84 104 91 59 132 92 85 121 105 128 107 74 111 129 108 95 130 92 117 98 84 66 25 98 168 204 197 203 204 203 205 210 208 211 214 212 211 211 211 211 215 220 232 200 120 136 239 187 174 154 144 141 128 149 161 138 163 196 185 143 228 232 168 66 70 78 112 139 158 142 104 97 129 127 142 147 150 129 105 117 138 140 120 118 121 130 155 135 153 105 104 116 101 127 123 131 112 102 108 111 110 111 132 127 125 88 104 108 110 96 117 114 101 90 94 104 97 103 102 107 101 75 35 0 255 255 90 41 0 0 27 5 3 38 69 109 98 64 86 112 109 113 121 128 126 131 128 140 113 68 126 152 174 196 194 179 125 127 255 255 252 255 255 255 255 255 255 255 255 255 255 255 255 255 255 255 255 255 255 255 255 255 255 255 255 255 255 255 255 255 255 255 255 255 255 255 255 255 255 255 255 255 255 255 255 255 255 255 255 255 255 255 255 255 255 255 255 255 255 255 255 255 255 255 255 255 255 255 255 255 255 255 255 255 255 255 255 255 255 255 255 255 
255 255 255 255 255 255 255 255 255 255 255 255 255 255 255 255 255 255 255 255 255 255 255 255 255 255 255 255 253 254 255 255 255 125 92 96 103 90 88 90 107 131 105 126 113 94 96 93 129 104 72 101 69 73 82 128 87 92 117 90 109 83 85 78 70 111 73 103 109 93 126 112 99 88 106 90 92 98 67 76 36 100 156 203 196 199 197 208 209 205 212 207 209 212 211 210 209 214 212 215 215 225 220 143 142 139 159 179 170 155 142 125 131 153 198 150 77 59 111 183 210 174 128 93 150 154 157 149 130 139 145 144 149 128 161 138 140 130 144 124 107 114 128 145 131 124 121 108 129 133 117 126 140 120 104 117 131 132 129 113 105 120 135 105 111 105 88 110 118 104 112 109 101 112 96 98 110 107 78 52 82 38 111 183 26 2 0 63 161 0 0 18 100 61 51 77 111 100 111 112 120 126 129 132 133 142 97 67 127 153 170 191 194 180 155 85 255 255 252 255 255 255 255 255 255 255 255 255 255 255 255 255 255 255 255 255 255 255 255 255 255 255 255 255 255 255 255 255 255 255 255 255 255 255 255 255 255 255 255 255 255 255 255 255 255 255 255 255 255 255 255 255 255 255 255 255 255 255 255 255 255 255 255 255 255 255 255 255 255 255 255 255 255 255 255 255 255 255 255 255 
255 255 255 255 255 255 255 255 255 255 255 255 255 255 255 255 255 255 255 255 255 255 255 255 255 255 255 255 252 254 255 255 145 117 113 113 79 74 114 86 80 118 77 94 116 120 83 77 96 84 83 110 89 86 104 87 83 118 89 68 91 136 79 60 109 135 88 103 119 99 110 100 93 93 111 105 94 99 92 74 4 89 151 196 194 201 204 201 202 210 207 209 210 212 210 214 213 211 215 216 209 215 225 229 163 131 173 168 160 156 163 130 139 188 92 8 0 6 2 58 148 186 252 195 139 167 143 143 134 143 145 129 130 133 139 161 139 134 130 138 130 129 131 137 129 133 148 139 126 121 128 129 139 117 126 112 114 128 125 107 128 124 115 86 108 91 79 103 79 101 109 100 96 125 93 91 106 104 76 90 120 133 89 148 76 68 0 42 88 11 2 46 117 36 82 107 99 99 112 113 119 125 128 131 135 144 81 74 131 157 170 191 193 188 171 71 255 255 255 255 255 255 255 255 255 255 255 255 255 255 255 255 255 255 255 255 255 255 255 255 255 255 255 255 255 255 255 255 255 255 255 255 255 255 255 255 255 255 255 255 255 255 255 255 255 255 255 255 255 255 255 255 255 255 255 255 255 255 255 255 255 255 255 255 255 255 255 255 255 255 255 255 255 255 255 255 255 255 255 255 
255 255 255 255 255 255 255 255 255 255 255 255 255 255 255 255 255 255 255 255 255 255 255 255 255 255 255 255 255 254 255 239 103 99 116 112 103 89 113 76 65 102 113 122 93 86 112 89 76 97 73 89 121 95 102 89 70 103 126 107 81 104 110 104 99 111 111 119 110 85 90 120 100 96 104 91 88 84 80 33 0 103 142 192 200 192 200 202 201 207 210 210 210 213 210 213 212 211 214 215 210 218 210 221 232 200 145 171 240 202 162 169 156 154 24 0 2 99 17 0 118 162 88 255 104 52 143 130 131 145 147 135 155 150 138 149 144 126 142 119 128 142 117 133 133 120 134 130 136 118 128 100 119 118 99 119 119 130 125 124 129 132 145 111 126 90 93 87 101 122 135 119 92 115 88 99 97 110 137 141 178 179 59 139 228 85 0 15 0 6 0 62 67 57 103 96 99 97 106 109 125 128 126 132 137 135 68 80 130 156 170 191 194 190 182 86 255 255 255 251 255 255 255 255 255 255 255 255 255 255 255 255 255 255 255 255 255 255 255 255 255 255 255 255 255 255 255 255 255 255 255 255 255 255 255 255 255 255 255 255 255 255 255 255 255 255 255 255 255 255 255 255 255 255 255 255 255 255 255 255 255 255 255 255 255 255 255 255 255 255 255 255 255 255 255 255 255 255 255 255 
255 255 255 255 255 255 255 255 255 255 255 255 255 255 255 255 255 255 255 255 255 255 255 255 255 255 255 255 255 255 255 221 114 108 109 126 113 96 106 83 59 73 75 108 117 103 98 91 70 86 115 83 85 91 88 101 97 45 85 139 122 102 108 123 72 92 89 115 105 132 88 89 85 71 88 117 99 74 58 39 7 93 143 192 192 191 196 202 206 205 208 206 213 208 211 214 213 211 215 209 215 213 216 213 219 225 214 143 147 227 180 183 177 121 0 39 166 187 47 25 42 162 149 191 0 68 163 127 139 120 132 138 138 138 155 128 140 129 144 155 139 151 130 127 149 148 140 133 147 122 120 113 126 127 114 117 123 118 115 105 130 120 127 108 102 102 103 110 124 122 112 104 100 119 100 92 104 125 146 100 97 101 12 28 211 100 13 0 10 0 45 64 63 95 91 94 94 97 100 114 117 132 130 134 139 126 69 114 177 216 231 232 210 196 195 90 221 255 253 252 255 255 255 255 255 255 255 255 255 255 255 255 255 255 255 255 255 255 255 255 255 255 255 255 255 255 255 255 255 255 255 255 255 255 255 255 255 255 255 255 255 255 255 255 255 255 255 255 255 255 255 255 255 255 255 255 255 255 255 255 255 255 255 255 255 255 255 255 255 255 255 255 255 255 255 255 255 255 255 255 
255 255 255 255 255 255 255 255 255 255 255 255 255 255 255 255 255 255 255 255 255 255 255 255 255 255 255 255 255 255 255 255 111 100 124 123 111 94 110 119 112 69 82 88 89 98 109 100 89 107 86 81 91 67 80 108 105 78 88 56 66 93 106 89 102 123 88 81 77 103 84 84 74 117 83 84 87 81 64 4 18 93 140 190 189 192 197 196 200 205 206 210 208 210 213 210 208 212 216 210 215 213 212 214 212 214 224 224 161 127 200 220 197 136 0 14 149 120 79 18 53 205 239 36 34 215 160 151 152 151 139 122 122 122 135 128 123 137 139 160 134 146 126 131 137 136 137 123 138 134 139 122 120 121 106 96 115 93 110 91 118 94 129 99 111 110 113 126 117 102 89 87 107 125 108 107 132 153 124 78 43 36 10 0 158 153 46 16 0 31 63 0 66 98 93 98 101 93 100 110 125 131 135 147 171 138 65 82 80 80 108 176 255 255 231 110 174 255 253 255 255 255 255 255 255 255 255 255 255 255 255 255 255 255 255 255 255 255 255 255 255 255 255 255 255 255 255 255 255 255 255 255 255 255 255 255 255 255 255 255 255 255 255 255 255 255 255 255 255 255 255 255 255 255 255 255 255 255 255 255 255 255 255 255 255 255 255 255 255 255 255 255 255 255 255 255 255 255 255 255 
255 255 255 255 255 255 255 255 255 255 255 255 255 255 255 255 255 255 255 255 255 255 255 255 255 255 255 255 255 255 255 255 126 106 133 130 107 118 100 85 109 103 75 93 116 86 103 103 83 100 66 90 111 88 92 88 95 112 104 76 99 53 82 104 84 82 113 86 86 101 90 99 99 88 86 72 65 72 32 27 34 89 138 187 191 192 196 201 198 204 204 207 211 212 208 212 215 212 211 212 210 213 217 216 212 216 216 221 232 185 91 182 253 204 0 9 78 41 37 0 80 255 187 0 186 185 132 153 145 150 137 112 134 135 131 143 127 123 155 144 109 133 126 141 127 129 142 105 115 114 127 100 116 129 110 108 111 103 119 99 102 89 129 120 104 104 104 103 98 62 35 51 110 117 109 113 120 124 91 91 47 59 71 102 110 180 61 117 88 51 14 0 77 93 90 95 98 98 99 112 147 183 190 185 104 0 0 0 0 0 0 0 0 104 255 229 138 255 255 255 251 255 255 255 255 255 255 255 255 255 255 255 255 255 255 255 255 255 255 255 255 255 255 255 255 255 255 255 255 255 255 255 255 255 255 255 255 255 255 255 255 255 255 255 255 255 255 255 255 255 255 255 255 255 255 255 255 255 255 255 255 255 255 255 255 255 255 255 255 255 255 255 255 255 255 255 255 255 255 255 
255 255 255 255 255 255 255 255 255 255 255 255 255 255 255 255 255 255 255 255 255 255 255 255 255 255 255 255 255 252 255 255 122 90 121 127 102 125 115 104 112 111 84 108 113 75 77 109 126 136 94 83 79 113 139 125 115 104 105 111 108 112 96 92 119 101 112 116 90 100 77 77 92 64 73 90 48 80 67 17 34 83 131 187 188 189 192 199 202 201 208 205 209 209 212 208 210 213 212 211 210 214 211 216 217 212 210 215 217 251 145 80 169 255 123 0 14 38 0 23 182 255 1 0 142 119 127 157 149 153 151 124 148 137 132 139 141 74 55 58 58 81 80 91 86 80 91 82 99 100 105 89 90 101 79 85 97 93 99 73 59 53 55 28 9 26 34 36 47 52 96 176 83 129 100 116 107 100 94 60 59 108 108 114 63 177 130 92 63 2 11 0 74 93 90 96 93 94 115 170 132 62 8 0 0 15 37 34 29 29 32 31 11 0 0 118 201 255 255 251 253 251 255 255 255 255 255 255 255 255 255 255 255 255 255 255 255 255 255 255 255 255 255 255 255 255 255 255 255 255 255 255 255 255 255 255 255 255 255 255 255 255 255 255 255 255 255 255 255 255 255 255 255 255 255 255 255 255 255 255 255 255 255 255 255 255 255 255 255 255 255 255 255 255 255 255 255 255 255 255 
255 255 255 255 255 255 255 255 255 255 255 255 255 255 255 255 255 255 255 255 255 255 255 255 255 255 255 255 251 253 255 255 209 109 123 104 139 124 109 112 131 107 97 114 91 96 104 88 104 112 97 117 101 110 123 114 111 116 99 104 105 86 103 91 97 75 72 72 73 95 92 89 69 64 85 69 62 75 73 31 16 77 131 181 187 187 188 201 200 199 206 203 207 208 209 211 212 214 211 215 214 213 214 212 211 218 213 216 215 227 226 163 123 89 255 195 28 11 54 140 242 153 0 105 153 128 125 147 129 115 131 123 142 139 142 138 93 195 180 102 105 114 91 84 91 85 110 66 58 71 62 62 61 66 76 63 77 68 69 87 85 82 108 171 194 170 147 111 124 219 255 176 0 106 93 88 99 91 83 88 92 114 128 108 19 67 255 70 0 12 14 5 78 87 86 91 102 141 121 36 0 0 12 30 45 50 51 47 41 38 31 31 41 36 0 0 19 255 255 255 255 255 255 255 255 255 255 255 255 255 255 255 255 255 255 255 255 255 255 255 255 255 255 255 255 255 255 255 255 255 255 255 255 255 255 255 255 255 255 255 255 255 255 255 255 255 255 255 255 255 255 255 255 255 255 255 255 255 255 255 255 255 255 255 255 255 255 255 255 255 255 255 255 255 255 255 255 255 255 255 
255 255 255 255 255 255 255 255 255 255 255 255 255 255 255 255 255 255 255 255 255 255 255 255 255 255 255 255 255 255 255 255 255 173 101 88 129 123 106 121 127 123 134 75 101 104 93 86 101 93 108 118 108 114 101 90 99 111 118 102 106 112 122 109 95 101 78 57 64 69 77 54 25 79 85 82 83 80 78 60 52 82 120 180 187 184 192 190 200 203 203 205 209 205 206 208 209 210 212 215 214 214 209 214 213 213 215 208 218 232 176 125 191 107 89 231 255 201 222 205 255 0 14 204 158 146 141 143 135 134 125 124 130 142 159 193 64 228 191 128 161 160 168 147 161 169 188 168 152 165 163 149 155 163 162 158 170 159 159 158 159 144 135 143 153 126 106 125 122 142 106 5 4 110 92 99 103 113 108 97 91 123 130 90 19 30 196 27 0 25 25 35 66 82 87 119 143 59 0 0 35 52 51 45 44 43 44 45 39 40 35 33 33 44 30 19 0 189 255 255 255 255 255 255 255 255 255 255 255 255 255 255 255 255 255 255 255 255 255 255 255 255 255 255 255 255 255 255 255 255 255 255 255 255 255 255 255 255 255 255 255 255 255 255 255 255 255 255 255 255 255 255 255 255 255 255 255 255 255 255 255 255 255 255 255 255 255 255 255 255 255 255 255 255 255 255 255 255 255 255 
255 255 255 255 255 255 255 255 255 255 255 255 255 255 255 255 255 255 255 255 255 255 255 255 255 255 255 255 255 255 255 255 255 225 98 77 101 121 88 134 135 119 126 92 121 68 71 107 89 96 129 113 120 104 91 104 120 116 114 103 115 90 107 107 113 97 118 105 107 84 70 70 74 90 99 98 95 89 116 96 104 88 127 170 188 183 187 192 200 201 201 207 210 205 213 208 210 211 214 212 210 216 209 214 214 209 210 215 216 230 186 206 203 188 137 64 144 203 121 203 211 0 158 162 149 144 133 142 138 140 144 133 123 115 99 116 52 224 138 127 146 134 153 117 127 111 116 133 130 132 129 137 130 130 128 129 128 122 120 118 131 131 122 118 114 108 103 108 126 123 95 92 14 128 100 102 112 94 104 120 94 94 85 82 60 14 0 0 18 27 44 57 64 85 137 93 2 0 22 50 53 46 44 46 41 43 44 44 40 29 38 36 29 31 25 24 0 0 255 255 255 255 255 255 255 255 255 255 255 255 255 255 255 255 255 255 255 255 255 255 255 255 255 255 255 255 255 255 255 255 255 255 255 255 255 255 255 255 255 255 255 255 255 255 255 255 255 255 255 255 255 255 255 255 255 255 255 255 255 255 255 255 255 255 255 255 255 255 255 255 255 255 255 255 255 255 255 255 255 255 
255 255 255 255 255 255 255 255 255 255 255 255 255 255 255 255 255 255 255 255 255 255 255 255 255 255 255 255 255 255 255 252 255 255 255 144 90 113 111 130 140 121 82 92 76 87 106 119 119 138 116 128 114 106 100 107 133 119 102 111 107 130 117 115 105 87 86 64 74 57 69 97 84 45 108 89 74 86 99 97 91 74 69 164 186 186 190 193 194 201 199 205 208 208 207 209 211 212 210 209 213 210 216 214 213 215 209 214 219 227 160 178 112 118 137 135 67 81 125 255 19 18 195 152 139 124 143 135 120 124 138 151 148 121 124 122 55 191 129 147 131 121 142 151 136 121 120 121 121 122 125 114 145 115 121 119 114 115 101 107 115 119 122 118 116 113 104 104 121 141 140 130 26 160 138 121 134 96 98 81 73 48 54 54 55 44 47 37 24 35 41 14 58 134 53 0 0 38 55 53 42 31 44 47 42 40 43 43 41 34 30 34 35 26 28 19 11 0 255 255 255 255 255 255 255 255 255 255 255 255 255 255 255 255 255 255 255 255 255 255 255 255 255 255 255 255 255 255 255 255 255 255 255 255 255 255 255 255 255 255 255 255 255 255 255 255 255 255 255 255 255 255 255 255 255 255 255 255 255 255 255 255 255 255 255 255 255 255 255 255 255 255 255 255 255 255 255 255 255 255 
255 255 255 255 255 255 255 255 255 255 255 255 255 255 255 255 255 255 255 255 255 255 255 255 255 255 255 255 255 255 255 255 255 255 255 255 215 87 78 101 124 115 110 70 82 149 113 94 106 142 117 118 115 118 138 95 139 120 108 129 125 113 67 109 116 121 114 75 87 80 97 100 93 91 73 102 111 111 88 113 81 85 58 115 184 194 187 191 197 200 204 205 201 206 210 211 206 214 211 210 213 212 211 210 214 213 214 214 214 234 143 236 157 118 119 126 152 87 111 147 0 133 164 149 131 123 136 149 135 129 145 152 169 156 157 127 64 201 147 136 122 126 154 140 142 139 132 109 108 125 142 143 162 140 141 107 139 119 120 124 102 121 120 114 133 117 105 105 117 95 90 86 3 149 153 126 111 100 99 84 75 65 71 53 53 73 54 50 44 17 6 2 79 30 0 15 45 55 56 47 28 31 38 57 46 43 43 47 36 32 30 34 33 31 25 22 24 0 192 255 252 255 255 255 255 255 255 255 255 255 255 255 255 255 255 255 255 255 255 255 255 255 255 255 255 255 255 255 255 255 255 255 255 255 255 255 255 255 255 255 255 255 255 255 255 255 255 255 255 255 255 255 255 255 255 255 255 255 255 255 255 255 255 255 255 255 255 255 255 255 255 255 255 255 255 255 255 255 255 255 
255 255 255 255 255 255 255 255 255 255 255 255 255 255 255 255 255 255 255 255 255 255 255 255 255 255 255 255 255 255 255 255 255 252 255 255 255 255 245 85 123 96 113 108 142 90 97 120 129 114 105 123 120 102 101 111 114 104 98 103 119 96 108 111 89 100 109 69 76 62 91 105 78 82 80 98 82 63 100 102 94 113 119 55 104 202 186 189 190 198 200 199 207 204 209 208 209 209 212 210 214 213 212 211 214 213 213 215 216 238 137 171 153 153 153 139 160 157 113 41 71 160 137 130 126 128 122 136 128 144 132 143 170 176 175 151 90 206 141 170 145 149 173 166 148 129 156 134 132 151 137 135 132 144 190 161 161 116 128 157 124 149 132 129 108 95 102 117 119 104 150 97 11 135 126 111 102 88 89 67 73 72 83 73 50 75 60 61 53 21 27 20 18 0 40 58 53 53 47 29 26 24 27 64 56 43 45 49 38 30 31 30 28 30 22 20 28 0 145 255 254 251 255 255 255 255 255 255 255 255 255 255 255 255 255 255 255 255 255 255 255 255 255 255 255 255 255 255 255 255 255 255 255 255 255 255 255 255 255 255 255 255 255 255 255 255 255 255 255 255 255 255 255 255 255 255 255 255 255 255 255 255 255 255 255 255 255 255 255 255 255 255 255 255 255 255 255 255 255 255 
255 255 255 255 255 255 255 255 255 255 255 255 255 255 255 255 255 255 255 255 255 255 255 255 255 255 255 255 255 255 255 255 255 255 252 253 255 255 255 236 111 81 91 115 123 83 83 77 108 106 95 128 100 120 111 86 116 115 102 91 139 128 131 120 104 76 97 99 64 66 107 85 79 94 91 30 79 106 120 90 105 84 92 101 82 133 200 191 190 196 196 200 205 204 202 206 211 211 213 211 210 209 214 211 215 214 215 211 212 239 162 126 120 104 123 142 171 169 157 152 151 139 153 152 133 148 129 126 148 141 125 112 120 128 108 104 82 196 113 134 105 114 119 136 125 125 136 161 156 175 148 127 149 161 169 129 147 158 115 143 151 154 144 117 112 103 115 146 137 118 164 94 32 142 112 89 88 92 73 72 69 76 77 75 46 70 57 47 61 45 47 24 9 41 79 84 60 38 35 31 23 22 27 72 68 56 48 45 35 30 26 25 29 27 19 25 31 0 132 255 255 255 255 255 255 255 255 255 255 255 255 255 255 255 255 255 255 255 255 255 255 255 255 255 255 255 255 255 255 255 255 255 255 255 255 255 255 255 255 255 255 255 255 255 255 255 255 255 255 255 255 255 255 255 255 255 255 255 255 255 255 255 255 255 255 255 255 255 255 255 255 255 255 255 255 255 255 255 255 255 
255 255 255 255 255 255 255 255 255 255 255 255 255 255 255 255 255 255 255 255 255 255 255 255 255 255 255 255 255 255 255 255 255 255 255 255 255 255 255 255 211 68 71 99 88 88 123 112 122 133 129 119 109 121 153 102 124 111 114 82 121 117 126 112 100 71 114 88 71 108 93 54 54 86 93 88 89 78 97 75 103 100 89 112 68 60 180 194 193 194 198 200 205 202 206 210 208 209 210 212 211 211 208 213 211 211 211 213 217 215 173 229 201 164 156 150 140 134 123 144 141 134 145 166 154 134 156 128 141 154 135 122 133 115 101 99 57 151 120 167 161 136 140 138 136 157 123 147 167 188 176 163 186 138 126 130 127 128 120 135 135 134 150 115 99 112 112 98 114 80 131 69 36 118 80 83 85 81 77 78 72 75 79 71 38 74 57 34 28 16 17 18 27 61 91 92 63 30 27 27 27 9 33 77 81 63 55 47 32 29 24 29 24 25 27 26 32 0 185 255 255 255 255 255 255 255 255 255 255 255 255 255 255 255 255 255 255 255 255 255 255 255 255 255 255 255 255 255 255 255 255 255 255 255 255 255 255 255 255 255 255 255 255 255 255 255 255 255 255 255 255 255 255 255 255 255 255 255 255 255 255 255 255 255 255 255 255 255 255 255 255 255 255 255 255 255 255 255 255 255 
255 255 255 255 255 255 255 255 255 255 255 255 255 255 255 255 255 255 255 255 255 255 255 255 255 255 255 255 255 255 255 255 255 255 255 255 255 255 255 255 255 193 63 56 95 111 121 132 107 110 110 122 130 85 79 108 124 110 100 129 113 102 112 119 96 66 97 115 79 75 122 68 57 79 93 109 95 68 94 78 93 89 90 127 112 69 147 196 192 190 197 197 201 202 205 203 208 208 208 215 212 210 215 212 212 212 212 213 219 218 156 247 169 180 187 153 147 124 140 155 154 152 136 148 138 138 140 119 131 163 154 150 168 194 186 140 96 172 120 159 146 135 139 121 117 129 126 158 180 161 172 185 202 180 159 165 135 111 127 122 95 121 102 129 132 114 116 93 98 104 153 38 64 109 78 106 120 111 85 78 71 73 75 73 50 61 58 37 21 25 23 21 54 78 89 84 54 28 31 25 26 7 22 30 80 76 66 44 30 27 26 28 28 21 31 39 29 0 255 255 255 255 255 255 255 255 255 255 255 255 255 255 255 255 255 255 255 255 255 255 255 255 255 255 255 255 255 255 255 255 255 255 255 255 255 255 255 255 255 255 255 255 255 255 255 255 255 255 255 255 255 255 255 255 255 255 255 255 255 255 255 255 255 255 255 255 255 255 255 255 255 255 255 255 255 255 255 255 255 255 
255 255 255 255 255 255 255 255 255 255 255 255 255 255 255 255 255 255 255 255 255 255 255 255 255 255 255 255 255 255 255 255 255 255 255 255 255 255 251 254 255 255 197 86 74 71 109 97 72 113 133 107 123 108 112 109 100 109 91 135 115 108 98 116 102 23 0 14 21 11 15 16 16 20 19 13 38 57 105 127 81 76 116 113 111 94 84 182 197 192 192 197 198 203 205 203 207 207 208 207 209 213 209 214 212 212 212 213 223 224 111 118 114 133 178 175 150 140 131 132 149 139 141 155 145 151 134 123 131 126 134 136 115 119 132 118 89 179 123 132 127 148 167 163 132 141 124 138 134 132 119 157 152 169 201 157 138 152 113 131 106 137 137 136 148 134 123 102 90 118 143 21 94 139 128 106 105 107 97 109 85 60 83 69 49 42 53 44 22 26 23 43 73 90 90 70 44 33 29 30 14 3 0 0 63 84 68 42 31 25 27 26 25 28 43 51 0 5 255 255 255 255 255 255 255 255 255 255 255 255 255 255 255 255 255 255 255 255 255 255 255 255 255 255 255 255 255 255 255 255 255 255 255 255 255 255 255 255 255 255 255 255 255 255 255 255 255 255 255 255 255 255 255 255 255 255 255 255 255 255 255 255 255 255 255 255 255 255 255 255 255 255 255 255 255 255 255 255 255 255 
255 255 255 255 255 255 255 255 255 255 255 255 255 255 255 255 255 255 255 255 255 255 255 255 255 255 255 255 255 255 255 255 255 255 255 255 255 255 255 252 253 255 255 255 115 73 106 100 113 129 99 100 121 145 124 91 112 90 128 131 112 132 112 81 38 0 35 37 41 42 45 51 49 46 42 34 15 0 3 80 117 114 116 95 75 103 47 96 196 193 193 192 197 200 200 204 207 206 206 211 212 208 212 209 214 213 212 215 219 219 124 178 143 113 140 170 164 166 169 149 148 146 145 148 149 155 156 138 150 131 134 133 153 153 150 129 75 206 142 182 157 154 145 138 125 143 142 101 113 113 107 132 138 140 164 153 154 174 132 153 135 131 135 127 153 137 130 132 97 118 156 67 128 142 134 101 119 100 85 90 75 52 74 71 49 53 48 23 18 25 30 63 86 97 80 61 30 31 35 26 13 0 0 4 60 81 71 36 21 23 25 24 28 36 58 0 0 255 255 255 255 255 255 255 255 255 255 255 255 255 255 255 255 255 255 255 255 255 255 255 255 255 255 255 255 255 255 255 255 255 255 255 255 255 255 255 255 255 255 255 255 255 255 255 255 255 255 255 255 255 255 255 255 255 255 255 255 255 255 255 255 255 255 255 255 255 255 255 255 255 255 255 255 255 255 255 255 255 255 255 
255 255 255 255 255 255 255 255 255 255 255 255 255 255 255 255 255 255 255 255 255 255 255 255 255 255 255 255 255 255 255 255 255 255 255 255 255 255 255 255 255 251 255 255 244 107 39 76 111 116 112 134 131 129 121 123 137 118 105 90 156 60 42 21 2 38 51 81 92 93 91 88 79 79 77 73 61 32 5 0 88 103 77 113 87 104 126 74 153 197 189 192 198 197 203 199 203 207 205 209 209 210 213 212 210 209 215 209 230 212 133 190 153 139 130 166 142 154 160 144 151 146 153 137 124 162 161 143 153 160 193 182 184 163 128 91 54 199 132 137 117 108 141 151 138 176 150 128 156 149 131 118 105 135 156 140 118 137 126 129 135 135 115 136 119 122 118 134 120 125 117 48 119 97 96 100 94 76 70 55 70 41 61 68 56 68 61 8 23 20 43 82 95 92 79 44 30 32 34 24 5 0 5 34 65 82 59 27 27 25 26 24 28 28 0 0 197 255 255 255 255 255 255 255 255 255 255 255 255 255 255 255 255 255 255 255 255 255 255 255 255 255 255 255 255 255 255 255 255 255 255 255 255 255 255 255 255 255 255 255 255 255 255 255 255 255 255 255 255 255 255 255 255 255 255 255 255 255 255 255 255 255 255 255 255 255 255 255 255 255 255 255 255 255 255 255 255 255 255 255 
255 255 255 255 255 255 255 255 255 255 255 255 255 255 255 255 255 255 255 255 255 255 255 255 255 255 255 255 255 255 255 255 255 255 255 255 255 255 255 255 255 255 255 255 255 255 186 70 37 50 79 111 99 105 99 115 124 121 161 124 71 0 0 22 33 20 2 16 44 57 74 79 85 86 84 83 74 48 27 0 44 99 75 97 77 100 94 77 130 188 194 188 192 199 201 204 200 202 206 209 207 214 210 208 213 212 211 213 225 186 179 156 130 145 160 168 142 156 152 169 180 137 128 122 111 146 133 153 150 168 165 147 118 114 94 105 99 177 92 106 137 142 150 164 149 167 155 167 166 183 169 157 148 129 128 124 105 138 132 143 126 115 119 125 117 111 116 117 109 132 160 13 99 87 91 75 83 73 74 80 79 75 79 85 77 72 49 7 22 22 62 87 95 87 62 39 33 34 32 23 0 0 41 67 75 73 42 24 26 26 0 0 0 0 43 255 255 255 255 255 255 255 255 255 255 255 255 255 255 255 255 255 255 255 255 255 255 255 255 255 255 255 255 255 255 255 255 255 255 255 255 255 255 255 255 255 255 255 255 255 255 255 255 255 255 255 255 255 255 255 255 255 255 255 255 255 255 255 255 255 255 255 255 255 255 255 255 255 255 255 255 255 255 255 255 255 255 255 255 255 
255 255 255 255 255 255 255 255 255 255 255 255 255 255 255 255 255 255 255 255 255 255 255 255 255 255 255 255 255 255 255 255 255 255 255 255 255 255 255 255 255 255 255 252 255 255 255 235 152 165 38 19 62 109 147 120 131 81 56 6 0 22 36 43 50 50 46 29 26 23 28 22 23 25 32 45 60 52 13 8 12 93 69 78 90 95 87 104 68 103 188 193 192 199 198 197 203 209 205 207 211 210 210 213 211 210 209 216 238 152 187 140 127 143 144 141 150 139 131 164 163 173 151 143 127 152 138 140 139 149 119 133 114 126 128 146 112 139 136 174 169 131 124 129 138 138 122 154 150 168 145 138 153 133 145 166 114 136 129 125 135 128 120 127 124 112 115 126 103 109 146 0 107 115 102 91 74 95 120 90 75 87 81 71 56 52 38 10 17 28 59 82 81 69 45 33 36 40 38 8 0 21 71 83 76 50 31 26 30 0 0 254 255 255 255 255 253 255 255 255 255 255 255 255 255 255 255 255 255 255 255 255 255 255 255 255 255 255 255 255 255 255 255 255 255 255 255 255 255 255 255 255 255 255 255 255 255 255 255 255 255 255 255 255 255 255 255 255 255 255 255 255 255 255 255 255 255 255 255 255 255 255 255 255 255 255 255 255 255 255 255 255 255 255 255 255 255 255 255 255 
255 255 255 255 255 255 255 255 255 255 255 255 255 255 255 255 255 255 255 255 255 255 255 255 255 255 255 255 255 255 255 255 255 255 255 255 255 255 255 255 255 255 255 255 252 253 255 255 255 255 255 159 112 0 69 30 36 3 0 17 38 42 49 65 74 69 71 63 55 62 59 41 32 33 28 22 20 60 61 11 0 68 71 68 77 114 111 97 79 50 162 185 191 206 205 198 200 205 205 209 211 206 215 214 211 216 214 216 231 162 235 175 154 159 163 137 139 124 143 160 124 135 130 123 149 159 142 142 148 157 146 151 131 130 149 143 106 119 173 140 123 117 125 115 171 173 141 124 129 130 114 120 131 133 139 130 131 120 116 113 117 119 126 109 121 111 117 112 127 121 71 38 110 108 119 129 116 105 107 67 76 83 71 77 61 66 53 25 10 21 53 66 62 53 36 42 42 35 37 0 0 31 76 86 57 39 31 25 0 0 255 255 255 255 255 254 253 255 255 255 255 255 255 255 255 255 255 255 255 255 255 255 255 255 255 255 255 255 255 255 255 255 255 255 255 255 255 255 255 255 255 255 255 255 255 255 255 255 255 255 255 255 255 255 255 255 255 255 255 255 255 255 255 255 255 255 255 255 255 255 255 255 255 255 255 255 255 255 255 255 255 255 255 255 255 255 255 255 255 255 
255 255 255 255 255 255 255 255 255 255 255 255 255 255 255 255 255 255 255 255 255 255 255 255 255 255 255 255 255 255 255 255 255 255 255 255 255 255 255 255 255 255 255 255 255 255 252 254 255 255 255 255 255 0 0 12 20 29 43 41 47 49 61 76 80 81 72 66 65 89 92 67 56 58 48 39 24 8 58 85 16 27 54 54 73 83 86 87 111 77 98 123 172 149 179 185 177 176 189 204 203 213 206 205 204 200 207 208 245 130 125 154 158 158 167 157 153 162 150 168 152 150 140 146 158 160 140 153 138 129 137 137 126 140 130 103 101 101 190 128 151 152 130 107 157 151 165 137 118 131 129 120 113 131 124 114 119 111 103 104 112 130 135 126 120 121 114 113 106 162 79 100 109 103 106 118 121 123 91 79 93 94 93 79 76 87 82 64 25 9 36 52 49 41 39 44 40 45 23 0 9 33 60 64 40 29 27 5 0 242 255 255 252 255 255 252 252 255 255 255 255 255 255 255 255 255 255 255 255 255 255 255 255 255 255 255 255 255 255 255 255 255 255 255 255 255 255 255 255 255 255 255 255 255 255 255 255 255 255 255 255 255 255 255 255 255 255 255 255 255 255 255 255 255 255 255 255 255 255 255 255 255 255 255 255 255 255 255 255 255 255 255 255 255 255 255 255 255 255 255 
255 255 255 255 255 255 255 255 255 255 255 255 255 255 255 255 255 255 255 255 255 255 255 255 255 255 255 255 255 255 255 255 255 255 255 255 255 255 255 255 255 255 255 255 255 255 255 255 255 252 255 255 194 0 42 51 40 45 42 48 53 60 54 56 63 66 70 59 71 103 93 72 77 77 67 48 38 22 3 56 80 18 60 63 65 78 75 71 70 62 45 137 210 0 68 171 178 182 149 156 154 168 211 204 201 202 196 201 228 165 104 118 79 105 114 122 154 167 156 179 176 162 162 151 155 161 144 167 163 155 144 136 131 150 148 160 146 96 161 151 173 130 124 124 123 152 136 116 128 137 159 134 117 137 142 130 126 133 114 119 115 142 144 125 116 134 141 111 114 194 28 117 113 96 83 100 90 126 83 97 92 75 89 90 82 82 94 74 67 1 20 41 42 43 42 39 35 24 0 0 25 39 46 45 32 29 23 0 169 255 255 252 255 255 255 255 255 255 255 255 255 255 255 255 255 255 255 255 255 255 255 255 255 255 255 255 255 255 255 255 255 255 255 255 255 255 255 255 255 255 255 255 255 255 255 255 255 255 255 255 255 255 255 255 255 255 255 255 255 255 255 255 255 255 255 255 255 255 255 255 255 255 255 255 255 255 255 255 255 255 255 255 255 255 255 255 255 255 255 255 
255 255 255 255 255 255 255 255 255 255 255 255 255 255 255 255 255 255 255 255 255 255 255 255 255 255 255 255 255 255 255 255 255 255 255 255 255 255 255 255 255 255 255 255 255 255 255 255 255 255 255 255 179 14 98 57 41 42 42 47 52 60 54 44 45 50 55 52 62 88 82 75 85 79 72 65 50 33 23 0 81 70 33 68 54 72 74 83 79 79 53 92 161 103 117 163 188 177 151 180 154 95 124 178 217 207 193 182 189 142 143 162 125 121 117 105 115 113 138 172 165 168 157 127 146 136 128 139 150 150 145 158 154 166 152 175 139 76 97 181 136 118 126 142 146 130 99 137 152 131 150 131 121 124 135 136 131 111 129 112 132 147 129 118 112 112 115 104 175 99 0 138 141 103 115 121 103 114 84 84 81 93 91 83 79 70 88 73 84 74 4 6 33 32 23 9 43 17 0 15 37 46 36 37 32 28 0 88 255 255 252 255 255 255 255 255 255 255 255 255 255 255 255 255 255 255 255 255 255 255 255 255 255 255 255 255 255 255 255 255 255 255 255 255 255 255 255 255 255 255 255 255 255 255 255 255 255 255 255 255 255 255 255 255 255 255 255 255 255 255 255 255 255 255 255 255 255 255 255 255 255 255 255 255 255 255 255 255 255 255 255 255 255 255 255 255 255 255 255 255 
255 255 255 255 255 255 255 255 255 255 255 255 255 255 255 255 255 255 255 255 255 255 255 255 255 255 255 255 255 255 255 255 255 255 255 255 255 255 255 255 255 255 255 255 255 255 255 255 255 255 255 255 186 0 122 60 42 43 45 50 54 67 63 47 43 51 50 48 49 60 68 71 76 77 69 60 53 41 25 15 17 79 32 46 47 69 86 75 62 83 101 39 59 211 196 199 174 125 105 141 152 147 111 118 146 174 154 148 130 93 101 173 142 143 138 123 122 83 101 127 133 129 154 168 157 133 130 123 156 152 149 156 131 133 122 129 101 120 81 132 161 153 125 138 164 120 109 125 130 130 121 122 151 135 128 116 118 126 115 97 100 116 124 142 141 101 87 155 139 4 85 132 124 115 114 121 132 130 116 102 105 93 98 105 96 90 82 100 89 129 128 59 11 22 32 80 201 115 0 31 39 37 39 32 26 0 0 255 255 255 255 255 255 255 255 255 255 255 255 255 255 255 255 255 255 255 255 255 255 255 255 255 255 255 255 255 255 255 255 255 255 255 255 255 255 255 255 255 255 255 255 255 255 255 255 255 255 255 255 255 255 255 255 255 255 255 255 255 255 255 255 255 255 255 255 255 255 255 255 255 255 255 255 255 255 255 255 255 255 255 255 255 255 255 255 255 255 255 255 255 
255 255 255 255 255 255 255 255 255 255 255 255 255 255 255 255 255 255 255 255 255 255 255 255 255 255 255 255 255 255 255 255 255 255 255 255 255 255 255 255 255 255 255 255 255 255 255 255 255 255 255 255 219 0 111 56 49 46 44 49 53 64 69 50 43 39 51 53 48 47 52 57 65 65 62 58 48 40 32 26 3 60 63 38 48 70 80 69 94 59 65 48 65 166 168 178 131 112 126 137 128 141 160 127 117 150 151 126 110 180 145 153 150 174 171 131 138 129 139 130 128 140 154 134 136 132 121 139 173 151 147 142 120 131 126 143 161 164 125 35 114 212 156 149 157 108 128 133 124 129 136 151 160 128 108 94 128 137 89 121 126 129 134 127 136 109 109 121 58 51 129 113 132 127 119 117 119 132 140 110 95 103 84 106 97 62 62 68 79 68 95 119 159 171 179 184 190 147 0 22 36 37 30 27 0 0 248 255 253 255 255 255 255 255 255 255 255 255 255 255 255 255 255 255 255 255 255 255 255 255 255 255 255 255 255 255 255 255 255 255 255 255 255 255 255 255 255 255 255 255 255 255 255 255 255 255 255 255 255 255 255 255 255 255 255 255 255 255 255 255 255 255 255 255 255 255 255 255 255 255 255 255 255 255 255 255 255 255 255 255 255 255 255 255 255 255 255 255 255 255 
255 255 255 255 255 255 255 255 255 255 255 255 255 255 255 255 255 255 255 255 255 255 255 255 255 255 255 255 255 255 255 255 255 255 255 255 255 255 255 255 255 255 255 255 255 255 255 255 255 255 255 255 255 0 95 55 52 44 45 55 58 62 75 66 46 35 37 53 54 47 44 47 51 56 53 47 40 33 35 28 10 35 72 31 51 70 64 80 68 73 88 59 28 133 167 151 115 108 134 123 119 117 131 151 153 139 132 117 92 197 160 139 124 153 197 162 128 153 173 160 143 146 165 152 145 128 129 144 154 143 128 115 130 127 135 143 139 122 99 105 76 62 82 122 185 122 143 161 162 142 90 126 143 134 127 101 103 122 122 94 89 117 130 135 129 184 119 46 86 122 130 108 91 111 144 110 116 106 122 124 107 99 98 102 94 78 66 67 65 56 67 52 91 89 81 62 46 97 28 1 28 25 24 22 0 255 255 255 251 255 255 255 255 255 255 255 255 255 255 255 255 255 255 255 255 255 255 255 255 255 255 255 255 255 255 255 255 255 255 255 255 255 255 255 255 255 255 255 255 255 255 255 255 255 255 255 255 255 255 255 255 255 255 255 255 255 255 255 255 255 255 255 255 255 255 255 255 255 255 255 255 255 255 255 255 255 255 255 255 255 255 255 255 255 255 255 255 255 255 255 
255 255 255 255 255 255 255 255 255 255 255 255 255 255 255 255 255 255 255 255 255 255 255 255 255 255 255 255 255 255 255 255 255 255 255 255 255 255 255 255 255 255 255 255 255 255 255 255 255 255 252 255 255 87 28 49 54 48 41 53 60 64 67 73 56 36 16 22 47 56 48 45 41 42 42 40 41 36 36 34 12 28 59 43 54 41 72 65 69 77 85 49 8 89 147 126 112 103 119 121 130 122 111 122 149 143 124 113 75 154 168 132 117 101 114 177 197 191 195 161 137 141 153 158 172 147 143 107 122 121 115 121 132 131 144 134 128 115 106 120 119 121 105 54 58 69 83 120 136 167 156 124 117 150 154 146 121 150 153 151 142 147 163 154 137 121 37 45 113 83 88 103 103 101 126 110 118 100 105 114 106 97 80 86 69 68 64 64 59 48 78 51 0 0 0 0 3 1 50 55 48 46 88 44 0 255 255 255 255 255 255 255 255 255 255 255 255 255 255 255 255 255 255 255 255 255 255 255 255 255 255 255 255 255 255 255 255 255 255 255 255 255 255 255 255 255 255 255 255 255 255 255 255 255 255 255 255 255 255 255 255 255 255 255 255 255 255 255 255 255 255 255 255 255 255 255 255 255 255 255 255 255 255 255 255 255 255 255 255 255 255 255 255 255 255 255 255 255 255 255 
255 255 255 255 255 255 255 255 255 255 255 255 255 255 255 255 255 255 255 255 255 255 255 255 255 255 255 255 255 255 255 255 255 255 255 255 255 255 255 255 255 255 255 255 255 255 255 255 255 255 253 253 255 255 90 11 50 55 42 48 62 69 69 71 56 13 0 0 0 24 53 52 46 40 38 38 36 35 37 26 28 39 38 54 53 52 70 79 64 82 74 63 45 91 155 136 108 114 116 111 128 114 124 119 119 118 102 130 140 143 137 137 162 129 129 142 134 165 178 152 164 147 139 144 127 140 155 146 146 124 129 135 141 135 146 149 138 133 119 132 103 113 136 127 75 77 74 51 49 19 41 62 73 98 93 122 105 101 101 131 61 52 54 23 8 32 84 108 99 101 111 108 112 95 107 102 119 116 112 101 96 85 72 88 87 73 54 94 102 47 110 139 72 90 85 93 130 76 70 108 72 26 87 0 0 255 255 255 255 255 255 255 255 255 255 255 255 255 255 255 255 255 255 255 255 255 255 255 255 255 255 255 255 255 255 255 255 255 255 255 255 255 255 255 255 255 255 255 255 255 255 255 255 255 255 255 255 255 255 255 255 255 255 255 255 255 255 255 255 255 255 255 255 255 255 255 255 255 255 255 255 255 255 255 255 255 255 255 255 255 255 255 255 255 255 255 255 255 255 255 
255 255 255 255 255 255 255 255 255 255 255 255 255 255 255 255 255 255 255 255 255 255 255 255 255 255 255 255 255 255 255 255 255 255 255 255 255 255 255 255 255 255 255 255 255 255 255 255 255 255 251 255 255 255 255 0 32 58 45 45 54 64 74 79 64 15 0 7 0 0 2 32 55 47 44 35 39 43 37 43 41 43 34 28 47 59 52 57 68 73 47 50 38 93 177 106 96 107 96 98 113 118 110 112 131 120 92 99 160 194 136 125 170 173 161 169 146 141 170 154 135 159 149 156 140 155 138 144 141 112 126 116 130 147 164 153 139 137 134 132 126 133 130 136 114 120 125 148 122 75 90 76 65 51 39 37 43 47 40 30 36 91 109 93 96 117 122 104 102 113 97 112 95 112 108 88 107 104 111 100 88 87 61 88 91 95 89 96 113 67 66 76 43 80 93 93 51 21 73 121 44 63 57 0 35 255 255 255 255 255 255 255 255 255 255 255 255 255 255 255 255 255 255 255 255 255 255 255 255 255 255 255 255 255 255 255 255 255 255 255 255 255 255 255 255 255 255 255 255 255 255 255 255 255 255 255 255 255 255 255 255 255 255 255 255 255 255 255 255 255 255 255 255 255 255 255 255 255 255 255 255 255 255 255 255 255 255 255 255 255 255 255 255 255 255 255 255 255 255 255 
255 255 255 255 255 255 255 255 255 255 255 255 255 255 255 255 255 255 255 255 255 255 255 255 255 255 255 255 255 255 255 255 255 255 255 255 255 255 255 255 255 255 255 255 255 255 255 255 255 255 255 255 255 255 255 153 0 56 54 42 42 57 73 82 65 48 41 56 53 26 0 0 9 28 37 49 49 51 48 38 36 43 51 36 47 50 46 72 61 64 75 62 43 33 145 130 87 102 107 115 100 124 126 113 132 124 124 54 158 185 150 103 154 157 174 166 169 150 150 178 141 148 169 157 152 157 158 159 161 126 109 125 144 137 127 120 116 100 109 108 118 131 152 147 109 107 109 156 129 113 141 126 126 123 115 122 140 148 127 120 123 120 122 108 98 113 126 144 127 124 134 119 99 102 98 96 97 98 103 107 88 82 84 96 130 135 117 96 93 46 67 195 49 74 101 44 9 50 82 84 56 77 35 0 55 255 255 255 255 255 255 255 255 255 255 255 255 255 255 255 255 255 255 255 255 255 255 255 255 255 255 255 255 255 255 255 255 255 255 255 255 255 255 255 255 255 255 255 255 255 255 255 255 255 255 255 255 255 255 255 255 255 255 255 255 255 255 255 255 255 255 255 255 255 255 255 255 255 255 255 255 255 255 255 255 255 255 255 255 255 255 255 255 255 255 255 255 255 255 255 
255 255 255 255 255 255 255 255 255 255 255 255 255 255 255 255 255 255 255 255 255 255 255 255 255 255 255 255 255 255 255 255 255 255 255 255 255 255 255 255 255 255 255 255 255 255 255 255 255 255 255 255 251 252 255 255 22 0 48 50 38 47 56 72 77 75 73 62 70 73 32 8 2 0 0 5 12 12 45 28 27 47 37 40 47 48 54 56 70 105 54 67 53 49 80 127 96 124 107 116 119 116 131 128 108 104 33 98 192 150 157 121 138 137 150 128 149 124 123 131 144 151 149 151 158 155 153 155 190 155 134 136 137 156 133 131 120 101 109 108 138 139 138 136 119 108 98 126 117 115 115 121 117 118 117 136 129 139 124 115 116 124 111 95 110 123 124 129 119 116 117 103 105 121 111 98 108 105 99 102 99 94 93 99 128 128 88 101 76 29 65 184 50 84 95 28 51 90 61 50 89 74 43 0 0 255 255 255 255 255 255 255 255 255 255 255 255 255 255 255 255 255 255 255 255 255 255 255 255 255 255 255 255 255 255 255 255 255 255 255 255 255 255 255 255 255 255 255 255 255 255 255 255 255 255 255 255 255 255 255 255 255 255 255 255 255 255 255 255 255 255 255 255 255 255 255 255 255 255 255 255 255 255 255 255 255 255 255 255 255 255 255 255 255 255 255 255 255 255 255 
255 255 255 255 255 255 255 255 255 255 255 255 255 255 255 255 255 255 255 255 255 255 255 255 255 255 255 255 255 255 255 255 255 255 255 255 255 255 255 255 255 255 255 255 255 255 255 255 255 255 255 255 255 255 255 255 255 30 0 35 39 34 41 56 67 74 64 44 67 80 37 29 24 25 21 22 10 24 43 50 59 31 39 48 52 52 59 49 35 75 72 81 34 21 69 149 99 92 111 117 113 98 120 119 89 23 88 215 137 164 138 140 135 123 135 140 133 128 152 131 127 151 123 137 116 121 139 142 137 139 158 161 143 133 151 138 138 121 124 126 129 128 136 112 125 127 120 140 120 130 133 144 120 137 130 120 105 113 131 123 113 120 113 107 108 117 120 124 123 143 122 119 124 133 116 118 136 119 111 99 103 108 119 122 133 134 90 82 47 32 98 111 42 87 70 51 66 81 55 51 78 78 55 0 0 255 255 255 255 255 255 255 255 255 255 255 255 255 255 255 255 255 255 255 255 255 255 255 255 255 255 255 255 255 255 255 255 255 255 255 255 255 255 255 255 255 255 255 255 255 255 255 255 255 255 255 255 255 255 255 255 255 255 255 255 255 255 255 255 255 255 255 255 255 255 255 255 255 255 255 255 255 255 255 255 255 255 255 255 255 255 255 255 255 255 255 255 255 255 255 
255 255 255 255 255 255 255 255 255 255 255 255 255 255 255 255 255 255 255 255 255 255 255 255 255 255 255 255 255 255 255 255 255 255 255 255 255 255 255 255 255 255 255 255 255 255 255 255 255 255 255 255 255 255 255 255 255 255 130 0 0 21 24 33 44 50 45 44 56 60 37 31 33 33 34 29 17 34 25 25 44 37 40 46 44 33 59 54 59 55 38 70 45 31 49 82 130 120 141 123 99 91 77 49 36 111 206 139 150 146 123 149 145 137 128 152 146 142 150 135 132 127 127 115 107 112 124 118 102 125 125 143 109 132 176 132 126 135 111 107 118 145 142 115 116 107 125 138 104 110 107 134 106 119 120 132 110 115 115 132 121 117 123 124 109 97 108 119 123 123 117 107 109 130 126 139 160 120 127 113 111 117 121 109 92 81 74 47 52 49 115 103 35 81 72 69 73 70 53 69 88 73 46 0 0 255 255 255 255 255 255 255 255 255 255 255 255 255 255 255 255 255 255 255 255 255 255 255 255 255 255 255 255 255 255 255 255 255 255 255 255 255 255 255 255 255 255 255 255 255 255 255 255 255 255 255 255 255 255 255 255 255 255 255 255 255 255 255 255 255 255 255 255 255 255 255 255 255 255 255 255 255 255 255 255 255 255 255 255 255 255 255 255 255 255 255 255 255 255 255 
255 255 255 255 255 255 255 255 255 255 255 255 255 255 255 255 255 255 255 255 255 255 255 255 255 255 255 255 255 255 255 255 255 255 255 255 255 255 255 255 255 255 255 255 255 255 255 255 255 255 255 255 255 255 255 255 255 255 255 255 153 24 32 16 21 28 35 39 42 43 38 35 37 36 30 25 27 28 27 42 42 34 34 59 46 44 54 44 75 60 41 69 51 67 44 3 23 43 45 43 39 39 67 141 198 176 128 139 150 117 103 150 143 153 132 150 167 131 151 155 134 137 164 160 130 118 112 130 131 132 110 152 114 102 115 105 112 104 97 113 102 100 111 124 114 131 132 114 112 105 120 120 100 129 130 132 130 138 134 111 142 136 116 132 135 126 107 115 115 97 116 108 109 104 106 115 137 115 117 119 122 107 95 114 100 73 59 77 88 70 128 126 49 79 90 76 60 74 58 54 108 97 22 0 137 255 255 255 255 255 255 255 255 255 255 255 255 255 255 255 255 255 255 255 255 255 255 255 255 255 255 255 255 255 255 255 255 255 255 255 255 255 255 255 255 255 255 255 255 255 255 255 255 255 255 255 255 255 255 255 255 255 255 255 255 255 255 255 255 255 255 255 255 255 255 255 255 255 255 255 255 255 255 255 255 255 255 255 255 255 255 255 255 255 255 255 255 255 255 255 
255 255 255 255 255 255 255 255 255 255 255 255 255 255 255 255 255 255 255 255 255 255 255 255 255 255 255 255 255 255 255 255 255 255 255 255 255 255 255 255 255 255 255 255 255 255 255 255 255 255 255 255 255 255 255 255 255 253 255 255 255 128 96 93 65 40 26 26 35 32 37 38 34 36 39 36 32 26 62 43 25 32 35 40 49 55 58 43 44 63 88 76 41 41 0 111 187 188 173 142 206 213 209 187 169 142 133 144 131 114 122 145 128 130 139 137 129 140 153 161 133 127 127 133 140 161 131 119 127 146 143 138 133 123 150 133 155 132 126 112 115 113 102 101 95 95 104 97 104 102 110 113 110 154 121 107 116 125 131 128 125 106 102 112 104 107 84 90 106 87 115 117 125 94 108 122 108 113 104 122 104 102 84 124 96 72 79 113 65 69 118 135 48 87 98 88 65 72 52 53 88 61 2 4 255 255 252 255 255 255 255 255 255 255 255 255 255 255 255 255 255 255 255 255 255 255 255 255 255 255 255 255 255 255 255 255 255 255 255 255 255 255 255 255 255 255 255 255 255 255 255 255 255 255 255 255 255 255 255 255 255 255 255 255 255 255 255 255 255 255 255 255 255 255 255 255 255 255 255 255 255 255 255 255 255 255 255 255 255 255 255 255 255 255 255 255 255 255 255 255 
255 255 255 255 255 255 255 255 255 255 255 255 255 255 255 255 255 255 255 255 255 255 255 255 255 255 255 255 255 255 255 255 255 255 255 255 255 255 255 255 255 255 255 255 255 255 255 255 255 255 255 255 255 255 255 255 255 253 254 255 255 228 87 45 77 81 64 49 40 29 25 26 30 30 30 28 45 41 42 37 53 48 44 43 50 49 52 59 54 56 40 22 32 61 30 13 77 147 151 112 153 145 131 116 113 117 131 113 123 117 120 148 155 116 120 131 122 110 108 122 128 147 134 125 144 131 141 160 123 134 157 149 154 160 154 150 162 150 110 132 146 139 122 130 129 123 108 111 106 85 112 147 176 170 133 95 111 130 104 114 106 101 101 92 94 97 90 103 110 110 117 125 115 91 104 94 104 105 111 111 103 103 88 101 74 77 108 111 44 79 116 162 61 65 73 100 74 74 55 60 106 79 0 76 255 255 255 255 255 255 255 255 255 255 255 255 255 255 255 255 255 255 255 255 255 255 255 255 255 255 255 255 255 255 255 255 255 255 255 255 255 255 255 255 255 255 255 255 255 255 255 255 255 255 255 255 255 255 255 255 255 255 255 255 255 255 255 255 255 255 255 255 255 255 255 255 255 255 255 255 255 255 255 255 255 255 255 255 255 255 255 255 255 255 255 255 255 255 255 255 
255 255 255 255 255 255 255 255 255 255 255 255 255 255 255 255 255 255 255 255 255 255 255 255 255 255 255 255 255 255 255 255 255 255 255 255 255 255 255 255 255 255 255 255 255 255 255 255 255 255 255 255 255 255 255 255 255 252 254 254 255 255 118 38 52 38 33 46 39 31 23 15 37 28 30 29 36 41 31 38 41 37 33 42 52 53 60 56 36 53 80 27 27 60 46 25 36 66 97 143 153 148 110 126 119 122 128 125 106 121 105 105 140 132 113 119 130 125 110 109 121 141 159 151 144 125 141 173 149 135 129 138 143 146 127 155 126 131 125 87 96 115 121 114 123 127 130 146 136 112 138 150 165 132 118 134 119 114 99 92 99 98 110 99 121 108 110 127 115 123 112 111 104 118 116 111 116 100 98 102 113 98 79 84 93 120 130 80 51 86 117 162 47 47 71 71 84 77 78 82 93 63 0 222 255 255 255 255 255 255 255 255 255 255 255 255 255 255 255 255 255 255 255 255 255 255 255 255 255 255 255 255 255 255 255 255 255 255 255 255 255 255 255 255 255 255 255 255 255 255 255 255 255 255 255 255 255 255 255 255 255 255 255 255 255 255 255 255 255 255 255 255 255 255 255 255 255 255 255 255 255 255 255 255 255 255 255 255 255 255 255 255 255 255 255 255 255 255 255 255 
255 255 255 255 255 255 255 255 255 255 255 255 255 255 255 255 255 255 255 255 255 255 255 255 255 255 255 255 255 255 255 255 255 255 255 255 255 255 255 255 255 255 255 255 255 255 255 255 255 255 255 255 255 255 255 255 255 255 253 254 255 255 224 69 79 25 26 42 40 60 64 49 33 42 50 28 25 32 44 37 30 59 53 41 63 58 57 56 70 42 50 28 70 112 75 57 48 53 46 93 151 153 128 139 115 130 107 128 113 115 116 111 103 114 122 123 109 116 119 117 105 119 137 147 137 144 125 136 145 139 137 133 129 141 126 123 130 130 140 124 139 123 134 133 113 102 102 120 122 125 166 138 148 149 115 122 133 135 132 126 113 118 133 132 125 95 110 110 107 102 90 104 114 112 132 126 109 97 73 90 72 93 106 98 116 149 105 66 82 119 129 155 62 29 80 90 86 72 81 101 110 42 0 255 255 255 255 255 255 255 255 255 255 255 255 255 255 255 255 255 255 255 255 255 255 255 255 255 255 255 255 255 255 255 255 255 255 255 255 255 255 255 255 255 255 255 255 255 255 255 255 255 255 255 255 255 255 255 255 255 255 255 255 255 255 255 255 255 255 255 255 255 255 255 255 255 255 255 255 255 255 255 255 255 255 255 255 255 255 255 255 255 255 255 255 255 255 255 255 255 
255 255 255 255 255 255 255 255 255 255 255 255 255 255 255 255 255 255 255 255 255 255 255 255 255 255 255 255 255 255 255 255 255 255 255 255 255 255 255 255 255 255 255 255 255 255 255 255 255 255 255 255 255 255 255 255 255 255 252 252 255 255 255 214 35 109 85 65 82 58 45 58 52 59 49 40 25 26 45 57 55 63 60 47 64 49 45 62 57 32 28 16 129 121 79 69 57 69 75 55 74 121 117 119 122 129 114 117 119 103 117 114 121 110 109 113 112 97 119 114 108 116 119 133 126 110 115 135 142 142 122 132 137 149 148 140 134 133 121 158 154 165 158 118 125 132 137 137 121 114 153 119 123 111 113 102 129 145 138 123 95 118 112 146 155 129 115 104 105 117 111 92 106 114 136 127 99 99 69 95 93 111 118 126 156 167 79 75 112 123 118 77 79 35 64 90 83 89 81 98 103 0 69 255 255 255 255 255 255 255 255 255 255 255 255 255 255 255 255 255 255 255 255 255 255 255 255 255 255 255 255 255 255 255 255 255 255 255 255 255 255 255 255 255 255 255 255 255 255 255 255 255 255 255 255 255 255 255 255 255 255 255 255 255 255 255 255 255 255 255 255 255 255 255 255 255 255 255 255 255 255 255 255 255 255 255 255 255 255 255 255 255 255 255 255 255 255 255 255 255 
255 255 255 255 255 255 255 255 255 255 255 255 255 255 255 255 255 255 255 255 255 255 255 255 255 255 255 255 255 255 255 255 255 255 255 255 255 255 255 255 255 255 255 255 255 255 255 255 255 255 255 255 255 255 255 255 255 255 255 255 255 252 255 255 241 177 114 50 79 84 67 61 45 69 64 62 64 37 30 49 47 56 56 55 64 55 66 52 52 32 36 0 86 158 101 84 59 49 74 96 82 95 128 140 126 113 100 109 117 105 101 104 128 134 118 122 112 99 120 111 118 114 115 105 130 115 118 118 112 133 101 124 129 160 142 110 113 115 141 122 111 124 155 114 102 109 113 115 110 98 131 172 145 119 101 110 113 120 130 112 98 120 111 125 120 115 104 113 106 130 131 127 115 87 101 96 93 86 83 102 100 105 111 160 160 123 100 99 149 114 108 103 147 64 24 91 87 77 97 126 76 0 237 255 252 255 255 255 255 255 255 255 255 255 255 255 255 255 255 255 255 255 255 255 255 255 255 255 255 255 255 255 255 255 255 255 255 255 255 255 255 255 255 255 255 255 255 255 255 255 255 255 255 255 255 255 255 255 255 255 255 255 255 255 255 255 255 255 255 255 255 255 255 255 255 255 255 255 255 255 255 255 255 255 255 255 255 255 255 255 255 255 255 255 255 255 255 255 255 255 
255 255 255 255 255 255 255 255 255 255 255 255 255 255 255 255 255 255 255 255 255 255 255 255 255 255 255 255 255 255 255 255 255 255 255 255 255 255 255 255 255 255 255 255 255 255 255 255 255 255 255 255 255 255 255 255 255 255 255 255 255 255 255 255 255 160 95 101 90 71 70 80 65 46 59 58 98 70 53 62 68 59 68 64 66 57 48 54 57 29 38 53 21 109 136 103 86 75 50 73 76 82 90 108 115 132 111 114 121 106 98 115 117 127 112 107 116 110 113 118 120 124 123 106 107 114 108 105 93 118 101 110 128 132 125 109 115 87 112 103 143 137 136 135 129 146 141 142 124 129 144 137 106 125 124 119 110 98 111 125 113 111 131 139 124 112 107 141 127 139 127 127 119 121 89 90 99 100 99 100 116 125 126 119 95 87 100 103 140 94 86 98 117 113 37 43 90 95 136 111 17 0 255 255 253 251 255 255 255 255 255 255 255 255 255 255 255 255 255 255 255 255 255 255 255 255 255 255 255 255 255 255 255 255 255 255 255 255 255 255 255 255 255 255 255 255 255 255 255 255 255 255 255 255 255 255 255 255 255 255 255 255 255 255 255 255 255 255 255 255 255 255 255 255 255 255 255 255 255 255 255 255 255 255 255 255 255 255 255 255 255 255 255 255 255 255 255 255 255 255 
255 255 255 255 255 255 255 255 255 255 255 255 255 255 255 255 255 255 255 255 255 255 255 255 255 255 255 255 255 255 255 255 255 255 255 255 255 255 255 255 255 255 255 255 255 255 255 255 255 255 255 255 255 255 255 255 255 255 255 255 255 255 255 255 210 100 91 109 81 87 88 86 93 89 99 105 42 52 72 51 69 51 53 65 80 49 29 43 53 67 69 47 24 45 136 129 96 86 65 66 76 73 98 78 96 115 100 102 104 107 98 115 103 100 102 98 108 110 110 112 114 122 128 121 120 114 105 117 107 108 104 103 117 105 107 102 132 117 113 82 101 111 131 131 136 154 145 189 180 200 157 133 99 117 128 132 107 122 121 142 132 126 150 138 103 108 128 135 125 123 128 135 113 123 101 114 108 111 97 101 113 123 123 107 106 102 105 132 134 114 103 115 92 154 113 0 0 17 6 64 0 180 255 253 255 255 255 255 255 255 255 255 255 255 255 255 255 255 255 255 255 255 255 255 255 255 255 255 255 255 255 255 255 255 255 255 255 255 255 255 255 255 255 255 255 255 255 255 255 255 255 255 255 255 255 255 255 255 255 255 255 255 255 255 255 255 255 255 255 255 255 255 255 255 255 255 255 255 255 255 255 255 255 255 255 255 255 255 255 255 255 255 255 255 255 255 255 255 255 255 
255 255 255 255 255 255 255 255 255 255 255 255 255 255 255 255 255 255 255 255 255 255 255 255 255 255 255 255 255 255 255 255 255 255 255 255 255 255 255 255 255 255 255 255 255 255 255 255 255 255 255 255 255 255 255 255 255 255 255 255 255 255 255 255 142 108 87 99 98 117 89 75 84 95 102 96 52 88 98 51 58 66 78 58 52 43 59 60 53 33 26 41 52 21 48 139 125 97 92 71 82 83 101 94 106 109 104 102 107 115 100 104 111 104 101 106 101 103 107 93 102 98 107 104 104 109 95 92 97 107 109 104 97 98 112 97 126 137 136 140 144 119 110 104 120 122 104 110 105 143 143 148 97 112 97 110 109 115 124 118 117 106 98 105 104 78 107 128 105 104 112 111 105 122 109 130 117 123 100 101 111 111 104 116 103 152 139 112 97 89 80 81 92 98 91 142 72 26 10 0 35 255 255 253 255 255 255 255 255 255 255 255 255 255 255 255 255 255 255 255 255 255 255 255 255 255 255 255 255 255 255 255 255 255 255 255 255 255 255 255 255 255 255 255 255 255 255 255 255 255 255 255 255 255 255 255 255 255 255 255 255 255 255 255 255 255 255 255 255 255 255 255 255 255 255 255 255 255 255 255 255 255 255 255 255 255 255 255 255 255 255 255 255 255 255 255 255 255 255 255 
255 255 255 255 255 255 255 255 255 255 255 255 255 255 255 255 255 255 255 255 255 255 255 255 255 255 255 255 255 255 255 255 255 255 255 255 255 255 255 255 255 255 255 255 255 255 255 255 255 255 255 255 255 255 255 255 255 255 255 255 255 255 255 254 136 107 100 113 85 99 96 113 117 81 78 98 135 86 43 0 8 46 53 55 53 60 63 55 44 56 71 83 36 75 43 127 166 113 103 92 94 104 93 92 97 101 99 101 103 114 110 106 107 98 107 100 89 103 104 102 99 98 104 105 109 103 121 120 104 106 100 103 102 95 107 106 102 106 109 117 122 126 123 115 103 130 119 99 96 117 120 172 109 102 91 96 95 95 115 100 113 107 111 119 115 104 101 99 97 110 105 110 113 117 97 110 82 92 78 97 94 96 106 101 105 121 88 100 99 84 82 83 93 115 100 124 138 145 56 0 255 255 253 254 253 253 252 255 255 255 255 255 255 255 255 255 255 255 255 255 255 255 255 255 255 255 255 255 255 255 255 255 255 255 255 255 255 255 255 255 255 255 255 255 255 255 255 255 255 255 255 255 255 255 255 255 255 255 255 255 255 255 255 255 255 255 255 255 255 255 255 255 255 255 255 255 255 255 255 255 255 255 255 255 255 255 255 255 255 255 255 255 255 255 255 255 255 255 255 255 
255 255 255 255 255 255 255 255 255 255 255 255 255 255 255 255 255 255 255 255 255 255 255 255 255 255 255 255 255 255 255 255 255 255 255 255 255 255 255 255 255 255 255 255 255 255 255 255 255 255 255 255 255 255 255 255 255 255 255 255 255 255 255 138 98 113 103 87 92 88 99 101 75 107 93 70 104 66 43 104 105 9 56 72 64 76 46 46 78 75 63 56 60 73 7 64 161 154 112 106 103 107 103 101 88 96 97 98 101 102 104 100 105 106 105 103 97 84 88 100 95 99 100 118 111 119 110 125 114 107 96 107 107 97 91 91 90 83 86 85 98 107 105 108 98 113 108 92 100 105 124 134 114 105 98 107 120 119 119 116 93 104 112 111 109 91 94 107 89 97 113 103 96 97 93 103 88 95 102 108 106 103 87 90 112 101 78 109 129 101 110 107 106 77 82 114 119 72 0 165 255 254 255 252 253 253 253 255 255 255 255 255 255 255 255 255 255 255 255 255 255 255 255 255 255 255 255 255 255 255 255 255 255 255 255 255 255 255 255 255 255 255 255 255 255 255 255 255 255 255 255 255 255 255 255 255 255 255 255 255 255 255 255 255 255 255 255 255 255 255 255 255 255 255 255 255 255 255 255 255 255 255 255 255 255 255 255 255 255 255 255 255 255 255 255 255 255 255 255 255 
255 255 255 255 255 255 255 255 255 255 255 255 255 255 255 255 255 255 255 255 255 255 255 255 255 255 255 255 255 255 255 255 255 255 255 255 255 255 255 255 255 255 255 255 255 255 255 255 255 255 255 255 255 255 255 255 255 255 255 255 255 255 255 161 100 102 101 103 94 91 103 74 85 88 101 62 67 35 255 255 255 76 59 83 65 75 63 65 104 82 65 78 95 62 55 18 103 98 120 124 105 98 95 106 114 100 91 98 112 102 99 95 101 89 115 116 110 107 105 109 107 114 124 130 97 113 109 119 115 115 123 115 120 116 96 101 91 99 100 88 86 77 90 102 99 101 100 91 88 89 126 108 117 98 116 117 107 107 102 114 118 120 119 110 96 106 103 97 102 86 90 101 99 98 101 102 104 110 100 107 95 73 82 105 118 88 103 132 115 98 99 109 89 79 105 100 76 0 96 255 255 254 251 255 255 255 251 255 255 255 255 255 255 255 255 255 255 255 255 255 255 255 255 255 255 255 255 255 255 255 255 255 255 255 255 255 255 255 255 255 255 255 255 255 255 255 255 255 255 255 255 255 255 255 255 255 255 255 255 255 255 255 255 255 255 255 255 255 255 255 255 255 255 255 255 255 255 255 255 255 255 255 255 255 255 255 255 255 255 255 255 255 255 255 255 255 255 255 255 255 
255 255 255 255 255 255 255 255 255 255 255 255 255 255 255 255 255 255 255 255 255 255 255 255 255 255 255 255 255 255 255 255 255 255 255 255 255 255 255 255 255 255 255 255 255 255 255 255 255 255 255 255 255 255 255 255 255 255 255 255 252 255 255 116 102 115 108 106 119 117 136 130 143 108 70 91 106 0 241 255 255 178 69 83 67 76 77 70 70 70 57 74 86 62 67 14 170 255 67 60 116 117 101 95 107 116 104 94 89 101 100 101 99 95 104 102 103 97 102 114 104 90 92 116 104 111 117 107 128 117 113 108 104 95 95 103 98 87 91 99 97 99 96 97 104 115 119 101 98 114 131 104 95 93 100 89 79 86 88 96 87 108 114 91 93 103 111 105 109 115 124 119 123 102 93 91 97 98 98 91 87 86 110 106 97 93 102 121 107 99 87 105 110 124 101 73 0 51 255 255 254 252 255 255 255 255 255 255 255 255 255 255 255 255 255 255 255 255 255 255 255 255 255 255 255 255 255 255 255 255 255 255 255 255 255 255 255 255 255 255 255 255 255 255 255 255 255 255 255 255 255 255 255 255 255 255 255 255 255 255 255 255 255 255 255 255 255 255 255 255 255 255 255 255 255 255 255 255 255 255 255 255 255 255 255 255 255 255 255 255 255 255 255 255 255 255 255 255 255 255 
255 255 255 255 255 255 255 255 255 255 255 255 255 255 255 255 255 255 255 255 255 255 255 255 255 255 255 255 255 255 255 255 255 255 255 255 255 255 255 255 255 255 255 255 255 255 255 255 255 255 255 255 255 255 255 255 255 255 255 255 253 255 255 115 139 106 110 99 117 110 100 98 105 113 104 126 81 24 251 255 255 249 78 94 72 76 95 77 87 76 58 80 80 79 78 14 7 255 255 148 28 57 99 102 98 94 95 100 95 96 95 93 96 105 92 105 111 98 92 101 101 89 94 100 100 89 107 111 123 119 110 124 117 91 108 101 103 85 88 84 76 97 112 102 99 114 103 95 94 104 132 94 87 88 95 84 85 89 81 92 89 95 99 79 95 112 125 109 106 118 111 101 100 100 96 103 104 104 91 77 85 93 86 92 86 78 94 105 108 105 96 101 101 91 72 0 47 255 255 254 253 255 255 255 255 255 255 255 255 255 255 255 255 255 255 255 255 255 255 255 255 255 255 255 255 255 255 255 255 255 255 255 255 255 255 255 255 255 255 255 255 255 255 255 255 255 255 255 255 255 255 255 255 255 255 255 255 255 255 255 255 255 255 255 255 255 255 255 255 255 255 255 255 255 255 255 255 255 255 255 255 255 255 255 255 255 255 255 255 255 255 255 255 255 255 255 255 255 255 255 
255 255 255 255 255 255 255 255 255 255 255 255 255 255 255 255 255 255 255 255 255 255 255 255 255 255 255 255 255 255 255 255 255 255 255 255 255 255 255 255 255 255 255 255 255 255 255 255 255 255 255 255 255 255 255 255 255 255 255 255 253 255 235 97 104 106 119 108 119 120 88 62 103 100 121 108 9 194 255 255 255 255 134 86 76 84 89 83 67 94 68 89 108 71 78 34 0 255 255 255 255 93 41 24 36 90 97 90 84 82 88 92 89 94 92 85 103 94 101 91 105 102 91 98 97 93 87 97 112 102 101 112 112 105 104 108 89 83 86 87 79 89 88 92 92 97 100 98 91 109 150 117 92 79 106 114 114 108 106 112 110 88 86 99 101 97 88 103 100 109 86 88 100 108 96 92 91 96 76 89 92 88 92 97 93 105 112 107 103 102 93 96 92 90 0 48 255 255 254 254 253 255 255 255 255 255 255 255 255 255 255 255 255 255 255 255 255 255 255 255 255 255 255 255 255 255 255 255 255 255 255 255 255 255 255 255 255 255 255 255 255 255 255 255 255 255 255 255 255 255 255 255 255 255 255 255 255 255 255 255 255 255 255 255 255 255 255 255 255 255 255 255 255 255 255 255 255 255 255 255 255 255 255 255 255 255 255 255 255 255 255 255 255 255 255 255 255 255 255 255 
255 255 255 255 255 255 255 255 255 255 255 255 255 255 255 255 255 255 255 255 255 255 255 255 255 255 255 255 255 255 255 255 255 255 255 255 255 255 255 255 255 255 255 255 255 255 255 255 255 255 255 255 255 255 255 255 255 255 255 255 255 255 255 163 99 107 134 116 105 108 115 132 141 134 82 79 15 255 255 255 255 255 250 89 84 70 92 111 89 107 70 82 117 83 72 39 20 255 255 255 255 255 255 255 124 0 3 55 79 87 82 83 87 75 88 85 85 92 92 85 99 98 94 101 94 86 91 105 108 86 97 99 102 126 109 115 105 108 88 109 93 87 88 97 96 100 97 83 109 132 106 95 104 115 108 131 122 97 96 106 113 95 87 96 95 94 93 94 94 125 119 117 123 116 97 85 83 92 91 92 92 84 97 96 84 97 95 110 98 88 98 89 58 0 92 255 255 253 253 253 252 255 255 255 255 255 255 255 255 255 255 255 255 255 255 255 255 255 255 255 255 255 255 255 255 255 255 255 255 255 255 255 255 255 255 255 255 255 255 255 255 255 255 255 255 255 255 255 255 255 255 255 255 255 255 255 255 255 255 255 255 255 255 255 255 255 255 255 255 255 255 255 255 255 255 255 255 255 255 255 255 255 255 255 255 255 255 255 255 255 255 255 255 255 255 255 255 255 255 255 
255 255 255 255 255 255 255 255 255 255 255 255 255 255 255 255 255 255 255 255 255 255 255 255 255 255 255 255 255 255 255 255 255 255 255 255 255 255 255 255 255 255 255 255 255 255 255 255 255 255 255 255 255 255 255 255 255 255 255 255 255 255 255 145 82 93 121 117 127 130 87 92 115 134 92 37 217 255 255 254 255 255 253 68 94 99 67 106 92 84 83 87 95 112 71 48 17 36 255 255 253 255 255 255 255 255 142 42 0 8 65 83 79 81 76 79 72 81 93 86 77 79 74 78 100 102 92 93 92 91 90 89 81 88 102 97 105 106 121 126 109 113 107 121 110 103 93 92 96 117 117 92 104 126 117 110 87 90 97 105 113 109 101 92 97 102 120 106 110 114 91 99 84 88 84 79 83 94 90 87 89 87 81 90 98 99 101 106 100 94 82 0 0 163 255 255 253 255 255 255 255 255 255 255 255 255 255 255 255 255 255 255 255 255 255 255 255 255 255 255 255 255 255 255 255 255 255 255 255 255 255 255 255 255 255 255 255 255 255 255 255 255 255 255 255 255 255 255 255 255 255 255 255 255 255 255 255 255 255 255 255 255 255 255 255 255 255 255 255 255 255 255 255 255 255 255 255 255 255 255 255 255 255 255 255 255 255 255 255 255 255 255 255 255 255 255 255 255 255 255 
255 255 255 255 255 255 255 255 255 255 255 255 255 255 255 255 255 255 255 255 255 255 255 255 255 255 255 255 255 255 255 255 255 255 255 255 255 255 255 255 255 255 255 255 255 255 255 255 255 255 255 255 255 255 255 255 255 255 255 251 253 255 255 255 140 85 124 121 123 138 132 120 115 127 76 104 255 255 253 253 253 255 255 110 60 75 74 104 84 93 94 82 103 104 86 75 11 129 255 255 254 252 255 253 255 255 255 255 254 105 0 0 23 61 75 75 76 61 66 69 76 73 71 61 71 75 86 88 87 93 98 106 109 99 92 86 95 107 127 106 102 128 124 127 119 111 87 81 99 118 97 96 106 114 119 109 107 114 103 104 110 108 86 73 90 98 96 90 93 84 81 95 77 88 82 93 93 99 90 89 81 95 99 91 88 101 89 98 92 28 0 40 255 255 255 254 253 255 255 255 255 255 255 255 255 255 255 255 255 255 255 255 255 255 255 255 255 255 255 255 255 255 255 255 255 255 255 255 255 255 255 255 255 255 255 255 255 255 255 255 255 255 255 255 255 255 255 255 255 255 255 255 255 255 255 255 255 255 255 255 255 255 255 255 255 255 255 255 255 255 255 255 255 255 255 255 255 255 255 255 255 255 255 255 255 255 255 255 255 255 255 255 255 255 255 255 255 255 255 255 
255 255 255 255 255 255 255 255 255 255 255 255 255 255 255 255 255 255 255 255 255 255 255 255 255 255 255 255 255 255 255 255 255 255 255 255 255 255 255 255 255 255 255 255 255 255 255 255 255 255 255 255 255 255 255 255 255 255 255 255 251 255 255 255 255 102 77 112 136 132 130 122 120 74 1 214 255 255 255 255 255 254 255 255 170 71 83 103 99 52 87 64 102 101 78 52 22 255 255 254 254 252 255 253 253 255 255 255 255 255 255 182 34 0 0 34 57 54 52 49 61 68 61 57 60 57 61 73 78 82 85 78 85 99 108 117 110 96 91 97 91 98 105 108 109 105 100 101 104 110 97 113 106 93 87 79 76 80 78 89 77 88 85 85 93 93 83 80 81 74 88 87 86 87 92 92 86 95 91 92 97 98 103 93 84 82 82 38 0 0 178 255 255 255 255 252 254 251 255 255 255 255 255 255 255 255 255 255 255 255 255 255 255 255 255 255 255 255 255 255 255 255 255 255 255 255 255 255 255 255 255 255 255 255 255 255 255 255 255 255 255 255 255 255 255 255 255 255 255 255 255 255 255 255 255 255 255 255 255 255 255 255 255 255 255 255 255 255 255 255 255 255 255 255 255 255 255 255 255 255 255 255 255 255 255 255 255 255 255 255 255 255 255 255 255 255 255 255 255 255 
255 255 255 255 255 255 255 255 255 255 255 255 255 255 255 255 255 255 255 255 255 255 255 255 255 255 255 255 255 255 255 255 255 255 255 255 255 255 255 255 255 255 255 255 255 255 255 255 255 255 255 255 255 255 255 255 255 255 255 255 255 255 255 255 255 208 109 39 89 102 106 109 85 44 113 255 255 255 255 255 255 253 255 255 153 53 64 99 114 100 95 91 115 98 75 5 187 255 255 254 252 255 255 252 252 255 255 255 255 255 255 255 255 255 96 0 0 38 37 43 37 41 42 57 60 56 53 57 62 76 81 77 88 86 88 85 97 92 93 97 106 100 88 82 94 111 98 84 116 82 75 90 99 116 104 96 102 101 90 99 93 98 101 100 96 89 84 78 88 88 90 94 92 83 79 84 92 91 89 94 97 102 90 73 41 0 0 0 169 255 255 255 254 253 255 255 251 255 255 255 255 255 255 255 255 255 255 255 255 255 255 255 255 255 255 255 255 255 255 255 255 255 255 255 255 255 255 255 255 255 255 255 255 255 255 255 255 255 255 255 255 255 255 255 255 255 255 255 255 255 255 255 255 255 255 255 255 255 255 255 255 255 255 255 255 255 255 255 255 255 255 255 255 255 255 255 255 255 255 255 255 255 255 255 255 255 255 255 255 255 255 255 255 255 255 255 255 255 255 255 
255 255 255 255 255 255 255 255 255 255 255 255 255 255 255 255 255 255 255 255 255 255 255 255 255 255 255 255 255 255 255 255 255 255 255 255 255 255 255 255 255 255 255 255 255 255 255 255 255 255 255 255 255 255 255 255 255 255 255 255 255 255 255 255 255 255 255 208 105 22 37 86 2 255 255 255 252 255 255 255 255 253 255 255 255 188 59 63 72 87 89 85 89 43 0 231 255 255 253 252 255 255 255 255 255 255 255 255 255 252 253 253 255 255 255 255 14 0 31 35 28 28 30 35 36 33 40 38 38 44 51 57 67 72 78 88 81 91 96 91 105 109 113 106 105 112 104 97 124 91 119 94 96 96 98 100 102 104 95 95 87 71 78 71 73 82 71 70 71 77 79 93 79 79 91 97 98 93 85 55 14 0 0 0 0 99 247 255 255 255 253 253 253 252 255 255 255 255 255 255 255 255 255 255 255 255 255 255 255 255 255 255 255 255 255 255 255 255 255 255 255 255 255 255 255 255 255 255 255 255 255 255 255 255 255 255 255 255 255 255 255 255 255 255 255 255 255 255 255 255 255 255 255 255 255 255 255 255 255 255 255 255 255 255 255 255 255 255 255 255 255 255 255 255 255 255 255 255 255 255 255 255 255 255 255 255 255 255 255 255 255 255 255 255 255 255 255 255 255 255 
255 255 255 255 255 255 255 255 255 255 255 255 255 255 255 255 255 255 255 255 255 255 255 255 255 255 255 255 255 255 255 255 255 255 255 255 255 255 255 255 255 255 255 255 255 255 255 255 255 255 255 255 255 255 255 255 255 255 255 255 255 255 255 255 252 255 255 255 255 255 255 255 253 255 255 255 255 255 255 255 255 253 254 255 255 255 233 78 37 54 38 46 37 42 189 255 255 255 255 255 255 255 255 255 255 255 255 255 255 255 255 255 255 255 255 255 255 0 42 33 40 36 23 27 28 28 30 27 29 31 27 33 31 36 40 45 51 60 59 71 4 0 0 0 0 0 70 67 61 65 79 68 66 51 58 63 59 46 46 49 54 54 55 49 49 54 52 52 54 52 46 59 59 58 48 27 0 0 0 0 0 90 209 255 255 255 255 255 255 255 255 255 255 255 255 255 255 255 255 255 255 255 255 255 255 255 255 255 255 255 255 255 255 255 255 255 255 255 255 255 255 255 255 255 255 255 255 255 255 255 255 255 255 255 255 255 255 255 255 255 255 255 255 255 255 255 255 255 255 255 255 255 255 255 255 255 255 255 255 255 255 255 255 255 255 255 255 255 255 255 255 255 255 255 255 255 255 255 255 255 255 255 255 255 255 255 255 255 255 255 255 255 255 255 255 255 255 255 255 255 
255 255 255 255 255 255 255 255 255 255 255 255 255 255 255 255 255 255 255 255 255 255 255 255 255 255 255 255 255 255 255 255 255 255 255 255 255 255 255 255 255 255 255 255 255 255 255 255 255 255 255 255 255 255 255 255 255 255 255 255 255 255 255 255 255 252 254 255 255 255 255 255 255 255 252 255 255 255 255 255 255 253 254 254 254 255 255 255 255 255 42 194 255 255 255 255 252 255 255 255 255 255 255 255 255 255 255 255 255 255 255 255 255 255 251 255 255 50 48 53 47 50 45 44 40 37 41 41 34 42 36 40 37 38 39 43 38 31 21 0 18 208 203 224 255 138 0 3 9 14 16 20 26 26 24 22 27 33 39 38 34 39 28 28 35 34 29 34 42 36 28 0 0 0 0 0 6 112 245 255 255 255 255 255 255 254 253 252 255 255 255 255 255 255 255 255 255 255 255 255 255 255 255 255 255 255 255 255 255 255 255 255 255 255 255 255 255 255 255 255 255 255 255 255 255 255 255 255 255 255 255 255 255 255 255 255 255 255 255 255 255 255 255 255 255 255 255 255 255 255 255 255 255 255 255 255 255 255 255 255 255 255 255 255 255 255 255 255 255 255 255 255 255 255 255 255 255 255 255 255 255 255 255 255 255 255 255 255 255 255 255 255 255 255 255 255 255 255 255 255 
255 255 255 255 255 255 255 255 255 255 255 255 255 255 255 255 255 255 255 255 255 255 255 255 255 255 255 255 255 255 255 255 255 255 255 255 255 255 255 255 255 255 255 255 255 255 255 255 255 255 255 255 255 255 255 255 255 255 255 255 255 255 255 255 255 255 252 255 253 252 255 251 255 253 253 255 255 255 255 255 255 253 254 254 253 254 255 255 255 255 255 255 255 255 255 252 255 255 255 255 255 255 255 255 255 255 255 255 255 255 255 255 255 255 255 255 255 88 36 62 63 56 45 47 41 42 45 43 40 44 45 49 62 56 57 60 56 38 0 0 255 255 255 255 255 255 35 0 22 27 34 36 41 38 38 35 34 36 40 24 28 28 21 20 16 18 20 14 20 0 0 2 152 255 255 255 255 255 255 255 255 255 253 255 252 255 255 255 255 255 255 255 255 255 255 255 255 255 255 255 255 255 255 255 255 255 252 252 255 255 255 252 253 253 253 252 255 255 255 255 255 255 255 255 255 255 255 255 255 255 255 255 255 255 255 255 255 255 255 255 255 255 255 255 255 255 255 255 255 255 255 255 255 255 255 255 255 255 255 255 255 255 255 255 255 255 255 255 255 255 255 255 255 255 255 255 255 255 255 255 255 255 255 255 255 255 255 255 255 255 255 255 255 255 255 255 255 255 255 255 
255 255 255 255 255 255 255 255 255 255 255 255 255 255 255 255 255 255 255 255 255 255 255 255 255 255 255 255 255 255 255 255 255 255 255 255 255 255 255 255 255 255 255 255 255 255 255 255 255 255 255 255 255 255 255 255 255 255 255 255 255 255 255 255 255 255 252 253 252 255 255 255 255 252 252 255 255 255 255 255 255 252 254 252 255 252 253 253 253 254 255 255 253 252 255 255 255 255 255 255 255 255 255 255 255 255 255 255 255 255 255 255 255 255 255 255 255 141 20 65 73 68 54 43 49 42 53 61 52 48 52 50 52 52 38 34 29 24 0 121 255 255 253 254 254 255 246 0 16 31 31 36 42 50 57 61 62 49 49 41 48 52 52 54 52 49 52 48 38 0 196 255 255 255 255 255 255 255 254 254 254 254 255 254 255 254 254 254 254 254 254 254 254 254 254 254 254 254 254 254 254 254 254 254 254 254 255 255 254 254 254 255 255 255 255 255 254 254 254 254 254 254 254 254 254 254 254 253 253 253 253 253 254 254 253 253 253 252 255 255 255 255 255 255 255 255 255 255 255 255 255 255 255 255 255 255 255 255 255 255 255 255 255 255 255 255 255 255 255 255 255 255 255 255 255 255 255 255 255 255 255 255 255 255 255 255 255 255 255 255 255 255 255 255 255 255 255 255 255 255 
255 255 255 255 255 255 255 255 255 255 255 255 255 255 255 255 255 255 255 255 255 255 255 255 255 255 255 255 255 255 255 255 255 255 255 255 255 255 255 255 255 255 255 255 255 255 255 255 255 255 255 255 255 255 255 255 255 255 255 255 255 255 255 255 255 255 255 251 255 255 255 255 255 255 255 255 255 255 255 255 255 255 251 255 255 255 255 255 255 255 255 255 255 255 255 255 255 255 255 255 255 255 255 255 255 255 255 255 255 255 255 255 255 255 251 255 255 189 23 77 80 93 83 71 50 41 43 57 57 52 59 58 50 42 40 35 28 15 0 188 255 252 255 252 254 255 255 0 0 28 29 39 38 38 54 56 54 49 60 51 43 51 69 62 61 58 53 64 0 118 255 255 254 255 255 255 255 255 255 255 255 255 252 253 253 253 253 253 253 252 253 253 252 252 252 252 252 253 253 253 253 253 253 253 253 253 253 252 252 252 252 252 252 252 252 252 252 252 252 252 252 252 252 252 252 252 251 255 255 255 255 255 251 251 255 254 254 254 253 253 253 253 253 253 253 252 255 255 255 255 255 255 255 255 255 255 255 255 255 255 255 255 255 255 255 255 255 255 255 255 255 255 255 255 255 255 255 255 255 255 255 255 255 255 255 255 255 255 255 255 255 255 255 255 255 255 255 255 255 255 
255 255 255 255 255 255 255 255 255 255 255 255 255 255 255 255 255 255 255 255 255 255 255 255 255 255 255 255 255 255 255 255 255 255 255 255 255 255 255 255 255 255 255 255 255 255 255 255 255 255 255 255 255 255 255 255 255 255 255 255 255 255 255 255 255 255 255 255 255 255 255 255 255 255 255 255 255 255 255 255 255 255 255 255 255 255 255 255 255 255 255 255 255 255 255 255 255 255 255 255 255 255 255 255 255 255 255 255 255 255 255 255 255 255 255 252 255 249 11 75 82 80 76 101 78 66 62 53 41 54 54 50 50 47 44 37 23 0 0 255 255 255 255 255 253 255 253 0 0 19 30 39 44 38 50 41 45 53 49 41 44 61 66 56 50 58 58 39 0 255 255 255 255 252 254 254 254 254 255 255 250 252 253 253 253 253 253 253 252 255 251 252 255 255 255 255 255 252 253 253 253 253 253 253 253 253 252 255 255 255 255 255 255 255 254 254 254 254 254 254 254 254 253 253 253 253 253 252 252 252 252 252 253 253 251 255 255 255 255 255 255 254 254 254 255 255 253 253 252 255 255 255 255 255 255 255 255 255 255 255 255 255 255 255 255 255 255 255 255 255 255 255 255 255 255 255 255 255 255 255 255 255 255 255 255 255 255 255 255 255 255 255 255 255 255 255 255 255 255 255 
255 255 255 255 255 255 255 255 255 255 255 255 255 255 255 255 255 255 255 255 255 255 255 255 255 255 255 255 255 255 255 255 255 255 255 255 255 255 255 255 255 255 255 255 255 255 255 255 255 255 255 255 255 255 255 255 255 255 255 255 255 255 255 255 255 255 255 255 255 255 255 255 255 255 255 255 255 255 255 255 255 255 255 255 255 255 255 255 255 255 255 255 255 255 255 255 255 255 255 255 255 255 255 255 255 255 255 255 255 255 255 255 255 255 255 255 255 255 22 65 82 98 89 106 91 81 64 63 59 61 46 46 43 44 42 27 7 0 255 255 255 255 255 252 254 255 255 0 0 27 28 35 43 47 57 54 45 60 56 42 41 58 56 50 65 53 64 0 86 255 255 252 253 255 250 252 251 253 247 253 254 249 250 250 250 250 250 250 250 248 255 249 249 249 249 249 249 250 250 250 250 250 249 250 249 249 249 247 252 251 251 251 251 250 255 253 253 253 253 253 253 251 255 255 255 254 254 254 253 253 253 253 253 253 253 252 252 252 252 252 251 255 255 255 250 251 255 254 254 253 253 253 253 253 252 255 255 255 255 252 252 255 255 255 255 255 255 255 255 255 255 255 255 255 255 255 255 255 255 255 255 255 255 255 255 255 255 255 255 255 255 255 255 255 255 255 255 255 255 255 
255 255 255 255 255 255 255 255 255 255 255 255 255 255 255 255 255 255 255 255 255 255 255 255 255 255 255 255 255 255 255 255 255 255 255 255 255 255 255 255 255 255 255 255 255 255 255 255 255 255 255 255 255 255 255 255 255 255 255 255 255 255 255 255 255 255 255 255 255 255 255 255 255 255 255 255 255 255 255 255 255 255 255 255 255 255 255 255 255 255 255 255 255 255 255 255 255 255 255 255 255 255 255 255 255 255 255 255 255 255 255 255 255 255 255 255 255 255 31 63 73 81 67 79 81 68 61 66 57 51 36 43 45 45 36 33 0 26 255 255 255 254 254 255 255 255 255 171 0 15 27 32 39 42 51 63 51 50 60 54 50 53 51 43 54 63 68 0 254 255 251 252 248 248 251 245 252 246 248 248 248 249 249 249 249 248 249 248 249 249 247 249 249 248 249 248 248 249 249 249 248 247 253 246 252 250 250 249 248 248 248 248 248 248 246 251 249 249 249 249 248 253 250 250 249 254 252 251 255 254 254 254 254 253 253 253 253 253 253 253 253 252 252 251 255 251 255 255 255 254 254 254 254 254 254 253 253 252 255 253 253 255 255 255 255 255 255 255 255 255 255 255 255 255 255 255 255 255 255 255 255 255 255 255 255 255 255 255 255 255 255 255 255 255 255 255 255 255 255 255 
255 255 255 255 255 255 255 255 255 255 255 255 255 255 255 255 255 255 255 255 255 255 255 255 255 255 255 255 255 255 255 255 255 255 255 255 255 255 255 255 255 255 255 255 255 255 255 255 255 255 255 255 255 255 255 255 255 255 255 255 255 255 255 255 255 255 255 255 255 255 255 255 255 255 255 255 255 255 255 255 255 255 255 255 255 255 255 255 255 255 255 255 255 255 255 255 255 255 255 255 255 255 255 255 255 255 255 255 255 255 255 255 255 255 255 255 255 255 154 0 83 112 123 103 67 81 69 70 43 56 63 51 56 62 70 37 0 0 255 255 250 255 255 252 255 251 255 255 14 13 24 29 43 43 46 49 66 51 46 52 55 44 49 55 53 46 0 0 255 255 247 249 244 251 246 248 247 248 249 245 245 246 246 245 244 250 243 250 244 244 250 244 244 250 243 249 249 244 245 244 248 247 246 247 244 249 247 252 251 250 250 249 249 249 248 246 251 250 249 249 249 247 252 250 250 248 253 251 249 254 253 252 251 255 254 253 253 253 253 253 253 253 253 253 252 253 252 252 251 255 255 255 255 254 254 254 254 254 253 254 254 252 255 255 255 255 255 255 255 255 255 255 255 255 255 255 255 255 255 255 255 255 255 255 255 255 255 255 255 255 255 255 255 255 255 255 255 255 255 255 
255 255 255 255 255 255 255 255 255 255 255 255 255 255 255 255 255 255 255 255 255 255 255 255 255 255 255 255 255 255 255 255 255 255 255 255 255 255 255 255 255 255 255 255 255 255 255 255 255 255 255 255 255 255 255 255 255 255 255 255 255 255 255 255 255 255 255 255 255 255 255 255 255 255 255 255 255 255 255 255 255 255 255 255 255 255 255 255 255 255 255 255 255 255 255 255 255 255 255 255 255 255 255 255 255 255 255 255 255 255 255 255 255 255 255 255 255 255 255 202 103 106 130 138 82 90 104 106 68 64 91 84 71 55 33 5 0 0 255 255 255 249 251 253 249 253 255 210 5 27 27 33 44 42 42 42 49 63 49 46 50 45 51 45 49 40 0 130 255 249 243 244 245 245 242 243 243 243 244 239 246 240 240 245 244 243 244 243 244 244 243 243 243 242 243 242 242 243 242 241 245 243 243 242 246 244 244 242 241 245 243 248 246 245 250 249 247 245 249 248 247 247 245 250 249 248 247 251 250 249 247 252 250 253 251 255 254 254 254 253 253 253 253 253 253 253 254 253 253 253 252 252 251 255 255 255 254 254 254 254 254 254 253 253 252 255 255 255 255 255 255 255 255 255 255 255 255 255 255 255 255 255 255 255 255 255 255 255 255 255 255 255 255 255 255 255 255 255 255 255 
255 255 255 255 255 255 255 255 255 255 255 255 255 255 255 255 255 255 255 255 255 255 255 255 255 255 255 255 255 255 255 255 255 255 255 255 255 255 255 255 255 255 255 255 255 255 255 255 255 255 255 255 255 255 255 255 255 255 255 255 255 255 255 255 255 255 255 255 255 255 255 255 255 255 255 255 255 255 255 255 255 255 255 255 255 255 255 255 255 255 255 255 255 255 255 255 255 255 255 255 255 255 255 255 255 255 255 255 255 255 255 255 255 255 255 255 255 253 255 255 126 0 58 143 127 89 91 97 90 73 70 37 3 1 10 19 17 0 255 255 244 248 244 246 243 255 255 102 13 41 20 46 71 60 50 37 31 53 40 36 35 43 42 37 40 18 0 255 255 239 241 241 240 241 237 238 239 239 238 239 239 240 240 238 238 237 237 237 237 237 236 241 239 239 239 239 238 237 241 240 237 242 240 239 242 241 239 244 242 245 244 241 245 244 242 241 245 247 250 247 251 249 249 247 246 251 245 250 248 247 252 250 248 252 251 249 253 252 251 255 254 253 253 253 253 254 249 254 254 249 255 253 253 252 252 251 255 255 254 254 254 254 254 254 254 253 252 255 255 255 255 255 255 255 255 255 255 255 255 255 255 255 255 255 255 255 255 255 255 255 255 255 255 255 255 255 255 255 255 255 
255 255 255 255 255 255 255 255 255 255 255 255 255 255 255 255 255 255 255 255 255 255 255 255 255 255 255 255 255 255 255 255 255 255 255 255 255 255 255 255 255 255 255 255 255 255 255 255 255 255 255 255 255 255 255 255 255 255 255 255 255 255 255 255 255 255 255 255 255 255 255 255 255 255 255 255 255 255 255 255 255 255 255 255 255 255 255 255 255 255 255 255 255 255 255 255 255 255 255 255 255 255 255 255 255 255 255 255 255 255 255 252 253 253 254 254 254 255 255 76 0 0 0 0 0 0 0 0 0 0 0 27 16 19 20 27 18 0 245 255 240 238 236 238 235 255 210 0 37 37 35 3 40 79 76 74 63 69 39 43 41 42 41 46 28 0 53 255 240 233 228 228 233 233 233 234 229 229 234 233 228 229 228 232 230 235 233 233 232 232 232 230 234 233 232 231 236 233 236 234 238 235 239 236 240 237 241 239 237 241 238 241 243 241 245 244 241 245 241 244 246 249 247 251 249 253 247 247 250 249 249 247 252 250 250 249 252 250 249 253 251 255 254 254 254 255 249 254 254 250 249 254 253 253 253 253 253 251 255 255 255 255 254 254 254 254 253 255 255 255 255 255 255 255 255 255 255 255 255 255 255 255 255 255 255 255 255 255 255 255 255 255 255 255 255 255 255 255 255 255 
255 255 255 255 255 255 255 255 255 255 255 255 255 255 255 255 255 255 255 255 255 255 255 255 255 255 255 255 255 255 255 255 255 255 255 255 255 255 255 255 255 255 255 255 255 255 255 255 255 255 255 255 255 255 251 255 255 255 255 255 255 255 255 255 255 255 255 255 255 255 255 255 255 255 255 255 255 255 255 255 255 255 255 255 255 255 255 255 255 255 255 255 255 255 255 255 255 255 255 252 253 254 254 253 253 254 254 254 254 254 254 255 255 255 252 253 255 255 50 0 13 33 40 32 27 16 10 10 10 8 13 49 33 15 24 33 0 0 255 255 229 228 226 229 225 255 174 0 47 24 65 12 0 0 29 70 117 96 74 60 57 39 47 11 0 61 255 255 221 226 225 225 225 219 225 223 224 224 221 226 225 225 223 227 226 223 228 225 230 228 228 226 229 227 231 230 227 230 233 230 233 230 233 236 232 236 238 235 240 236 239 240 242 239 242 240 244 240 244 246 242 246 243 247 244 246 252 243 252 251 245 250 248 248 248 247 250 253 252 251 251 249 253 252 251 250 255 253 253 254 253 253 253 253 253 255 249 255 252 252 252 251 255 254 254 254 254 253 252 255 255 255 255 255 255 255 255 255 255 255 255 255 255 255 255 255 255 255 255 255 255 255 255 255 255 255 255 255 255 255 
255 255 255 255 255 255 255 255 255 255 255 255 255 255 255 255 255 255 255 255 255 255 255 255 255 255 255 255 255 255 255 255 255 255 255 255 255 255 255 255 255 255 255 255 255 255 252 253 253 253 253 253 253 253 254 252 255 255 255 255 255 255 255 255 255 255 255 255 255 255 255 255 255 255 255 255 255 255 255 255 255 255 255 255 255 255 255 255 255 255 255 252 253 254 253 253 253 253 253 255 255 251 251 255 255 252 254 254 255 255 255 255 255 255 255 255 255 28 0 15 30 33 32 30 31 30 22 22 23 21 21 16 15 28 36 17 0 16 255 229 216 214 212 208 212 255 163 0 0 46 87 37 16 0 0 0 0 5 19 30 35 21 0 35 255 255 248 215 213 211 215 214 213 214 212 216 215 213 217 214 218 216 220 218 216 221 217 221 217 222 219 222 225 222 225 222 225 227 224 227 228 231 228 230 233 229 231 235 231 234 235 236 237 239 240 238 240 243 239 241 245 241 246 242 245 248 245 249 251 249 248 252 250 249 249 249 247 251 250 250 249 249 252 250 255 253 251 255 253 252 255 251 253 253 255 250 252 250 254 254 253 252 255 254 254 254 254 254 253 255 255 255 255 255 255 255 255 255 255 255 255 255 255 255 255 255 255 255 255 255 255 255 255 255 255 255 255 255 255 255 
255 255 255 255 255 255 255 255 255 255 255 255 255 255 255 255 255 255 255 255 255 255 255 255 255 255 255 255 255 255 255 255 255 255 255 255 255 255 255 255 255 255 255 255 255 252 254 254 254 254 254 254 254 254 254 253 255 255 255 255 255 255 255 255 255 255 255 255 255 255 255 255 255 255 255 255 255 255 255 255 255 255 255 255 255 255 255 255 255 252 253 255 255 250 255 255 255 255 255 253 255 255 255 255 255 255 255 255 255 255 255 255 255 255 255 255 33 0 5 15 20 27 26 23 22 21 22 19 18 21 24 20 23 36 3 0 0 204 255 203 204 200 202 206 197 244 227 0 0 32 125 40 4 0 3 5 0 0 0 0 0 0 0 0 198 255 211 200 204 202 205 203 207 206 204 207 204 208 210 208 211 208 211 209 213 209 212 213 217 213 216 218 214 217 218 221 222 224 221 223 224 226 224 225 227 229 231 227 230 231 232 233 234 233 240 236 237 239 241 243 239 244 240 243 246 243 242 245 242 245 248 245 248 252 250 250 249 249 249 247 253 246 250 249 247 251 249 252 255 255 252 255 251 254 249 252 251 251 255 249 254 253 251 255 254 254 254 254 253 255 255 255 255 255 255 255 255 255 255 255 255 255 255 255 255 255 255 255 255 255 255 255 255 255 255 255 255 255 255 255 
255 255 255 255 255 255 255 255 255 255 255 255 255 255 255 255 255 255 255 255 255 255 255 255 255 255 255 255 255 255 255 255 255 255 255 255 255 255 255 255 255 255 255 252 253 254 254 254 254 254 254 254 254 254 254 254 252 255 255 255 255 255 255 255 255 255 255 255 255 255 255 255 255 255 255 255 255 255 255 255 255 255 255 255 255 255 252 254 254 255 255 252 253 255 255 255 255 255 255 255 255 254 255 255 252 248 246 242 238 240 236 233 230 244 255 79 0 0 7 17 15 19 20 23 19 22 18 18 22 23 19 21 33 0 0 0 175 255 192 189 189 190 191 188 189 205 255 9 0 0 153 106 46 21 0 0 0 8 20 30 27 24 23 0 0 176 255 233 197 194 198 195 198 195 198 200 203 199 202 199 201 204 206 203 205 207 208 210 206 209 210 212 214 215 217 213 215 216 218 219 220 222 218 226 221 223 224 226 227 228 229 230 229 234 233 234 241 236 238 239 242 239 241 244 241 245 242 245 243 245 248 245 249 245 249 247 252 246 245 251 248 248 252 251 249 253 252 250 249 248 251 252 255 251 255 249 255 249 255 250 254 253 252 255 254 254 254 254 253 255 255 255 255 255 255 255 255 255 255 255 255 255 255 255 255 255 255 255 255 255 255 255 255 255 255 255 255 255 255 255 
255 255 255 255 255 255 255 255 255 255 255 255 255 255 255 255 255 255 255 255 255 255 255 255 255 255 255 255 255 255 255 255 255 255 255 255 255 255 255 255 255 255 252 254 254 254 254 254 254 254 254 254 254 254 254 254 254 252 255 255 255 255 255 255 255 255 255 255 255 255 255 255 255 255 255 255 255 255 255 255 255 255 255 252 253 254 255 252 254 255 255 255 255 255 254 255 252 250 247 244 243 236 235 228 227 226 219 218 215 212 210 207 206 255 172 0 0 9 14 15 15 18 15 15 17 18 17 21 16 20 18 32 15 0 182 247 255 180 180 181 180 180 181 181 177 176 239 161 0 0 109 150 54 18 18 46 67 58 31 16 10 17 14 13 0 0 25 248 240 189 185 189 190 192 194 190 192 195 196 198 200 196 198 199 200 202 203 204 206 207 208 205 207 207 208 210 211 213 213 214 215 216 218 218 220 221 222 223 224 225 226 225 229 232 232 233 233 235 236 237 240 236 244 240 238 240 242 244 242 245 242 246 243 246 248 245 248 247 252 244 250 249 248 246 251 249 248 252 251 249 251 253 255 255 252 254 254 255 249 250 254 253 251 255 254 254 254 253 252 255 255 255 255 255 255 255 255 255 255 255 255 255 255 255 255 255 255 255 255 255 255 255 255 255 255 255 255 255 255 255 
255 255 255 255 255 255 255 255 255 255 255 255 255 255 255 255 255 255 255 255 255 255 255 255 255 255 255 255 255 255 255 255 255 255 255 255 255 255 255 255 255 252 255 254 254 254 254 254 254 254 254 254 254 254 254 254 254 253 255 255 255 255 255 255 255 255 255 255 255 255 255 255 255 255 255 255 255 255 255 255 252 254 254 255 255 254 255 255 255 255 252 248 251 243 243 237 233 227 227 222 216 217 210 210 207 205 204 200 203 199 196 198 205 255 42 0 19 30 37 34 33 25 19 14 19 14 17 17 14 24 33 44 0 84 255 187 162 166 170 174 171 171 174 168 168 166 163 229 226 14 0 174 61 29 80 127 93 37 15 6 16 21 18 19 22 6 0 0 255 206 186 182 184 185 186 188 190 186 188 189 190 192 192 198 199 195 197 198 199 198 205 201 202 208 208 209 210 205 213 212 212 213 215 216 216 217 218 219 220 221 221 225 227 230 230 231 232 233 234 236 233 236 236 238 239 240 241 243 240 244 242 245 242 244 245 247 249 246 250 251 249 249 247 252 250 249 248 251 250 253 255 253 252 252 253 255 249 254 254 254 252 251 255 254 254 254 252 255 255 255 255 255 255 255 255 255 255 255 255 255 255 255 255 255 255 255 255 255 255 255 255 255 255 255 255 255 255 255 255 255 
255 255 255 255 255 255 255 255 255 255 255 255 255 255 255 255 255 255 255 255 255 255 255 255 255 255 255 255 255 255 255 255 255 255 255 255 255 255 255 255 252 255 250 255 254 254 254 254 254 254 254 254 254 254 254 254 254 255 253 252 255 255 255 252 252 255 255 252 253 253 253 253 253 253 253 253 253 253 254 254 255 253 255 255 255 255 249 248 242 238 233 234 226 223 223 219 214 214 213 207 207 205 204 200 203 200 197 199 194 197 192 194 215 234 0 13 47 63 80 79 52 35 27 23 24 19 26 26 27 34 75 0 0 222 158 144 153 159 161 162 164 164 161 164 160 152 148 142 194 137 0 145 89 49 88 70 15 6 15 25 24 32 30 31 30 31 27 0 78 255 177 179 180 181 181 183 184 185 186 187 188 189 190 190 191 193 193 194 194 200 199 201 201 201 202 201 207 209 203 209 214 214 210 211 216 216 217 218 219 219 219 223 225 228 228 228 229 231 232 234 231 233 234 234 239 238 239 240 244 241 239 241 243 245 246 246 247 251 250 244 250 248 252 249 248 253 250 254 247 251 254 253 253 253 254 249 250 254 252 251 255 255 254 254 253 252 255 255 255 255 255 255 255 255 255 255 255 255 255 255 255 255 255 255 255 255 255 255 255 255 255 255 255 255 255 255 255 255 255 255 
255 255 255 255 255 255 255 255 255 255 255 255 255 255 255 255 255 255 255 255 255 255 255 255 255 255 255 255 255 255 255 255 255 255 255 255 255 255 255 255 253 255 251 250 255 254 254 254 254 254 254 254 254 254 254 254 255 250 255 254 253 253 253 254 254 253 253 254 254 254 254 254 254 254 255 255 255 255 250 252 255 251 247 247 239 240 229 231 227 223 220 214 221 211 213 207 208 206 205 205 203 201 197 200 196 194 191 193 189 185 188 186 217 194 0 44 69 98 112 122 101 55 38 37 39 38 32 37 68 105 38 0 128 164 128 136 144 153 152 158 158 158 157 154 153 143 139 129 130 180 2 52 89 42 47 26 11 25 43 61 92 95 75 51 44 35 35 0 0 244 186 174 175 174 181 176 177 183 183 184 184 185 186 187 187 187 193 193 193 193 194 194 200 199 199 204 204 204 206 206 204 210 210 210 215 215 216 216 216 221 221 220 223 226 225 230 231 227 228 229 231 231 232 231 235 239 239 241 238 241 243 244 246 242 243 250 252 250 249 250 248 247 249 253 251 249 252 255 255 254 253 253 253 253 253 254 253 251 255 255 254 254 253 252 255 255 255 255 255 255 255 255 255 255 255 255 255 255 255 255 255 255 255 255 255 255 255 255 255 255 255 255 255 255 255 255 255 255 255 255 
255 255 255 255 255 255 255 255 255 255 255 255 255 255 255 255 255 255 255 255 255 255 255 255 255 255 255 255 255 255 255 255 255 255 255 255 255 255 255 255 253 254 255 255 254 254 254 254 254 254 254 254 254 254 254 254 255 251 250 255 254 254 254 254 254 254 254 254 254 254 254 254 254 255 251 252 252 251 255 253 253 244 244 232 233 225 227 221 217 221 219 216 218 211 208 211 205 207 202 198 197 194 197 193 191 189 187 182 185 182 181 178 232 99 3 62 65 76 88 85 79 67 56 56 47 55 78 110 95 29 0 36 159 95 111 133 135 142 147 151 152 151 150 148 147 140 126 122 114 140 92 0 52 49 47 37 45 43 56 72 102 108 90 72 55 45 49 23 0 222 185 171 169 174 173 175 176 175 176 175 181 181 182 181 186 186 187 186 192 191 192 193 192 197 196 202 196 202 202 201 207 205 210 210 209 210 209 215 213 218 217 217 220 223 221 226 225 225 230 229 227 233 231 237 235 240 240 242 239 241 243 244 245 248 251 247 246 245 249 246 251 249 252 249 253 251 255 253 253 253 253 253 253 252 252 251 255 255 253 253 253 252 255 255 255 255 255 255 255 255 255 255 255 255 255 255 255 255 255 255 255 255 255 255 255 255 255 255 255 255 255 255 255 255 255 255 255 255 255 255 
255 255 255 255 255 255 255 255 255 255 255 255 255 255 255 255 255 255 255 255 255 255 255 255 255 255 255 255 255 255 255 255 255 255 255 255 255 255 255 255 253 254 254 254 254 254 254 254 254 254 254 254 254 254 254 254 254 255 255 254 254 254 255 255 255 255 255 255 255 255 255 255 255 251 253 253 254 254 252 254 252 252 252 248 248 249 244 244 243 235 230 228 223 220 216 209 210 201 201 193 193 191 188 186 184 181 179 182 178 178 174 173 222 54 0 67 73 78 81 66 75 66 60 63 75 78 57 16 0 0 46 86 78 85 111 121 130 138 137 144 138 144 142 139 139 130 125 110 100 106 128 0 0 47 70 78 82 77 70 59 64 75 77 82 78 64 66 37 55 220 170 165 165 168 167 168 168 173 171 177 176 176 176 180 184 184 179 185 183 189 188 189 188 193 193 192 193 197 195 200 199 198 202 200 205 203 208 205 209 206 211 209 211 213 218 214 218 221 223 225 233 230 236 236 238 238 240 242 244 247 243 246 249 246 245 249 248 246 249 252 250 249 253 251 255 253 252 252 252 252 252 252 251 255 254 254 253 252 255 255 255 255 255 255 255 255 255 255 255 255 255 255 255 255 255 255 255 255 255 255 255 255 255 255 255 255 255 255 255 255 255 255 255 255 255 255 255 255 255 255 
255 255 255 255 255 255 255 255 255 255 255 255 255 255 255 255 255 255 255 255 255 255 255 255 255 255 255 255 255 255 255 255 255 255 255 255 255 255 255 255 253 254 254 254 254 254 254 254 254 254 254 254 254 254 254 255 255 255 250 255 255 255 251 252 252 252 252 252 252 252 252 252 252 253 253 254 249 249 254 254 250 253 253 255 255 255 255 255 255 244 231 226 222 217 210 209 198 199 194 187 187 186 184 182 179 182 175 173 173 167 167 168 185 93 0 0 14 34 39 44 32 30 22 25 13 0 0 3 14 40 63 54 66 90 103 114 120 125 127 129 132 132 130 133 125 121 111 103 95 84 110 33 0 16 9 8 19 23 20 27 22 36 37 37 37 25 22 0 0 177 162 159 158 159 163 161 161 164 168 166 165 170 168 172 169 174 173 178 177 175 180 178 182 180 180 184 182 184 187 189 187 190 191 194 195 197 199 200 207 209 211 213 220 223 220 230 232 235 238 240 249 249 251 249 247 251 248 247 250 247 252 250 248 253 247 251 249 254 251 255 254 254 253 253 251 255 255 255 255 255 254 254 253 255 255 255 255 255 255 255 255 255 255 255 255 255 255 255 255 255 255 255 255 255 255 255 255 255 255 255 255 255 255 255 255 255 255 255 255 255 255 255 255 255 255 255 255 255 255 255 
255 255 255 255 255 255 255 255 255 255 255 255 255 255 255 255 255 255 255 255 255 255 255 255 255 255 255 255 255 255 255 255 255 255 255 255 255 255 255 255 253 254 254 254 254 254 254 254 254 254 254 254 254 254 255 251 252 252 253 252 252 252 253 253 253 253 253 253 253 253 253 253 253 253 253 253 254 254 253 253 255 249 255 251 251 255 255 255 255 251 237 226 222 213 209 201 198 198 186 185 185 178 176 173 170 172 165 165 158 161 156 157 139 130 39 0 2 27 18 17 16 6 6 8 15 22 18 27 30 24 25 49 74 94 105 111 117 120 125 124 123 120 118 120 116 112 111 98 88 85 83 65 0 0 12 16 8 24 18 16 18 18 20 25 21 16 3 0 0 150 149 144 149 145 145 153 149 151 152 155 157 158 161 162 164 166 170 167 170 173 174 176 183 186 183 190 191 198 198 205 207 213 219 219 226 233 234 241 242 245 249 252 255 255 255 255 255 255 255 255 255 255 255 255 255 253 255 252 255 255 255 255 254 255 253 255 255 255 255 254 254 254 254 254 254 253 253 253 253 252 255 255 255 255 255 255 255 255 255 255 255 255 255 255 255 255 255 255 255 255 255 255 255 255 255 255 255 255 255 255 255 255 255 255 255 255 255 255 255 255 255 255 255 255 255 255 255 255 255 255 
255 255 255 255 255 255 255 255 255 255 255 255 255 255 255 255 255 255 255 255 255 255 255 255 255 255 255 255 255 255 255 255 255 255 255 255 255 255 255 255 253 254 254 254 254 254 254 254 254 254 254 254 255 255 251 253 254 254 253 253 253 253 253 253 253 253 253 253 253 253 253 253 253 253 253 253 253 253 253 253 253 255 250 253 255 255 255 255 253 245 235 223 211 207 198 195 187 184 181 175 173 169 169 167 160 159 155 152 151 147 144 142 131 104 78 3 0 15 3 5 10 3 0 0 0 0 0 12 20 40 70 95 113 125 131 141 146 148 149 151 150 145 150 143 142 140 132 126 116 107 105 104 48 0 0 0 0 0 0 0 0 18 0 0 0 0 0 0 0 131 143 151 155 165 167 169 175 179 184 184 189 194 194 200 206 208 210 212 219 220 227 228 230 233 236 242 245 246 249 252 250 253 255 255 255 255 255 255 255 255 255 255 255 255 255 255 251 255 253 255 255 255 255 255 255 255 254 255 254 254 254 254 254 253 253 255 255 255 255 255 255 255 255 255 255 255 255 255 255 255 255 255 255 255 255 255 255 255 255 255 255 255 255 255 255 255 255 255 255 255 255 255 255 255 255 255 255 255 255 255 255 255 255 255 255 255 255 255 255 255 255 255 255 255 255 255 255 255 255 255 
255 255 255 255 255 255 255 255 255 255 255 255 255 255 255 255 255 255 255 255 255 255 255 255 255 255 255 255 255 255 255 255 255 255 255 255 255 255 255 255 253 254 254 254 254 254 254 254 254 254 254 255 251 252 253 254 249 249 254 253 253 253 253 253 253 253 253 253 253 253 253 253 253 253 253 253 253 253 253 253 253 254 252 255 244 235 222 211 200 190 183 179 176 173 175 167 171 166 166 165 161 162 159 167 170 174 176 175 179 175 170 168 159 149 124 82 19 0 0 0 0 0 2 15 34 53 75 92 114 135 144 151 159 163 167 169 176 176 181 176 179 185 179 183 183 180 177 172 170 163 157 158 169 169 156 140 128 103 85 62 57 59 56 46 55 67 85 140 165 185 185 189 195 200 202 212 211 215 221 221 227 232 233 235 237 235 239 242 245 242 245 250 248 249 248 252 246 252 251 252 253 254 255 250 252 255 252 254 255 255 251 255 254 253 252 251 255 255 254 252 255 255 255 255 255 255 255 255 255 255 255 255 255 255 255 255 255 255 255 255 255 255 255 255 255 255 255 255 255 255 255 255 255 255 255 255 255 255 255 255 255 255 255 255 255 255 255 255 255 255 255 255 255 255 255 255 255 255 255 255 255 255 255 255 255 255 255 255 255 255 255 255 255 255 255 255 255 255 255 255 
255 255 255 255 255 255 255 255 255 255 255 255 255 255 255 255 255 255 255 255 255 255 255 255 255 255 255 255 255 255 255 255 255 255 255 255 255 255 255 255 253 254 254 254 254 254 254 254 254 254 254 255 252 253 254 253 254 254 253 253 253 253 253 253 253 253 253 253 253 253 253 253 253 253 253 253 253 253 253 253 253 254 253 248 235 221 208 200 195 187 187 184 182 184 182 186 186 187 191 194 201 207 213 219 221 224 226 226 218 214 211 205 207 201 202 200 197 189 182 180 181 187 185 186 187 185 186 189 193 191 192 194 194 192 196 197 199 198 199 202 204 202 202 203 200 204 204 202 201 200 201 196 197 203 207 210 218 220 230 228 222 218 219 224 227 229 234 230 232 221 220 221 220 221 222 224 221 230 226 231 228 231 235 234 239 239 239 239 238 244 245 240 248 243 245 251 248 249 252 248 252 248 251 254 255 255 255 254 254 249 250 253 251 255 254 254 253 252 255 255 255 255 255 255 255 255 255 255 255 255 255 255 255 255 255 255 255 255 255 255 255 255 255 255 255 255 255 255 255 255 255 255 255 255 255 255 255 255 255 255 255 255 255 255 255 255 255 255 255 255 255 255 255 255 255 255 255 255 255 255 255 255 255 255 255 255 255 255 255 255 255 255 255 255 255 255 255 255 255 255 
255 255 255 255 255 255 255 255 255 255 255 255 255 255 255 255 255 255 255 255 255 255 255 255 255 255 255 255 255 255 255 255 255 255 255 255 255 255 255 255 253 255 254 254 254 254 254 254 254 254 254 255 252 254 249 254 253 253 253 253 253 253 253 253 253 253 253 253 253 253 253 253 253 253 253 253 253 253 253 252 253 253 255 251 251 252 254 250 250 248 251 245 251 247 249 249 254 252 255 254 255 254 254 249 244 247 238 238 236 232 235 233 233 231 231 233 235 235 235 235 232 231 230 227 228 228 226 229 221 221 219 223 223 218 224 219 221 224 222 220 224 222 227 227 223 224 225 223 222 226 224 224 223 224 229 229 228 233 230 237 238 237 241 243 243 243 239 239 239 235 234 233 233 233 238 238 239 239 240 241 242 243 244 241 243 244 246 247 249 251 248 247 249 253 249 252 250 253 250 255 252 255 255 254 253 253 253 253 253 253 252 255 254 252 255 255 255 255 255 255 255 255 255 255 255 255 255 255 255 255 255 255 255 255 255 255 255 255 255 255 255 255 255 255 255 255 255 255 255 255 255 255 255 255 255 255 255 255 255 255 255 255 255 255 255 255 255 255 255 255 255 255 255 255 255 255 255 255 255 255 255 255 255 255 255 255 255 255 255 255 255 255 255 255 255 255 255 255 255 255 
255 255 255 255 255 255 255 255 255 255 255 255 255 255 255 255 255 255 255 255 255 255 255 255 255 255 255 255 255 255 255 255 255 255 255 255 255 255 255 255 254 249 255 254 254 254 254 254 254 254 254 255 252 254 249 254 253 253 253 253 253 253 253 253 253 253 253 253 253 253 253 253 253 253 253 253 253 253 252 255 252 252 255 254 255 255 255 255 255 255 255 255 255 255 255 255 255 255 255 255 255 255 253 250 254 249 252 255 247 252 250 249 248 249 249 249 251 246 245 248 244 246 246 246 245 244 242 245 244 243 242 241 240 238 242 241 240 239 238 239 238 238 237 237 238 237 242 243 239 240 241 243 239 239 242 241 240 243 246 244 243 248 246 244 248 244 247 249 245 249 245 248 251 248 251 247 251 248 252 249 252 249 253 252 250 254 250 254 252 250 255 253 253 251 255 253 252 255 254 253 252 255 252 253 253 253 253 252 251 255 253 255 255 255 255 255 255 255 255 255 255 255 255 255 255 255 255 255 255 255 255 255 255 255 255 255 255 255 255 255 255 255 255 255 255 255 255 255 255 255 255 255 255 255 255 255 255 255 255 255 255 255 255 255 255 255 255 255 255 255 255 255 255 255 255 255 255 255 255 255 255 255 255 255 255 255 255 255 255 255 255 255 255 255 255 255 255 255 255 255 
255 255 255 255 255 255 255 255 255 255 255 255 255 255 255 255 255 255 255 255 255 255 255 255 255 255 255 255 255 255 255 255 255 255 255 255 255 255 255 255 252 255 254 254 254 254 254 254 254 254 254 255 251 253 253 253 253 253 253 253 253 253 253 253 253 253 253 253 253 253 253 253 253 253 253 253 253 253 254 253 254 253 252 253 253 253 253 254 254 254 255 255 255 252 253 254 254 255 251 252 252 252 253 255 251 253 253 253 255 255 253 255 255 253 255 255 254 255 255 255 255 255 255 255 255 255 255 255 255 255 255 252 251 255 251 252 252 251 255 250 252 252 252 252 252 252 251 251 252 252 252 252 253 252 255 255 255 253 255 255 255 254 254 254 251 255 254 253 253 251 255 254 253 253 251 255 254 254 253 251 255 254 254 254 253 250 255 253 253 253 251 255 251 251 255 254 253 255 255 255 255 251 254 253 253 252 251 255 254 252 255 255 255 255 255 255 255 255 255 255 255 255 255 255 255 255 255 255 255 255 255 255 255 255 255 255 255 255 255 255 255 255 255 255 255 255 255 255 255 255 255 255 255 255 255 255 255 255 255 255 255 255 255 255 255 255 255 255 255 255 255 255 255 255 255 255 255 255 255 255 255 255 255 255 255 255 255 255 255 255 255 255 255 255 255 255 255 255 255 255 
255 255 255 255 255 255 255 255 255 255 255 255 255 255 255 255 255 255 255 255 255 255 255 255 255 255 255 255 255 255 255 255 255 255 255 255 255 255 255 255 255 253 254 254 254 254 254 254 254 254 254 254 255 250 255 251 252 253 253 253 253 253 253 253 253 253 253 253 253 253 253 253 253 253 253 253 253 254 249 250 249 254 253 253 253 253 253 253 253 253 253 253 254 254 254 254 254 254 255 255 255 255 255 255 252 253 253 253 253 254 250 251 251 252 253 254 250 252 251 251 252 253 253 253 253 253 253 253 253 253 254 249 255 254 250 251 251 250 254 255 250 251 251 251 251 251 251 251 251 251 251 251 251 251 250 250 250 249 253 252 252 252 252 251 255 253 253 253 253 253 251 251 251 251 251 250 250 250 249 254 252 253 248 248 252 255 254 254 254 254 254 253 254 255 253 253 252 255 251 252 252 254 248 253 251 255 253 255 255 255 255 255 255 255 255 255 255 255 255 255 255 255 255 255 255 255 255 255 255 255 255 255 255 255 255 255 255 255 255 255 255 255 255 255 255 255 255 255 255 255 255 255 255 255 255 255 255 255 255 255 255 255 255 255 255 255 255 255 255 255 255 255 255 255 255 255 255 255 255 255 255 255 255 255 255 255 255 255 255 255 255 255 255 255 255 255 255 255 255 255 
255 255 255 255 255 255 255 255 255 255 255 255 255 255 255 255 255 255 255 255 255 255 255 255 255 255 255 255 255 255 255 255 255 255 255 255 255 255 255 255 255 252 254 254 254 254 254 254 254 254 254 254 254 255 254 255 255 251 252 252 252 252 252 252 252 252 252 253 253 253 252 252 252 252 253 253 253 253 254 254 254 253 253 253 253 253 253 253 253 253 253 254 249 254 253 253 253 253 253 253 253 253 253 253 254 254 254 254 254 254 255 255 255 255 251 252 254 249 255 254 249 250 250 251 250 250 250 250 250 250 250 252 250 250 252 252 252 252 251 251 252 252 252 252 252 252 252 252 252 252 252 252 252 252 252 252 252 252 251 251 251 251 251 250 254 252 252 252 252 251 255 255 255 255 255 255 255 255 255 254 254 254 255 255 254 253 253 253 253 253 253 253 254 249 254 253 253 252 253 253 253 253 252 255 254 252 255 255 255 255 255 255 255 255 255 255 255 255 255 255 255 255 255 255 255 255 255 255 255 255 255 255 255 255 255 255 255 255 255 255 255 255 255 255 255 255 255 255 255 255 255 255 255 255 255 255 255 255 255 255 255 255 255 255 255 255 255 255 255 255 255 255 255 255 255 255 255 255 255 255 255 255 255 255 255 255 255 255 255 255 255 255 255 255 255 255 255 255 255 255 
255 255 255 255 255 255 255 255 255 255 255 255 255 255 255 255 255 255 255 255 255 255 255 255 255 255 255 255 255 255 255 255 255 255 255 255 255 255 255 255 255 255 252 253 253 254 254 254 254 254 254 254 254 254 254 254 254 255 255 255 255 255 255 255 255 255 255 251 252 251 255 255 255 255 251 252 252 252 252 252 252 252 252 252 252 252 252 252 252 252 252 254 249 254 253 253 253 253 253 253 253 253 253 253 253 253 253 253 253 253 253 253 253 253 254 254 255 251 250 255 255 255 255 250 255 255 255 255 255 255 255 250 255 255 251 252 252 252 252 252 252 252 252 252 252 252 252 252 252 252 252 252 252 252 252 252 252 252 252 252 252 252 252 252 250 255 254 254 254 254 253 254 253 253 253 253 253 253 253 253 253 253 253 253 253 253 253 253 253 253 253 253 254 249 254 253 253 253 253 253 252 251 255 252 255 255 255 255 255 255 255 255 255 255 255 255 255 255 255 255 255 255 255 255 255 255 255 255 255 255 255 255 255 255 255 255 255 255 255 255 255 255 255 255 255 255 255 255 255 255 255 255 255 255 255 255 255 255 255 255 255 255 255 255 255 255 255 255 255 255 255 255 255 255 255 255 255 255 255 255 255 255 255 255 255 255 255 255 255 255 255 255 255 255 255 255 255 255 255 255 
255 255 255 255 255 255 255 255 255 255 255 255 255 255 255 255 255 255 255 255 255 255 255 255 255 255 255 255 255 255 255 255 255 255 255 255 255 255 255 255 255 255 255 255 255 252 253 253 253 253 254 254 254 254 254 254 254 254 254 254 254 254 254 254 254 254 254 255 255 255 254 254 254 254 255 255 255 255 255 255 255 255 255 255 255 255 255 255 255 255 255 251 253 252 252 252 252 252 252 252 252 252 252 253 253 253 253 253 253 253 253 253 253 253 253 253 253 254 254 253 253 253 253 254 253 253 253 253 253 253 253 254 253 253 254 254 254 254 254 254 254 254 254 254 254 254 254 254 254 254 254 254 254 254 254 254 254 254 254 254 254 254 254 254 254 253 253 253 253 253 254 248 254 253 253 253 253 253 253 253 252 252 252 252 252 252 252 252 252 252 252 252 252 253 252 252 252 252 252 251 255 254 252 255 255 255 255 255 255 255 255 255 255 255 255 255 255 255 255 255 255 255 255 255 255 255 255 255 255 255 255 255 255 255 255 255 255 255 255 255 255 255 255 255 255 255 255 255 255 255 255 255 255 255 255 255 255 255 255 255 255 255 255 255 255 255 255 255 255 255 255 255 255 255 255 255 255 255 255 255 255 255 255 255 255 255 255 255 255 255 255 255 255 255 255 255 255 255 255 255 
255 255 255 255 255 255 255 255 255 255 255 255 255 255 255 255 255 255 255 255 255 255 255 255 255 255 255 255 255 255 255 255 255 255 255 255 255 255 255 255 255 255 255 255 255 255 255 255 255 255 252 253 253 253 253 253 253 253 253 253 253 253 253 253 254 254 254 254 254 254 254 254 254 254 254 254 254 254 254 254 254 254 254 254 254 254 254 254 254 254 254 255 255 255 255 255 255 255 255 255 255 255 255 251 252 252 252 252 252 252 252 252 252 252 252 252 252 252 252 252 252 252 252 252 252 252 252 252 252 252 252 252 252 252 252 252 252 252 252 252 252 252 252 252 252 252 252 252 252 252 252 252 252 252 252 252 252 252 252 252 252 252 252 252 252 252 252 252 252 252 252 253 252 252 252 252 252 252 252 251 255 255 255 255 255 255 255 255 255 255 255 255 255 255 255 255 255 255 255 254 252 255 255 255 255 255 255 255 255 255 255 255 255 255 255 255 255 255 255 255 255 255 255 255 255 255 255 255 255 255 255 255 255 255 255 255 255 255 255 255 255 255 255 255 255 255 255 255 255 255 255 255 255 255 255 255 255 255 255 255 255 255 255 255 255 255 255 255 255 255 255 255 255 255 255 255 255 255 255 255 255 255 255 255 255 255 255 255 255 255 255 255 255 255 255 255 255 255 255 255 
255 255 255 255 255 255 255 255 255 255 255 255 255 255 255 255 255 255 255 255 255 255 255 255 255 255 255 255 255 255 255 255 255 255 255 255 255 255 255 255 255 255 255 255 255 255 255 255 255 255 255 255 255 255 255 255 255 255 255 255 255 255 255 255 252 253 253 253 253 253 253 253 253 253 253 253 253 253 253 253 253 253 253 253 253 253 253 253 253 253 253 253 253 253 253 253 253 253 253 253 253 253 253 254 254 254 254 254 254 254 254 254 254 254 254 254 254 254 254 254 254 254 254 254 254 254 254 254 254 254 254 254 254 254 254 254 254 254 254 254 254 254 254 254 254 254 254 254 254 254 254 254 254 254 254 254 254 254 254 254 254 254 254 254 254 254 254 254 254 254 254 254 254 254 254 254 254 254 254 254 253 253 253 253 253 253 253 253 253 253 253 253 253 253 253 253 253 253 252 255 255 255 255 255 255 255 255 255 255 255 255 255 255 255 255 255 255 255 255 255 255 255 255 255 255 255 255 255 255 255 255 255 255 255 255 255 255 255 255 255 255 255 255 255 255 255 255 255 255 255 255 255 255 255 255 255 255 255 255 255 255 255 255 255 255 255 255 255 255 255 255 255 255 255 255 255 255 255 255 255 255 255 255 255 255 255 255 255 255 255 255 255 255 255 255 255 255 255 255 255 
255 255 255 255 255 255 255 255 255 255 255 255 255 255 255 255 255 255 255 255 255 255 255 255 255 255 255 255 255 255 255 255 255 255 255 255 255 255 255 255 255 255 255 255 255 255 255 255 255 255 255 255 255 255 255 255 255 255 255 255 255 255 255 255 255 255 255 255 255 255 255 255 255 255 255 255 255 255 255 255 255 255 255 255 255 255 255 255 255 255 255 255 255 255 255 255 255 255 255 255 255 255 255 255 255 255 255 255 255 255 255 255 255 255 255 255 255 255 255 255 255 255 255 255 255 255 255 255 255 255 255 255 255 255 255 255 255 255 255 255 255 255 255 255 255 255 255 255 255 255 255 255 255 255 255 255 255 255 255 255 255 255 255 255 255 255 255 255 255 255 255 255 255 255 255 255 255 255 255 255 255 255 255 255 255 255 255 255 255 255 255 255 255 255 255 255 255 255 255 255 255 255 255 255 255 255 255 255 255 255 255 255 255 255 255 255 255 255 255 255 255 255 255 255 255 255 255 255 255 255 255 255 255 255 255 255 255 255 255 255 255 255 255 255 255 255 255 255 255 255 255 255 255 255 255 255 255 255 255 255 255 255 255 255 255 255 255 255 255 255 255 255 255 255 255 255 255 255 255 255 255 255 255 255 255 255 255 255 255 255 255 255 255 255 255 255 255 255 255 255 
255 255 255 255 255 255 255 255 255 255 255 255 255 255 255 255 255 255 255 255 255 255 255 255 255 255 255 255 255 255 255 255 255 255 255 255 255 255 255 255 255 255 255 255 255 255 255 255 255 255 255 255 255 255 255 255 255 255 255 255 255 255 255 255 255 255 255 255 255 255 255 255 255 255 255 255 255 255 255 255 255 255 255 255 255 255 255 255 255 255 255 255 255 255 255 255 255 255 255 255 255 255 255 255 255 255 255 255 255 255 255 255 255 255 255 255 255 255 255 255 255 255 255 255 255 255 255 255 255 255 255 255 255 255 255 255 255 255 255 255 255 255 255 255 255 255 255 255 255 255 255 255 255 255 255 255 255 255 255 255 255 255 255 255 255 255 255 255 255 255 255 255 255 255 255 255 255 255 255 255 255 255 255 255 255 255 255 255 255 255 255 255 255 255 255 255 255 255 255 255 255 255 255 255 255 255 255 255 255 255 255 255 255 255 255 255 255 255 255 255 255 255 255 255 255 255 255 255 255 255 255 255 255 255 255 255 255 255 255 255 255 255 255 255 255 255 255 255 255 255 255 255 255 255 255 255 255 255 255 255 255 255 255 255 255 255 255 255 255 255 255 255 255 255 255 255 255 255 255 255 255 255 255 255 255 255 255 255 255 255 255 255 255 255 255 255 255 255 255 255 
255 255 255 255 255 255 255 255 255 255 255 255 255 255 255 255 255 255 255 255 255 255 255 255 255 255 255 255 255 255 255 255 255 255 255 255 255 255 255 255 255 255 255 255 255 255 255 255 255 255 255 255 255 255 255 255 255 255 255 255 255 255 255 255 255 255 255 255 255 255 255 255 255 255 255 255 255 255 255 255 255 255 255 255 255 255 255 255 255 255 255 255 255 255 255 255 255 255 255 255 255 255 255 255 255 255 255 255 255 255 255 255 255 255 255 255 255 255 255 255 255 255 255 255 255 255 255 255 255 255 255 255 255 255 255 255 255 255 255 255 255 255 255 255 255 255 255 255 255 255 255 255 255 255 255 255 255 255 255 255 255 255 255 255 255 255 255 255 255 255 255 255 255 255 255 255 255 255 255 255 255 255 255 255 255 255 255 255 255 255 255 255 255 255 255 255 255 255 255 255 255 255 255 255 255 255 255 255 255 255 255 255 255 255 255 255 255 255 255 255 255 255 255 255 255 255 255 255 255 255 255 255 255 255 255 255 255 255 255 255 255 255 255 255 255 255 255 255 255 255 255 255 255 255 255 255 255 255 255 255 255 255 255 255 255 255 255 255 255 255 255 255 255 255 255 255 255 255 255 255 255 255 255 255 255 255 255 255 255 255 255 255 255 255 255 255 255 255 255 255 
255 255 255 255 255 255 255 255 255 255 255 255 255 255 255 255 255 255 255 255 255 255 255 255 255 255 255 255 255 255 255 255 255 255 255 255 255 255 255 255 255 255 255 255 255 255 255 255 255 255 255 255 255 255 255 255 255 255 255 255 255 255 255 255 255 255 255 255 255 255 255 255 255 255 255 255 255 255 255 255 255 255 255 255 255 255 255 255 255 255 255 255 255 255 255 255 255 255 255 255 255 255 255 255 255 255 255 255 255 255 255 255 255 255 255 255 255 255 255 255 255 255 255 255 255 255 255 255 255 255 255 255 255 255 255 255 255 255 255 255 255 255 255 255 255 255 255 255 255 255 255 255 255 255 255 255 255 255 255 255 255 255 255 255 255 255 255 255 255 255 255 255 255 255 255 255 255 255 255 255 255 255 255 255 255 255 255 255 255 255 255 255 255 255 255 255 255 255 255 255 255 255 255 255 255 255 255 255 255 255 255 255 255 255 255 255 255 255 255 255 255 255 255 255 255 255 255 255 255 255 255 255 255 255 255 255 255 255 255 255 255 255 255 255 255 255 255 255 255 255 255 255 255 255 255 255 255 255 255 255 255 255 255 255 255 255 255 255 255 255 255 255 255 255 255 255 255 255 255 255 255 255 255 255 255 255 255 255 255 255 255 255 255 255 255 255 255 255 255 255 
255 255 255 255 255 255 255 255 255 255 255 255 255 255 255 255 255 255 255 255 255 255 255 255 255 255 255 255 255 255 255 255 255 255 255 255 255 255 255 255 255 255 255 255 255 255 255 255 255 255 255 255 255 255 255 255 255 255 255 255 255 255 255 255 255 255 255 255 255 255 255 255 255 255 255 255 255 255 255 255 255 255 255 255 255 255 255 255 255 255 255 255 255 255 255 255 255 255 255 255 255 255 255 255 255 255 255 255 255 255 255 255 255 255 255 255 255 255 255 255 255 255 255 255 255 255 255 255 255 255 255 255 255 255 255 255 255 255 255 255 255 255 255 255 255 255 255 255 255 255 255 255 255 255 255 255 255 255 255 255 255 255 255 255 255 255 255 255 255 255 255 255 255 255 255 255 255 255 255 255 255 255 255 255 255 255 255 255 255 255 255 255 255 255 255 255 255 255 255 255 255 255 255 255 255 255 255 255 255 255 255 255 255 255 255 255 255 255 255 255 255 255 255 255 255 255 255 255 255 255 255 255 255 255 255 255 255 255 255 255 255 255 255 255 255 255 255 255 255 255 255 255 255 255 255 255 255 255 255 255 255 255 255 255 255 255 255 255 255 255 255 255 255 255 255 255 255 255 255 255 255 255 255 255 255 255 255 255 255 255 255 255 255 255 255 255 255 255 255 255 
255 255 255 255 255 255 255 255 255 255 255 255 255 255 255 255 255 255 255 255 255 255 255 255 255 255 255 255 255 255 255 255 255 255 255 255 255 255 255 255 255 255 255 255 255 255 255 255 255 255 255 255 255 255 255 255 255 255 255 255 255 255 255 255 255 255 255 255 255 255 255 255 255 255 255 255 255 255 255 255 255 255 255 255 255 255 255 255 255 255 255 255 255 255 255 255 255 255 255 255 255 255 255 255 255 255 255 255 255 255 255 255 255 255 255 255 255 255 255 255 255 255 255 255 255 255 255 255 255 255 255 255 255 255 255 255 255 255 255 255 255 255 255 255 255 255 255 255 255 255 255 255 255 255 255 255 255 255 255 255 255 255 255 255 255 255 255 255 255 255 255 255 255 255 255 255 255 255 255 255 255 255 255 255 255 255 255 255 255 255 255 255 255 255 255 255 255 255 255 255 255 255 255 255 255 255 255 255 255 255 255 255 255 255 255 255 255 255 255 255 255 255 255 255 255 255 255 255 255 255 255 255 255 255 255 255 255 255 255 255 255 255 255 255 255 255 255 255 255 255 255 255 255 255 255 255 255 255 255 255 255 255 255 255 255 255 255 255 255 255 255 255 255 255 255 255 255 255 255 255 255 255 255 255 255 255 255 255 255 255 255 255 255 255 255 255 255 255 255 255 
255 255 255 255 255 255 255 255 255 255 255 255 255 255 255 255 255 255 255 255 255 255 255 255 255 255 255 255 255 255 255 255 255 255 255 255 255 255 255 255 255 255 255 255 255 255 255 255 255 255 255 255 255 255 255 255 255 255 255 255 255 255 255 255 255 255 255 255 255 255 255 255 255 255 255 255 255 255 255 255 255 255 255 255 255 255 255 255 255 255 255 255 255 255 255 255 255 255 255 255 255 255 255 255 255 255 255 255 255 255 255 255 255 255 255 255 255 255 255 255 255 255 255 255 255 255 255 255 255 255 255 255 255 255 255 255 255 255 255 255 255 255 255 255 255 255 255 255 255 255 255 255 255 255 255 255 255 255 255 255 255 255 255 255 255 255 255 255 255 255 255 255 255 255 255 255 255 255 255 255 255 255 255 255 255 255 255 255 255 255 255 255 255 255 255 255 255 255 255 255 255 255 255 255 255 255 255 255 255 255 255 255 255 255 255 255 255 255 255 255 255 255 255 255 255 255 255 255 255 255 255 255 255 255 255 255 255 255 255 255 255 255 255 255 255 255 255 255 255 255 255 255 255 255 255 255 255 255 255 255 255 255 255 255 255 255 255 255 255 255 255 255 255 255 255 255 255 255 255 255 255 255 255 255 255 255 255 255 255 255 255 255 255 255 255 255 255 255 255 255 
255 255 255 255 255 255 255 255 255 255 255 255 255 255 255 255 255 255 255 255 255 255 255 255 255 255 255 255 255 255 255 255 255 255 255 255 255 255 255 255 255 255 255 255 255 255 255 255 255 255 255 255 255 255 255 255 255 255 255 255 255 255 255 255 255 255 255 255 255 255 255 255 255 255 255 255 255 255 255 255 255 255 255 255 255 255 255 255 255 255 255 255 255 255 255 255 255 255 255 255 255 255 255 255 255 255 255 255 255 255 255 255 255 255 255 255 255 255 255 255 255 255 255 255 255 255 255 255 255 255 255 255 255 255 255 255 255 255 255 255 255 255 255 255 255 255 255 255 255 255 255 255 255 255 255 255 255 255 255 255 255 255 255 255 255 255 255 255 255 255 255 255 255 255 255 255 255 255 255 255 255 255 255 255 255 255 255 255 255 255 255 255 255 255 255 255 255 255 255 255 255 255 255 255 255 255 255 255 255 255 255 255 255 255 255 255 255 255 255 255 255 255 255 255 255 255 255 255 255 255 255 255 255 255 255 255 255 255 255 255 255 255 255 255 255 255 255 255 255 255 255 255 255 255 255 255 255 255 255 255 255 255 255 255 255 255 255 255 255 255 255 255 255 255 255 255 255 255 255 255 255 255 255 255 255 255 255 255 255 255 255 255 255 255 255 255 255 255 255 255 
255 255 255 255 255 255 255 255 255 255 255 255 255 255 255 255 255 255 255 255 255 255 255 255 255 255 255 255 255 255 255 255 255 255 255 255 255 255 255 255 255 255 255 255 255 255 255 255 255 255 255 255 255 255 255 255 255 255 255 255 255 255 255 255 255 255 255 255 255 255 255 255 255 255 255 255 255 255 255 255 255 255 255 255 255 255 255 255 255 255 255 255 255 255 255 255 255 255 255 255 255 255 255 255 255 255 255 255 255 255 255 255 255 255 255 255 255 255 255 255 255 255 255 255 255 255 255 255 255 255 255 255 255 255 255 255 255 255 255 255 255 255 255 255 255 255 255 255 255 255 255 255 255 255 255 255 255 255 255 255 255 255 255 255 255 255 255 255 255 255 255 255 255 255 255 255 255 255 255 255 255 255 255 255 255 255 255 255 255 255 255 255 255 255 255 255 255 255 255 255 255 255 255 255 255 255 255 255 255 255 255 255 255 255 255 255 255 255 255 255 255 255 255 255 255 255 255 255 255 255 255 255 255 255 255 255 255 255 255 255 255 255 255 255 255 255 255 255 255 255 255 255 255 255 255 255 255 255 255 255 255 255 255 255 255 255 255 255 255 255 255 255 255 255 255 255 255 255 255 255 255 255 255 255 255 255 255 255 255 255 255 255 255 255 255 255 255 255 255 255 
255 255 255 255 255 255 255 255 255 255 255 255 255 255 255 255 255 255 255 255 255 255 255 255 255 255 255 255 255 255 255 255 255 255 255 255 255 255 255 255 255 255 255 255 255 255 255 255 255 255 255 255 255 255 255 255 255 255 255 255 255 255 255 255 255 255 255 255 255 255 255 255 255 255 255 255 255 255 255 255 255 255 255 255 255 255 255 255 255 255 255 255 255 255 255 255 255 255 255 255 255 255 255 255 255 255 255 255 255 255 255 255 255 255 255 255 255 255 255 255 255 255 255 255 255 255 255 255 255 255 255 255 255 255 255 255 255 255 255 255 255 255 255 255 255 255 255 255 255 255 255 255 255 255 255 255 255 255 255 255 255 255 255 255 255 255 255 255 255 255 255 255 255 255 255 255 255 255 255 255 255 255 255 255 255 255 255 255 255 255 255 255 255 255 255 255 255 255 255 255 255 255 255 255 255 255 255 255 255 255 255 255 255 255 255 255 255 255 255 255 255 255 255 255 255 255 255 255 255 255 255 255 255 255 255 255 255 255 255 255 255 255 255 255 255 255 255 255 255 255 255 255 255 255 255 255 255 255 255 255 255 255 255 255 255 255 255 255 255 255 255 255 255 255 255 255 255 255 255 255 255 255 255 255 255 255 255 255 255 255 255 255 255 255 255 255 255 255 255 255 
255 255 255 255 255 255 255 255 255 255 255 255 255 255 255 255 255 255 255 255 255 255 255 255 255 255 255 255 255 255 255 255 255 255 255 255 255 255 255 255 255 255 255 255 255 255 255 255 255 255 255 255 255 255 255 255 255 255 255 255 255 255 255 255 255 255 255 255 255 255 255 255 255 255 255 255 255 255 255 255 255 255 255 255 255 255 255 255 255 255 255 255 255 255 255 255 255 255 255 255 255 255 255 255 255 255 255 255 255 255 255 255 255 255 255 255 255 255 255 255 255 255 255 255 255 255 255 255 255 255 255 255 255 255 255 255 255 255 255 255 255 255 255 255 255 255 255 255 255 255 255 255 255 255 255 255 255 255 255 255 255 255 255 255 255 255 255 255 255 255 255 255 255 255 255 255 255 255 255 255 255 255 255 255 255 255 255 255 255 255 255 255 255 255 255 255 255 255 255 255 255 255 255 255 255 255 255 255 255 255 255 255 255 255 255 255 255 255 255 255 255 255 255 255 255 255 255 255 255 255 255 255 255 255 255 255 255 255 255 255 255 255 255 255 255 255 255 255 255 255 255 255 255 255 255 255 255 255 255 255 255 255 255 255 255 255 255 255 255 255 255 255 255 255 255 255 255 255 255 255 255 255 255 255 255 255 255 255 255 255 255 255 255 255 255 255 255 255 255 255 
255 255 255 255 255 255 255 255 255 255 255 255 255 255 255 255 255 255 255 255 255 255 255 255 255 255 255 255 255 255 255 255 255 255 255 255 255 255 255 255 255 255 255 255 255 255 255 255 255 255 255 255 255 255 255 255 255 255 255 255 255 255 255 255 255 255 255 255 255 255 255 255 255 255 255 255 255 255 255 255 255 255 255 255 255 255 255 255 255 255 255 255 255 255 255 255 255 255 255 255 255 255 255 255 255 255 255 255 255 255 255 255 255 255 255 255 255 255 255 255 255 255 255 255 255 255 255 255 255 255 255 255 255 255 255 255 255 255 255 255 255 255 255 255 255 255 255 255 255 255 255 255 255 255 255 255 255 255 255 255 255 255 255 255 255 255 255 255 255 255 255 255 255 255 255 255 255 255 255 255 255 255 255 255 255 255 255 255 255 255 255 255 255 255 255 255 255 255 255 255 255 255 255 255 255 255 255 255 255 255 255 255 255 255 255 255 255 255 255 255 255 255 255 255 255 255 255 255 255 255 255 255 255 255 255 255 255 255 255 255 255 255 255 255 255 255 255 255 255 255 255 255 255 255 255 255 255 255 255 255 255 255 255 255 255 255 255 255 255 255 255 255 255 255 255 255 255 255 255 255 255 255 255 255 255 255 255 255 255 255 255 255 255 255 255 255 255 255 255 255 
255 255 255 255 255 255 255 255 255 255 255 255 255 255 255 255 255 255 255 255 255 255 255 255 255 255 255 255 255 255 255 255 255 255 255 255 255 255 255 255 255 255 255 255 255 255 255 255 255 255 255 255 255 255 255 255 255 255 255 255 255 255 255 255 255 255 255 255 255 255 255 255 255 255 255 255 255 255 255 255 255 255 255 255 255 255 255 255 255 255 255 255 255 255 255 255 255 255 255 255 255 255 255 255 255 255 255 255 255 255 255 255 255 255 255 255 255 255 255 255 255 255 255 255 255 255 255 255 255 255 255 255 255 255 255 255 255 255 255 255 255 255 255 255 255 255 255 255 255 255 255 255 255 255 255 255 255 255 255 255 255 255 255 255 255 255 255 255 255 255 255 255 255 255 255 255 255 255 255 255 255 255 255 255 255 255 255 255 255 255 255 255 255 255 255 255 255 255 255 255 255 255 255 255 255 255 255 255 255 255 255 255 255 255 255 255 255 255 255 255 255 255 255 255 255 255 255 255 255 255 255 255 255 255 255 255 255 255 255 255 255 255 255 255 255 255 255 255 255 255 255 255 255 255 255 255 255 255 255 255 255 255 255 255 255 255 255 255 255 255 255 255 255 255 255 255 255 255 255 255 255 255 255 255 255 255 255 255 255 255 255 255 255 255 255 255 255 255 255 255 
255 255 255 255 255 255 255 255 255 255 255 255 255 255 255 255 255 255 255 255 255 255 255 255 255 255 255 255 255 255 255 255 255 255 255 255 255 255 255 255 255 255 255 255 255 255 255 255 255 255 255 255 255 255 255 255 255 255 255 255 255 255 255 255 255 255 255 255 255 255 255 255 255 255 255 255 255 255 255 255 255 255 255 255 255 255 255 255 255 255 255 255 255 255 255 255 255 255 255 255 255 255 255 255 255 255 255 255 255 255 255 255 255 255 255 255 255 255 255 255 255 255 255 255 255 255 255 255 255 255 255 255 255 255 255 255 255 255 255 255 255 255 255 255 255 255 255 255 255 255 255 255 255 255 255 255 255 255 255 255 255 255 255 255 255 255 255 255 255 255 255 255 255 255 255 255 255 255 255 255 255 255 255 255 255 255 255 255 255 255 255 255 255 255 255 255 255 255 255 255 255 255 255 255 255 255 255 255 255 255 255 255 255 255 255 255 255 255 255 255 255 255 255 255 255 255 255 255 255 255 255 255 255 255 255 255 255 255 255 255 255 255 255 255 255 255 255 255 255 255 255 255 255 255 255 255 255 255 255 255 255 255 255 255 255 255 255 255 255 255 255 255 255 255 255 255 255 255 255 255 255 255 255 255 255 255 255 255 255 255 255 255 255 255 255 255 255 255 255 255 
255 255 255 255 255 255 255 255 255 255 255 255 255 255 255 255 255 255 255 255 255 255 255 255 255 255 255 255 255 255 255 255 255 255 255 255 255 255 255 255 255 255 255 255 255 255 255 255 255 255 255 255 255 255 255 255 255 255 255 255 255 255 255 255 255 255 255 255 255 255 255 255 255 255 255 255 255 255 255 255 255 255 255 255 255 255 255 255 255 255 255 255 255 255 255 255 255 255 255 255 255 255 255 255 255 255 255 255 255 255 255 255 255 255 255 255 255 255 255 255 255 255 255 255 255 255 255 255 255 255 255 255 255 255 255 255 255 255 255 255 255 255 255 255 255 255 255 255 255 255 255 255 255 255 255 255 255 255 255 255 255 255 255 255 255 255 255 255 255 255 255 255 255 255 255 255 255 255 255 255 255 255 255 255 255 255 255 255 255 255 255 255 255 255 255 255 255 255 255 255 255 255 255 255 255 255 255 255 255 255 255 255 255 255 255 255 255 255 255 255 255 255 255 255 255 255 255 255 255 255 255 255 255 255 255 255 255 255 255 255 255 255 255 255 255 255 255 255 255 255 255 255 255 255 255 255 255 255 255 255 255 255 255 255 255 255 255 255 255 255 255 255 255 255 255 255 255 255 255 255 255 255 255 255 255 255 255 255 255 255 255 255 255 255 255 255 255 255 255 255 
255 255 255 255 255 255 255 255 255 255 255 255 255 255 255 255 255 255 255 255 255 255 255 255 255 255 255 255 255 255 255 255 255 255 255 255 255 255 255 255 255 255 255 255 255 255 255 255 255 255 255 255 255 255 255 255 255 255 255 255 255 255 255 255 255 255 255 255 255 255 255 255 255 255 255 255 255 255 255 255 255 255 255 255 255 255 255 255 255 255 255 255 255 255 255 255 255 255 255 255 255 255 255 255 255 255 255 255 255 255 255 255 255 255 255 255 255 255 255 255 255 255 255 255 255 255 255 255 255 255 255 255 255 255 255 255 255 255 255 255 255 255 255 255 255 255 255 255 255 255 255 255 255 255 255 255 255 255 255 255 255 255 255 255 255 255 255 255 255 255 255 255 255 255 255 255 255 255 255 255 255 255 255 255 255 255 255 255 255 255 255 255 255 255 255 255 255 255 255 255 255 255 255 255 255 255 255 255 255 255 255 255 255 255 255 255 255 255 255 255 255 255 255 255 255 255 255 255 255 255 255 255 255 255 255 255 255 255 255 255 255 255 255 255 255 255 255 255 255 255 255 255 255 255 255 255 255 255 255 255 255 255 255 255 255 255 255 255 255 255 255 255 255 255 255 255 255 255 255 255 255 255 255 255 255 255 255 255 255 255 255 255 255 255 255 255 255 255 255 255 
255 255 255 255 255 255 255 255 255 255 255 255 255 255 255 255 255 255 255 255 255 255 255 255 255 255 255 255 255 255 255 255 255 255 255 255 255 255 255 255 255 255 255 255 255 255 255 255 255 255 255 255 255 255 255 255 255 255 255 255 255 255 255 255 255 255 255 255 255 255 255 255 255 255 255 255 255 255 255 255 255 255 255 255 255 255 255 255 255 255 255 255 255 255 255 255 255 255 255 255 255 255 255 255 255 255 255 255 255 255 255 255 255 255 255 255 255 255 255 255 255 255 255 255 255 255 255 255 255 255 255 255 255 255 255 255 255 255 255 255 255 255 255 255 255 255 255 255 255 255 255 255 255 255 255 255 255 255 255 255 255 255 255 255 255 255 255 255 255 255 255 255 255 255 255 255 255 255 255 255 255 255 255 255 255 255 255 255 255 255 255 255 255 255 255 255 255 255 255 255 255 255 255 255 255 255 255 255 255 255 255 255 255 255 255 255 255 255 255 255 255 255 255 255 255 255 255 255 255 255 255 255 255 255 255 255 255 255 255 255 255 255 255 255 255 255 255 255 255 255 255 255 255 255 255 255 255 255 255 255 255 255 255 255 255 255 255 255 255 255 255 255 255 255 255 255 255 255 255 255 255 255 255 255 255 255 255 255 255 255 255 255 255 255 255 255 255 255 255 255 
255 255 255 255 255 255 255 255 255 255 255 255 255 255 255 255 255 255 255 255 255 255 255 255 255 255 255 255 255 255 255 255 255 255 255 255 255 255 255 255 255 255 255 255 255 255 255 255 255 255 255 255 255 255 255 255 255 255 255 255 255 255 255 255 255 255 255 255 255 255 255 255 255 255 255 255 255 255 255 255 255 255 255 255 255 255 255 255 255 255 255 255 255 255 255 255 255 255 255 255 255 255 255 255 255 255 255 255 255 255 255 255 255 255 255 255 255 255 255 255 255 255 255 255 255 255 255 255 255 255 255 255 255 255 255 255 255 255 255 255 255 255 255 255 255 255 255 255 255 255 255 255 255 255 255 255 255 255 255 255 255 255 255 255 255 255 255 255 255 255 255 255 255 255 255 255 255 255 255 255 255 255 255 255 255 255 255 255 255 255 255 255 255 255 255 255 255 255 255 255 255 255 255 255 255 255 255 255 255 255 255 255 255 255 255 255 255 255 255 255 255 255 255 255 255 255 255 255 255 255 255 255 255 255 255 255 255 255 255 255 255 255 255 255 255 255 255 255 255 255 255 255 255 255 255 255 255 255 255 255 255 255 255 255 255 255 255 255 255 255 255 255 255 255 255 255 255 255 255 255 255 255 255 255 255 255 255 255 255 255 255 255 255 255 255 255 255 255 255 255 
255 255 255 255 255 255 255 255 255 255 255 255 255 255 255 255 255 255 255 255 255 255 255 255 255 255 255 255 255 255 255 255 255 255 255 255 255 255 255 255 255 255 255 255 255 255 255 255 255 255 255 255 255 255 255 255 255 255 255 255 255 255 255 255 255 255 255 255 255 255 255 255 255 255 255 255 255 255 255 255 255 255 255 255 255 255 255 255 255 255 255 255 255 255 255 255 255 255 255 255 255 255 255 255 255 255 255 255 255 255 255 255 255 255 255 255 255 255 255 255 255 255 255 255 255 255 255 255 255 255 255 255 255 255 255 255 255 255 255 255 255 255 255 255 255 255 255 255 255 255 255 255 255 255 255 255 255 255 255 255 255 255 255 255 255 255 255 255 255 255 255 255 255 255 255 255 255 255 255 255 255 255 255 255 255 255 255 255 255 255 255 255 255 255 255 255 255 255 255 255 255 255 255 255 255 255 255 255 255 255 255 255 255 255 255 255 255 255 255 255 255 255 255 255 255 255 255 255 255 255 255 255 255 255 255 255 255 255 255 255 255 255 255 255 255 255 255 255 255 255 255 255 255 255 255 255 255 255 255 255 255 255 255 255 255 255 255 255 255 255 255 255 255 255 255 255 255 255 255 255 255 255 255 255 255 255 255 255 255 255 255 255 255 255 255 255 255 255 255 255 
