P2
359 530
255
0 0 0 0 0 0 0 0 0 0 0 0 0 0 0 0 0 0 0 0 0 0 0 0 0 0 0 0 0 0 0 0 0 0 0 0 0 0 0 0 0 0 0 0 0 0 0 0 0 0 0 0 0 0 0 0 0 0 0 0 0 0 0 0 0 0 0 0 0 0 0 0 0 0 0 0 0 0 0 0 0 0 0 0 0 0 0 0 0 0 0 0 0 0 0 0 0 0 0 0 0 0 0 0 0 0 0 0 0 0 0 0 0 0 0 0 0 0 0 0 0 0 0 0 0 0 0 0 0 0 0 2 5 8 15 26 56 119 207 254 235 250 255 255 255 255 200 176 175 183 178 183 207 213 247 255 255 255 255 255 255 255 255 255 255 255 255 255 255 255 255 255 180 75 26 8 1 0 0 0 0 0 0 0 0 0 0 0 0 0 0 0 0 0 0 0 0 0 0 0 0 0 0 0 0 0 0 0 0 0 0 0 0 0 0 0 0 0 0 0 0 0 0 0 0 0 0 0 0 0 0 0 0 0 0 0 0 0 0 0 0 0 0 0 0 0 0 0 0 0 0 0 0 0 0 0 0 0 0 0 0 0 0 0 0 0 0 0 0 0 0 0 0 0 0 0 0 0 0 0 0 0 0 0 0 0 0 0 0 0 0 0 0 0 0 0 0 0 0 0 0 0 0 0 0 0 0 0 0 0 0 0 0 0 0 0 0 0 0 0 0 0 0 0 0 0 0 0 0 0 0 0 0 0 0 0 0 0 0 0 0 0 0 0 0 0 0 0 0 0 0 0 0 0 0 0 0 0 0 
0 0 0 0 0 0 0 0 0 0 0 0 0 0 0 0 0 0 0 0 0 0 0 0 0 0 0 0 0 0 0 0 0 0 0 0 0 0 0 0 0 0 0 0 0 0 0 0 0 0 0 0 0 0 0 0 0 0 0 0 0 0 0 0 0 0 0 0 0 0 0 0 0 0 0 0 0 0 0 0 0 0 0 0 0 0 0 0 0 0 0 0 0 0 0 0 0 0 0 0 0 0 0 0 0 0 0 0 0 0 0 0 0 0 0 0 0 0 0 0 0 0 0 0 2 7 13 19 25 31 57 100 149 188 226 255 255 255 255 255 255 255 255 255 255 255 187 80 22 7 0 5 21 28 76 139 70 0 0 0 0 18 22 104 255 255 132 23 107 214 255 255 255 255 255 229 95 31 7 0 0 0 0 0 0 0 0 0 0 0 0 0 0 0 0 0 0 0 0 0 0 0 0 0 0 0 0 0 0 0 0 0 0 0 0 0 0 0 0 0 0 0 0 0 0 0 0 0 0 0 0 0 0 0 0 0 0 0 0 0 0 0 0 0 0 0 0 0 0 0 0 0 0 0 0 0 0 0 0 0 0 0 0 0 0 0 0 0 0 0 0 0 0 0 0 0 0 0 0 0 0 0 0 0 0 0 0 0 0 0 0 0 0 0 0 0 0 0 0 0 0 0 0 0 0 0 0 0 0 0 0 0 0 0 0 0 0 0 0 0 0 0 0 0 0 0 0 0 0 0 0 0 0 0 0 0 0 0 0 0 0 0 0 0 0 0 0 0 0 0 0 0 0 0 0 0 0 0 0 
0 0 0 0 0 0 0 0 0 0 0 0 0 0 0 0 0 0 0 0 0 0 0 0 0 0 0 0 0 0 0 0 0 0 0 0 0 0 0 0 0 0 0 0 0 0 0 0 0 0 0 0 0 0 0 0 0 0 0 0 0 0 0 0 0 0 0 0 0 0 0 0 0 0 0 0 0 0 0 0 0 0 0 0 0 0 0 0 0 0 0 0 0 0 0 0 0 0 0 0 0 0 0 0 0 0 0 0 0 0 0 0 0 0 0 0 0 0 0 0 8 38 71 95 117 147 168 202 228 215 205 242 255 255 255 255 255 255 250 123 61 127 255 255 255 255 209 146 125 119 158 163 171 216 243 199 88 12 17 24 19 8 0 0 0 0 71 209 225 55 0 0 81 221 255 255 255 255 178 67 15 0 0 0 0 0 0 0 0 0 0 0 0 0 0 0 0 0 0 0 0 0 0 0 0 0 0 0 0 0 0 0 0 0 0 0 0 0 0 0 0 0 0 0 0 0 0 0 0 0 0 0 0 0 0 0 0 0 0 0 0 0 0 0 0 0 0 0 0 0 0 0 0 0 0 0 0 0 0 0 0 0 0 0 0 0 0 0 0 0 0 0 0 0 0 0 0 0 0 0 0 0 0 0 0 0 0 0 0 0 0 0 0 0 0 0 0 0 0 0 0 0 0 0 0 0 0 0 0 0 0 0 0 0 0 0 0 0 0 0 0 0 0 0 0 0 0 0 0 0 0 0 0 0 0 0 0 0 0 0 0 0 0 0 0 0 0 0 0 0 0 0 0 0 0 0 0 0 0 
0 0 0 0 0 0 0 0 0 0 0 0 0 0 0 0 0 0 0 0 0 0 0 0 0 0 0 0 0 0 0 0 0 0 0 0 0 0 0 0 0 0 0 0 0 0 0 0 0 0 0 0 0 0 0 0 0 0 0 0 0 0 0 0 0 0 0 0 0 0 0 0 0 0 0 0 0 0 0 0 0 0 0 0 0 0 0 0 0 0 0 0 0 0 0 0 0 0 0 0 0 0 0 0 0 0 0 0 0 0 0 0 0 0 0 0 0 0 0 42 159 255 255 255 255 255 255 255 255 255 204 205 209 170 137 140 124 0 0 0 24 106 255 255 255 151 59 0 49 135 216 249 236 251 255 194 77 67 103 133 162 109 1 0 0 0 0 44 210 255 255 133 12 0 0 41 191 255 255 255 249 103 25 1 0 0 0 0 0 0 0 0 0 0 0 0 0 0 0 0 0 0 0 0 0 0 0 0 0 0 0 0 0 0 0 0 0 0 0 0 0 0 0 0 0 0 0 0 0 0 0 0 0 0 0 0 0 0 0 0 0 0 0 0 0 0 0 0 0 0 0 0 0 0 0 0 0 0 0 0 0 0 0 0 0 0 0 0 0 0 0 0 0 0 0 0 0 0 0 0 0 0 0 0 0 0 0 0 0 0 0 0 0 0 0 0 0 0 0 0 0 0 0 0 0 0 0 0 0 0 0 0 0 0 0 0 0 0 0 0 0 0 0 0 0 0 0 0 0 0 0 0 0 0 0 0 0 0 0 0 0 0 0 0 0 0 0 0 0 0 0 0 0 0 0 0 0 0 0 
0 0 0 0 0 0 0 0 0 0 0 0 0 0 0 0 0 0 0 0 0 0 0 0 0 0 0 0 0 0 0 0 0 0 0 0 0 0 0 0 0 0 0 0 0 0 0 0 0 0 0 0 0 0 0 0 0 0 0 0 0 0 0 0 0 0 0 0 0 0 0 0 0 0 0 0 0 0 0 0 0 0 0 0 0 0 0 0 0 0 0 0 0 0 0 0 0 0 0 0 0 0 0 0 0 0 0 0 0 0 0 0 0 0 0 0 0 14 87 239 255 255 255 255 255 255 224 147 137 103 68 113 174 159 117 106 32 0 0 109 69 64 255 255 173 100 54 0 0 62 120 152 141 144 145 109 130 184 174 177 183 124 62 77 107 85 19 0 0 54 242 255 255 221 94 16 12 9 82 255 255 255 255 132 31 1 0 0 0 0 0 0 0 0 0 0 0 0 0 0 0 0 0 0 0 0 0 0 0 0 0 0 0 0 0 0 0 0 0 0 0 0 0 0 0 0 0 0 0 0 0 0 0 0 0 0 0 0 0 0 0 0 0 0 0 0 0 0 0 0 0 0 0 0 0 0 0 0 0 0 0 0 0 0 0 0 0 0 0 0 0 0 0 0 0 0 0 0 0 0 0 0 0 0 0 0 0 0 0 0 0 0 0 0 0 0 0 0 0 0 0 0 0 0 0 0 0 0 0 0 0 0 0 0 0 0 0 0 0 0 0 0 0 0 0 0 0 0 0 0 0 0 0 0 0 0 0 0 0 0 0 0 0 0 0 0 0 0 0 0 0 0 0 0 0 0 0 0 0 
0 0 0 0 0 0 0 0 0 0 0 0 0 0 0 0 0 0 0 0 0 0 0 0 0 0 0 0 0 0 0 0 0 0 0 0 0 0 0 0 0 0 0 0 0 0 0 0 0 0 0 0 0 0 0 0 0 0 0 0 0 0 0 0 0 0 0 0 0 0 0 0 0 0 0 0 0 0 0 0 0 0 0 0 0 0 0 0 0 0 0 0 0 0 0 0 0 0 0 0 0 0 0 0 0 0 0 0 0 0 0 0 0 0 0 18 75 160 255 255 255 255 158 17 24 67 38 17 29 63 119 170 182 131 71 48 0 0 70 100 9 67 253 255 149 106 97 49 54 115 140 136 119 111 122 121 139 157 183 195 168 131 108 115 168 160 74 12 24 5 0 92 255 255 255 255 193 88 15 0 35 184 255 255 255 143 34 0 0 0 0 0 0 0 0 0 0 0 0 0 0 0 0 0 0 0 0 0 0 0 0 0 0 0 0 0 0 0 0 0 0 0 0 0 0 0 0 0 0 0 0 0 0 0 0 0 0 0 0 0 0 0 0 0 0 0 0 0 0 0 0 0 0 0 0 0 0 0 0 0 0 0 0 0 0 0 0 0 0 0 0 0 0 0 0 0 0 0 0 0 0 0 0 0 0 0 0 0 0 0 0 0 0 0 0 0 0 0 0 0 0 0 0 0 0 0 0 0 0 0 0 0 0 0 0 0 0 0 0 0 0 0 0 0 0 0 0 0 0 0 0 0 0 0 0 0 0 0 0 0 0 0 0 0 0 0 0 0 0 0 0 0 0 0 0 0 0 0 0 
0 0 0 0 0 0 0 0 0 0 0 0 0 0 0 0 0 0 0 0 0 0 0 0 0 0 0 0 0 0 0 0 0 0 0 0 0 0 0 0 0 0 0 0 0 0 0 0 0 0 0 0 0 0 0 0 0 0 0 0 0 0 0 0 0 0 0 0 0 0 0 0 0 0 0 0 0 0 0 0 0 0 0 0 0 0 0 0 0 0 0 0 0 0 0 0 0 0 0 0 0 0 0 0 0 0 0 0 0 0 0 0 0 10 75 180 244 255 255 255 206 53 0 0 0 6 21 32 31 41 85 66 16 0 0 0 0 0 100 50 0 102 255 255 156 124 121 89 85 123 165 178 164 149 139 128 112 99 117 147 127 99 91 100 147 158 102 73 134 124 6 0 15 167 255 255 255 255 255 143 43 2 30 144 255 255 255 118 28 0 0 0 0 0 0 0 0 0 0 0 0 0 0 0 0 0 0 0 0 0 0 0 0 0 0 0 0 0 0 0 0 0 0 0 0 0 0 0 0 0 0 0 0 0 0 0 0 0 0 0 0 0 0 0 0 0 0 0 0 0 0 0 0 0 0 0 0 0 0 0 0 0 0 0 0 0 0 0 0 0 0 0 0 0 0 0 0 0 0 0 0 0 0 0 0 0 0 0 0 0 0 0 0 0 0 0 0 0 0 0 0 0 0 0 0 0 0 0 0 0 0 0 0 0 0 0 0 0 0 0 0 0 0 0 0 0 0 0 0 0 0 0 0 0 0 0 0 0 0 0 0 0 0 0 0 0 0 0 0 0 0 0 0 0 0 0 0 0 0 
0 0 0 0 0 0 0 0 0 0 0 0 0 0 0 0 0 0 0 0 0 0 0 0 0 0 0 0 0 0 0 0 0 0 0 0 0 0 0 0 0 0 0 0 0 0 0 0 0 0 0 0 0 0 0 0 0 0 0 0 0 0 0 0 0 0 0 0 0 0 0 0 0 0 0 0 0 0 0 0 0 0 0 0 0 0 0 0 0 0 0 0 0 0 0 0 0 0 0 0 0 0 0 0 0 0 0 0 0 0 0 2 61 163 232 250 247 243 208 117 31 0 0 0 0 66 111 89 60 56 48 0 0 17 68 33 0 50 95 13 0 118 255 249 138 117 130 126 98 62 51 61 78 97 101 86 84 101 119 152 150 119 109 106 91 95 147 188 148 66 0 6 21 0 45 166 255 255 255 255 255 195 78 0 0 120 255 255 237 77 14 0 0 0 0 0 0 0 0 0 0 0 0 0 0 0 0 0 0 0 0 0 0 0 0 0 0 0 0 0 0 0 0 0 0 0 0 0 0 0 0 0 0 0 0 0 0 0 0 0 0 0 0 0 0 0 0 0 0 0 0 0 0 0 0 0 0 0 0 0 0 0 0 0 0 0 0 0 0 0 0 0 0 0 0 0 0 0 0 0 0 0 0 0 0 0 0 0 0 0 0 0 0 0 0 0 0 0 0 0 0 0 0 0 0 0 0 0 0 0 0 0 0 0 0 0 0 0 0 0 0 0 0 0 0 0 0 0 0 0 0 0 0 0 0 0 0 0 0 0 0 0 0 0 0 0 0 0 0 0 0 0 0 0 0 0 0 0 0 
0 0 0 0 0 0 0 0 0 0 0 0 0 0 0 0 0 0 0 0 0 0 0 0 0 0 0 0 0 0 0 0 0 0 0 0 0 0 0 0 0 0 0 0 0 0 0 0 0 0 0 0 0 0 0 0 0 0 0 0 0 0 0 0 0 0 0 0 0 0 0 0 0 0 0 0 0 0 0 0 0 0 0 0 0 0 0 0 0 0 0 0 0 0 0 0 0 0 0 0 0 0 0 0 0 0 0 0 0 0 44 151 235 255 223 153 108 109 94 24 0 0 0 0 29 109 97 34 14 36 54 76 106 141 129 43 7 66 69 9 3 116 249 197 109 110 133 135 109 76 48 58 84 79 72 61 80 120 125 129 136 143 151 149 143 104 110 133 63 18 49 101 156 134 39 6 54 112 183 255 255 255 255 185 78 0 0 111 255 255 177 40 0 0 0 0 0 0 0 0 0 0 0 0 0 0 0 0 0 0 0 0 0 0 0 0 0 0 0 0 0 0 0 0 0 0 0 0 0 0 0 0 0 0 0 0 0 0 0 0 0 0 0 0 0 0 0 0 0 0 0 0 0 0 0 0 0 0 0 0 0 0 0 0 0 0 0 0 0 0 0 0 0 0 0 0 0 0 0 0 0 0 0 0 0 0 0 0 0 0 0 0 0 0 0 0 0 0 0 0 0 0 0 0 0 0 0 0 0 0 0 0 0 0 0 0 0 0 0 0 0 0 0 0 0 0 0 0 0 0 0 0 0 0 0 0 0 0 0 0 0 0 0 0 0 0 0 0 0 0 0 0 0 0 0 0 0 0 0 
0 0 0 0 0 0 0 0 0 0 0 0 0 0 0 0 0 0 0 0 0 0 0 0 0 0 0 0 0 0 0 0 0 0 0 0 0 0 0 0 0 0 0 0 0 0 0 0 0 0 0 0 0 0 0 0 0 0 0 0 0 0 0 0 0 0 0 0 0 0 0 0 0 0 0 0 0 0 0 0 0 0 0 0 0 0 0 0 0 0 0 0 0 0 0 0 0 0 0 0 0 0 0 0 0 0 0 0 14 107 212 255 250 154 71 88 126 113 17 0 0 0 17 55 89 97 39 0 0 20 57 92 103 83 37 0 0 49 48 7 9 88 206 192 110 127 169 158 107 90 67 52 63 64 57 53 80 138 143 125 132 141 150 166 192 160 102 72 52 73 158 182 135 148 109 18 7 45 119 174 229 255 255 255 255 213 106 33 41 175 255 255 126 32 0 0 0 0 0 0 0 0 0 0 0 0 0 0 0 0 0 0 0 0 0 0 0 0 0 0 0 0 0 0 0 0 0 0 0 0 0 0 0 0 0 0 0 0 0 0 0 0 0 0 0 0 0 0 0 0 0 0 0 0 0 0 0 0 0 0 0 0 0 0 0 0 0 0 0 0 0 0 0 0 0 0 0 0 0 0 0 0 0 0 0 0 0 0 0 0 0 0 0 0 0 0 0 0 0 0 0 0 0 0 0 0 0 0 0 0 0 0 0 0 0 0 0 0 0 0 0 0 0 0 0 0 0 0 0 0 0 0 0 0 0 0 0 0 0 0 0 0 0 0 0 0 0 0 0 0 0 0 0 0 0 0 0 0 0 
0 0 0 0 0 0 0 0 0 0 0 0 0 0 0 0 0 0 0 0 0 0 0 0 0 0 0 0 0 0 0 0 0 0 0 0 0 0 0 0 0 0 0 0 0 0 0 0 0 0 0 0 0 0 0 0 0 0 0 0 0 0 0 0 0 0 0 0 0 0 0 0 0 0 0 0 0 0 0 0 0 0 0 0 0 0 0 0 0 0 0 0 0 0 0 0 0 0 0 0 0 0 0 0 0 0 0 62 176 240 254 183 77 51 122 160 91 0 0 38 34 16 64 110 109 74 14 0 5 54 48 32 14 18 19 0 0 45 34 8 22 71 160 179 124 123 160 160 108 67 11 0 17 49 81 94 102 129 124 132 162 177 168 152 147 142 116 96 99 95 130 176 102 23 43 9 14 65 151 212 215 171 173 255 255 255 255 239 114 60 107 248 255 241 51 0 0 0 0 0 0 0 0 0 0 0 0 0 0 0 0 0 0 0 0 0 0 0 0 0 0 0 0 0 0 0 0 0 0 0 0 0 0 0 0 0 0 0 0 0 0 0 0 0 0 0 0 0 0 0 0 0 0 0 0 0 0 0 0 0 0 0 0 0 0 0 0 0 0 0 0 0 0 0 0 0 0 0 0 0 0 0 0 0 0 0 0 0 0 0 0 0 0 0 0 0 0 0 0 0 0 0 0 0 0 0 0 0 0 0 0 0 0 0 0 0 0 0 0 0 0 0 0 0 0 0 0 0 0 0 0 0 0 0 0 0 0 0 0 0 0 0 0 0 0 0 0 0 0 0 0 0 0 0 0 0 0 0 0 
0 0 0 0 0 0 0 0 0 0 0 0 0 0 0 0 0 0 0 0 0 0 0 0 0 0 0 0 0 0 0 0 0 0 0 0 0 0 0 0 0 0 0 0 0 0 0 0 0 0 0 0 0 0 0 0 0 0 0 0 0 0 0 0 0 0 0 0 0 0 0 0 0 0 0 0 0 0 0 0 0 0 0 0 0 0 0 0 0 0 0 0 0 0 0 0 0 0 0 0 0 0 0 0 0 2 105 225 255 216 99 35 106 208 175 60 0 0 46 45 43 56 76 73 41 6 0 18 50 54 29 15 12 29 43 0 0 40 33 19 36 65 124 153 132 118 136 147 116 70 0 0 18 62 97 108 106 104 98 124 137 152 159 140 114 100 85 75 103 87 53 145 173 56 59 59 24 21 95 155 197 199 147 162 214 255 255 255 255 200 99 52 133 255 255 96 27 0 0 0 0 0 0 0 0 0 0 0 0 0 0 0 0 0 0 0 0 0 0 0 0 0 0 0 0 0 0 0 0 0 0 0 0 0 0 0 0 0 0 0 0 0 0 0 0 0 0 0 0 0 0 0 0 0 0 0 0 0 0 0 0 0 0 0 0 0 0 0 0 0 0 0 0 0 0 0 0 0 0 0 0 0 0 0 0 0 0 0 0 0 0 0 0 0 0 0 0 0 0 0 0 0 0 0 0 0 0 0 0 0 0 0 0 0 0 0 0 0 0 0 0 0 0 0 0 0 0 0 0 0 0 0 0 0 0 0 0 0 0 0 0 0 0 0 0 0 0 0 0 0 0 0 0 0 0 0 0 0 0 
0 0 0 0 0 0 0 0 0 0 0 0 0 0 0 0 0 0 0 0 0 0 0 0 0 0 0 0 0 0 0 0 0 0 0 0 0 0 0 0 0 0 0 0 0 0 0 0 0 0 0 0 0 0 0 0 0 0 0 0 0 0 0 0 0 0 0 0 0 0 0 0 0 0 0 0 0 0 0 0 0 0 0 0 0 0 0 0 0 0 0 0 0 0 0 0 0 0 0 0 0 0 0 0 28 149 238 255 157 20 23 166 255 177 32 0 14 78 56 16 47 74 40 6 0 0 10 37 54 34 22 24 31 41 42 0 8 54 37 25 44 73 129 161 147 136 149 158 127 78 5 0 28 73 90 99 94 90 96 122 127 115 117 116 120 115 96 86 106 89 61 98 115 91 155 218 120 15 29 51 107 184 191 176 190 169 186 255 255 255 255 141 58 70 184 255 150 17 0 0 0 0 0 0 0 0 0 0 0 0 0 0 0 0 0 0 0 0 0 0 0 0 0 0 0 0 0 0 0 0 0 0 0 0 0 0 0 0 0 0 0 0 0 0 0 0 0 0 0 0 0 0 0 0 0 0 0 0 0 0 0 0 0 0 0 0 0 0 0 0 0 0 0 0 0 0 0 0 0 0 0 0 0 0 0 0 0 0 0 0 0 0 0 0 0 0 0 0 0 0 0 0 0 0 0 0 0 0 0 0 0 0 0 0 0 0 0 0 0 0 0 0 0 0 0 0 0 0 0 0 0 0 0 0 0 0 0 0 0 0 0 0 0 0 0 0 0 0 0 0 0 0 0 0 0 0 0 0 0 
0 0 0 0 0 0 0 0 0 0 0 0 0 0 0 0 0 0 0 0 0 0 0 0 0 0 0 0 0 0 0 0 0 0 0 0 0 0 0 0 0 0 0 0 0 0 0 0 0 0 0 0 0 0 0 0 0 0 0 0 0 0 0 0 0 0 0 0 0 0 0 0 0 0 0 0 0 0 0 0 0 0 0 0 0 0 0 0 0 0 0 0 0 0 0 0 0 0 0 0 0 0 0 62 185 249 246 114 0 47 200 255 180 0 0 0 89 63 8 7 51 44 0 4 41 55 51 40 53 36 16 32 40 42 31 12 22 51 32 31 54 72 112 150 144 148 170 170 140 75 0 0 7 59 75 83 78 69 79 81 107 116 117 109 107 102 105 126 116 70 89 113 59 29 151 253 216 82 21 53 56 116 175 198 196 180 172 180 197 255 255 255 192 83 62 166 250 158 39 0 0 0 0 0 0 0 0 0 0 0 0 0 0 0 0 0 0 0 0 0 0 0 0 0 0 0 0 0 0 0 0 0 0 0 0 0 0 0 0 0 0 0 0 0 0 0 0 0 0 0 0 0 0 0 0 0 0 0 0 0 0 0 0 0 0 0 0 0 0 0 0 0 0 0 0 0 0 0 0 0 0 0 0 0 0 0 0 0 0 0 0 0 0 0 0 0 0 0 0 0 0 0 0 0 0 0 0 0 0 0 0 0 0 0 0 0 0 0 0 0 0 0 0 0 0 0 0 0 0 0 0 0 0 0 0 0 0 0 0 0 0 0 0 0 0 0 0 0 0 0 0 0 0 0 0 0 0 0 0 
0 0 0 0 0 0 0 0 0 0 0 0 0 0 0 0 0 0 0 0 0 0 0 0 0 0 0 0 0 0 0 0 0 0 0 0 0 0 0 0 0 0 0 0 0 0 0 0 0 0 0 0 0 0 0 0 0 0 0 0 0 0 0 0 0 0 0 0 0 0 0 0 0 0 0 0 0 0 0 0 0 0 0 0 0 0 0 0 0 0 0 0 0 0 0 0 0 0 0 0 0 0 94 212 255 198 59 5 88 221 255 164 0 0 0 16 29 0 0 21 43 16 6 34 52 58 51 40 42 29 8 36 38 45 38 23 28 36 27 33 50 47 49 75 100 141 185 179 139 73 0 0 5 67 68 62 78 57 59 63 78 102 98 95 93 96 122 143 108 87 149 177 121 44 75 206 220 104 62 132 99 81 135 212 212 165 167 174 163 175 224 255 255 197 125 102 110 186 252 75 15 0 0 0 0 0 0 0 0 0 0 0 0 0 0 0 0 0 0 0 0 0 0 0 0 0 0 0 0 0 0 0 0 0 0 0 0 0 0 0 0 0 0 0 0 0 0 0 0 0 0 0 0 0 0 0 0 0 0 0 0 0 0 0 0 0 0 0 0 0 0 0 0 0 0 0 0 0 0 0 0 0 0 0 0 0 0 0 0 0 0 0 0 0 0 0 0 0 0 0 0 0 0 0 0 0 0 0 0 0 0 0 0 0 0 0 0 0 0 0 0 0 0 0 0 0 0 0 0 0 0 0 0 0 0 0 0 0 0 0 0 0 0 0 0 0 0 0 0 0 0 0 0 0 0 0 0 0 0 
0 0 0 0 0 0 0 0 0 0 0 0 0 0 0 0 0 0 0 0 0 0 0 0 0 0 0 0 0 0 0 0 0 0 0 0 0 0 0 0 0 0 0 0 0 0 0 0 0 0 0 0 0 0 0 0 0 0 0 0 0 0 0 0 0 0 0 0 0 0 0 0 0 0 0 0 0 0 0 0 0 0 0 0 0 0 0 0 0 0 0 0 0 0 0 0 0 0 0 0 0 124 225 255 161 16 11 134 220 255 165 0 0 22 61 15 11 11 11 41 37 26 49 55 40 47 41 34 35 31 31 51 47 47 40 25 40 40 33 41 47 36 30 55 100 149 194 170 123 83 0 0 18 72 66 58 84 77 70 83 82 88 80 85 102 118 139 128 90 103 175 195 164 100 60 190 170 99 147 187 126 63 83 145 200 152 110 138 152 178 211 227 248 255 255 178 85 74 181 255 137 36 0 0 0 0 0 0 0 0 0 0 0 0 0 0 0 0 0 0 0 0 0 0 0 0 0 0 0 0 0 0 0 0 0 0 0 0 0 0 0 0 0 0 0 0 0 0 0 0 0 0 0 0 0 0 0 0 0 0 0 0 0 0 0 0 0 0 0 0 0 0 0 0 0 0 0 0 0 0 0 0 0 0 0 0 0 0 0 0 0 0 0 0 0 0 0 0 0 0 0 0 0 0 0 0 0 0 0 0 0 0 0 0 0 0 0 0 0 0 0 0 0 0 0 0 0 0 0 0 0 0 0 0 0 0 0 0 0 0 0 0 0 0 0 0 0 0 0 0 0 0 0 0 0 0 0 0 0 
0 0 0 0 0 0 0 0 0 0 0 0 0 0 0 0 0 0 0 0 0 0 0 0 0 0 0 0 0 0 0 0 0 0 0 0 0 0 0 0 0 0 0 0 0 0 0 0 0 0 0 0 0 0 0 0 0 0 0 0 0 0 0 0 0 0 0 0 0 0 0 0 0 0 0 0 0 0 0 0 0 0 0 0 0 0 0 0 0 0 0 0 0 0 0 0 0 0 0 4 128 237 255 125 16 41 153 234 254 144 0 0 0 95 36 0 34 61 50 35 32 40 53 55 41 50 48 32 34 34 45 59 58 42 34 34 51 41 34 47 49 42 45 73 119 165 197 163 120 101 0 0 10 52 49 51 70 72 57 75 92 97 98 103 114 112 103 95 90 108 130 122 106 97 85 110 84 91 202 174 105 79 64 67 154 171 125 127 166 175 198 207 197 216 255 255 191 116 87 116 246 198 29 0 0 0 0 0 0 0 0 0 0 0 0 0 0 0 0 0 0 0 0 0 0 0 0 0 0 0 0 0 0 0 0 0 0 0 0 0 0 0 0 0 0 0 0 0 0 0 0 0 0 0 0 0 0 0 0 0 0 0 0 0 0 0 0 0 0 0 0 0 0 0 0 0 0 0 0 0 0 0 0 0 0 0 0 0 0 0 0 0 0 0 0 0 0 0 0 0 0 0 0 0 0 0 0 0 0 0 0 0 0 0 0 0 0 0 0 0 0 0 0 0 0 0 0 0 0 0 0 0 0 0 0 0 0 0 0 0 0 0 0 0 0 0 0 0 0 0 0 0 0 0 0 0 0 0 0 
0 0 0 0 0 0 0 0 0 0 0 0 0 0 0 0 0 0 0 0 0 0 0 0 0 0 0 0 0 0 0 0 0 0 0 0 0 0 0 0 0 0 0 0 0 0 0 0 0 0 0 0 0 0 0 0 0 0 0 0 0 0 0 0 0 0 0 0 0 0 0 0 0 0 0 0 0 0 0 0 0 0 0 0 0 0 0 0 0 0 0 0 0 0 0 0 0 0 18 143 233 250 96 0 82 171 205 239 146 0 0 0 61 60 0 0 37 54 38 33 45 56 59 51 33 35 46 35 37 36 42 47 45 29 38 44 41 31 33 52 53 45 48 72 116 168 196 168 134 103 0 0 0 18 40 39 48 40 24 31 65 80 82 82 84 86 85 87 90 98 98 91 84 88 85 64 39 81 177 96 94 120 69 41 130 187 173 172 183 171 169 189 190 179 176 213 255 235 134 86 130 229 157 9 0 0 0 0 0 0 0 0 0 0 0 0 0 0 0 0 0 0 0 0 0 0 0 0 0 0 0 0 0 0 0 0 0 0 0 0 0 0 0 0 0 0 0 0 0 0 0 0 0 0 0 0 0 0 0 0 0 0 0 0 0 0 0 0 0 0 0 0 0 0 0 0 0 0 0 0 0 0 0 0 0 0 0 0 0 0 0 0 0 0 0 0 0 0 0 0 0 0 0 0 0 0 0 0 0 0 0 0 0 0 0 0 0 0 0 0 0 0 0 0 0 0 0 0 0 0 0 0 0 0 0 0 0 0 0 0 0 0 0 0 0 0 0 0 0 0 0 0 0 0 0 0 0 0 0 
0 0 0 0 0 0 0 0 0 0 0 0 0 0 0 0 0 0 0 0 0 0 0 0 0 0 0 0 0 0 0 0 0 0 0 0 0 0 0 0 0 0 0 0 0 0 0 0 0 0 0 0 0 0 0 0 0 0 0 0 0 0 0 0 0 0 0 0 0 0 0 0 0 0 0 0 0 0 0 0 0 0 0 0 0 0 0 0 0 0 0 0 0 0 0 0 0 30 156 235 233 79 0 75 182 201 175 128 0 0 0 68 75 38 23 33 37 38 40 55 65 69 63 40 31 38 43 45 46 45 44 41 32 25 36 43 38 33 41 52 52 44 44 76 117 143 188 188 149 97 0 0 0 7 51 48 56 52 43 31 42 54 58 73 69 66 82 91 91 80 79 100 100 91 82 82 91 66 116 146 120 137 53 17 93 170 164 186 170 149 157 171 183 170 155 157 208 255 224 151 120 116 143 147 26 0 0 0 0 0 0 0 0 0 0 0 0 0 0 0 0 0 0 0 0 0 0 0 0 0 0 0 0 0 0 0 0 0 0 0 0 0 0 0 0 0 0 0 0 0 0 0 0 0 0 0 0 0 0 0 0 0 0 0 0 0 0 0 0 0 0 0 0 0 0 0 0 0 0 0 0 0 0 0 0 0 0 0 0 0 0 0 0 0 0 0 0 0 0 0 0 0 0 0 0 0 0 0 0 0 0 0 0 0 0 0 0 0 0 0 0 0 0 0 0 0 0 0 0 0 0 0 0 0 0 0 0 0 0 0 0 0 0 0 0 0 0 0 0 0 0 0 0 0 0 0 0 0 0 
0 0 0 0 0 0 0 0 0 0 0 0 0 0 0 0 0 0 0 0 0 0 0 0 0 0 0 0 0 0 0 0 0 0 0 0 0 0 0 0 0 0 0 0 0 0 0 0 0 0 0 0 0 0 0 0 0 0 0 0 0 0 0 0 0 0 0 0 0 0 0 0 0 0 0 0 0 0 0 0 0 0 0 0 0 0 0 0 0 0 0 0 0 0 0 0 34 162 236 226 63 0 93 202 219 164 95 16 0 0 95 133 72 69 92 60 24 42 54 56 59 50 40 26 44 57 48 49 44 38 43 43 44 51 47 44 45 47 59 56 48 48 44 62 104 147 216 222 161 104 0 0 0 31 62 58 57 74 60 68 79 64 57 70 74 74 75 84 96 90 87 96 87 76 95 101 117 59 54 170 145 145 107 20 31 104 122 186 180 119 160 173 165 147 120 131 138 182 228 221 155 103 92 155 192 12 0 0 0 0 0 0 0 0 0 0 0 0 0 0 0 0 0 0 0 0 0 0 0 0 0 0 0 0 0 0 0 0 0 0 0 0 0 0 0 0 0 0 0 0 0 0 0 0 0 0 0 0 0 0 0 0 0 0 0 0 0 0 0 0 0 0 0 0 0 0 0 0 0 0 0 0 0 0 0 0 0 0 0 0 0 0 0 0 0 0 0 0 0 0 0 0 0 0 0 0 0 0 0 0 0 0 0 0 0 0 0 0 0 0 0 0 0 0 0 0 0 0 0 0 0 0 0 0 0 0 0 0 0 0 0 0 0 0 0 0 0 0 0 0 0 0 0 0 0 0 0 0 0 
0 0 0 0 0 0 0 0 0 0 0 0 0 0 0 0 0 0 0 0 0 0 0 0 0 0 0 0 0 0 0 0 0 0 0 0 0 0 0 0 0 0 0 0 0 0 0 0 0 0 0 0 0 0 0 0 0 0 0 0 0 0 0 0 0 0 0 0 0 0 0 0 0 0 0 0 0 0 0 0 0 0 0 0 0 0 0 0 0 0 0 0 0 0 0 36 167 255 255 122 25 99 213 255 168 80 22 0 0 48 116 77 49 74 80 14 0 39 44 37 41 37 27 29 49 55 46 54 46 36 42 39 47 61 68 87 91 59 57 74 71 62 61 61 69 123 237 250 142 99 8 0 0 24 39 47 44 67 44 54 85 64 37 47 60 83 92 78 79 93 99 108 88 74 106 138 130 95 59 82 130 171 202 49 0 72 143 174 189 137 111 172 189 192 166 122 119 147 203 243 213 143 127 137 183 155 0 0 0 0 0 0 0 0 0 0 0 0 0 0 0 0 0 0 0 0 0 0 0 0 0 0 0 0 0 0 0 0 0 0 0 0 0 0 0 0 0 0 0 0 0 0 0 0 0 0 0 0 0 0 0 0 0 0 0 0 0 0 0 0 0 0 0 0 0 0 0 0 0 0 0 0 0 0 0 0 0 0 0 0 0 0 0 0 0 0 0 0 0 0 0 0 0 0 0 0 0 0 0 0 0 0 0 0 0 0 0 0 0 0 0 0 0 0 0 0 0 0 0 0 0 0 0 0 0 0 0 0 0 0 0 0 0 0 0 0 0 0 0 0 0 0 0 0 0 0 0 0 0 
0 0 0 0 0 0 0 0 0 0 0 0 0 0 0 0 0 0 0 0 0 0 0 0 0 0 0 0 0 0 0 0 0 0 0 0 0 0 0 0 0 0 0 0 0 0 0 0 0 0 0 0 0 0 0 0 0 0 0 0 0 0 0 0 0 0 0 0 0 0 0 0 0 0 0 0 0 0 0 0 0 0 0 0 0 0 0 0 0 0 0 0 0 0 38 169 255 255 149 76 113 183 255 192 71 41 0 0 52 141 59 38 72 57 16 0 10 48 56 45 43 56 50 47 43 36 34 44 44 39 42 40 45 51 62 79 77 29 22 66 76 50 56 64 59 100 194 221 140 93 0 0 0 26 71 85 64 66 33 26 44 7 0 45 63 66 76 84 83 90 102 111 97 73 114 143 126 131 117 45 68 255 255 49 0 66 149 122 151 190 123 132 182 205 219 187 141 149 229 255 248 205 161 152 146 163 115 0 0 0 0 0 0 0 0 0 0 0 0 0 0 0 0 0 0 0 0 0 0 0 0 0 0 0 0 0 0 0 0 0 0 0 0 0 0 0 0 0 0 0 0 0 0 0 0 0 0 0 0 0 0 0 0 0 0 0 0 0 0 0 0 0 0 0 0 0 0 0 0 0 0 0 0 0 0 0 0 0 0 0 0 0 0 0 0 0 0 0 0 0 0 0 0 0 0 0 0 0 0 0 0 0 0 0 0 0 0 0 0 0 0 0 0 0 0 0 0 0 0 0 0 0 0 0 0 0 0 0 0 0 0 0 0 0 0 0 0 0 0 0 0 0 0 0 0 0 0 0 0 
0 0 0 0 0 0 0 0 0 0 0 0 0 0 0 0 0 0 0 0 0 0 0 0 0 0 0 0 0 0 0 0 0 0 0 0 0 0 0 0 0 0 0 0 0 0 0 0 0 0 0 0 0 0 0 0 0 0 0 0 0 0 0 0 0 0 0 0 0 0 0 0 0 0 0 0 0 0 0 0 0 0 0 0 0 0 0 0 0 0 0 0 0 32 173 254 248 136 56 77 122 190 179 66 22 0 0 0 104 82 0 42 91 29 0 12 66 81 77 59 42 59 58 42 35 33 34 37 40 39 40 50 51 45 47 41 8 0 30 83 79 46 47 61 65 99 179 228 161 95 0 0 7 40 89 107 57 53 42 24 45 31 38 49 62 56 45 51 66 97 132 99 73 39 75 94 48 101 129 49 0 173 255 76 0 75 96 16 96 219 180 114 131 143 161 171 169 154 227 255 232 203 190 148 123 125 159 96 0 0 0 0 0 0 0 0 0 0 0 0 0 0 0 0 0 0 0 0 0 0 0 0 0 0 0 0 0 0 0 0 0 0 0 0 0 0 0 0 0 0 0 0 0 0 0 0 0 0 0 0 0 0 0 0 0 0 0 0 0 0 0 0 0 0 0 0 0 0 0 0 0 0 0 0 0 0 0 0 0 0 0 0 0 0 0 0 0 0 0 0 0 0 0 0 0 0 0 0 0 0 0 0 0 0 0 0 0 0 0 0 0 0 0 0 0 0 0 0 0 0 0 0 0 0 0 0 0 0 0 0 0 0 0 0 0 0 0 0 0 0 0 0 0 0 0 0 0 0 0 
0 0 0 0 0 0 0 0 0 0 0 0 0 0 0 0 0 0 0 0 0 0 0 0 0 0 0 0 0 0 0 0 0 0 0 0 0 0 0 0 0 0 0 0 0 0 0 0 0 0 0 0 0 0 0 0 0 0 0 0 0 0 0 0 0 0 0 0 0 0 0 0 0 0 0 0 0 0 0 0 0 0 0 0 0 0 0 0 0 0 0 0 22 151 255 255 113 49 88 118 180 148 51 14 4 0 0 120 150 45 30 88 46 0 0 52 67 61 44 43 33 44 52 36 34 42 48 57 51 46 47 66 67 51 54 62 41 30 64 97 79 90 119 97 97 131 167 232 199 122 13 0 0 10 12 38 1 12 36 19 51 72 72 44 39 49 53 45 46 74 127 111 66 73 76 83 42 78 98 54 25 58 128 91 94 140 85 0 96 203 200 154 122 124 144 135 136 156 161 188 180 173 184 167 114 132 164 159 48 0 0 0 0 0 0 0 0 0 0 0 0 0 0 0 0 0 0 0 0 0 0 0 0 0 0 0 0 0 0 0 0 0 0 0 0 0 0 0 0 0 0 0 0 0 0 0 0 0 0 0 0 0 0 0 0 0 0 0 0 0 0 0 0 0 0 0 0 0 0 0 0 0 0 0 0 0 0 0 0 0 0 0 0 0 0 0 0 0 0 0 0 0 0 0 0 0 0 0 0 0 0 0 0 0 0 0 0 0 0 0 0 0 0 0 0 0 0 0 0 0 0 0 0 0 0 0 0 0 0 0 0 0 0 0 0 0 0 0 0 0 0 0 0 0 0 0 0 0 0 
0 0 0 0 0 0 0 0 0 0 0 0 0 0 0 0 0 0 0 0 0 0 0 0 0 0 0 0 0 0 0 0 0 0 0 0 0 0 0 0 0 0 0 0 0 0 0 0 0 0 0 0 0 0 0 0 0 0 0 0 0 0 0 0 0 0 0 0 0 0 0 0 0 0 0 0 0 0 0 0 0 0 0 0 0 0 0 0 0 0 0 14 146 245 239 123 53 87 142 184 149 38 11 34 0 0 106 236 160 53 90 106 22 0 44 54 49 26 7 31 48 51 75 61 39 54 50 56 60 49 55 60 89 84 96 162 154 77 62 68 32 103 255 255 164 123 157 248 230 132 0 0 0 25 16 48 31 32 50 50 42 43 41 18 41 57 60 72 85 84 105 100 76 132 148 176 145 138 131 73 82 31 60 179 212 173 49 0 96 175 190 213 202 169 171 142 112 130 127 124 150 184 193 195 165 129 154 150 126 9 0 0 0 0 0 0 0 0 0 0 0 0 0 0 0 0 0 0 0 0 0 0 0 0 0 0 0 0 0 0 0 0 0 0 0 0 0 0 0 0 0 0 0 0 0 0 0 0 0 0 0 0 0 0 0 0 0 0 0 0 0 0 0 0 0 0 0 0 0 0 0 0 0 0 0 0 0 0 0 0 0 0 0 0 0 0 0 0 0 0 0 0 0 0 0 0 0 0 0 0 0 0 0 0 0 0 0 0 0 0 0 0 0 0 0 0 0 0 0 0 0 0 0 0 0 0 0 0 0 0 0 0 0 0 0 0 0 0 0 0 0 0 0 0 0 0 0 0 0 
0 0 0 0 0 0 0 0 0 0 0 0 0 0 0 0 0 0 0 0 0 0 0 0 0 0 0 0 0 0 0 0 0 0 0 0 0 0 0 0 0 0 0 0 0 0 0 0 0 0 0 0 0 0 0 0 0 0 0 0 0 0 0 0 0 0 0 0 0 0 0 0 0 0 0 0 0 0 0 0 0 0 0 0 0 0 0 0 0 0 2 120 243 255 140 44 99 135 192 163 31 0 38 39 0 42 255 253 73 3 36 38 0 16 75 68 41 31 47 60 51 39 63 70 30 46 56 45 68 78 71 72 119 153 135 184 185 78 31 38 38 207 255 255 69 0 124 255 255 141 18 0 0 31 45 71 80 50 37 63 79 82 50 16 50 74 69 84 83 84 119 127 104 108 106 125 112 110 115 87 102 83 41 127 198 125 2 0 97 113 173 255 255 186 150 153 156 151 141 167 188 205 219 220 209 166 146 145 149 147 0 0 0 0 0 0 0 0 0 0 0 0 0 0 0 0 0 0 0 0 0 0 0 0 0 0 0 0 0 0 0 0 0 0 0 0 0 0 0 0 0 0 0 0 0 0 0 0 0 0 0 0 0 0 0 0 0 0 0 0 0 0 0 0 0 0 0 0 0 0 0 0 0 0 0 0 0 0 0 0 0 0 0 0 0 0 0 0 0 0 0 0 0 0 0 0 0 0 0 0 0 0 0 0 0 0 0 0 0 0 0 0 0 0 0 0 0 0 0 0 0 0 0 0 0 0 0 0 0 0 0 0 0 0 0 0 0 0 0 0 0 0 0 0 0 0 0 0 0 
0 0 0 0 0 0 0 0 0 0 0 0 0 0 0 0 0 0 0 0 0 0 0 0 0 0 0 0 0 0 0 0 0 0 0 0 0 0 0 0 0 0 0 0 0 0 0 0 0 0 0 0 0 0 0 0 0 0 0 0 0 0 0 0 0 0 0 0 0 0 0 0 0 0 0 0 0 0 0 0 0 0 0 0 0 0 0 0 0 4 111 221 253 150 63 92 143 173 139 51 0 36 73 11 0 165 255 158 3 40 58 21 0 46 87 57 18 26 57 75 52 30 35 45 36 47 64 70 77 90 83 67 93 129 111 108 94 0 0 11 77 229 255 158 0 0 76 255 255 147 49 0 0 64 69 61 44 16 40 76 99 93 48 15 57 76 61 70 63 86 130 118 117 126 91 52 41 90 145 98 100 95 31 79 235 161 25 38 76 42 154 255 245 192 114 120 178 180 147 179 190 171 223 242 234 198 147 134 128 155 119 0 0 0 0 0 0 0 0 0 0 0 0 0 0 0 0 0 0 0 0 0 0 0 0 0 0 0 0 0 0 0 0 0 0 0 0 0 0 0 0 0 0 0 0 0 0 0 0 0 0 0 0 0 0 0 0 0 0 0 0 0 0 0 0 0 0 0 0 0 0 0 0 0 0 0 0 0 0 0 0 0 0 0 0 0 0 0 0 0 0 0 0 0 0 0 0 0 0 0 0 0 0 0 0 0 0 0 0 0 0 0 0 0 0 0 0 0 0 0 0 0 0 0 0 0 0 0 0 0 0 0 0 0 0 0 0 0 0 0 0 0 0 0 0 0 0 0 0 
0 0 0 0 0 0 0 0 0 0 0 0 0 0 0 0 0 0 0 0 0 0 0 0 0 0 0 0 0 0 0 0 0 0 0 0 0 0 0 0 0 0 0 0 0 0 0 0 0 0 0 0 0 0 0 0 0 0 0 0 0 0 0 0 0 0 0 0 0 0 0 0 0 0 0 0 0 0 0 0 0 0 0 0 0 0 0 0 2 89 245 255 154 59 97 115 146 139 47 6 38 91 62 0 82 255 253 10 0 83 56 0 19 65 82 21 1 44 69 91 91 59 42 49 67 84 95 92 69 74 102 81 72 107 103 61 38 0 0 22 109 214 255 146 0 0 78 255 255 116 2 0 41 131 72 101 78 45 58 84 94 57 0 2 67 79 80 80 82 109 136 80 90 168 135 96 121 158 167 115 121 105 36 58 168 209 114 109 40 0 78 226 196 211 153 98 151 156 114 136 189 162 213 252 214 213 174 121 115 133 161 74 0 0 0 0 0 0 0 0 0 0 0 0 0 0 0 0 0 0 0 0 0 0 0 0 0 0 0 0 0 0 0 0 0 0 0 0 0 0 0 0 0 0 0 0 0 0 0 0 0 0 0 0 0 0 0 0 0 0 0 0 0 0 0 0 0 0 0 0 0 0 0 0 0 0 0 0 0 0 0 0 0 0 0 0 0 0 0 0 0 0 0 0 0 0 0 0 0 0 0 0 0 0 0 0 0 0 0 0 0 0 0 0 0 0 0 0 0 0 0 0 0 0 0 0 0 0 0 0 0 0 0 0 0 0 0 0 0 0 0 0 0 0 0 0 0 0 0 
0 0 0 0 0 0 0 0 0 0 0 0 0 0 0 0 0 0 0 0 0 0 0 0 0 0 0 0 0 0 0 0 0 0 0 0 0 0 0 0 0 0 0 0 0 0 0 0 0 0 0 0 0 0 0 0 0 0 0 0 0 0 0 0 0 0 0 0 0 0 0 0 0 0 0 0 0 0 0 0 0 0 0 0 0 0 0 0 61 194 255 210 49 88 160 166 134 68 30 33 84 80 0 9 255 255 100 0 68 88 0 0 66 84 51 7 35 101 133 138 130 89 74 108 100 114 101 87 66 67 121 114 93 147 152 90 48 3 0 51 94 184 255 255 38 0 39 255 255 144 23 0 27 95 48 92 96 76 76 85 47 36 52 42 64 74 104 101 79 82 66 75 110 164 140 79 156 193 102 11 69 138 94 60 46 70 109 174 56 0 31 170 179 202 190 106 144 183 151 147 200 195 207 255 206 220 205 161 111 111 150 156 21 0 0 0 0 0 0 0 0 0 0 0 0 0 0 0 0 0 0 0 0 0 0 0 0 0 0 0 0 0 0 0 0 0 0 0 0 0 0 0 0 0 0 0 0 0 0 0 0 0 0 0 0 0 0 0 0 0 0 0 0 0 0 0 0 0 0 0 0 0 0 0 0 0 0 0 0 0 0 0 0 0 0 0 0 0 0 0 0 0 0 0 0 0 0 0 0 0 0 0 0 0 0 0 0 0 0 0 0 0 0 0 0 0 0 0 0 0 0 0 0 0 0 0 0 0 0 0 0 0 0 0 0 0 0 0 0 0 0 0 0 0 0 0 0 0 0 
0 0 0 0 0 0 0 0 0 0 0 0 0 0 0 0 0 0 0 0 0 0 0 0 0 0 0 0 0 0 0 0 0 0 0 0 0 0 0 0 0 0 0 0 0 0 0 0 0 0 0 0 0 0 0 0 0 0 0 0 0 0 0 0 0 0 0 0 0 0 0 0 0 0 0 0 0 0 0 0 0 0 0 0 0 0 0 34 175 241 172 41 25 109 168 145 77 36 33 41 82 19 0 138 255 186 0 2 123 0 0 28 60 60 38 38 70 105 135 119 87 75 108 145 104 102 107 65 80 92 106 100 65 84 113 99 57 27 9 47 89 165 255 255 18 0 0 238 255 155 75 0 0 0 24 48 67 105 102 71 44 37 77 33 23 40 84 77 29 49 57 86 144 136 111 77 120 145 78 37 64 124 133 55 41 59 140 186 118 16 19 97 157 185 218 165 143 178 177 173 189 179 161 205 218 225 208 159 124 74 114 155 148 0 0 0 0 0 0 0 0 0 0 0 0 0 0 0 0 0 0 0 0 0 0 0 0 0 0 0 0 0 0 0 0 0 0 0 0 0 0 0 0 0 0 0 0 0 0 0 0 0 0 0 0 0 0 0 0 0 0 0 0 0 0 0 0 0 0 0 0 0 0 0 0 0 0 0 0 0 0 0 0 0 0 0 0 0 0 0 0 0 0 0 0 0 0 0 0 0 0 0 0 0 0 0 0 0 0 0 0 0 0 0 0 0 0 0 0 0 0 0 0 0 0 0 0 0 0 0 0 0 0 0 0 0 0 0 0 0 0 0 0 0 0 0 0 0 0 
0 0 0 0 0 0 0 0 0 0 0 0 0 0 0 0 0 0 0 0 0 0 0 0 0 0 0 0 0 0 0 0 0 0 0 0 0 0 0 0 0 0 0 0 0 0 0 0 0 0 0 0 0 0 0 0 0 0 0 0 0 0 0 0 0 0 0 0 0 0 0 0 0 0 0 0 0 0 0 0 0 0 0 0 0 0 6 146 242 198 33 18 101 168 168 87 15 9 25 61 60 0 36 255 255 42 0 142 112 0 0 121 101 42 12 38 77 96 74 52 51 31 75 95 54 69 129 98 101 118 122 117 108 61 83 87 30 41 24 36 110 203 255 255 80 0 0 216 255 183 96 0 0 21 136 85 112 142 53 2 50 42 40 0 0 39 62 36 3 57 94 90 167 177 100 58 61 40 23 65 124 141 92 62 43 29 60 183 143 19 0 27 101 189 217 213 139 126 146 155 166 175 171 201 199 184 180 165 189 130 97 135 141 104 0 0 0 0 0 0 0 0 0 0 0 0 0 0 0 0 0 0 0 0 0 0 0 0 0 0 0 0 0 0 0 0 0 0 0 0 0 0 0 0 0 0 0 0 0 0 0 0 0 0 0 0 0 0 0 0 0 0 0 0 0 0 0 0 0 0 0 0 0 0 0 0 0 0 0 0 0 0 0 0 0 0 0 0 0 0 0 0 0 0 0 0 0 0 0 0 0 0 0 0 0 0 0 0 0 0 0 0 0 0 0 0 0 0 0 0 0 0 0 0 0 0 0 0 0 0 0 0 0 0 0 0 0 0 0 0 0 0 0 0 0 0 0 0 0 
0 0 0 0 0 0 0 0 0 0 0 0 0 0 0 0 0 0 0 0 0 0 0 0 0 0 0 0 0 0 0 0 0 0 0 0 0 0 0 0 0 0 0 0 0 0 0 0 0 0 0 0 0 0 0 0 0 0 0 0 0 0 0 0 0 0 0 0 0 0 0 0 0 0 0 0 0 0 0 0 0 0 0 0 0 0 75 218 242 110 64 128 195 203 111 24 11 35 61 90 34 0 222 255 249 0 77 227 65 0 68 141 113 19 14 81 130 125 59 42 71 53 25 65 110 156 125 109 114 139 143 169 162 105 124 134 57 87 79 46 99 212 255 255 123 0 0 230 255 177 84 0 0 84 184 163 135 116 0 0 72 77 33 19 25 47 57 42 38 69 79 51 118 189 122 74 78 27 28 90 163 171 135 118 52 22 54 210 191 1 0 0 56 188 237 237 147 104 136 153 157 168 176 195 178 148 160 176 198 190 109 108 125 164 53 0 0 0 0 0 0 0 0 0 0 0 0 0 0 0 0 0 0 0 0 0 0 0 0 0 0 0 0 0 0 0 0 0 0 0 0 0 0 0 0 0 0 0 0 0 0 0 0 0 0 0 0 0 0 0 0 0 0 0 0 0 0 0 0 0 0 0 0 0 0 0 0 0 0 0 0 0 0 0 0 0 0 0 0 0 0 0 0 0 0 0 0 0 0 0 0 0 0 0 0 0 0 0 0 0 0 0 0 0 0 0 0 0 0 0 0 0 0 0 0 0 0 0 0 0 0 0 0 0 0 0 0 0 0 0 0 0 0 0 0 0 0 0 0 
0 0 0 0 0 0 0 0 0 0 0 0 0 0 0 0 0 0 0 0 0 0 0 0 0 0 0 0 0 0 0 0 0 0 0 0 0 0 0 0 0 0 0 0 0 0 0 0 0 0 0 0 0 0 0 0 0 0 0 0 0 0 0 0 0 0 0 0 0 0 0 0 0 0 0 0 0 0 0 0 0 0 0 0 0 42 177 243 129 33 146 179 199 141 35 13 34 48 88 78 0 53 255 255 86 0 132 158 0 0 52 74 40 0 27 111 147 108 56 94 110 78 78 98 143 157 90 97 113 132 176 140 112 101 157 226 147 114 67 0 52 197 255 255 65 0 0 212 255 161 80 0 0 48 130 103 12 21 0 41 107 120 58 45 55 54 70 97 139 132 76 57 93 125 78 66 143 154 164 229 207 178 198 158 57 65 90 128 134 0 0 0 7 129 237 230 199 155 145 152 159 153 151 147 122 121 187 221 217 202 159 84 102 154 154 0 0 0 0 0 0 0 0 0 0 0 0 0 0 0 0 0 0 0 0 0 0 0 0 0 0 0 0 0 0 0 0 0 0 0 0 0 0 0 0 0 0 0 0 0 0 0 0 0 0 0 0 0 0 0 0 0 0 0 0 0 0 0 0 0 0 0 0 0 0 0 0 0 0 0 0 0 0 0 0 0 0 0 0 0 0 0 0 0 0 0 0 0 0 0 0 0 0 0 0 0 0 0 0 0 0 0 0 0 0 0 0 0 0 0 0 0 0 0 0 0 0 0 0 0 0 0 0 0 0 0 0 0 0 0 0 0 0 0 0 0 0 0 0 
0 0 0 0 0 0 0 0 0 0 0 0 0 0 0 0 0 0 0 0 0 0 0 0 0 0 0 0 0 0 0 0 0 0 0 0 0 0 0 0 0 0 0 0 0 0 0 0 0 0 0 0 0 0 0 0 0 0 0 0 0 0 0 0 0 0 0 0 0 0 0 0 0 0 0 0 0 0 0 0 0 0 0 0 8 153 251 190 40 55 145 151 130 75 38 47 50 50 88 44 0 198 255 255 0 0 238 80 0 0 66 102 72 32 58 119 126 67 47 109 104 68 124 124 120 102 72 145 177 163 199 97 55 111 190 209 127 79 5 0 2 162 255 255 69 0 0 132 223 193 128 0 0 24 104 123 0 0 19 66 123 121 22 26 71 56 91 147 140 91 42 80 125 128 84 65 122 172 178 236 138 131 195 120 74 121 65 52 118 107 76 39 8 86 178 195 210 199 138 134 149 144 144 145 137 124 205 255 255 226 211 97 53 129 163 81 0 0 0 0 0 0 0 0 0 0 0 0 0 0 0 0 0 0 0 0 0 0 0 0 0 0 0 0 0 0 0 0 0 0 0 0 0 0 0 0 0 0 0 0 0 0 0 0 0 0 0 0 0 0 0 0 0 0 0 0 0 0 0 0 0 0 0 0 0 0 0 0 0 0 0 0 0 0 0 0 0 0 0 0 0 0 0 0 0 0 0 0 0 0 0 0 0 0 0 0 0 0 0 0 0 0 0 0 0 0 0 0 0 0 0 0 0 0 0 0 0 0 0 0 0 0 0 0 0 0 0 0 0 0 0 0 0 0 0 0 0 0 0 
0 0 0 0 0 0 0 0 0 0 0 0 0 0 0 0 0 0 0 0 0 0 0 0 0 0 0 0 0 0 0 0 0 0 0 0 0 0 0 0 0 0 0 0 0 0 0 0 0 0 0 0 0 0 0 0 0 0 0 0 0 0 0 0 0 0 0 0 0 0 0 0 0 0 0 0 0 0 0 0 0 0 0 2 83 229 235 52 28 144 197 170 93 46 48 50 51 77 106 36 0 255 255 26 0 82 224 0 0 47 157 155 48 9 109 160 132 73 58 75 62 66 93 127 138 165 167 201 195 183 203 106 87 189 195 135 131 98 0 0 37 124 255 255 170 0 0 84 213 212 117 0 0 66 161 105 11 20 134 146 135 58 0 54 103 52 85 125 70 22 60 105 106 143 137 134 168 146 75 79 11 94 167 102 87 99 48 0 79 188 169 96 52 69 134 214 248 225 131 109 142 145 147 156 169 183 207 219 234 220 214 139 55 111 141 139 1 0 0 0 0 0 0 0 0 0 0 0 0 0 0 0 0 0 0 0 0 0 0 0 0 0 0 0 0 0 0 0 0 0 0 0 0 0 0 0 0 0 0 0 0 0 0 0 0 0 0 0 0 0 0 0 0 0 0 0 0 0 0 0 0 0 0 0 0 0 0 0 0 0 0 0 0 0 0 0 0 0 0 0 0 0 0 0 0 0 0 0 0 0 0 0 0 0 0 0 0 0 0 0 0 0 0 0 0 0 0 0 0 0 0 0 0 0 0 0 0 0 0 0 0 0 0 0 0 0 0 0 0 0 0 0 0 0 0 0 0 0 0 
0 0 0 0 0 0 0 0 0 0 0 0 0 0 0 0 0 0 0 0 0 0 0 0 0 0 0 0 0 0 0 0 0 0 0 0 0 0 0 0 0 0 0 0 0 0 0 0 0 0 0 0 0 0 0 0 0 0 0 0 0 0 0 0 0 0 0 0 0 0 0 0 0 0 0 0 0 0 0 0 0 0 0 27 191 252 109 0 96 209 206 130 61 36 45 36 34 112 100 0 94 255 255 0 65 170 95 0 0 78 137 109 0 16 174 191 95 55 84 91 75 94 125 161 140 170 223 189 122 105 110 157 175 179 172 120 164 168 18 0 52 81 255 255 185 0 0 136 247 200 105 0 0 48 90 64 77 64 148 155 79 0 0 81 77 38 89 119 76 71 136 135 86 95 99 109 181 167 60 3 9 73 91 67 58 56 115 52 3 82 89 31 30 42 103 223 255 230 147 97 122 145 147 150 150 174 182 170 186 185 158 153 88 83 117 131 126 0 0 0 0 0 0 0 0 0 0 0 0 0 0 0 0 0 0 0 0 0 0 0 0 0 0 0 0 0 0 0 0 0 0 0 0 0 0 0 0 0 0 0 0 0 0 0 0 0 0 0 0 0 0 0 0 0 0 0 0 0 0 0 0 0 0 0 0 0 0 0 0 0 0 0 0 0 0 0 0 0 0 0 0 0 0 0 0 0 0 0 0 0 0 0 0 0 0 0 0 0 0 0 0 0 0 0 0 0 0 0 0 0 0 0 0 0 0 0 0 0 0 0 0 0 0 0 0 0 0 0 0 0 0 0 0 0 0 0 0 0 0 
0 0 0 0 0 0 0 0 0 0 0 0 0 0 0 0 0 0 0 0 0 0 0 0 0 0 0 0 0 0 0 0 0 0 0 0 0 0 0 0 0 0 0 0 0 0 0 0 0 0 0 0 0 0 0 0 0 0 0 0 0 0 0 0 0 0 0 0 0 0 0 0 0 0 0 0 0 0 0 0 0 0 4 105 246 195 0 46 194 235 157 68 37 28 39 48 62 134 53 0 190 255 211 10 196 161 0 0 94 89 54 12 0 90 181 155 67 65 124 116 68 110 134 161 152 111 176 138 107 97 104 148 119 87 147 181 190 164 68 0 13 58 255 255 181 0 0 97 229 189 166 27 0 0 39 48 122 94 86 84 18 0 21 41 28 31 97 119 80 57 80 70 39 77 82 89 154 113 37 43 112 97 74 71 135 99 82 56 0 46 82 38 23 41 74 152 205 182 152 107 107 132 142 132 124 143 162 150 177 204 174 164 125 75 77 85 130 39 0 0 0 0 0 0 0 0 0 0 0 0 0 0 0 0 0 0 0 0 0 0 0 0 0 0 0 0 0 0 0 0 0 0 0 0 0 0 0 0 0 0 0 0 0 0 0 0 0 0 0 0 0 0 0 0 0 0 0 0 0 0 0 0 0 0 0 0 0 0 0 0 0 0 0 0 0 0 0 0 0 0 0 0 0 0 0 0 0 0 0 0 0 0 0 0 0 0 0 0 0 0 0 0 0 0 0 0 0 0 0 0 0 0 0 0 0 0 0 0 0 0 0 0 0 0 0 0 0 0 0 0 0 0 0 0 0 0 0 0 0 
0 0 0 0 0 0 0 0 0 0 0 0 0 0 0 0 0 0 0 0 0 0 0 0 0 0 0 0 0 0 0 0 0 0 0 0 0 0 0 0 0 0 0 0 0 0 0 0 0 0 0 0 0 0 0 0 0 0 0 0 0 0 0 0 0 0 0 0 0 0 0 0 0 0 0 0 0 0 0 0 0 0 46 201 248 76 0 155 239 190 104 66 45 32 45 50 81 124 0 0 255 255 87 19 155 88 0 0 83 46 22 20 58 145 162 77 33 70 90 52 48 145 171 127 88 65 142 108 105 137 156 130 60 81 200 239 183 145 73 0 0 49 244 255 207 44 0 0 141 188 223 116 0 0 113 135 157 44 31 64 25 28 22 63 79 83 101 100 64 23 22 29 33 82 102 174 179 91 63 62 116 102 84 151 184 75 0 0 0 0 78 109 56 65 51 89 212 206 148 119 112 110 150 155 153 161 168 168 192 223 224 189 140 106 91 62 106 152 0 0 0 0 0 0 0 0 0 0 0 0 0 0 0 0 0 0 0 0 0 0 0 0 0 0 0 0 0 0 0 0 0 0 0 0 0 0 0 0 0 0 0 0 0 0 0 0 0 0 0 0 0 0 0 0 0 0 0 0 0 0 0 0 0 0 0 0 0 0 0 0 0 0 0 0 0 0 0 0 0 0 0 0 0 0 0 0 0 0 0 0 0 0 0 0 0 0 0 0 0 0 0 0 0 0 0 0 0 0 0 0 0 0 0 0 0 0 0 0 0 0 0 0 0 0 0 0 0 0 0 0 0 0 0 0 0 0 0 0 0 
0 0 0 0 0 0 0 0 0 0 0 0 0 0 0 0 0 0 0 0 0 0 0 0 0 0 0 0 0 0 0 0 0 0 0 0 0 0 0 0 0 0 0 0 0 0 0 0 0 0 0 0 0 0 0 0 0 0 0 0 0 0 0 0 0 0 0 0 0 0 0 0 0 0 0 0 0 0 0 0 0 6 131 249 170 0 64 230 231 126 91 74 31 30 58 52 98 109 0 65 255 255 0 0 80 46 0 40 51 0 16 56 101 132 76 2 49 150 136 103 149 218 216 113 94 118 166 166 129 150 155 143 114 188 245 193 183 171 52 0 0 18 223 255 255 75 0 0 129 221 227 130 0 0 120 165 105 40 23 20 14 25 39 99 121 88 67 92 68 59 50 60 79 95 109 166 147 66 59 52 71 111 80 187 154 26 5 34 34 13 51 85 78 87 49 37 170 227 163 144 129 123 147 171 168 162 160 170 191 223 211 168 141 135 95 55 98 195 135 0 0 0 0 0 0 0 0 0 0 0 0 0 0 0 0 0 0 0 0 0 0 0 0 0 0 0 0 0 0 0 0 0 0 0 0 0 0 0 0 0 0 0 0 0 0 0 0 0 0 0 0 0 0 0 0 0 0 0 0 0 0 0 0 0 0 0 0 0 0 0 0 0 0 0 0 0 0 0 0 0 0 0 0 0 0 0 0 0 0 0 0 0 0 0 0 0 0 0 0 0 0 0 0 0 0 0 0 0 0 0 0 0 0 0 0 0 0 0 0 0 0 0 0 0 0 0 0 0 0 0 0 0 0 0 0 0 0 0 0 
0 0 0 0 0 0 0 0 0 0 0 0 0 0 0 0 0 0 0 0 0 0 0 0 0 0 0 0 0 0 0 0 0 0 0 0 0 0 0 0 0 0 0 0 0 0 0 0 0 0 0 0 0 0 0 0 0 0 0 0 0 0 0 0 0 0 0 0 0 0 0 0 0 0 0 0 0 0 0 0 0 51 228 243 44 0 166 255 184 93 94 59 0 14 51 72 145 89 0 168 255 251 0 16 115 0 0 88 68 51 95 54 77 95 45 15 64 187 155 122 176 194 189 141 143 183 225 203 158 202 199 210 191 229 213 64 147 174 29 0 0 10 180 255 255 0 0 0 103 194 201 132 0 0 51 83 13 40 23 2 44 87 79 113 112 65 43 60 20 23 43 96 106 94 100 105 85 22 63 94 82 103 101 180 132 55 93 104 80 74 79 78 137 111 0 0 67 173 179 185 125 129 143 168 153 143 140 170 188 205 200 182 182 162 92 24 61 141 184 0 0 0 0 0 0 0 0 0 0 0 0 0 0 0 0 0 0 0 0 0 0 0 0 0 0 0 0 0 0 0 0 0 0 0 0 0 0 0 0 0 0 0 0 0 0 0 0 0 0 0 0 0 0 0 0 0 0 0 0 0 0 0 0 0 0 0 0 0 0 0 0 0 0 0 0 0 0 0 0 0 0 0 0 0 0 0 0 0 0 0 0 0 0 0 0 0 0 0 0 0 0 0 0 0 0 0 0 0 0 0 0 0 0 0 0 0 0 0 0 0 0 0 0 0 0 0 0 0 0 0 0 0 0 0 0 0 0 0 0 
0 0 0 0 0 0 0 0 0 0 0 0 0 0 0 0 0 0 0 0 0 0 0 0 0 0 0 0 0 0 0 0 0 0 0 0 0 0 0 0 0 0 0 0 0 0 0 0 0 0 0 0 0 0 0 0 0 0 0 0 0 0 0 0 0 0 0 0 0 0 0 0 0 0 0 0 0 0 0 0 4 140 255 173 0 89 235 231 117 53 55 31 7 34 55 103 162 36 0 221 255 91 0 156 227 3 0 104 52 69 109 82 104 133 118 111 106 168 120 72 88 124 199 145 158 211 212 206 186 230 204 156 125 107 26 0 133 185 59 0 0 33 176 255 255 0 0 0 89 186 171 123 0 0 1 73 98 80 28 42 137 163 84 68 77 47 0 15 15 7 64 134 115 67 73 66 74 81 105 165 129 55 92 166 167 64 113 86 16 28 42 90 178 142 7 0 37 167 249 196 112 106 121 138 149 136 125 146 166 187 192 193 217 202 142 73 75 122 163 98 0 0 0 0 0 0 0 0 0 0 0 0 0 0 0 0 0 0 0 0 0 0 0 0 0 0 0 0 0 0 0 0 0 0 0 0 0 0 0 0 0 0 0 0 0 0 0 0 0 0 0 0 0 0 0 0 0 0 0 0 0 0 0 0 0 0 0 0 0 0 0 0 0 0 0 0 0 0 0 0 0 0 0 0 0 0 0 0 0 0 0 0 0 0 0 0 0 0 0 0 0 0 0 0 0 0 0 0 0 0 0 0 0 0 0 0 0 0 0 0 0 0 0 0 0 0 0 0 0 0 0 0 0 0 0 0 0 0 0 
0 0 0 0 0 0 0 0 0 0 0 0 0 0 0 0 0 0 0 0 0 0 0 0 0 0 0 0 0 0 0 0 0 0 0 0 0 0 0 0 0 0 0 0 0 0 0 0 0 0 0 0 0 0 0 0 0 0 0 0 0 0 0 0 0 0 0 0 0 0 0 0 0 0 0 0 0 0 0 0 42 235 255 47 0 179 249 173 87 46 32 28 38 70 92 148 146 0 0 255 255 127 67 183 198 18 24 129 69 17 27 60 147 146 101 89 81 158 174 73 89 172 192 131 152 168 136 212 204 148 131 35 0 0 0 68 146 137 41 0 0 36 196 255 255 0 0 0 146 218 196 147 0 0 10 89 156 114 13 94 191 145 36 3 2 0 0 0 53 84 112 117 70 50 80 85 117 149 155 142 113 39 102 122 84 0 21 84 52 30 14 61 160 157 53 24 18 118 234 190 171 150 136 124 152 140 137 138 156 168 171 163 184 200 146 118 132 129 99 135 0 0 0 0 0 0 0 0 0 0 0 0 0 0 0 0 0 0 0 0 0 0 0 0 0 0 0 0 0 0 0 0 0 0 0 0 0 0 0 0 0 0 0 0 0 0 0 0 0 0 0 0 0 0 0 0 0 0 0 0 0 0 0 0 0 0 0 0 0 0 0 0 0 0 0 0 0 0 0 0 0 0 0 0 0 0 0 0 0 0 0 0 0 0 0 0 0 0 0 0 0 0 0 0 0 0 0 0 0 0 0 0 0 0 0 0 0 0 0 0 0 0 0 0 0 0 0 0 0 0 0 0 0 0 0 0 0 0 0 
0 0 0 0 0 0 0 0 0 0 0 0 0 0 0 0 0 0 0 0 0 0 0 0 0 0 0 0 0 0 0 0 0 0 0 0 0 0 0 0 0 0 0 0 0 0 0 0 0 0 0 0 0 0 0 0 0 0 0 0 0 0 0 0 0 0 0 0 0 0 0 0 0 0 0 0 0 0 0 4 140 255 185 0 98 238 221 125 67 49 51 56 70 91 114 164 107 0 95 255 255 200 97 125 78 0 24 127 87 9 5 70 138 83 3 19 89 148 149 79 130 168 138 75 78 104 98 153 120 72 104 59 0 51 96 221 206 94 24 0 0 44 144 255 255 172 0 38 162 211 195 171 69 0 8 103 126 71 0 114 159 68 0 9 0 0 35 63 74 87 87 51 8 50 99 107 135 132 180 175 148 123 91 55 4 3 62 123 86 42 52 68 111 100 0 0 3 85 160 172 201 181 153 154 156 129 137 139 166 176 169 158 164 172 129 114 139 91 52 147 107 0 0 0 0 0 0 0 0 0 0 0 0 0 0 0 0 0 0 0 0 0 0 0 0 0 0 0 0 0 0 0 0 0 0 0 0 0 0 0 0 0 0 0 0 0 0 0 0 0 0 0 0 0 0 0 0 0 0 0 0 0 0 0 0 0 0 0 0 0 0 0 0 0 0 0 0 0 0 0 0 0 0 0 0 0 0 0 0 0 0 0 0 0 0 0 0 0 0 0 0 0 0 0 0 0 0 0 0 0 0 0 0 0 0 0 0 0 0 0 0 0 0 0 0 0 0 0 0 0 0 0 0 0 0 0 0 0 0 
0 0 0 0 0 0 0 0 0 0 0 0 0 0 0 0 0 0 0 0 0 0 0 0 0 0 0 0 0 0 0 0 0 0 0 0 0 0 0 0 0 0 0 0 0 0 0 0 0 0 0 0 0 0 0 0 0 0 0 0 0 0 0 0 0 0 0 0 0 0 0 0 0 0 0 0 0 0 0 22 233 255 56 0 201 238 167 113 74 53 62 80 91 101 106 140 58 0 220 255 255 55 29 149 21 0 35 75 16 0 0 107 119 52 17 59 147 212 159 114 170 184 152 95 31 75 81 85 75 83 145 111 118 159 127 160 122 118 137 0 0 24 123 240 255 255 178 73 58 163 174 142 62 0 0 67 107 54 0 58 98 41 24 23 8 42 107 116 43 39 37 13 30 69 97 91 112 91 138 148 83 169 99 0 35 102 142 140 84 0 38 60 68 97 22 6 22 66 127 154 197 144 100 127 134 125 130 125 154 184 170 171 159 171 144 120 136 64 42 134 179 0 0 0 0 0 0 0 0 0 0 0 0 0 0 0 0 0 0 0 0 0 0 0 0 0 0 0 0 0 0 0 0 0 0 0 0 0 0 0 0 0 0 0 0 0 0 0 0 0 0 0 0 0 0 0 0 0 0 0 0 0 0 0 0 0 0 0 0 0 0 0 0 0 0 0 0 0 0 0 0 0 0 0 0 0 0 0 0 0 0 0 0 0 0 0 0 0 0 0 0 0 0 0 0 0 0 0 0 0 0 0 0 0 0 0 0 0 0 0 0 0 0 0 0 0 0 0 0 0 0 0 0 0 0 0 0 0 0 
0 0 0 0 0 0 0 0 0 0 0 0 0 0 0 0 0 0 0 0 0 0 0 0 0 0 0 0 0 0 0 0 0 0 0 0 0 0 0 0 0 0 0 0 0 0 0 0 0 0 0 0 0 0 0 0 0 0 0 0 0 0 0 0 0 0 0 0 0 0 0 0 0 0 0 0 0 0 2 89 255 215 0 77 227 191 119 104 93 75 84 93 83 86 93 129 23 0 255 255 207 0 61 168 0 0 16 4 0 11 52 102 116 91 69 86 174 200 132 147 184 169 164 115 88 118 143 147 204 226 169 86 118 95 93 130 29 92 181 50 0 0 144 255 255 255 127 0 0 132 146 106 39 0 0 66 107 80 5 55 101 77 39 0 2 57 108 79 19 37 32 30 61 88 102 110 128 89 78 64 0 58 45 0 95 172 158 73 65 69 62 43 63 95 69 91 77 40 75 161 255 159 88 104 111 129 140 135 152 173 147 150 160 166 151 122 126 86 28 45 135 69 0 0 0 0 0 0 0 0 0 0 0 0 0 0 0 0 0 0 0 0 0 0 0 0 0 0 0 0 0 0 0 0 0 0 0 0 0 0 0 0 0 0 0 0 0 0 0 0 0 0 0 0 0 0 0 0 0 0 0 0 0 0 0 0 0 0 0 0 0 0 0 0 0 0 0 0 0 0 0 0 0 0 0 0 0 0 0 0 0 0 0 0 0 0 0 0 0 0 0 0 0 0 0 0 0 0 0 0 0 0 0 0 0 0 0 0 0 0 0 0 0 0 0 0 0 0 0 0 0 0 0 0 0 0 0 0 0 
0 0 0 0 0 0 0 0 0 0 0 0 0 0 0 0 0 0 0 0 0 0 0 0 0 0 0 0 0 0 0 0 0 0 0 0 0 0 0 0 0 0 0 0 0 0 0 0 0 0 0 0 0 0 0 0 0 0 0 0 0 0 0 0 0 0 0 0 0 0 0 0 0 0 0 0 0 0 13 194 255 133 0 160 228 157 98 79 82 83 77 60 52 61 94 135 9 0 255 255 38 0 126 145 0 0 12 23 72 118 86 63 102 85 29 76 208 174 89 107 122 95 29 31 97 91 156 161 204 193 173 112 57 111 184 168 80 144 205 0 0 0 99 255 255 255 23 0 0 108 159 123 60 0 12 66 109 96 84 115 108 79 48 11 46 82 96 57 50 68 51 55 85 98 96 103 112 75 43 41 56 86 31 0 180 220 156 50 54 122 70 21 27 54 48 45 55 28 91 174 255 224 142 124 100 123 137 141 161 173 147 142 169 180 182 141 128 116 30 0 81 136 0 0 0 0 0 0 0 0 0 0 0 0 0 0 0 0 0 0 0 0 0 0 0 0 0 0 0 0 0 0 0 0 0 0 0 0 0 0 0 0 0 0 0 0 0 0 0 0 0 0 0 0 0 0 0 0 0 0 0 0 0 0 0 0 0 0 0 0 0 0 0 0 0 0 0 0 0 0 0 0 0 0 0 0 0 0 0 0 0 0 0 0 0 0 0 0 0 0 0 0 0 0 0 0 0 0 0 0 0 0 0 0 0 0 0 0 0 0 0 0 0 0 0 0 0 0 0 0 0 0 0 0 0 0 0 0 0 
0 0 0 0 0 0 0 0 0 0 0 0 0 0 0 0 0 0 0 0 0 0 0 0 0 0 0 0 0 0 0 0 0 0 0 0 0 0 0 0 0 0 0 0 0 0 0 0 0 0 0 0 0 0 0 0 0 0 0 0 0 0 0 0 0 0 0 0 0 0 0 0 0 0 0 0 0 0 58 255 255 44 57 219 204 125 86 65 59 62 57 59 62 67 123 128 0 48 255 255 0 0 92 58 0 0 12 48 103 95 30 40 77 46 0 92 216 157 126 165 129 61 11 50 86 95 112 76 69 93 135 135 69 146 196 133 75 242 250 21 0 0 54 218 255 255 42 0 0 108 166 105 57 0 14 41 59 123 125 123 39 17 59 66 44 81 82 48 43 80 52 34 63 61 62 61 60 40 39 54 85 80 81 94 124 130 74 45 71 83 24 3 41 72 85 81 83 48 82 131 230 255 147 109 91 109 136 142 150 158 156 162 173 161 180 191 155 135 95 0 7 123 37 0 0 0 0 0 0 0 0 0 0 0 0 0 0 0 0 0 0 0 0 0 0 0 0 0 0 0 0 0 0 0 0 0 0 0 0 0 0 0 0 0 0 0 0 0 0 0 0 0 0 0 0 0 0 0 0 0 0 0 0 0 0 0 0 0 0 0 0 0 0 0 0 0 0 0 0 0 0 0 0 0 0 0 0 0 0 0 0 0 0 0 0 0 0 0 0 0 0 0 0 0 0 0 0 0 0 0 0 0 0 0 0 0 0 0 0 0 0 0 0 0 0 0 0 0 0 0 0 0 0 0 0 0 0 0 0 
0 0 0 0 0 0 0 0 0 0 0 0 0 0 0 0 0 0 0 0 0 0 0 0 0 0 0 0 0 0 0 0 0 0 0 0 0 0 0 0 0 0 0 0 0 0 0 0 0 0 0 0 0 0 0 0 0 0 0 0 0 0 0 0 0 0 0 0 0 0 0 0 0 0 0 0 0 4 144 255 184 0 122 206 149 108 96 93 83 71 56 61 70 86 149 98 0 172 255 240 0 0 106 70 0 0 9 41 40 25 8 51 99 95 79 177 185 63 101 166 144 65 57 197 189 126 122 129 46 34 144 115 0 153 219 61 46 224 207 129 0 0 66 219 255 255 17 0 0 116 140 54 3 0 40 114 59 122 154 91 0 0 97 95 46 81 79 27 15 41 5 0 51 57 33 33 69 87 54 82 122 93 157 133 41 44 16 61 78 27 15 31 56 87 121 92 98 41 17 128 255 255 115 43 59 108 147 146 133 127 145 149 142 122 142 136 125 126 116 23 0 65 153 0 0 0 0 0 0 0 0 0 0 0 0 0 0 0 0 0 0 0 0 0 0 0 0 0 0 0 0 0 0 0 0 0 0 0 0 0 0 0 0 0 0 0 0 0 0 0 0 0 0 0 0 0 0 0 0 0 0 0 0 0 0 0 0 0 0 0 0 0 0 0 0 0 0 0 0 0 0 0 0 0 0 0 0 0 0 0 0 0 0 0 0 0 0 0 0 0 0 0 0 0 0 0 0 0 0 0 0 0 0 0 0 0 0 0 0 0 0 0 0 0 0 0 0 0 0 0 0 0 0 0 0 0 0 0 0 
0 0 0 0 0 0 0 0 0 0 0 0 0 0 0 0 0 0 0 0 0 0 0 0 0 0 0 0 0 0 0 0 0 0 0 0 0 0 0 0 0 0 0 0 0 0 0 0 0 0 0 0 0 0 0 0 0 0 0 0 0 0 0 0 0 0 0 0 0 0 0 0 0 0 0 0 0 26 232 255 88 0 167 188 128 120 102 98 94 93 87 73 60 80 147 46 0 178 255 136 0 57 141 99 0 0 77 69 16 1 51 62 72 150 131 149 151 70 133 134 159 73 43 228 234 155 111 125 71 19 116 113 87 177 167 0 0 107 155 86 0 0 43 212 255 251 0 0 0 114 113 74 39 31 82 116 75 102 137 46 0 0 107 157 64 43 56 17 42 40 16 5 50 75 76 76 74 150 118 128 157 126 163 108 45 136 153 99 61 22 50 62 49 62 62 25 77 75 6 127 255 255 143 66 59 87 124 137 127 116 134 138 113 100 133 149 137 128 109 56 0 21 183 12 0 0 0 0 0 0 0 0 0 0 0 0 0 0 0 0 0 0 0 0 0 0 0 0 0 0 0 0 0 0 0 0 0 0 0 0 0 0 0 0 0 0 0 0 0 0 0 0 0 0 0 0 0 0 0 0 0 0 0 0 0 0 0 0 0 0 0 0 0 0 0 0 0 0 0 0 0 0 0 0 0 0 0 0 0 0 0 0 0 0 0 0 0 0 0 0 0 0 0 0 0 0 0 0 0 0 0 0 0 0 0 0 0 0 0 0 0 0 0 0 0 0 0 0 0 0 0 0 0 0 0 0 0 0 0 
0 0 0 0 0 0 0 0 0 0 0 0 0 0 0 0 0 0 0 0 0 0 0 0 0 0 0 0 0 0 0 0 0 0 0 0 0 0 0 0 0 0 0 0 0 0 0 0 0 0 0 0 0 0 0 0 0 0 0 0 0 0 0 0 0 0 0 0 0 0 0 0 0 0 0 0 2 81 255 255 0 65 217 185 130 129 108 82 81 86 86 87 95 118 149 5 0 167 255 4 0 29 65 0 0 0 112 60 22 35 124 118 105 155 76 39 134 101 149 148 161 158 93 174 134 104 145 133 84 125 222 137 143 146 35 0 0 70 102 15 0 0 39 143 255 195 0 0 0 61 98 116 88 64 46 42 33 69 102 49 0 0 82 124 48 0 2 2 44 48 36 51 82 83 77 96 114 135 99 71 118 66 55 89 55 134 157 104 47 35 60 84 77 56 47 42 98 123 13 68 140 159 138 99 44 75 110 128 121 116 117 142 144 118 146 177 163 153 106 83 0 0 152 163 0 0 0 0 0 0 0 0 0 0 0 0 0 0 0 0 0 0 0 0 0 0 0 0 0 0 0 0 0 0 0 0 0 0 0 0 0 0 0 0 0 0 0 0 0 0 0 0 0 0 0 0 0 0 0 0 0 0 0 0 0 0 0 0 0 0 0 0 0 0 0 0 0 0 0 0 0 0 0 0 0 0 0 0 0 0 0 0 0 0 0 0 0 0 0 0 0 0 0 0 0 0 0 0 0 0 0 0 0 0 0 0 0 0 0 0 0 0 0 0 0 0 0 0 0 0 0 0 0 0 0 0 0 0 0 
0 0 0 0 0 0 0 0 0 0 0 0 0 0 0 0 0 0 0 0 0 0 0 0 0 0 0 0 0 0 0 0 0 0 0 0 0 0 0 0 0 0 0 0 0 0 0 0 0 0 0 0 0 0 0 0 0 0 0 0 0 0 0 0 0 0 0 0 0 0 0 0 0 0 0 0 5 161 255 164 0 126 219 154 115 99 108 91 74 77 76 71 73 115 136 3 0 224 255 137 0 28 88 66 15 13 92 45 31 64 126 117 75 136 80 23 117 53 62 138 144 129 120 205 134 93 111 96 202 251 255 255 172 57 5 80 116 186 131 72 0 0 35 128 246 230 56 0 0 19 84 132 64 0 0 10 14 41 50 12 24 20 66 65 45 0 0 27 34 42 55 83 105 120 88 70 100 104 39 29 78 67 91 116 78 97 86 52 77 77 38 42 77 59 31 48 146 128 7 20 93 109 157 88 2 38 93 126 115 105 115 125 139 115 117 157 163 127 89 83 29 0 137 244 0 0 0 0 0 0 0 0 0 0 0 0 0 0 0 0 0 0 0 0 0 0 0 0 0 0 0 0 0 0 0 0 0 0 0 0 0 0 0 0 0 0 0 0 0 0 0 0 0 0 0 0 0 0 0 0 0 0 0 0 0 0 0 0 0 0 0 0 0 0 0 0 0 0 0 0 0 0 0 0 0 0 0 0 0 0 0 0 0 0 0 0 0 0 0 0 0 0 0 0 0 0 0 0 0 0 0 0 0 0 0 0 0 0 0 0 0 0 0 0 0 0 0 0 0 0 0 0 0 0 0 0 0 0 0 
0 0 0 0 0 0 0 0 0 0 0 0 0 0 0 0 0 0 0 0 0 0 0 0 0 0 0 0 0 0 0 0 0 0 0 0 0 0 0 0 0 0 0 0 0 0 0 0 0 0 0 0 0 0 0 0 0 0 0 0 0 0 0 0 0 0 0 0 0 0 0 0 0 0 0 0 22 235 255 61 0 193 200 122 103 70 82 95 91 86 97 113 85 126 118 0 48 255 255 127 0 153 206 89 16 16 81 89 36 30 72 73 50 80 111 86 69 74 91 139 123 102 119 186 185 125 153 132 202 211 185 215 182 90 93 139 184 222 171 95 0 0 15 79 209 255 255 64 0 25 121 132 39 0 12 97 65 41 110 31 17 35 67 54 41 1 5 65 40 28 82 116 122 100 88 86 83 44 45 102 121 136 123 95 97 100 42 0 17 28 21 46 92 75 29 54 124 111 0 0 83 146 212 119 27 16 66 112 114 112 105 103 113 99 73 99 137 123 98 94 68 0 100 240 44 0 0 0 0 0 0 0 0 0 0 0 0 0 0 0 0 0 0 0 0 0 0 0 0 0 0 0 0 0 0 0 0 0 0 0 0 0 0 0 0 0 0 0 0 0 0 0 0 0 0 0 0 0 0 0 0 0 0 0 0 0 0 0 0 0 0 0 0 0 0 0 0 0 0 0 0 0 0 0 0 0 0 0 0 0 0 0 0 0 0 0 0 0 0 0 0 0 0 0 0 0 0 0 0 0 0 0 0 0 0 0 0 0 0 0 0 0 0 0 0 0 0 0 0 0 0 0 0 0 0 0 0 0 0 
0 0 0 0 0 0 0 0 0 0 0 0 0 0 0 0 0 0 0 0 0 0 0 0 0 0 0 0 0 0 0 0 0 0 0 0 0 0 0 0 0 0 0 0 0 0 0 0 0 0 0 0 0 0 0 0 0 0 0 0 0 0 0 0 0 0 0 0 0 0 0 0 0 0 0 0 70 255 236 0 52 236 184 111 104 93 103 101 89 94 97 102 105 140 73 0 49 255 255 76 77 191 119 0 0 0 17 38 33 54 70 49 72 104 124 110 65 128 194 153 111 128 119 120 130 130 164 224 239 104 16 35 52 45 115 106 129 54 0 41 6 0 21 79 216 255 255 0 0 25 90 104 38 32 72 81 71 89 155 57 16 76 91 97 37 28 34 59 32 44 81 86 85 49 60 65 62 52 105 154 110 95 90 57 105 98 5 0 5 26 12 59 94 69 47 57 62 73 0 0 63 145 223 157 41 3 50 117 125 99 94 100 95 99 88 82 128 127 104 110 84 0 34 182 117 0 0 0 0 0 0 0 0 0 0 0 0 0 0 0 0 0 0 0 0 0 0 0 0 0 0 0 0 0 0 0 0 0 0 0 0 0 0 0 0 0 0 0 0 0 0 0 0 0 0 0 0 0 0 0 0 0 0 0 0 0 0 0 0 0 0 0 0 0 0 0 0 0 0 0 0 0 0 0 0 0 0 0 0 0 0 0 0 0 0 0 0 0 0 0 0 0 0 0 0 0 0 0 0 0 0 0 0 0 0 0 0 0 0 0 0 0 0 0 0 0 0 0 0 0 0 0 0 0 0 0 0 0 0 
0 0 0 0 0 0 0 0 0 0 0 0 0 0 0 0 0 0 0 0 0 0 0 0 0 0 0 0 0 0 0 0 0 0 0 0 0 0 0 0 0 0 0 0 0 0 0 0 0 0 0 0 0 0 0 0 0 0 0 0 0 0 0 0 0 0 0 0 0 0 0 0 0 0 0 2 155 255 166 0 133 220 155 106 111 117 130 143 106 70 70 98 116 125 36 0 124 255 255 0 80 190 51 0 0 0 3 34 37 42 63 46 57 98 86 90 117 157 132 71 112 171 155 111 120 101 89 180 163 62 47 28 0 0 37 68 122 20 0 40 13 0 32 109 248 255 234 0 0 0 43 41 0 0 24 23 48 76 85 16 7 93 129 63 22 57 77 28 19 72 111 105 62 19 46 66 39 73 99 80 24 86 66 69 118 88 4 11 91 96 38 58 70 52 66 78 53 55 57 10 45 162 245 175 60 21 39 107 108 85 83 84 88 103 107 89 115 144 111 95 105 38 32 170 147 0 0 0 0 0 0 0 0 0 0 0 0 0 0 0 0 0 0 0 0 0 0 0 0 0 0 0 0 0 0 0 0 0 0 0 0 0 0 0 0 0 0 0 0 0 0 0 0 0 0 0 0 0 0 0 0 0 0 0 0 0 0 0 0 0 0 0 0 0 0 0 0 0 0 0 0 0 0 0 0 0 0 0 0 0 0 0 0 0 0 0 0 0 0 0 0 0 0 0 0 0 0 0 0 0 0 0 0 0 0 0 0 0 0 0 0 0 0 0 0 0 0 0 0 0 0 0 0 0 0 0 0 0 0 
0 0 0 0 0 0 0 0 0 0 0 0 0 0 0 0 0 0 0 0 0 0 0 0 0 0 0 0 0 0 0 0 0 0 0 0 0 0 0 0 0 0 0 0 0 0 0 0 0 0 0 0 0 0 0 0 0 0 0 0 0 0 0 0 0 0 0 0 0 0 0 0 0 0 0 5 229 255 78 16 185 195 125 111 123 121 120 129 115 91 97 143 160 142 37 0 200 255 152 0 0 112 0 0 11 0 43 60 66 43 36 59 96 118 108 88 88 110 47 40 181 215 118 67 65 106 70 81 42 0 2 15 0 0 33 130 169 136 113 195 74 0 35 97 219 255 176 0 0 21 70 25 10 34 38 31 48 68 23 8 36 96 79 26 0 71 104 12 21 75 104 71 43 70 96 83 62 87 57 0 0 70 66 49 58 62 55 18 71 79 63 83 75 48 49 60 66 77 42 17 44 105 216 183 67 29 28 85 78 75 88 74 74 94 103 71 72 117 107 92 108 63 25 87 75 0 0 0 0 0 0 0 0 0 0 0 0 0 0 0 0 0 0 0 0 0 0 0 0 0 0 0 0 0 0 0 0 0 0 0 0 0 0 0 0 0 0 0 0 0 0 0 0 0 0 0 0 0 0 0 0 0 0 0 0 0 0 0 0 0 0 0 0 0 0 0 0 0 0 0 0 0 0 0 0 0 0 0 0 0 0 0 0 0 0 0 0 0 0 0 0 0 0 0 0 0 0 0 0 0 0 0 0 0 0 0 0 0 0 0 0 0 0 0 0 0 0 0 0 0 0 0 0 0 0 0 0 0 0 
0 0 0 0 0 0 0 0 0 0 0 0 0 0 0 0 0 0 0 0 0 0 0 0 0 0 0 0 0 0 0 0 0 0 0 0 0 0 0 0 0 0 0 0 0 0 0 0 0 0 0 0 0 0 0 0 0 0 0 0 0 0 0 0 0 0 0 0 0 0 0 0 0 0 0 30 255 255 0 36 198 164 135 149 135 115 124 94 52 64 96 119 115 121 35 0 175 255 100 0 13 71 0 0 0 0 80 58 29 42 73 78 116 120 90 82 68 81 62 111 255 228 73 27 36 77 120 124 70 0 0 31 40 117 152 119 72 85 149 166 33 0 47 94 144 237 92 0 0 19 61 40 34 47 55 43 39 30 43 59 76 52 18 25 45 86 49 16 59 75 57 42 36 69 111 58 32 65 80 67 105 125 99 38 33 48 72 34 52 57 72 87 84 77 54 83 89 63 23 33 47 51 120 140 65 22 12 62 77 85 108 73 73 81 75 79 71 107 119 78 85 63 0 30 87 59 0 0 0 0 0 0 0 0 0 0 0 0 0 0 0 0 0 0 0 0 0 0 0 0 0 0 0 0 0 0 0 0 0 0 0 0 0 0 0 0 0 0 0 0 0 0 0 0 0 0 0 0 0 0 0 0 0 0 0 0 0 0 0 0 0 0 0 0 0 0 0 0 0 0 0 0 0 0 0 0 0 0 0 0 0 0 0 0 0 0 0 0 0 0 0 0 0 0 0 0 0 0 0 0 0 0 0 0 0 0 0 0 0 0 0 0 0 0 0 0 0 0 0 0 0 0 0 0 0 0 0 0 0 
0 0 0 0 0 0 0 0 0 0 0 0 0 0 0 0 0 0 0 0 0 0 0 0 0 0 0 0 0 0 0 0 0 0 0 0 0 0 0 0 0 0 0 0 0 0 0 0 0 0 0 0 0 0 0 0 0 0 0 0 0 0 0 0 0 0 0 0 0 0 0 0 0 0 0 100 255 233 0 115 204 135 136 152 136 104 96 58 12 46 87 64 55 115 20 0 170 255 112 0 30 89 0 0 0 0 53 76 87 137 140 105 119 98 41 54 57 74 111 108 157 108 10 41 79 33 121 149 163 101 130 207 146 113 146 50 4 28 59 54 0 0 23 73 94 197 153 0 0 0 10 11 22 35 42 44 47 61 68 26 44 33 7 26 96 100 26 28 85 56 54 81 59 70 79 0 10 48 67 101 67 68 88 59 76 139 139 90 52 55 66 62 50 55 64 107 104 53 38 37 6 1 113 164 82 28 11 36 88 107 118 88 70 73 62 85 82 90 105 78 89 88 6 38 120 89 0 0 0 0 0 0 0 0 0 0 0 0 0 0 0 0 0 0 0 0 0 0 0 0 0 0 0 0 0 0 0 0 0 0 0 0 0 0 0 0 0 0 0 0 0 0 0 0 0 0 0 0 0 0 0 0 0 0 0 0 0 0 0 0 0 0 0 0 0 0 0 0 0 0 0 0 0 0 0 0 0 0 0 0 0 0 0 0 0 0 0 0 0 0 0 0 0 0 0 0 0 0 0 0 0 0 0 0 0 0 0 0 0 0 0 0 0 0 0 0 0 0 0 0 0 0 0 0 0 0 0 0 0 
0 0 0 0 0 0 0 0 0 0 0 0 0 0 0 0 0 0 0 0 0 0 0 0 0 0 0 0 0 0 0 0 0 0 0 0 0 0 0 0 0 0 0 0 0 0 0 0 0 0 0 0 0 0 0 0 0 0 0 0 0 0 0 0 0 0 0 0 0 0 0 0 0 0 0 179 255 146 0 154 197 134 129 134 113 85 84 55 42 96 92 25 61 149 17 0 210 198 0 0 28 79 0 24 74 34 64 131 152 164 134 78 66 39 42 111 79 51 157 174 117 73 69 83 25 22 116 134 57 49 69 182 158 54 122 98 97 156 82 62 0 0 0 66 102 174 209 65 0 0 21 28 18 38 62 49 37 52 64 64 46 39 35 56 94 108 67 57 65 43 52 109 86 47 50 46 73 95 57 59 11 23 59 32 60 113 105 67 27 35 57 64 60 62 57 69 68 42 56 40 34 80 144 180 143 67 0 20 85 78 81 76 62 70 69 81 76 59 83 89 87 104 57 13 25 0 0 0 0 0 0 0 0 0 0 0 0 0 0 0 0 0 0 0 0 0 0 0 0 0 0 0 0 0 0 0 0 0 0 0 0 0 0 0 0 0 0 0 0 0 0 0 0 0 0 0 0 0 0 0 0 0 0 0 0 0 0 0 0 0 0 0 0 0 0 0 0 0 0 0 0 0 0 0 0 0 0 0 0 0 0 0 0 0 0 0 0 0 0 0 0 0 0 0 0 0 0 0 0 0 0 0 0 0 0 0 0 0 0 0 0 0 0 0 0 0 0 0 0 0 0 0 0 0 0 0 0 0 0 
0 0 0 0 0 0 0 0 0 0 0 0 0 0 0 0 0 0 0 0 0 0 0 0 0 0 0 0 0 0 0 0 0 0 0 0 0 0 0 0 0 0 0 0 0 0 0 0 0 0 0 0 0 0 0 0 0 0 0 0 0 0 0 0 0 0 0 0 0 0 0 0 0 0 2 249 255 75 1 182 182 122 104 116 119 99 98 100 85 109 92 55 142 190 10 0 140 107 0 0 34 33 0 64 82 24 63 121 101 75 88 53 22 0 38 117 67 68 146 133 56 102 149 57 0 19 128 166 52 0 0 24 0 0 38 75 74 95 20 34 0 0 6 108 103 147 179 23 0 0 28 69 51 45 43 33 29 39 65 48 40 57 33 39 94 110 80 26 0 14 61 109 79 50 55 53 90 66 26 86 54 56 88 51 49 68 39 0 9 51 57 66 86 77 41 44 80 68 56 33 27 67 118 159 161 98 20 15 62 31 41 71 53 51 70 83 80 66 71 78 68 89 100 14 0 0 4 0 0 0 0 0 0 0 0 0 0 0 0 0 0 0 0 0 0 0 0 0 0 0 0 0 0 0 0 0 0 0 0 0 0 0 0 0 0 0 0 0 0 0 0 0 0 0 0 0 0 0 0 0 0 0 0 0 0 0 0 0 0 0 0 0 0 0 0 0 0 0 0 0 0 0 0 0 0 0 0 0 0 0 0 0 0 0 0 0 0 0 0 0 0 0 0 0 0 0 0 0 0 0 0 0 0 0 0 0 0 0 0 0 0 0 0 0 0 0 0 0 0 0 0 0 0 0 0 0 0 0 0 
0 0 0 0 0 0 0 0 0 0 0 0 0 0 0 0 0 0 0 0 0 0 0 0 0 0 0 0 0 0 0 0 0 0 0 0 0 0 0 0 0 0 0 0 0 0 0 0 0 0 0 0 0 0 0 0 0 0 0 0 0 0 0 0 0 0 0 0 0 0 0 0 0 0 27 255 255 25 70 198 179 122 113 122 125 97 92 93 66 77 94 95 172 155 0 0 116 142 66 62 90 75 0 5 12 13 81 84 29 10 29 6 0 0 78 114 66 74 98 33 0 69 125 0 0 73 139 156 59 0 0 0 0 6 0 57 54 28 0 0 0 0 17 99 71 118 130 11 0 0 32 98 90 59 53 51 64 71 46 38 39 48 72 66 69 95 73 0 0 49 92 92 65 93 113 71 78 56 22 57 51 51 67 71 107 94 59 17 40 62 61 81 92 69 32 47 110 87 60 91 92 94 101 129 126 78 59 40 61 60 68 102 85 81 108 115 118 119 113 115 109 143 208 156 79 118 118 0 0 0 0 0 0 0 0 0 0 0 0 0 0 0 0 0 0 0 0 0 0 0 0 0 0 0 0 0 0 0 0 0 0 0 0 0 0 0 0 0 0 0 0 0 0 0 0 0 0 0 0 0 0 0 0 0 0 0 0 0 0 0 0 0 0 0 0 0 0 0 0 0 0 0 0 0 0 0 0 0 0 0 0 0 0 0 0 0 0 0 0 0 0 0 0 0 0 0 0 0 0 0 0 0 0 0 0 0 0 0 0 0 0 0 0 0 0 0 0 0 0 0 0 0 0 0 0 0 0 0 0 
0 0 0 0 0 0 0 0 0 0 0 0 0 0 0 0 0 0 0 0 0 0 0 0 0 0 0 0 0 0 0 0 0 0 0 0 0 0 0 0 0 0 0 0 0 0 0 0 0 0 0 0 0 0 0 0 0 0 0 0 0 0 0 0 0 0 0 0 0 0 0 0 0 0 91 255 255 0 78 181 132 123 127 141 118 67 63 56 41 61 113 102 132 103 0 0 157 206 138 24 94 96 0 4 31 25 61 51 27 32 40 39 6 26 99 107 71 60 61 66 80 124 97 0 50 185 154 129 6 0 8 142 148 101 50 53 55 55 51 21 0 0 18 58 34 98 138 24 0 0 53 96 76 31 33 41 43 59 40 52 73 68 89 75 62 54 14 0 45 120 120 89 82 123 106 50 74 81 81 80 66 72 84 74 133 106 39 45 61 62 50 71 94 67 35 75 157 139 117 194 194 160 172 201 171 140 170 161 176 215 218 227 220 248 236 154 152 241 255 255 255 255 255 255 255 255 255 180 27 84 30 0 0 0 0 0 0 0 0 0 0 0 0 0 0 0 0 0 0 0 0 0 0 0 0 0 0 0 0 0 0 0 0 0 0 0 0 0 0 0 0 0 0 0 0 0 0 0 0 0 0 0 0 0 0 0 0 0 0 0 0 0 0 0 0 0 0 0 0 0 0 0 0 0 0 0 0 0 0 0 0 0 0 0 0 0 0 0 0 0 0 0 0 0 0 0 0 0 0 0 0 0 0 0 0 0 0 0 0 0 0 0 0 0 0 0 0 0 0 0 0 0 0 0 0 0 0 0 0 
0 0 0 0 0 0 0 0 0 0 0 0 0 0 0 0 0 0 0 0 0 0 0 0 0 0 0 0 0 0 0 0 0 0 0 0 0 0 0 0 0 0 0 0 0 0 0 0 0 0 0 0 0 0 0 0 0 0 0 0 0 0 0 0 0 0 0 0 0 0 0 0 0 0 153 255 192 0 102 176 106 131 131 131 103 60 40 7 7 66 122 77 83 81 0 0 149 152 68 0 16 60 0 0 26 22 45 13 2 42 75 75 48 40 71 69 51 63 49 84 144 130 47 9 65 142 108 79 10 0 54 126 82 47 44 73 64 28 0 0 0 0 17 52 41 89 136 52 0 0 50 79 40 0 0 23 43 59 36 47 91 83 102 64 5 43 46 15 72 126 83 75 81 77 37 5 40 72 77 70 80 80 68 70 91 77 44 79 95 100 108 120 163 197 219 247 255 255 255 255 255 255 255 255 255 255 255 231 228 255 255 255 248 214 58 0 29 215 255 255 255 255 255 255 255 255 255 255 255 255 219 25 0 0 0 0 0 0 0 0 0 0 0 0 0 0 0 0 0 0 0 0 0 0 0 0 0 0 0 0 0 0 0 0 0 0 0 0 0 0 0 0 0 0 0 0 0 0 0 0 0 0 0 0 0 0 0 0 0 0 0 0 0 0 0 0 0 0 0 0 0 0 0 0 0 0 0 0 0 0 0 0 0 0 0 0 0 0 0 0 0 0 0 0 0 0 0 0 0 0 0 0 0 0 0 0 0 0 0 0 0 0 0 0 0 0 0 0 0 0 0 0 0 0 0 0 0 0 0 
0 0 0 0 0 0 0 0 0 0 0 0 0 0 0 0 0 0 0 0 0 0 0 0 0 0 0 0 0 0 0 0 0 0 0 0 0 0 0 0 0 0 0 0 0 0 0 0 0 0 0 0 0 0 0 0 0 0 0 0 0 0 0 0 0 0 0 0 0 0 0 0 0 0 189 255 112 0 151 164 99 123 125 114 92 62 23 0 11 58 48 16 52 46 0 0 155 103 12 0 0 48 17 0 0 27 50 17 28 75 88 52 32 16 48 70 51 62 75 62 61 14 0 15 86 132 63 18 0 0 85 125 22 8 65 92 69 26 0 0 12 14 21 40 41 58 101 52 0 0 59 73 34 3 21 56 106 108 60 79 114 103 91 28 0 75 95 84 131 142 50 13 67 43 46 82 109 127 119 105 120 149 152 173 161 167 191 233 255 255 255 255 255 255 255 255 255 255 255 254 255 255 255 255 246 219 144 32 25 63 71 33 9 0 0 0 18 94 61 0 0 0 0 0 0 0 0 0 29 216 255 14 0 0 0 0 0 0 0 0 0 0 0 0 0 0 0 0 0 0 0 0 0 0 0 0 0 0 0 0 0 0 0 0 0 0 0 0 0 0 0 0 0 0 0 0 0 0 0 0 0 0 0 0 0 0 0 0 0 0 0 0 0 0 0 0 0 0 0 0 0 0 0 0 0 0 0 0 0 0 0 0 0 0 0 0 0 0 0 0 0 0 0 0 0 0 0 0 0 0 0 0 0 0 0 0 0 0 0 0 0 0 0 0 0 0 0 0 0 0 0 0 0 0 0 0 0 0 0 
0 0 0 0 0 0 0 0 0 0 0 0 0 0 0 0 0 0 0 0 0 0 0 0 0 0 0 0 0 0 0 0 0 0 0 0 0 0 0 0 0 0 0 0 0 0 0 0 0 0 0 0 0 0 0 0 0 0 0 0 0 0 0 0 0 0 0 0 0 0 0 0 0 4 230 255 50 4 163 139 109 118 118 113 94 60 22 22 58 91 41 16 89 43 0 0 140 81 1 8 34 52 5 0 17 65 86 49 49 80 56 26 37 25 32 62 48 54 66 23 0 0 0 13 54 90 56 39 22 0 93 110 49 25 40 53 44 31 52 48 22 13 28 44 55 63 70 42 11 30 59 83 55 50 88 109 140 113 77 75 85 87 59 2 43 149 182 145 127 168 102 77 166 166 149 191 203 165 148 170 160 156 144 166 194 184 171 194 230 252 255 255 255 255 253 178 119 139 154 118 114 147 60 0 0 0 0 0 0 0 0 0 0 0 0 119 175 80 0 0 0 0 0 0 0 0 0 0 0 0 63 0 0 0 0 0 0 0 0 0 0 0 0 0 0 0 0 0 0 0 0 0 0 0 0 0 0 0 0 0 0 0 0 0 0 0 0 0 0 0 0 0 0 0 0 0 0 0 0 0 0 0 0 0 0 0 0 0 0 0 0 0 0 0 0 0 0 0 0 0 0 0 0 0 0 0 0 0 0 0 0 0 0 0 0 0 0 0 0 0 0 0 0 0 0 0 0 0 0 0 0 0 0 0 0 0 0 0 0 0 0 0 0 0 0 0 0 0 0 0 0 0 0 0 0 0 0 0 0 
0 0 0 0 0 0 0 0 0 0 0 0 0 0 0 0 0 0 0 0 0 0 0 0 0 0 0 0 0 0 0 0 0 0 0 0 0 0 0 0 0 0 0 0 0 0 0 0 0 0 0 0 0 0 0 0 0 0 0 0 0 0 0 0 0 0 0 0 0 0 0 0 0 30 255 255 1 22 151 121 115 130 118 110 90 38 0 22 68 103 83 64 153 86 0 12 122 75 3 34 39 27 0 0 30 60 96 56 43 58 20 2 25 24 35 55 27 38 58 23 27 59 60 59 56 62 43 43 60 19 39 55 53 55 64 71 67 48 58 50 23 15 54 78 81 84 92 91 91 86 73 93 61 58 80 83 97 92 73 56 59 139 167 110 156 185 168 109 87 130 93 86 122 94 54 76 56 3 0 0 0 0 0 0 0 0 0 0 0 0 0 0 0 0 0 0 0 0 0 0 0 0 0 0 0 0 0 0 29 72 56 36 20 40 96 111 44 9 64 105 104 91 95 131 167 142 115 139 147 132 118 0 0 0 0 0 0 0 0 0 0 0 0 0 0 0 0 0 0 0 0 0 0 0 0 0 0 0 0 0 0 0 0 0 0 0 0 0 0 0 0 0 0 0 0 0 0 0 0 0 0 0 0 0 0 0 0 0 0 0 0 0 0 0 0 0 0 0 0 0 0 0 0 0 0 0 0 0 0 0 0 0 0 0 0 0 0 0 0 0 0 0 0 0 0 0 0 0 0 0 0 0 0 0 0 0 0 0 0 0 0 0 0 0 0 0 0 0 0 0 0 0 0 0 0 0 0 0 0 
0 0 0 0 0 0 0 0 0 0 0 0 0 0 0 0 0 0 0 0 0 0 0 0 0 0 0 0 0 0 0 0 0 0 0 0 0 0 0 0 0 0 0 0 0 0 0 0 0 0 0 0 0 0 0 0 0 0 0 0 0 0 0 0 0 0 0 0 0 0 0 0 0 70 255 251 0 91 169 130 110 119 101 80 61 24 8 21 47 68 56 43 130 75 0 13 115 52 8 27 54 27 0 17 21 32 54 25 30 42 18 13 39 36 50 65 54 60 83 61 57 78 63 76 79 68 52 47 42 0 0 27 37 29 42 88 87 55 89 87 48 48 116 128 102 123 129 105 93 55 36 68 73 59 61 83 99 95 91 77 86 239 255 201 131 76 7 0 0 1 0 0 0 0 0 0 0 0 0 0 0 0 0 0 0 0 0 0 0 0 0 0 0 0 0 0 0 0 4 0 0 0 0 18 64 68 60 83 100 108 112 95 70 91 117 57 0 29 83 100 94 92 101 118 137 120 113 149 139 109 116 25 0 0 0 0 0 0 0 0 0 0 0 0 0 0 0 0 0 0 0 0 0 0 0 0 0 0 0 0 0 0 0 0 0 0 0 0 0 0 0 0 0 0 0 0 0 0 0 0 0 0 0 0 0 0 0 0 0 0 0 0 0 0 0 0 0 0 0 0 0 0 0 0 0 0 0 0 0 0 0 0 0 0 0 0 0 0 0 0 0 0 0 0 0 0 0 0 0 0 0 0 0 0 0 0 0 0 0 0 0 0 0 0 0 0 0 0 0 0 0 0 0 0 0 0 0 0 0 
0 0 0 0 0 0 0 0 0 0 0 0 0 0 0 0 0 0 0 0 0 0 0 0 0 0 0 0 0 0 0 0 0 0 0 0 0 0 0 0 0 0 0 0 0 0 0 0 0 0 0 0 0 0 0 0 0 0 0 0 0 0 0 0 0 0 0 0 0 0 0 0 0 112 255 246 0 127 154 113 107 99 88 70 62 17 6 37 56 54 20 16 96 42 0 27 131 91 27 49 70 13 0 0 21 32 31 11 8 23 35 53 72 54 59 81 75 68 81 60 49 57 40 58 83 66 50 55 59 8 8 42 71 64 41 60 36 30 78 48 7 35 80 57 28 65 72 49 77 105 116 159 197 175 174 155 107 54 34 6 0 95 116 0 0 0 0 0 0 0 0 0 0 0 0 0 0 0 0 8 11 23 56 74 70 63 54 91 145 128 85 91 107 99 90 82 74 89 79 53 35 26 83 117 103 78 71 87 90 87 91 67 56 91 113 82 66 70 85 99 91 98 103 99 109 121 116 122 108 88 107 67 0 0 0 0 0 0 0 0 0 0 0 0 0 0 0 0 0 0 0 0 0 0 0 0 0 0 0 0 0 0 0 0 0 0 0 0 0 0 0 0 0 0 0 0 0 0 0 0 0 0 0 0 0 0 0 0 0 0 0 0 0 0 0 0 0 0 0 0 0 0 0 0 0 0 0 0 0 0 0 0 0 0 0 0 0 0 0 0 0 0 0 0 0 0 0 0 0 0 0 0 0 0 0 0 0 0 0 0 0 0 0 0 0 0 0 0 0 0 0 0 0 0 0 0 0 0 0 
0 0 0 0 0 0 0 0 0 0 0 0 0 0 0 0 0 0 0 0 0 0 0 0 0 0 0 0 0 0 0 0 0 0 0 0 0 0 0 0 0 0 0 0 0 0 0 0 0 0 0 0 0 0 0 0 0 0 0 0 0 0 0 0 0 0 0 0 0 0 0 0 0 138 255 225 0 101 131 97 105 92 93 73 60 7 0 8 41 31 0 20 122 49 0 51 124 113 78 65 4 0 0 5 37 50 50 29 20 32 46 65 60 34 54 101 95 64 43 34 46 58 59 72 99 73 53 67 65 34 60 93 75 54 17 0 0 0 0 0 0 28 103 138 126 153 163 180 229 255 251 191 155 100 78 38 0 0 0 0 0 0 0 0 0 0 0 1 12 13 14 24 35 39 37 41 46 55 71 62 43 54 72 90 75 62 77 120 147 106 87 110 108 92 85 98 100 90 89 103 94 65 98 114 89 77 82 100 81 74 67 38 39 82 88 59 49 63 90 107 95 99 107 101 113 128 123 119 115 105 106 95 0 0 0 0 0 0 0 0 0 0 0 0 0 0 0 0 0 0 0 0 0 0 0 0 0 0 0 0 0 0 0 0 0 0 0 0 0 0 0 0 0 0 0 0 0 0 0 0 0 0 0 0 0 0 0 0 0 0 0 0 0 0 0 0 0 0 0 0 0 0 0 0 0 0 0 0 0 0 0 0 0 0 0 0 0 0 0 0 0 0 0 0 0 0 0 0 0 0 0 0 0 0 0 0 0 0 0 0 0 0 0 0 0 0 0 0 0 0 0 0 0 0 0 0 0 0 0 
0 0 0 0 0 0 0 0 0 0 0 0 0 0 0 0 0 0 0 0 0 0 0 0 0 0 0 0 0 0 0 0 0 0 0 0 0 0 0 0 0 0 0 0 0 0 0 0 0 0 0 0 0 0 0 0 0 0 0 0 0 0 0 0 0 0 0 0 0 0 0 0 0 154 255 150 0 92 145 100 90 73 78 55 19 0 0 6 17 1 0 44 137 41 0 31 72 52 51 0 0 20 3 8 38 55 70 47 40 55 45 40 43 45 79 111 83 44 34 52 67 75 80 107 109 63 22 22 3 3 26 43 26 36 59 132 231 200 186 248 247 255 255 255 255 255 248 202 165 101 0 0 0 0 0 0 0 0 0 3 11 19 11 0 0 0 16 42 42 42 44 53 52 48 48 54 59 70 65 42 32 54 75 79 53 37 70 123 120 65 56 96 89 71 87 94 91 74 73 99 98 79 95 107 98 98 103 115 79 71 81 64 72 95 97 79 61 61 83 100 89 91 101 105 115 115 109 135 138 128 124 119 0 0 0 0 0 0 0 0 0 0 0 0 0 0 0 0 0 0 0 0 0 0 0 0 0 0 0 0 0 0 0 0 0 0 0 0 0 0 0 0 0 0 0 0 0 0 0 0 0 0 0 0 0 0 0 0 0 0 0 0 0 0 0 0 0 0 0 0 0 0 0 0 0 0 0 0 0 0 0 0 0 0 0 0 0 0 0 0 0 0 0 0 0 0 0 0 0 0 0 0 0 0 0 0 0 0 0 0 0 0 0 0 0 0 0 0 0 0 0 0 0 0 0 0 0 0 0 
0 0 0 0 0 0 0 0 0 0 0 0 0 0 0 0 0 0 0 0 0 0 0 0 0 0 0 0 0 0 0 0 0 0 0 0 0 0 0 0 0 0 0 0 0 0 0 0 0 0 0 0 0 0 0 0 0 0 0 0 0 0 0 0 0 0 0 0 0 0 0 0 0 187 255 117 0 104 127 95 77 61 60 29 0 0 0 31 25 9 13 74 119 4 0 20 54 27 1 0 0 30 16 31 61 63 83 66 46 52 47 52 75 90 112 112 61 22 30 45 55 47 25 43 48 29 37 80 110 169 255 255 255 255 255 255 255 255 255 255 255 255 255 255 123 0 0 0 0 0 0 0 0 0 25 19 10 34 44 55 51 48 54 57 46 37 45 62 52 41 42 62 59 40 49 67 66 62 48 29 41 60 68 71 57 52 85 107 96 57 57 83 85 67 80 98 84 87 88 116 124 95 108 141 139 130 104 86 64 54 82 73 71 57 55 64 50 40 72 89 82 86 95 100 100 97 94 115 126 102 110 115 0 0 0 0 0 0 0 0 0 0 0 0 0 0 0 0 0 0 0 0 0 0 0 0 0 0 0 0 0 0 0 0 0 0 0 0 0 0 0 0 0 0 0 0 0 0 0 0 0 0 0 0 0 0 0 0 0 0 0 0 0 0 0 0 0 0 0 0 0 0 0 0 0 0 0 0 0 0 0 0 0 0 0 0 0 0 0 0 0 0 0 0 0 0 0 0 0 0 0 0 0 0 0 0 0 0 0 0 0 0 0 0 0 0 0 0 0 0 0 0 0 0 0 0 0 0 0 
0 0 0 0 0 0 0 0 0 0 0 0 0 0 0 0 0 0 0 0 0 0 0 0 0 0 0 0 0 0 0 0 0 0 0 0 0 0 0 0 0 0 0 0 0 0 0 0 0 0 0 0 0 0 0 0 0 0 0 0 0 0 0 0 0 0 0 0 0 0 0 0 0 205 255 92 0 92 107 87 67 61 37 0 0 0 4 65 67 39 38 83 102 0 0 58 96 67 45 17 1 42 39 87 130 112 103 87 54 40 54 81 75 50 64 68 47 40 71 117 125 114 161 214 229 250 255 255 255 255 255 255 255 255 255 177 100 0 0 0 0 0 0 0 0 0 0 0 0 0 13 34 53 100 145 98 44 35 49 59 54 50 54 58 45 37 55 76 60 37 41 54 51 37 47 55 44 30 34 33 71 72 50 54 74 73 83 105 103 62 58 93 83 65 98 105 80 105 98 102 99 51 41 46 50 53 11 0 0 0 0 0 0 0 0 18 13 26 69 90 86 81 78 85 78 77 90 109 109 87 98 129 0 0 0 0 0 0 0 0 0 0 0 0 0 0 0 0 0 0 0 0 0 0 0 0 0 0 0 0 0 0 0 0 0 0 0 0 0 0 0 0 0 0 0 0 0 0 0 0 0 0 0 0 0 0 0 0 0 0 0 0 0 0 0 0 0 0 0 0 0 0 0 0 0 0 0 0 0 0 0 0 0 0 0 0 0 0 0 0 0 0 0 0 0 0 0 0 0 0 0 0 0 0 0 0 0 0 0 0 0 0 0 0 0 0 0 0 0 0 0 0 0 0 0 0 0 0 0 
0 0 0 0 0 0 0 0 0 0 0 0 0 0 0 0 0 0 0 0 0 0 0 0 0 0 0 0 0 0 0 0 0 0 0 0 0 0 0 0 0 0 0 0 0 0 0 0 0 0 0 0 0 0 0 0 0 0 0 0 0 0 0 0 0 0 0 0 0 0 0 0 0 217 255 46 0 98 114 80 55 36 7 0 0 0 29 78 68 26 33 90 102 12 0 80 97 79 61 34 31 68 76 100 129 110 76 53 27 44 102 153 218 135 89 114 98 132 182 207 187 180 255 255 228 233 251 207 168 63 4 0 0 0 0 0 0 0 0 0 0 0 0 0 0 0 43 65 83 66 58 68 68 73 80 38 0 32 55 47 41 40 45 42 35 36 53 60 38 23 43 50 43 43 56 50 38 34 55 60 60 55 25 29 50 41 23 45 50 6 0 18 0 0 45 29 0 0 0 0 0 0 0 0 0 0 0 0 0 0 0 0 0 1 44 54 78 111 124 130 117 102 87 91 104 102 112 126 118 112 123 164 14 0 0 0 0 0 0 0 0 0 0 0 0 0 0 0 0 0 0 0 0 0 0 0 0 0 0 0 0 0 0 0 0 0 0 0 0 0 0 0 0 0 0 0 0 0 0 0 0 0 0 0 0 0 0 0 0 0 0 0 0 0 0 0 0 0 0 0 0 0 0 0 0 0 0 0 0 0 0 0 0 0 0 0 0 0 0 0 0 0 0 0 0 0 0 0 0 0 0 0 0 0 0 0 0 0 0 0 0 0 0 0 0 0 0 0 0 0 0 0 0 0 0 0 0 0 0 
0 0 0 0 0 0 0 0 0 0 0 0 0 0 0 0 0 0 0 0 0 0 0 0 0 0 0 0 0 0 0 0 0 0 0 0 0 0 0 0 0 0 0 0 0 0 0 0 0 0 0 0 0 0 0 0 0 0 0 0 0 0 0 0 0 0 0 0 0 0 0 0 0 224 255 33 9 113 118 73 53 36 23 15 33 23 47 78 35 0 6 86 86 7 1 77 77 41 50 58 52 65 78 60 54 22 3 2 2 58 194 255 255 214 27 110 94 72 108 60 0 0 23 0 0 0 0 0 0 0 0 0 0 0 0 0 6 65 109 89 85 178 177 90 129 183 158 106 74 67 90 101 105 74 30 24 3 36 67 45 42 45 54 50 43 42 46 49 40 34 56 57 50 49 48 43 46 45 53 47 24 16 3 14 20 0 0 0 0 0 0 0 0 0 0 0 0 0 0 0 0 0 0 0 0 0 0 0 0 0 0 0 2 0 0 10 41 70 60 70 95 111 128 147 180 186 192 202 189 171 182 188 56 0 0 0 0 0 0 0 0 0 0 0 0 0 0 0 0 0 0 0 0 0 0 0 0 0 0 0 0 0 0 0 0 0 0 0 0 0 0 0 0 0 0 0 0 0 0 0 0 0 0 0 0 0 0 0 0 0 0 0 0 0 0 0 0 0 0 0 0 0 0 0 0 0 0 0 0 0 0 0 0 0 0 0 0 0 0 0 0 0 0 0 0 0 0 0 0 0 0 0 0 0 0 0 0 0 0 0 0 0 0 0 0 0 0 0 0 0 0 0 0 0 0 0 0 0 0 
0 0 0 0 0 0 0 0 0 0 0 0 0 0 0 0 0 0 0 0 0 0 0 0 0 0 0 0 0 0 0 0 0 0 0 0 0 0 0 0 0 0 0 0 0 0 0 0 0 0 0 0 0 0 0 0 0 0 0 0 0 0 0 0 0 0 0 0 0 0 0 0 2 222 255 23 20 120 112 69 63 56 41 32 25 24 58 62 0 0 8 76 61 6 42 100 79 42 56 52 37 46 46 28 18 0 0 0 4 40 112 176 131 0 0 0 15 0 0 0 0 0 0 0 0 31 52 0 0 41 55 130 96 49 30 67 117 132 110 110 131 171 136 36 79 149 121 79 38 65 113 98 90 60 24 37 24 40 55 40 57 79 62 35 20 22 27 41 50 46 51 46 37 37 33 31 31 25 35 24 18 30 41 46 53 50 51 53 48 52 50 54 62 56 41 21 4 28 36 24 27 25 8 0 0 0 0 0 0 0 0 0 0 0 0 0 0 0 0 0 26 75 123 149 160 169 179 196 201 205 215 170 0 0 0 0 0 0 0 0 0 0 0 0 0 0 0 0 0 0 0 0 0 0 0 0 0 0 0 0 0 0 0 0 0 0 0 0 0 0 0 0 0 0 0 0 0 0 0 0 0 0 0 0 0 0 0 0 0 0 0 0 0 0 0 0 0 0 0 0 0 0 0 0 0 0 0 0 0 0 0 0 0 0 0 0 0 0 0 0 0 0 0 0 0 0 0 0 0 0 0 0 0 0 0 0 0 0 0 0 0 0 0 0 0 0 0 0 0 0 0 0 0 0 0 0 0 0 0 
0 0 0 0 0 0 0 0 0 0 0 0 0 0 0 0 0 0 0 0 0 0 0 0 0 0 0 0 0 0 0 0 0 0 0 0 0 0 0 0 0 0 0 0 0 0 0 0 0 0 0 0 0 0 0 0 0 0 0 0 0 0 0 0 0 0 0 0 0 0 0 0 13 240 255 0 13 120 110 74 64 48 14 0 7 25 38 7 0 0 68 117 98 93 136 131 103 86 90 73 32 24 19 17 15 7 8 5 9 22 18 0 0 0 0 35 48 0 0 21 39 52 80 86 90 121 79 39 62 72 63 122 44 35 76 133 174 123 39 27 70 72 75 53 88 119 77 40 0 75 96 13 8 23 8 39 52 53 42 35 55 75 39 11 16 36 44 54 56 37 27 23 17 27 38 46 38 37 56 58 51 58 64 61 58 59 56 50 46 43 32 20 18 9 1 0 2 0 0 0 0 0 0 0 0 0 0 0 0 0 0 0 0 29 62 75 70 78 89 94 109 128 128 114 101 119 119 116 116 86 21 0 0 0 0 0 0 0 0 0 0 0 0 0 0 0 0 0 0 0 0 0 0 0 0 0 0 0 0 0 0 0 0 0 0 0 0 0 0 0 0 0 0 0 0 0 0 0 0 0 0 0 0 0 0 0 0 0 0 0 0 0 0 0 0 0 0 0 0 0 0 0 0 0 0 0 0 0 0 0 0 0 0 0 0 0 0 0 0 0 0 0 0 0 0 0 0 0 0 0 0 0 0 0 0 0 0 0 0 0 0 0 0 0 0 0 0 0 0 0 0 0 0 0 0 0 0 0 0 
0 0 0 0 0 0 0 0 0 0 0 0 0 0 0 0 0 0 0 0 0 0 0 0 0 0 0 0 0 0 0 0 0 0 0 0 0 0 0 0 0 0 0 0 0 0 0 0 0 0 0 0 0 0 0 0 0 0 0 0 0 0 0 0 0 0 0 0 0 0 0 0 16 242 255 0 26 114 108 61 36 13 0 1 39 54 60 65 95 172 213 201 160 134 137 107 73 67 55 26 0 3 4 8 10 10 25 35 43 54 46 22 0 0 33 66 74 32 38 73 89 65 65 84 79 56 64 113 111 82 41 62 38 47 73 87 156 123 66 94 103 49 58 74 46 96 70 10 0 46 52 2 16 17 3 28 40 42 27 24 32 32 11 21 49 55 47 38 28 7 0 2 9 13 27 32 26 24 29 24 13 18 13 3 1 3 0 0 0 4 5 6 19 29 38 48 63 66 58 34 0 0 0 0 0 0 11 23 35 43 54 70 87 101 107 95 85 104 140 170 179 160 110 91 126 132 82 0 0 0 0 0 0 0 0 0 0 0 0 0 0 0 0 0 0 0 0 0 0 0 0 0 0 0 0 0 0 0 0 0 0 0 0 0 0 0 0 0 0 0 0 0 0 0 0 0 0 0 0 0 0 0 0 0 0 0 0 0 0 0 0 0 0 0 0 0 0 0 0 0 0 0 0 0 0 0 0 0 0 0 0 0 0 0 0 0 0 0 0 0 0 0 0 0 0 0 0 0 0 0 0 0 0 0 0 0 0 0 0 0 0 0 0 0 0 0 0 0 0 0 0 0 0 0 0 0 0 0 0 
0 0 0 0 0 0 0 0 0 0 0 0 0 0 0 0 0 0 0 0 0 0 0 0 0 0 0 0 0 0 0 0 0 0 0 0 0 0 0 0 0 0 0 0 0 0 0 0 0 0 0 0 0 0 0 0 0 0 0 0 0 0 0 0 0 0 0 0 0 0 0 0 17 215 255 28 62 130 122 67 55 61 89 111 143 173 172 221 255 255 255 180 104 67 48 20 0 0 0 0 0 18 21 25 34 33 39 38 45 51 53 75 86 73 54 41 66 68 65 96 95 70 64 39 51 48 66 107 88 69 70 64 78 40 12 23 86 118 82 78 138 65 11 0 0 0 0 0 0 14 0 0 10 20 17 19 16 8 6 6 1 0 0 0 0 0 0 0 0 0 0 0 0 3 21 27 29 43 49 59 77 92 109 122 150 180 185 184 195 214 220 223 240 255 255 247 248 237 221 202 153 101 47 18 28 46 60 59 63 75 77 82 85 81 70 55 64 112 166 180 141 82 73 116 57 0 0 0 0 0 0 0 0 0 0 0 0 0 0 0 0 0 0 0 0 0 0 0 0 0 0 0 0 0 0 0 0 0 0 0 0 0 0 0 0 0 0 0 0 0 0 0 0 0 0 0 0 0 0 0 0 0 0 0 0 0 0 0 0 0 0 0 0 0 0 0 0 0 0 0 0 0 0 0 0 0 0 0 0 0 0 0 0 0 0 0 0 0 0 0 0 0 0 0 0 0 0 0 0 0 0 0 0 0 0 0 0 0 0 0 0 0 0 0 0 0 0 0 0 0 0 0 0 0 0 0 0 0 0 
0 0 0 0 0 0 0 0 0 0 0 0 0 0 0 0 0 0 0 0 0 0 0 0 0 0 0 0 0 0 0 0 0 0 0 0 0 0 0 0 0 0 0 0 0 0 0 0 0 0 0 0 0 0 0 0 0 0 0 0 0 0 0 0 0 0 0 0 0 0 0 0 18 198 252 83 109 166 175 121 123 151 195 200 217 246 193 204 225 175 120 44 7 0 16 20 0 9 23 13 19 41 40 42 43 38 35 31 39 44 32 56 88 56 34 43 60 56 37 62 70 29 20 41 41 41 49 55 4 2 57 17 35 23 0 17 58 55 0 0 2 0 0 0 0 0 0 0 0 6 0 1 8 2 6 4 0 0 0 0 0 0 0 0 0 0 0 25 51 71 96 129 161 196 220 233 251 255 255 255 255 255 255 255 255 255 255 255 255 255 255 255 255 255 255 255 255 255 248 183 159 137 105 44 36 62 69 65 64 67 65 64 61 56 61 68 94 143 167 136 74 46 117 72 0 0 0 0 0 0 0 0 0 0 0 0 0 0 0 0 0 0 0 0 0 0 0 0 0 0 0 0 0 0 0 0 0 0 0 0 0 0 0 0 0 0 0 0 0 0 0 0 0 0 0 0 0 0 0 0 0 0 0 0 0 0 0 0 0 0 0 0 0 0 0 0 0 0 0 0 0 0 0 0 0 0 0 0 0 0 0 0 0 0 0 0 0 0 0 0 0 0 0 0 0 0 0 0 0 0 0 0 0 0 0 0 0 0 0 0 0 0 0 0 0 0 0 0 0 0 0 0 0 0 0 0 0 0 0 
0 0 0 0 0 0 0 0 0 0 0 0 0 0 0 0 0 0 0 0 0 0 0 0 0 0 0 0 0 0 0 0 0 0 0 0 0 0 0 0 0 0 0 0 0 0 0 0 0 0 0 0 0 0 0 0 0 0 0 0 0 0 0 0 0 0 0 0 0 0 0 0 30 228 255 182 175 177 167 118 114 139 156 143 134 149 74 53 79 16 16 2 0 11 42 33 39 50 45 31 30 48 56 40 40 33 35 37 48 65 50 36 29 1 15 42 52 39 5 13 24 2 9 26 13 15 33 42 8 0 0 0 0 0 0 5 11 0 0 0 0 0 0 0 0 6 2 0 0 0 0 2 5 8 11 20 32 42 59 79 95 121 150 175 213 248 255 255 255 255 255 255 255 255 255 255 255 255 255 255 255 255 255 255 255 255 255 255 255 255 255 255 255 255 255 255 255 255 255 140 104 83 57 14 0 27 47 46 44 49 62 71 80 81 87 91 115 151 145 98 67 92 133 0 0 0 0 0 0 0 0 0 0 0 0 0 0 0 0 0 0 0 0 0 0 0 0 0 0 0 0 0 0 0 0 0 0 0 0 0 0 0 0 0 0 0 0 0 0 0 0 0 0 0 0 0 0 0 0 0 0 0 0 0 0 0 0 0 0 0 0 0 0 0 0 0 0 0 0 0 0 0 0 0 0 0 0 0 0 0 0 0 0 0 0 0 0 0 0 0 0 0 0 0 0 0 0 0 0 0 0 0 0 0 0 0 0 0 0 0 0 0 0 0 0 0 0 0 0 0 0 0 0 0 0 0 0 0 0 
0 0 0 0 0 0 0 0 0 0 0 0 0 0 0 0 0 0 0 0 0 0 0 0 0 0 0 0 0 0 0 0 0 0 0 0 0 0 0 0 0 0 0 0 0 0 0 0 0 0 0 0 0 0 0 0 0 0 0 0 0 0 0 0 0 0 0 0 0 0 14 97 255 255 255 200 139 101 99 83 75 94 107 84 71 79 30 15 57 37 54 37 13 58 81 58 61 59 42 36 44 63 57 38 31 36 38 42 48 45 34 26 25 14 18 29 24 19 14 19 25 16 19 32 21 19 27 10 0 0 0 0 0 0 0 0 0 0 0 0 0 0 0 0 6 13 11 19 32 52 77 103 128 150 173 201 227 255 255 255 255 255 255 255 255 255 255 255 255 255 255 255 255 255 255 253 248 242 238 231 222 221 212 212 228 255 255 255 255 255 255 255 255 255 255 255 255 255 255 81 58 91 47 4 0 0 46 37 31 41 72 96 99 104 104 101 120 144 123 89 88 134 97 0 0 0 0 0 0 0 0 0 0 0 0 0 0 0 0 0 0 0 0 0 0 0 0 0 0 0 0 0 0 0 0 0 0 0 0 0 0 0 0 0 0 0 0 0 0 0 0 0 0 0 0 0 0 0 0 0 0 0 0 0 0 0 0 0 0 0 0 0 0 0 0 0 0 0 0 0 0 0 0 0 0 0 0 0 0 0 0 0 0 0 0 0 0 0 0 0 0 0 0 0 0 0 0 0 0 0 0 0 0 0 0 0 0 0 0 0 0 0 0 0 0 0 0 0 0 0 0 0 0 0 0 0 0 0 0 
0 0 0 0 0 0 0 0 0 0 0 0 0 0 0 0 0 0 0 0 0 0 0 0 0 0 0 0 0 0 0 0 0 0 0 0 0 0 0 0 0 0 0 0 0 0 0 0 0 0 0 0 0 0 0 0 0 0 0 0 0 0 0 0 0 0 0 0 2 77 255 255 255 255 255 79 29 29 72 85 84 98 112 89 70 89 89 61 65 75 83 54 33 60 68 52 50 49 36 45 54 61 53 34 23 34 34 36 42 31 29 27 37 43 41 32 23 21 12 20 31 25 23 24 12 11 12 1 0 0 0 0 0 0 0 0 0 7 16 28 50 70 85 108 139 169 198 221 239 255 255 255 255 255 255 255 255 255 255 255 255 255 255 255 255 255 248 242 225 218 217 217 209 206 216 218 224 234 238 240 232 235 238 238 238 255 255 255 255 255 255 255 255 255 255 255 253 255 232 8 0 93 51 10 0 0 60 50 39 46 82 117 125 113 97 92 113 138 121 99 105 158 59 0 0 0 0 0 0 0 0 0 0 0 0 0 0 0 0 0 0 0 0 0 0 0 0 0 0 0 0 0 0 0 0 0 0 0 0 0 0 0 0 0 0 0 0 0 0 0 0 0 0 0 0 0 0 0 0 0 0 0 0 0 0 0 0 0 0 0 0 0 0 0 0 0 0 0 0 0 0 0 0 0 0 0 0 0 0 0 0 0 0 0 0 0 0 0 0 0 0 0 0 0 0 0 0 0 0 0 0 0 0 0 0 0 0 0 0 0 0 0 0 0 0 0 0 0 0 0 0 0 0 0 0 0 0 0 0 
0 0 0 0 0 0 0 0 0 0 0 0 0 0 0 0 0 0 0 0 0 0 0 0 0 0 0 0 0 0 0 0 0 0 0 0 0 0 0 0 0 0 0 0 0 0 0 0 0 0 0 0 0 0 0 0 0 0 0 0 0 0 0 0 0 0 0 0 33 255 255 255 255 150 20 7 53 88 99 87 71 90 119 107 88 117 127 91 87 114 115 76 63 79 61 44 67 83 66 65 63 60 40 25 22 19 23 27 30 25 35 36 38 39 26 15 19 24 13 28 44 29 18 5 0 0 0 0 0 0 0 13 29 53 77 99 136 173 201 229 255 255 255 255 255 255 255 255 255 255 255 255 255 255 255 245 249 245 225 217 223 218 209 207 211 217 224 229 229 235 234 228 234 229 239 244 234 229 227 224 213 209 217 219 212 220 255 255 255 255 251 242 240 236 241 246 244 255 244 68 0 55 59 19 0 0 50 70 47 53 81 125 132 107 81 82 115 133 116 101 123 186 18 0 0 0 0 0 0 0 0 0 0 0 0 0 0 0 0 0 0 0 0 0 0 0 0 0 0 0 0 0 0 0 0 0 0 0 0 0 0 0 0 0 0 0 0 0 0 0 0 0 0 0 0 0 0 0 0 0 0 0 0 0 0 0 0 0 0 0 0 0 0 0 0 0 0 0 0 0 0 0 0 0 0 0 0 0 0 0 0 0 0 0 0 0 0 0 0 0 0 0 0 0 0 0 0 0 0 0 0 0 0 0 0 0 0 0 0 0 0 0 0 0 0 0 0 0 0 0 0 0 0 0 0 0 0 0 0 
0 0 0 0 0 0 0 0 0 0 0 0 0 0 0 0 0 0 0 0 0 0 0 0 0 0 0 0 0 0 0 0 0 0 0 0 0 0 0 0 0 0 0 0 0 0 0 0 0 0 0 0 0 0 0 0 0 0 0 0 0 0 0 0 0 0 0 0 100 255 255 206 4 4 45 69 95 106 100 92 87 101 119 120 121 168 179 137 132 142 129 110 120 153 140 131 131 128 117 94 62 23 11 0 0 17 33 38 39 38 40 36 33 30 18 18 28 29 18 21 25 1 0 0 5 23 43 66 99 126 164 210 241 255 255 255 255 255 255 255 255 255 255 255 255 255 249 214 205 210 203 191 197 212 217 217 232 233 223 218 203 195 207 212 215 221 219 213 212 222 223 213 211 210 216 214 207 204 209 207 201 199 206 205 194 208 255 255 255 255 253 248 245 242 244 248 250 255 253 130 0 0 63 21 0 0 18 67 37 46 75 119 118 88 71 83 111 123 108 101 145 207 0 0 0 0 0 0 0 0 0 0 0 0 0 0 0 0 0 0 0 0 0 0 0 0 0 0 0 0 0 0 0 0 0 0 0 0 0 0 0 0 0 0 0 0 0 0 0 0 0 0 0 0 0 0 0 0 0 0 0 0 0 0 0 0 0 0 0 0 0 0 0 0 0 0 0 0 0 0 0 0 0 0 0 0 0 0 0 0 0 0 0 0 0 0 0 0 0 0 0 0 0 0 0 0 0 0 0 0 0 0 0 0 0 0 0 0 0 0 0 0 0 0 0 0 0 0 0 0 0 0 0 0 0 0 0 0 0 
0 0 0 0 0 0 0 0 0 0 0 0 0 0 0 0 0 0 0 0 0 0 0 0 0 0 0 0 0 0 0 0 0 0 0 0 0 0 0 0 0 0 0 0 0 0 0 0 0 0 0 0 0 0 0 0 0 0 0 0 0 0 0 0 0 0 0 0 92 255 255 19 24 61 73 84 101 98 97 98 89 101 122 137 154 183 182 160 176 179 171 176 140 129 141 124 113 74 24 1 0 0 0 4 23 55 62 62 55 42 30 23 12 2 0 5 16 12 12 30 46 59 92 139 185 220 251 255 255 255 255 255 255 255 255 255 255 255 255 239 221 221 208 194 196 193 181 167 188 230 243 245 252 247 233 234 225 214 218 211 192 193 204 197 199 203 191 174 166 159 138 129 133 149 165 179 192 196 200 203 200 198 202 200 195 215 255 255 255 255 236 238 241 242 244 248 248 254 246 164 0 0 64 32 6 0 0 60 40 40 76 121 124 87 68 76 102 114 104 119 158 170 0 0 0 0 0 0 0 0 0 0 0 0 0 0 0 0 0 0 0 0 0 0 0 0 0 0 0 0 0 0 0 0 0 0 0 0 0 0 0 0 0 0 0 0 0 0 0 0 0 0 0 0 0 0 0 0 0 0 0 0 0 0 0 0 0 0 0 0 0 0 0 0 0 0 0 0 0 0 0 0 0 0 0 0 0 0 0 0 0 0 0 0 0 0 0 0 0 0 0 0 0 0 0 0 0 0 0 0 0 0 0 0 0 0 0 0 0 0 0 0 0 0 0 0 0 0 0 0 0 0 0 0 0 0 0 0 0 
0 0 0 0 0 0 0 0 0 0 0 0 0 0 0 0 0 0 0 0 0 0 0 0 0 0 0 0 0 0 0 0 0 0 0 0 0 0 0 0 0 0 0 0 0 0 0 0 0 0 0 0 0 0 0 0 0 0 0 0 0 0 0 0 0 0 0 0 57 255 255 48 51 69 84 91 96 92 96 96 90 95 119 150 178 208 205 177 180 163 152 132 17 0 0 0 0 0 0 0 0 0 0 12 14 26 13 1 0 0 0 0 0 14 37 66 93 124 161 198 232 255 255 255 255 255 255 255 255 255 255 237 209 195 189 191 195 203 217 211 215 233 232 224 229 227 217 212 230 252 231 216 221 214 211 211 195 193 194 186 190 206 201 175 136 79 7 0 0 0 0 0 0 0 0 0 44 146 195 206 192 190 196 197 200 228 255 255 255 255 236 235 243 241 242 246 251 255 254 208 33 0 52 46 23 0 0 49 56 49 71 113 127 94 66 75 98 111 111 145 152 88 0 0 0 0 0 0 0 0 0 0 0 0 0 0 0 0 0 0 0 0 0 0 0 0 0 0 0 0 0 0 0 0 0 0 0 0 0 0 0 0 0 0 0 0 0 0 0 0 0 0 0 0 0 0 0 0 0 0 0 0 0 0 0 0 0 0 0 0 0 0 0 0 0 0 0 0 0 0 0 0 0 0 0 0 0 0 0 0 0 0 0 0 0 0 0 0 0 0 0 0 0 0 0 0 0 0 0 0 0 0 0 0 0 0 0 0 0 0 0 0 0 0 0 0 0 0 0 0 0 0 0 0 0 0 0 0 0 
0 0 0 0 0 0 0 0 0 0 0 0 0 0 0 0 0 0 0 0 0 0 0 0 0 0 0 0 0 0 0 0 0 0 0 0 0 0 0 0 0 0 0 0 0 0 0 0 0 0 0 0 0 0 0 0 0 0 0 0 0 0 0 0 0 0 0 0 30 255 255 79 59 77 85 88 99 92 83 86 82 79 98 139 196 231 198 141 92 24 0 0 0 0 0 0 0 0 0 0 0 0 0 0 0 0 0 0 0 28 64 105 147 186 218 244 255 255 255 255 255 255 255 255 250 226 222 203 185 180 194 199 196 204 214 221 227 225 226 217 221 226 210 203 202 187 192 211 234 231 204 192 190 187 184 188 186 179 187 201 190 127 18 0 0 0 0 0 0 0 0 0 0 0 0 0 0 0 0 138 207 204 206 207 206 228 255 255 255 255 248 248 250 238 241 248 249 254 255 234 87 0 31 53 24 0 0 31 71 51 63 88 106 79 53 82 112 114 124 156 118 0 0 0 0 0 0 0 0 0 0 0 0 0 0 0 0 0 0 0 0 0 0 0 0 0 0 0 0 0 0 0 0 0 0 0 0 0 0 0 0 0 0 0 0 0 0 0 0 0 0 0 0 0 0 0 0 0 0 0 0 0 0 0 0 0 0 0 0 0 0 0 0 0 0 0 0 0 0 0 0 0 0 0 0 0 0 0 0 0 0 0 0 0 0 0 0 0 0 0 0 0 0 0 0 0 0 0 0 0 0 0 0 0 0 0 0 0 0 0 0 0 0 0 0 0 0 0 0 0 0 0 0 0 0 0 0 0 0 
0 0 0 0 0 0 0 0 0 0 0 0 0 0 0 0 0 0 0 0 0 0 0 0 0 0 0 0 0 0 0 0 0 0 0 0 0 0 0 0 0 0 0 0 0 0 0 0 0 0 0 0 0 0 0 0 0 0 0 0 0 0 0 0 0 0 0 0 7 255 255 94 70 82 83 86 98 93 70 76 79 76 79 111 155 141 23 0 0 0 0 0 0 0 0 0 0 0 0 0 0 0 0 0 2 49 99 142 175 206 229 242 249 248 247 242 237 230 220 204 195 203 211 213 224 231 236 228 212 230 238 239 234 233 234 219 207 203 195 191 194 194 187 190 187 178 197 206 196 186 182 184 181 176 168 174 186 177 183 148 0 0 0 0 0 0 0 0 0 6 102 150 168 157 123 67 0 0 0 0 102 199 204 209 204 213 236 255 255 255 255 246 241 235 242 246 243 245 249 236 108 0 11 63 33 7 0 0 71 52 57 56 72 76 60 85 119 117 148 148 48 0 0 0 0 0 0 0 0 0 0 0 0 0 0 0 0 0 0 0 0 0 0 0 0 0 0 0 0 0 0 0 0 0 0 0 0 0 0 0 0 0 0 0 0 0 0 0 0 0 0 0 0 0 0 0 0 0 0 0 0 0 0 0 0 0 0 0 0 0 0 0 0 0 0 0 0 0 0 0 0 0 0 0 0 0 0 0 0 0 0 0 0 0 0 0 0 0 0 0 0 0 0 0 0 0 0 0 0 0 0 0 0 0 0 0 0 0 0 0 0 0 0 0 0 0 0 0 0 0 0 0 0 0 0 0 0 0 0 
0 0 0 0 0 0 0 0 0 0 0 0 0 0 0 0 0 0 0 0 0 0 0 0 0 0 0 0 0 0 0 0 0 0 0 0 0 0 0 0 0 0 0 0 0 0 0 0 0 0 0 0 0 0 0 0 0 0 0 0 0 0 0 0 0 0 0 0 0 237 255 125 67 87 82 84 86 82 61 64 87 101 93 60 9 0 0 0 0 0 0 0 0 0 0 0 0 0 0 0 0 0 6 58 131 180 202 224 255 255 255 237 192 166 169 175 184 195 218 229 241 251 250 243 242 231 217 208 202 217 216 205 196 196 202 198 196 196 192 189 183 184 182 184 189 190 198 194 179 177 179 182 184 181 177 188 199 191 133 0 0 0 0 0 0 1 183 255 255 255 255 255 255 255 255 255 255 255 253 44 32 208 218 199 197 216 241 255 255 255 255 238 235 235 239 242 242 243 243 237 150 0 11 78 47 33 0 0 60 58 60 57 61 86 81 94 123 130 167 102 0 0 0 0 0 0 0 0 0 0 0 0 0 0 0 0 0 0 0 0 0 0 0 0 0 0 0 0 0 0 0 0 0 0 0 0 0 0 0 0 0 0 0 0 0 0 0 0 0 0 0 0 0 0 0 0 0 0 0 0 0 0 0 0 0 0 0 0 0 0 0 0 0 0 0 0 0 0 0 0 0 0 0 0 0 0 0 0 0 0 0 0 0 0 0 0 0 0 0 0 0 0 0 0 0 0 0 0 0 0 0 0 0 0 0 0 0 0 0 0 0 0 0 0 0 0 0 0 0 0 0 0 0 0 0 0 0 0 0 
0 0 0 0 0 0 0 0 0 0 0 0 0 0 0 0 0 0 0 0 0 0 0 0 0 0 0 0 0 0 0 0 0 0 0 0 0 0 0 0 0 0 0 0 0 0 0 0 0 0 0 0 0 0 0 0 0 0 0 0 0 0 0 0 0 0 0 0 0 212 255 169 74 86 90 80 69 69 77 81 88 95 44 0 0 0 0 0 0 0 0 0 1 16 29 41 40 31 29 24 9 9 61 138 189 183 176 255 255 255 255 255 192 196 225 241 242 239 238 239 237 228 219 210 202 189 172 180 193 194 198 192 185 184 186 185 183 189 187 181 182 185 183 181 181 178 176 181 181 183 183 185 189 191 188 198 202 198 83 0 0 0 0 192 255 255 255 255 255 255 255 255 255 255 255 255 255 255 255 255 255 255 255 193 193 216 243 255 255 255 255 240 241 238 240 245 244 240 230 231 171 33 10 78 62 42 1 0 32 64 54 58 64 96 98 104 132 165 166 7 0 0 0 0 0 0 0 0 0 0 0 0 0 0 0 0 0 0 0 0 0 0 0 0 0 0 0 0 0 0 0 0 0 0 0 0 0 0 0 0 0 0 0 0 0 0 0 0 0 0 0 0 0 0 0 0 0 0 0 0 0 0 0 0 0 0 0 0 0 0 0 0 0 0 0 0 0 0 0 0 0 0 0 0 0 0 0 0 0 0 0 0 0 0 0 0 0 0 0 0 0 0 0 0 0 0 0 0 0 0 0 0 0 0 0 0 0 0 0 0 0 0 0 0 0 0 0 0 0 0 0 0 0 0 0 0 0 0 0 
0 0 0 0 0 0 0 0 0 0 0 0 0 0 0 0 0 0 0 0 0 0 0 0 0 0 0 0 0 0 0 0 0 0 0 0 0 0 0 0 0 0 0 0 0 0 0 0 0 0 0 0 0 0 0 0 0 0 0 0 0 0 0 0 0 0 0 0 0 173 255 220 87 87 103 91 85 103 116 98 62 6 0 0 0 0 0 0 27 59 80 93 101 95 78 62 48 41 37 30 10 28 100 165 158 118 201 255 255 255 255 229 171 202 224 222 213 209 202 203 190 184 186 190 185 184 183 186 190 188 191 183 180 181 183 182 178 179 180 181 184 183 176 177 177 173 172 176 178 182 183 186 185 183 186 189 190 193 142 0 0 122 255 255 255 255 255 255 255 255 242 218 203 197 202 210 216 235 255 255 255 255 255 199 189 214 227 247 255 255 255 244 239 236 240 247 241 237 241 239 189 67 16 78 83 51 32 0 0 55 45 45 56 84 106 130 150 191 120 0 0 0 0 0 0 0 0 0 0 0 0 0 0 0 0 0 0 0 0 0 0 0 0 0 0 0 0 0 0 0 0 0 0 0 0 0 0 0 0 0 0 0 0 0 0 0 0 0 0 0 0 0 0 0 0 0 0 0 0 0 0 0 0 0 0 0 0 0 0 0 0 0 0 0 0 0 0 0 0 0 0 0 0 0 0 0 0 0 0 0 0 0 0 0 0 0 0 0 0 0 0 0 0 0 0 0 0 0 0 0 0 0 0 0 0 0 0 0 0 0 0 0 0 0 0 0 0 0 0 0 0 0 0 0 0 0 0 0 0 
0 0 0 0 0 0 0 0 0 0 0 0 0 0 0 0 0 0 0 0 0 0 0 0 0 0 0 0 0 0 0 0 0 0 0 0 0 0 0 0 0 0 0 0 0 0 0 0 0 0 0 0 0 0 0 0 0 0 0 0 0 0 0 0 0 0 0 0 0 123 255 255 112 108 130 129 130 146 122 69 27 0 0 0 0 60 91 109 121 131 134 131 118 88 56 33 24 23 21 9 0 34 120 159 134 141 255 255 255 255 169 92 78 144 179 180 184 186 184 183 185 186 185 186 184 183 182 183 188 184 183 179 175 176 179 179 179 177 176 173 175 176 173 177 179 178 186 184 182 181 182 189 190 187 186 186 186 184 182 157 183 255 255 255 255 255 255 215 188 190 196 197 201 201 207 206 198 195 195 199 221 255 253 201 191 206 212 240 255 255 255 244 236 236 240 240 233 238 247 236 187 104 70 104 109 64 47 9 0 31 34 31 55 89 125 147 169 194 33 0 0 39 0 0 0 0 0 0 0 0 0 0 0 0 0 0 0 0 0 0 0 0 0 0 0 0 0 0 0 0 0 0 0 0 0 0 0 0 0 0 0 0 0 0 0 0 0 0 0 0 0 0 0 0 0 0 0 0 0 0 0 0 0 0 0 0 0 0 0 0 0 0 0 0 0 0 0 0 0 0 0 0 0 0 0 0 0 0 0 0 0 0 0 0 0 0 0 0 0 0 0 0 0 0 0 0 0 0 0 0 0 0 0 0 0 0 0 0 0 0 0 0 0 0 0 0 0 0 0 0 0 0 0 0 0 0 0 0 0 
0 0 0 0 0 0 0 0 0 0 0 0 0 0 0 0 0 0 0 0 0 0 0 0 0 0 0 0 0 0 0 0 0 0 0 0 0 0 0 0 0 0 0 0 0 0 0 0 0 0 0 0 0 0 0 0 0 0 0 0 0 0 0 0 0 0 0 0 0 69 255 255 145 140 159 159 163 153 112 55 14 0 21 78 108 126 137 155 159 147 134 114 79 32 0 0 0 12 14 0 0 55 141 158 134 206 255 255 255 162 147 79 58 116 165 177 183 185 182 183 190 193 187 184 186 182 180 183 181 180 174 174 170 171 173 174 177 172 172 178 176 174 177 188 184 182 192 189 186 189 190 194 192 192 191 187 188 189 189 198 255 255 255 255 242 194 189 194 197 204 208 206 210 210 212 210 207 212 214 210 197 180 177 192 199 202 207 251 255 255 255 238 232 238 243 240 235 244 244 214 170 144 132 127 116 85 58 50 0 5 46 44 66 97 129 148 188 152 0 0 39 79 0 0 0 0 0 0 0 0 0 0 0 0 0 0 0 0 0 0 0 0 0 0 0 0 0 0 0 0 0 0 0 0 0 0 0 0 0 0 0 0 0 0 0 0 0 0 0 0 0 0 0 0 0 0 0 0 0 0 0 0 0 0 0 0 0 0 0 0 0 0 0 0 0 0 0 0 0 0 0 0 0 0 0 0 0 0 0 0 0 0 0 0 0 0 0 0 0 0 0 0 0 0 0 0 0 0 0 0 0 0 0 0 0 0 0 0 0 0 0 0 0 0 0 0 0 0 0 0 0 0 0 0 0 0 0 0 0 
0 0 0 0 0 0 0 0 0 0 0 0 0 0 0 0 0 0 0 0 0 0 0 0 0 0 0 0 0 0 0 0 0 0 0 0 0 0 0 0 0 0 0 0 0 0 0 0 0 0 0 0 0 0 0 0 0 0 0 0 0 0 0 0 0 0 0 0 0 19 255 255 156 134 144 144 143 133 125 103 57 37 88 152 177 179 185 179 156 139 138 123 74 18 0 0 11 25 25 5 4 81 158 158 140 255 255 255 237 197 193 116 73 119 173 185 181 182 182 181 189 188 184 183 184 185 179 178 174 174 169 171 173 174 177 177 178 177 174 180 177 179 193 187 176 178 189 185 185 191 192 191 187 185 188 186 192 194 194 197 202 225 241 205 194 206 201 200 201 205 208 208 212 208 206 207 204 213 211 206 203 200 199 198 206 212 231 255 255 255 255 241 234 239 243 244 241 249 254 229 200 180 152 129 120 106 79 74 54 19 87 120 107 86 105 160 210 72 0 0 120 64 0 0 0 0 0 0 0 0 0 0 0 0 0 0 0 0 0 0 0 0 0 0 0 0 0 0 0 0 0 0 0 0 0 0 0 0 0 0 0 0 0 0 0 0 0 0 0 0 0 0 0 0 0 0 0 0 0 0 0 0 0 0 0 0 0 0 0 0 0 0 0 0 0 0 0 0 0 0 0 0 0 0 0 0 0 0 0 0 0 0 0 0 0 0 0 0 0 0 0 0 0 0 0 0 0 0 0 0 0 0 0 0 0 0 0 0 0 0 0 0 0 0 0 0 0 0 0 0 0 0 0 0 0 0 0 0 0 
0 0 0 0 0 0 0 0 0 0 0 0 0 0 0 0 0 0 0 0 0 0 0 0 0 0 0 0 0 0 0 0 0 0 0 0 0 0 0 0 0 0 0 0 0 0 0 0 0 0 0 0 0 0 0 0 0 0 0 0 0 0 0 0 0 0 0 0 0 1 109 201 17 0 0 0 0 0 0 0 40 92 164 209 210 186 183 161 124 109 114 110 57 0 0 0 16 28 23 0 12 101 162 155 161 255 255 255 195 208 189 107 71 127 180 185 178 176 175 181 189 187 183 182 181 179 178 176 178 178 180 181 181 184 186 180 177 174 179 190 192 200 104 0 75 175 198 189 187 192 192 189 187 190 190 188 193 196 192 195 190 181 181 194 200 199 203 204 202 204 209 209 205 204 203 207 207 211 206 203 203 204 202 200 206 216 238 255 255 255 255 239 238 248 250 250 252 254 255 244 223 188 138 131 147 128 95 88 89 60 57 91 63 23 87 226 201 0 0 0 129 2 0 0 0 0 0 0 0 0 0 0 0 0 0 0 0 0 0 0 0 0 0 0 0 0 0 0 0 0 0 0 0 0 0 0 0 0 0 0 0 0 0 0 0 0 0 0 0 0 0 0 0 0 0 0 0 0 0 0 0 0 0 0 0 0 0 0 0 0 0 0 0 0 0 0 0 0 0 0 0 0 0 0 0 0 0 0 0 0 0 0 0 0 0 0 0 0 0 0 0 0 0 0 0 0 0 0 0 0 0 0 0 0 0 0 0 0 0 0 0 0 0 0 0 0 0 0 0 0 0 0 0 0 0 0 0 0 0 
0 0 0 0 0 0 0 0 0 0 0 0 0 0 0 0 0 0 0 0 0 0 0 0 0 0 0 0 0 0 0 0 0 0 0 0 0 0 0 0 0 0 0 0 0 0 0 0 0 0 0 0 0 0 0 0 0 0 0 0 0 0 0 0 0 0 0 0 0 0 18 0 0 0 0 0 0 0 0 0 0 130 159 184 174 150 133 104 75 76 87 86 27 0 0 0 14 27 16 0 20 114 160 151 202 255 255 255 182 203 182 110 77 124 167 175 171 172 178 187 190 189 186 185 178 176 177 177 177 182 180 180 180 182 186 186 189 192 190 169 120 9 0 0 27 255 216 186 188 189 185 186 188 190 194 191 191 192 192 193 194 199 202 197 194 200 205 207 210 218 219 208 198 202 209 209 210 209 204 202 204 203 202 201 205 214 231 250 255 255 255 245 248 255 252 250 252 250 246 240 217 171 128 137 176 162 122 107 101 78 5 0 0 0 155 255 86 0 0 9 118 0 0 0 0 0 0 0 0 0 0 0 0 0 0 0 0 0 0 0 0 0 0 0 0 0 0 0 0 0 0 0 0 0 0 0 0 0 0 0 0 0 0 0 0 0 0 0 0 0 0 0 0 0 0 0 0 0 0 0 0 0 0 0 0 0 0 0 0 0 0 0 0 0 0 0 0 0 0 0 0 0 0 0 0 0 0 0 0 0 0 0 0 0 0 0 0 0 0 0 0 0 0 0 0 0 0 0 0 0 0 0 0 0 0 0 0 0 0 0 0 0 0 0 0 0 0 0 0 0 0 0 0 0 0 0 0 0 0 
0 0 0 0 0 0 0 0 0 0 0 0 0 0 0 0 0 0 0 0 0 0 0 0 0 0 0 0 0 0 0 0 0 0 0 0 0 0 0 0 0 0 0 0 0 0 0 0 0 0 0 0 0 0 0 0 0 0 0 0 0 0 0 0 0 0 0 0 0 0 0 0 0 0 0 0 0 0 0 0 5 205 143 131 143 129 114 82 49 61 88 81 13 0 0 0 12 21 14 0 40 134 164 157 251 255 255 252 188 210 191 137 97 118 153 169 170 176 184 186 189 188 189 182 170 173 176 172 175 185 184 187 190 183 171 145 110 61 0 0 0 0 0 0 255 255 210 176 189 184 184 185 190 192 191 190 189 194 194 196 199 201 199 197 196 197 214 215 197 183 191 209 211 205 209 209 210 207 204 204 205 203 204 203 211 220 233 246 255 255 255 255 255 252 247 245 242 240 241 241 222 169 132 151 195 198 173 147 129 118 120 168 234 255 255 171 0 0 0 58 108 0 0 0 0 0 0 0 0 0 0 0 0 0 0 0 0 0 0 0 0 0 0 0 0 0 0 0 0 0 0 0 0 0 0 0 0 0 0 0 0 0 0 0 0 0 0 0 0 0 0 0 0 0 0 0 0 0 0 0 0 0 0 0 0 0 0 0 0 0 0 0 0 0 0 0 0 0 0 0 0 0 0 0 0 0 0 0 0 0 0 0 0 0 0 0 0 0 0 0 0 0 0 0 0 0 0 0 0 0 0 0 0 0 0 0 0 0 0 0 0 0 0 0 0 0 0 0 0 0 0 0 0 0 0 0 0 0 0 
0 0 0 0 0 0 0 0 0 0 0 0 0 0 0 0 0 0 0 0 0 0 0 0 0 0 0 0 0 0 0 0 0 0 0 0 0 0 0 0 0 0 0 0 0 0 0 0 0 0 0 0 0 0 0 0 0 0 0 0 0 0 0 0 0 0 0 0 0 0 0 0 0 0 0 0 0 0 0 0 79 255 209 110 139 127 112 82 56 66 82 63 0 0 0 0 18 18 2 0 60 151 167 169 255 255 255 210 193 208 188 145 100 110 150 176 179 182 184 182 187 184 177 175 176 181 182 176 166 146 110 75 22 0 0 0 0 0 0 0 0 0 0 255 255 255 184 181 191 185 188 190 195 196 193 196 196 200 201 198 199 204 201 194 201 208 163 25 0 0 0 0 101 190 207 207 209 208 205 205 208 207 207 208 207 210 221 232 255 255 255 255 247 245 244 246 245 247 255 254 237 184 137 150 191 208 204 201 205 229 255 255 255 255 255 0 0 0 46 74 93 0 0 0 0 0 0 0 0 0 0 0 0 0 0 0 0 0 0 0 0 0 0 0 0 0 0 0 0 0 0 0 0 0 0 0 0 0 0 0 0 0 0 0 0 0 0 0 0 0 0 0 0 0 0 0 0 0 0 0 0 0 0 0 0 0 0 0 0 0 0 0 0 0 0 0 0 0 0 0 0 0 0 0 0 0 0 0 0 0 0 0 0 0 0 0 0 0 0 0 0 0 0 0 0 0 0 0 0 0 0 0 0 0 0 0 0 0 0 0 0 0 0 0 0 0 0 0 0 0 0 0 0 0 0 0 0 0 0 
0 0 0 0 0 0 0 0 0 0 0 0 0 0 0 0 0 0 0 0 0 0 0 0 0 0 0 0 0 0 0 0 0 0 0 0 0 0 0 0 0 0 0 0 0 0 0 0 0 0 0 0 0 0 0 0 0 0 0 0 0 0 0 0 0 0 0 0 0 0 0 0 0 0 0 0 0 0 0 0 40 255 255 124 135 141 116 79 59 72 84 58 0 0 0 4 17 16 0 0 70 158 165 177 255 255 255 197 203 211 196 152 102 105 150 174 179 177 180 186 188 179 173 158 105 39 0 0 0 0 0 0 0 0 0 0 0 0 0 0 0 160 255 255 255 255 184 196 196 189 191 194 194 193 192 194 197 199 200 193 194 196 196 198 197 77 0 0 0 0 0 0 0 39 187 210 211 206 205 206 209 207 204 206 203 209 212 224 255 255 255 255 255 255 255 255 255 255 255 255 236 190 137 145 184 202 205 216 242 255 255 255 255 255 255 0 0 75 71 66 91 0 0 0 0 0 0 0 0 0 0 0 0 0 0 0 0 0 0 0 0 0 0 0 0 0 0 0 0 0 0 0 0 0 0 0 0 0 0 0 0 0 0 0 0 0 0 0 0 0 0 0 0 0 0 0 0 0 0 0 0 0 0 0 0 0 0 0 0 0 0 0 0 0 0 0 0 0 0 0 0 0 0 0 0 0 0 0 0 0 0 0 0 0 0 0 0 0 0 0 0 0 0 0 0 0 0 0 0 0 0 0 0 0 0 0 0 0 0 0 0 0 0 0 0 0 0 0 0 0 0 0 0 0 0 0 0 0 0 
0 0 0 0 0 0 0 0 0 0 0 0 0 0 0 0 0 0 0 0 0 0 0 0 0 0 0 0 0 0 0 0 0 0 0 0 0 0 0 0 0 0 0 0 0 0 0 0 0 0 0 0 0 0 0 0 0 0 0 0 0 0 0 0 0 0 0 0 0 0 0 0 0 0 0 0 0 0 0 0 24 235 255 144 119 143 121 89 73 78 73 44 0 0 0 14 16 12 0 0 89 171 171 188 255 255 255 196 211 216 211 174 113 98 142 167 172 174 184 190 190 191 95 0 0 0 0 0 0 0 0 0 0 0 0 0 0 69 179 255 255 255 255 255 255 193 195 193 191 191 190 193 190 190 190 190 191 193 194 191 192 196 198 201 74 0 0 0 0 0 0 0 0 0 113 209 205 203 203 205 207 209 207 207 209 217 221 231 255 255 255 255 255 255 255 255 255 255 255 250 232 193 150 153 189 208 208 210 221 249 255 255 255 255 98 0 0 102 69 69 75 0 0 0 0 0 0 0 0 0 0 0 0 0 0 0 0 0 0 0 0 0 0 0 0 0 0 0 0 0 0 0 0 0 0 0 0 0 0 0 0 0 0 0 0 0 0 0 0 0 0 0 0 0 0 0 0 0 0 0 0 0 0 0 0 0 0 0 0 0 0 0 0 0 0 0 0 0 0 0 0 0 0 0 0 0 0 0 0 0 0 0 0 0 0 0 0 0 0 0 0 0 0 0 0 0 0 0 0 0 0 0 0 0 0 0 0 0 0 0 0 0 0 0 0 0 0 0 0 0 0 0 0 0 0 0 0 0 0 
0 0 0 0 0 0 0 0 0 0 0 0 0 0 0 0 0 0 0 0 0 0 0 0 0 0 0 0 0 0 0 0 0 0 0 0 0 0 0 0 0 0 0 0 0 0 0 0 0 0 0 0 0 0 0 0 0 0 0 0 0 0 0 0 0 0 0 0 0 0 0 0 0 0 0 0 0 0 0 0 9 162 255 184 104 141 126 99 94 95 72 23 0 0 0 15 13 13 0 13 120 190 184 218 255 255 255 194 216 219 215 172 100 86 140 169 175 184 190 190 185 191 80 0 0 0 0 45 101 194 255 255 255 255 255 255 255 255 255 255 255 255 255 255 194 193 194 190 191 188 189 193 193 195 196 195 198 199 197 196 197 201 209 151 0 0 0 0 0 40 49 43 28 0 62 231 219 204 206 207 207 209 212 214 215 219 216 221 255 255 255 255 255 254 247 247 245 245 248 251 239 204 157 152 183 203 210 213 215 220 239 253 255 255 135 0 0 72 71 80 58 0 0 0 0 0 0 0 0 0 0 0 0 0 0 0 0 0 0 0 0 0 0 0 0 0 0 0 0 0 0 0 0 0 0 0 0 0 0 0 0 0 0 0 0 0 0 0 0 0 0 0 0 0 0 0 0 0 0 0 0 0 0 0 0 0 0 0 0 0 0 0 0 0 0 0 0 0 0 0 0 0 0 0 0 0 0 0 0 0 0 0 0 0 0 0 0 0 0 0 0 0 0 0 0 0 0 0 0 0 0 0 0 0 0 0 0 0 0 0 0 0 0 0 0 0 0 0 0 0 0 0 0 0 0 0 0 0 0 
0 0 0 0 0 0 0 0 0 0 0 0 0 0 0 0 0 0 0 0 0 0 0 0 0 0 0 0 0 0 0 0 0 0 0 0 0 0 0 0 0 0 0 0 0 0 0 0 0 0 0 0 0 0 0 0 0 0 0 0 0 0 0 0 0 0 0 0 0 0 0 0 0 0 0 0 0 0 0 0 1 88 255 255 112 139 146 117 94 94 71 16 0 0 0 5 4 12 0 27 136 195 190 254 255 255 255 202 227 227 218 172 103 93 149 175 185 194 194 187 181 181 142 110 255 255 255 255 255 255 255 255 255 255 255 195 173 180 255 255 255 255 219 196 196 198 196 199 195 196 201 201 202 201 203 202 205 205 203 203 207 208 205 22 0 0 0 57 69 48 34 29 30 22 47 255 255 225 214 212 211 216 214 215 213 214 212 216 248 255 255 255 255 247 243 246 244 246 251 245 236 213 161 137 170 204 216 217 218 221 229 234 237 255 185 0 0 33 79 80 26 0 0 0 0 0 0 0 0 0 0 0 0 0 0 0 0 0 0 0 0 0 0 0 0 0 0 0 0 0 0 0 0 0 0 0 0 0 0 0 0 0 0 0 0 0 0 0 0 0 0 0 0 0 0 0 0 0 0 0 0 0 0 0 0 0 0 0 0 0 0 0 0 0 0 0 0 0 0 0 0 0 0 0 0 0 0 0 0 0 0 0 0 0 0 0 0 0 0 0 0 0 0 0 0 0 0 0 0 0 0 0 0 0 0 0 0 0 0 0 0 0 0 0 0 0 0 0 0 0 0 0 0 0 0 0 0 0 0 
0 0 0 0 0 0 0 0 0 0 0 0 0 0 0 0 0 0 0 0 0 0 0 0 0 0 0 0 0 0 0 0 0 0 0 0 0 0 0 0 0 0 0 0 0 0 0 0 0 0 0 0 0 0 0 0 0 0 0 0 0 0 0 0 0 0 0 0 0 0 0 0 0 0 0 0 0 0 0 0 0 41 247 255 149 144 158 123 89 81 70 18 0 0 0 2 2 4 0 38 149 201 198 255 255 255 248 211 229 233 226 193 134 118 158 185 194 200 195 188 188 186 178 207 255 255 255 255 255 255 255 255 107 0 0 0 0 0 0 0 74 195 209 213 206 205 208 205 199 205 209 207 209 210 209 208 207 210 208 207 208 214 183 0 0 0 5 79 48 32 21 25 33 34 27 255 255 255 216 214 214 218 218 217 215 212 216 218 237 255 255 255 250 245 246 247 247 249 251 242 235 223 175 145 176 209 214 216 214 219 224 226 227 255 216 0 0 0 92 91 0 0 0 0 0 0 0 0 0 0 0 0 0 0 0 0 0 0 0 0 0 0 0 0 0 0 0 0 0 0 0 0 0 0 0 0 0 0 0 0 0 0 0 0 0 0 0 0 0 0 0 0 0 0 0 0 0 0 0 0 0 0 0 0 0 0 0 0 0 0 0 0 0 0 0 0 0 0 0 0 0 0 0 0 0 0 0 0 0 0 0 0 0 0 0 0 0 0 0 0 0 0 0 0 0 0 0 0 0 0 0 0 0 0 0 0 0 0 0 0 0 0 0 0 0 0 0 0 0 0 0 0 0 0 0 0 0 0 0 
0 0 0 0 0 0 0 0 0 0 0 0 0 0 0 0 0 0 0 0 0 0 0 0 0 0 0 0 0 0 0 0 0 0 0 0 0 0 0 0 0 0 0 0 0 0 0 0 0 0 0 0 0 0 0 0 0 0 0 0 0 0 0 0 0 0 0 0 0 0 0 0 0 0 0 0 0 0 0 0 0 11 168 255 184 123 149 116 77 85 78 16 0 0 0 4 8 6 0 56 166 220 219 255 255 255 236 228 240 238 233 210 149 119 157 192 200 206 198 196 197 199 194 197 197 196 201 200 198 196 195 57 0 0 0 0 0 0 0 0 0 128 220 219 214 213 217 213 207 212 213 207 210 213 208 206 208 211 209 205 207 211 165 0 0 0 65 62 31 17 19 37 43 46 23 217 255 255 218 212 215 218 216 218 218 216 218 217 233 255 255 255 245 242 246 249 249 250 247 244 250 236 180 141 173 206 210 211 214 218 220 224 227 255 239 0 0 0 94 97 0 0 0 0 0 0 0 0 0 0 0 0 0 0 0 0 0 0 0 0 0 0 0 0 0 0 0 0 0 0 0 0 0 0 0 0 0 0 0 0 0 0 0 0 0 0 0 0 0 0 0 0 0 0 0 0 0 0 0 0 0 0 0 0 0 0 0 0 0 0 0 0 0 0 0 0 0 0 0 0 0 0 0 0 0 0 0 0 0 0 0 0 0 0 0 0 0 0 0 0 0 0 0 0 0 0 0 0 0 0 0 0 0 0 0 0 0 0 0 0 0 0 0 0 0 0 0 0 0 0 0 0 0 0 0 0 0 0 0 
0 0 0 0 0 0 0 0 0 0 0 0 0 0 0 0 0 0 0 0 0 0 0 0 0 0 0 0 0 0 0 0 0 0 0 0 0 0 0 0 0 0 0 0 0 0 0 0 0 0 0 0 0 0 0 0 0 0 0 0 0 0 0 0 0 0 0 0 0 0 0 0 0 0 0 0 0 0 0 0 0 1 79 255 236 104 123 125 115 109 79 6 0 0 0 5 8 3 0 78 193 240 243 255 255 255 235 237 247 247 243 213 154 123 158 196 206 205 203 204 206 206 203 206 207 205 209 211 207 205 140 0 0 0 0 42 44 43 40 16 0 112 255 238 218 214 210 209 205 212 214 210 210 206 204 202 208 210 207 207 211 213 178 0 0 0 64 37 15 15 30 39 35 43 21 203 255 255 234 217 214 218 217 216 213 213 215 218 239 255 255 255 247 248 246 247 247 249 249 246 255 240 174 126 160 198 208 212 215 221 225 227 227 249 255 0 0 0 100 87 0 0 0 0 0 0 0 0 0 0 0 0 0 0 0 0 0 0 0 0 0 0 0 0 0 0 0 0 0 0 0 0 0 0 0 0 0 0 0 0 0 0 0 0 0 0 0 0 0 0 0 0 0 0 0 0 0 0 0 0 0 0 0 0 0 0 0 0 0 0 0 0 0 0 0 0 0 0 0 0 0 0 0 0 0 0 0 0 0 0 0 0 0 0 0 0 0 0 0 0 0 0 0 0 0 0 0 0 0 0 0 0 0 0 0 0 0 0 0 0 0 0 0 0 0 0 0 0 0 0 0 0 0 0 0 0 0 0 0 
0 0 0 0 0 0 0 0 0 0 0 0 0 0 0 0 0 0 0 0 0 0 0 0 0 0 0 0 0 0 0 0 0 0 0 0 0 0 0 0 0 0 0 0 0 0 0 0 0 0 0 0 0 0 0 0 0 0 0 0 0 0 0 0 0 0 0 0 0 0 0 0 0 0 0 0 0 0 0 0 0 0 25 193 255 135 120 149 139 111 62 0 0 0 0 1 8 0 6 102 222 255 255 255 255 255 235 240 244 245 240 215 168 140 164 199 207 202 205 206 206 206 204 205 206 204 205 205 203 194 0 0 0 0 37 28 24 32 31 21 18 104 255 255 227 208 205 203 203 207 213 212 208 203 202 208 211 209 204 208 213 217 200 0 0 0 54 35 25 31 34 30 27 32 14 251 255 255 249 220 218 222 220 214 214 216 213 214 240 255 255 255 255 252 245 248 251 249 248 243 252 231 170 138 166 203 209 209 211 216 220 228 225 241 255 0 0 0 108 78 0 0 0 0 0 0 0 0 0 0 0 0 0 0 0 0 0 0 0 0 0 0 0 0 0 0 0 0 0 0 0 0 0 0 0 0 0 0 0 0 0 0 0 0 0 0 0 0 0 0 0 0 0 0 0 0 0 0 0 0 0 0 0 0 0 0 0 0 0 0 0 0 0 0 0 0 0 0 0 0 0 0 0 0 0 0 0 0 0 0 0 0 0 0 0 0 0 0 0 0 0 0 0 0 0 0 0 0 0 0 0 0 0 0 0 0 0 0 0 0 0 0 0 0 0 0 0 0 0 0 0 0 0 0 0 0 0 0 0 
0 0 0 0 0 0 0 0 0 0 0 0 0 0 0 0 0 0 0 0 0 0 0 0 0 0 0 0 0 0 0 0 0 0 0 0 0 0 0 0 0 0 0 0 0 0 0 0 0 0 0 0 0 0 0 0 0 0 0 0 0 0 0 0 0 0 0 0 0 0 0 0 0 0 0 0 0 0 0 0 0 0 4 97 255 187 115 162 141 93 29 0 0 0 0 0 4 0 20 129 250 255 255 255 255 255 232 244 248 242 235 212 177 143 151 187 203 204 207 208 206 207 204 203 204 204 205 203 201 167 0 0 0 13 34 24 28 32 36 41 29 52 255 255 255 200 204 209 212 212 212 209 201 202 201 207 211 208 204 207 207 208 209 78 0 0 38 46 40 40 35 33 33 21 25 255 255 255 242 220 220 222 220 213 216 220 213 214 234 255 255 255 255 250 247 253 255 254 251 250 243 220 178 157 178 205 210 207 209 213 218 224 225 235 255 53 0 0 105 74 0 0 0 0 0 0 0 0 0 0 0 0 0 0 0 0 0 0 0 0 0 0 0 0 0 0 0 0 0 0 0 0 0 0 0 0 0 0 0 0 0 0 0 0 0 0 0 0 0 0 0 0 0 0 0 0 0 0 0 0 0 0 0 0 0 0 0 0 0 0 0 0 0 0 0 0 0 0 0 0 0 0 0 0 0 0 0 0 0 0 0 0 0 0 0 0 0 0 0 0 0 0 0 0 0 0 0 0 0 0 0 0 0 0 0 0 0 0 0 0 0 0 0 0 0 0 0 0 0 0 0 0 0 0 0 0 0 0 0 
0 0 0 0 0 0 0 0 0 0 0 0 0 0 0 0 0 0 0 0 0 0 0 0 0 0 0 0 0 0 0 0 0 0 0 0 0 0 0 0 0 0 0 0 0 0 0 0 0 0 0 0 0 0 0 0 0 0 0 0 0 0 0 0 0 0 0 0 0 0 0 0 0 0 0 0 0 0 0 0 0 0 0 30 200 252 125 158 157 106 34 0 0 0 0 0 3 0 36 163 255 255 255 255 255 255 238 242 239 237 233 216 183 135 132 179 202 204 207 206 208 206 201 204 206 206 198 202 202 144 0 0 0 57 36 40 37 38 46 48 25 12 255 255 255 205 204 210 211 209 210 206 200 205 205 204 210 207 205 209 209 208 207 174 0 0 2 49 38 45 35 30 30 10 153 255 255 255 230 222 218 220 219 215 216 215 209 216 231 255 255 255 255 255 251 252 252 249 249 253 247 225 194 168 163 183 203 205 212 216 221 226 225 230 255 106 0 0 94 52 0 0 0 0 0 0 0 0 0 0 0 0 0 0 0 0 0 0 0 0 0 0 0 0 0 0 0 0 0 0 0 0 0 0 0 0 0 0 0 0 0 0 0 0 0 0 0 0 0 0 0 0 0 0 0 0 0 0 0 0 0 0 0 0 0 0 0 0 0 0 0 0 0 0 0 0 0 0 0 0 0 0 0 0 0 0 0 0 0 0 0 0 0 0 0 0 0 0 0 0 0 0 0 0 0 0 0 0 0 0 0 0 0 0 0 0 0 0 0 0 0 0 0 0 0 0 0 0 0 0 0 0 0 0 0 0 0 0 0 
0 0 0 0 0 0 0 0 0 0 0 0 0 0 0 0 0 0 0 0 0 0 0 0 0 0 0 0 0 0 0 0 0 0 0 0 0 0 0 0 0 0 0 0 0 0 0 0 0 0 0 0 0 0 0 0 0 0 0 0 0 0 0 0 0 0 0 0 0 0 0 0 0 0 0 0 0 0 0 0 0 0 0 5 94 255 173 138 165 109 21 0 0 0 0 0 0 3 68 205 255 255 255 255 255 243 237 234 231 233 232 222 188 144 138 182 203 204 203 201 206 206 199 201 205 200 202 200 202 140 0 0 0 44 33 38 39 50 55 38 0 0 255 255 255 210 201 208 210 204 202 204 204 207 206 205 212 209 204 207 210 209 208 213 141 0 0 36 31 36 24 13 9 103 255 255 255 255 225 226 220 218 220 216 215 214 206 213 225 249 255 255 255 252 245 244 249 250 251 252 245 227 203 172 162 180 202 207 208 212 215 220 224 226 255 148 0 0 77 25 0 0 0 0 0 0 0 0 0 0 0 0 0 0 0 0 0 0 0 0 0 0 0 0 0 0 0 0 0 0 0 0 0 0 0 0 0 0 0 0 0 0 0 0 0 0 0 0 0 0 0 0 0 0 0 0 0 0 0 0 0 0 0 0 0 0 0 0 0 0 0 0 0 0 0 0 0 0 0 0 0 0 0 0 0 0 0 0 0 0 0 0 0 0 0 0 0 0 0 0 0 0 0 0 0 0 0 0 0 0 0 0 0 0 0 0 0 0 0 0 0 0 0 0 0 0 0 0 0 0 0 0 0 0 0 0 0 0 0 
0 0 0 0 0 0 0 0 0 0 0 0 0 0 0 0 0 0 0 0 0 0 0 0 0 0 0 0 0 0 0 0 0 0 0 0 0 0 0 0 0 0 0 0 0 0 0 0 0 0 0 0 0 0 0 0 0 0 0 0 0 0 0 0 0 0 0 0 0 0 0 0 0 0 0 0 0 0 0 0 0 0 0 0 19 174 230 125 152 104 0 0 0 0 0 0 3 19 105 255 255 255 255 255 255 231 235 231 227 230 228 220 192 152 150 188 204 206 206 206 206 202 200 201 202 200 202 201 200 162 0 0 0 40 30 36 35 39 36 13 0 6 255 255 255 217 204 210 209 207 206 207 209 208 210 210 213 212 207 207 209 209 208 209 207 163 125 147 103 56 47 77 193 255 255 255 255 241 224 222 215 215 217 212 213 213 213 218 220 238 255 255 255 249 245 247 252 255 255 254 248 226 204 177 167 181 201 211 208 212 214 220 223 221 255 188 0 0 56 9 0 0 0 0 0 0 0 0 0 0 0 0 0 0 0 0 0 0 0 0 0 0 0 0 0 0 0 0 0 0 0 0 0 0 0 0 0 0 0 0 0 0 0 0 0 0 0 0 0 0 0 0 0 0 0 0 0 0 0 0 0 0 0 0 0 0 0 0 0 0 0 0 0 0 0 0 0 0 0 0 0 0 0 0 0 0 0 0 0 0 0 0 0 0 0 0 0 0 0 0 0 0 0 0 0 0 0 0 0 0 0 0 0 0 0 0 0 0 0 0 0 0 0 0 0 0 0 0 0 0 0 0 0 0 0 0 0 0 0 
0 0 0 0 0 0 0 0 0 0 0 0 0 0 0 0 0 0 0 0 0 0 0 0 0 0 0 0 0 0 0 0 0 0 0 0 0 0 0 0 0 0 0 0 0 0 0 0 0 0 0 0 0 0 0 0 0 0 0 0 0 0 0 0 0 0 0 0 0 0 0 0 0 0 0 0 0 0 0 0 0 0 0 0 1 72 209 150 118 67 0 0 0 0 0 0 22 53 160 255 255 255 255 255 255 229 234 229 226 231 228 218 194 155 152 183 202 207 208 204 205 201 200 200 204 209 204 201 197 188 37 0 0 35 27 33 28 23 17 11 0 93 255 255 255 212 204 207 208 210 208 211 212 212 209 209 211 208 207 208 211 212 209 210 208 214 255 255 255 255 255 255 255 255 255 255 255 219 219 215 213 217 218 213 212 212 214 217 217 236 255 255 255 253 251 252 251 252 252 254 253 239 210 180 166 182 200 210 207 214 218 223 227 223 254 219 0 0 10 0 0 0 0 0 0 0 0 0 0 0 0 0 0 0 0 0 0 0 0 0 0 0 0 0 0 0 0 0 0 0 0 0 0 0 0 0 0 0 0 0 0 0 0 0 0 0 0 0 0 0 0 0 0 0 0 0 0 0 0 0 0 0 0 0 0 0 0 0 0 0 0 0 0 0 0 0 0 0 0 0 0 0 0 0 0 0 0 0 0 0 0 0 0 0 0 0 0 0 0 0 0 0 0 0 0 0 0 0 0 0 0 0 0 0 0 0 0 0 0 0 0 0 0 0 0 0 0 0 0 0 0 0 0 0 0 0 0 0 0 
0 0 0 0 0 0 0 0 0 0 0 0 0 0 0 0 0 0 0 0 0 0 0 0 0 0 0 0 0 0 0 0 0 0 0 0 0 0 0 0 0 0 0 0 0 0 0 0 0 0 0 0 0 0 0 0 0 0 0 0 0 0 0 0 0 0 0 0 0 0 0 0 0 0 0 0 0 0 0 0 0 0 0 0 0 14 98 170 92 0 0 0 0 0 0 11 45 94 210 255 255 255 255 255 239 232 233 228 226 233 233 221 200 167 157 179 197 206 204 198 198 202 203 203 205 210 204 198 199 196 154 0 0 15 21 18 17 17 20 15 28 255 255 255 255 200 208 210 208 210 206 207 208 206 202 203 208 205 209 213 213 213 208 210 214 212 219 255 255 255 255 255 255 255 255 255 218 218 214 219 217 218 216 212 211 210 211 209 206 227 255 255 255 255 250 247 249 251 250 249 254 246 209 173 157 178 196 207 208 211 216 221 224 220 250 243 0 0 0 0 0 0 0 0 0 0 0 0 0 0 0 0 0 0 0 0 0 0 0 0 0 0 0 0 0 0 0 0 0 0 0 0 0 0 0 0 0 0 0 0 0 0 0 0 0 0 0 0 0 0 0 0 0 0 0 0 0 0 0 0 0 0 0 0 0 0 0 0 0 0 0 0 0 0 0 0 0 0 0 0 0 0 0 0 0 0 0 0 0 0 0 0 0 0 0 0 0 0 0 0 0 0 0 0 0 0 0 0 0 0 0 0 0 0 0 0 0 0 0 0 0 0 0 0 0 0 0 0 0 0 0 0 0 0 0 0 0 0 0 
0 0 0 0 0 0 0 0 0 0 0 0 0 0 0 0 0 0 0 0 0 0 0 0 0 0 0 0 0 0 0 0 0 0 0 0 0 0 0 0 0 0 0 0 0 0 0 0 0 0 0 0 0 0 0 0 0 0 0 0 0 0 0 0 0 0 0 0 0 0 0 0 0 0 0 0 0 0 0 0 0 0 0 0 0 0 17 109 109 0 0 0 0 0 14 58 101 146 254 255 255 255 255 255 225 233 231 226 227 232 227 215 203 179 162 180 193 199 199 201 202 203 204 203 204 207 201 197 204 202 192 97 0 0 23 11 13 14 14 40 221 255 255 255 248 204 213 214 210 207 207 203 208 206 203 205 210 208 210 214 211 212 210 210 214 213 213 212 232 255 255 255 255 255 223 213 217 215 214 219 215 213 210 209 210 209 208 209 204 220 255 255 255 255 250 246 248 251 250 251 253 249 218 172 156 174 194 201 204 210 220 219 222 220 238 255 0 0 0 0 0 0 0 0 0 0 0 0 0 0 0 0 0 0 0 0 0 0 0 0 0 0 0 0 0 0 0 0 0 0 0 0 0 0 0 0 0 0 0 0 0 0 0 0 0 0 0 0 0 0 0 0 0 0 0 0 0 0 0 0 0 0 0 0 0 0 0 0 0 0 0 0 0 0 0 0 0 0 0 0 0 0 0 0 0 0 0 0 0 0 0 0 0 0 0 0 0 0 0 0 0 0 0 0 0 0 0 0 0 0 0 0 0 0 0 0 0 0 0 0 0 0 0 0 0 0 0 0 0 0 0 0 0 0 0 0 0 0 0 
0 0 0 0 0 0 0 0 0 0 0 0 0 0 0 0 0 0 0 0 0 0 0 0 0 0 0 0 0 0 0 0 0 0 0 0 0 0 0 0 0 0 0 0 0 0 0 0 0 0 0 0 0 0 0 0 0 0 0 0 0 0 0 0 0 0 0 0 0 0 0 0 0 0 0 0 0 0 0 0 0 0 0 0 0 0 0 15 113 81 15 21 48 86 154 255 255 255 255 255 255 255 255 234 223 228 226 226 225 226 225 218 208 183 152 158 182 191 199 203 203 203 205 204 203 203 205 202 209 206 197 184 143 109 121 79 60 81 171 255 255 255 255 255 204 208 208 205 200 203 210 206 212 210 206 211 212 212 209 207 208 211 213 213 215 215 217 220 214 205 203 208 209 210 217 214 217 222 220 217 210 208 212 212 210 208 208 212 209 222 255 255 255 255 249 248 250 250 252 251 252 251 231 175 149 170 195 204 201 206 213 213 216 220 234 255 0 0 0 0 0 0 0 0 0 0 0 0 0 0 0 0 0 0 0 0 0 0 0 0 0 0 0 0 0 0 0 0 0 0 0 0 0 0 0 0 0 0 0 0 0 0 0 0 0 0 0 0 0 0 0 0 0 0 0 0 0 0 0 0 0 0 0 0 0 0 0 0 0 0 0 0 0 0 0 0 0 0 0 0 0 0 0 0 0 0 0 0 0 0 0 0 0 0 0 0 0 0 0 0 0 0 0 0 0 0 0 0 0 0 0 0 0 0 0 0 0 0 0 0 0 0 0 0 0 0 0 0 0 0 0 0 0 0 0 0 0 0 0 
0 0 0 0 0 0 0 0 0 0 0 0 0 0 0 0 0 0 0 0 0 0 0 0 0 0 0 0 0 0 0 0 0 0 0 0 0 0 0 0 0 0 0 0 0 0 0 0 0 0 0 0 0 0 0 0 0 0 0 0 0 0 0 0 0 0 0 0 0 0 0 0 0 0 0 0 0 0 0 0 0 0 0 0 0 0 0 0 105 182 55 24 31 101 255 255 255 255 255 255 255 255 255 221 226 225 226 229 230 228 229 224 214 189 145 150 185 194 201 210 206 201 204 203 200 204 211 203 202 204 197 193 206 255 255 255 255 255 255 255 255 255 255 215 204 208 204 205 205 206 212 213 216 214 206 211 212 212 209 210 215 214 215 215 216 218 219 216 214 212 212 219 221 216 214 218 211 204 215 219 209 212 216 211 211 206 208 214 211 215 247 255 255 255 241 242 249 251 251 249 250 252 234 174 130 162 192 201 200 205 209 212 217 221 227 255 63 0 0 0 0 0 0 0 0 0 0 0 0 0 0 0 0 0 0 0 0 0 0 0 0 0 0 0 0 0 0 0 0 0 0 0 0 0 0 0 0 0 0 0 0 0 0 0 0 0 0 0 0 0 0 0 0 0 0 0 0 0 0 0 0 0 0 0 0 0 0 0 0 0 0 0 0 0 0 0 0 0 0 0 0 0 0 0 0 0 0 0 0 0 0 0 0 0 0 0 0 0 0 0 0 0 0 0 0 0 0 0 0 0 0 0 0 0 0 0 0 0 0 0 0 0 0 0 0 0 0 0 0 0 0 0 0 0 0 0 0 0 0 
0 0 0 0 0 0 0 0 0 0 0 0 0 0 0 0 0 0 0 0 0 0 0 0 0 0 0 0 0 0 0 0 0 0 0 0 0 0 0 0 0 0 0 0 0 0 0 0 0 0 0 0 0 0 0 0 0 0 0 0 0 0 0 0 0 0 0 0 0 0 0 0 0 0 0 0 0 0 0 0 0 0 0 0 0 0 0 0 90 255 101 0 0 0 255 255 255 255 255 255 255 255 223 228 224 227 230 227 227 227 227 223 210 184 152 161 195 202 207 214 211 201 204 202 200 201 209 203 194 201 199 199 206 226 255 255 255 255 255 255 255 255 212 209 210 209 209 207 208 208 212 214 213 209 206 213 213 210 212 214 218 215 215 216 218 219 219 214 214 216 215 220 217 210 187 124 0 0 0 100 190 215 215 211 212 211 210 213 210 206 240 255 255 255 243 245 249 250 250 251 251 253 232 174 127 158 196 197 197 204 207 216 223 219 222 255 117 0 0 0 0 0 0 0 0 0 0 0 0 0 0 0 0 0 0 0 0 0 0 0 0 0 0 0 0 0 0 0 0 0 0 0 0 0 0 0 0 0 0 0 0 0 0 0 0 0 0 0 0 0 0 0 0 0 0 0 0 0 0 0 0 0 0 0 0 0 0 0 0 0 0 0 0 0 0 0 0 0 0 0 0 0 0 0 0 0 0 0 0 0 0 0 0 0 0 0 0 0 0 0 0 0 0 0 0 0 0 0 0 0 0 0 0 0 0 0 0 0 0 0 0 0 0 0 0 0 0 0 0 0 0 0 0 0 0 0 0 0 0 
0 0 0 0 0 0 0 0 0 0 0 0 0 0 0 0 0 0 0 0 0 0 0 0 0 0 0 0 0 0 0 0 0 0 0 0 0 0 0 0 0 0 0 0 0 0 0 0 0 0 0 0 0 0 0 0 0 0 0 0 0 0 0 0 0 0 0 0 0 0 0 0 0 0 0 0 0 0 0 0 0 0 0 0 0 0 0 0 38 241 205 0 0 0 255 255 183 135 255 255 255 246 222 223 219 223 228 227 224 225 221 219 212 188 156 157 188 205 211 208 206 201 201 204 206 207 209 208 198 203 204 206 210 207 207 240 255 255 255 255 212 204 211 215 213 210 212 208 205 204 209 216 213 207 207 214 217 215 212 213 213 216 216 213 213 214 214 211 212 218 218 218 215 204 92 0 0 0 0 0 93 220 213 213 211 214 212 214 211 209 237 255 255 255 246 248 248 248 250 249 248 249 231 182 144 162 200 200 200 205 205 213 220 218 221 255 119 0 0 0 0 0 0 0 0 0 0 0 0 0 0 0 0 0 0 0 0 0 0 0 0 0 0 0 0 0 0 0 0 0 0 0 0 0 0 0 0 0 0 0 0 0 0 0 0 0 0 0 0 0 0 0 0 0 0 0 0 0 0 0 0 0 0 0 0 0 0 0 0 0 0 0 0 0 0 0 0 0 0 0 0 0 0 0 0 0 0 0 0 0 0 0 0 0 0 0 0 0 0 0 0 0 0 0 0 0 0 0 0 0 0 0 0 0 0 0 0 0 0 0 0 0 0 0 0 0 0 0 0 0 0 0 0 0 0 0 0 0 0 
0 0 0 0 0 0 0 0 0 0 0 0 0 0 0 0 0 0 0 0 0 0 0 0 0 0 0 0 0 0 0 0 0 0 0 0 0 0 0 0 0 0 0 0 0 0 0 0 0 0 0 0 0 0 0 0 0 0 0 0 0 0 0 0 0 0 0 0 0 0 0 0 0 0 0 0 0 0 0 0 0 0 0 0 0 0 0 0 7 183 254 0 0 37 255 255 217 169 250 255 255 255 223 224 221 227 227 225 224 223 221 220 218 201 165 157 185 206 207 202 199 202 202 204 207 207 206 204 201 206 211 209 205 204 208 207 198 193 198 202 209 214 212 214 215 214 213 208 203 207 211 217 216 209 210 212 214 213 214 217 216 217 217 212 212 216 214 214 214 217 213 214 222 137 0 0 0 0 0 0 184 255 228 211 213 216 213 211 215 211 232 255 255 255 247 245 245 249 251 248 246 250 238 187 148 159 189 198 198 205 208 216 220 215 218 247 104 0 0 0 0 0 0 0 0 0 0 0 0 0 0 0 0 0 0 0 0 0 0 0 0 0 0 0 0 0 0 0 0 0 0 0 0 0 0 0 0 0 0 0 0 0 0 0 0 0 0 0 0 0 0 0 0 0 0 0 0 0 0 0 0 0 0 0 0 0 0 0 0 0 0 0 0 0 0 0 0 0 0 0 0 0 0 0 0 0 0 0 0 0 0 0 0 0 0 0 0 0 0 0 0 0 0 0 0 0 0 0 0 0 0 0 0 0 0 0 0 0 0 0 0 0 0 0 0 0 0 0 0 0 0 0 0 0 0 0 0 0 0 
0 0 0 0 0 0 0 0 0 0 0 0 0 0 0 0 0 0 0 0 0 0 0 0 0 0 0 0 0 0 0 0 0 0 0 0 0 0 0 0 0 0 0 0 0 0 0 0 0 0 0 0 0 0 0 0 0 0 0 0 0 0 0 0 0 0 0 0 0 0 0 0 0 0 0 0 0 0 0 0 0 0 0 0 0 0 0 0 0 124 255 35 0 14 255 255 255 187 235 255 255 255 224 224 225 228 227 227 227 222 222 223 224 210 172 156 187 207 203 198 201 203 202 201 206 200 199 202 201 206 216 211 202 203 209 211 210 209 208 205 202 209 208 209 213 213 207 205 206 213 215 215 210 204 207 213 209 207 211 214 217 217 218 214 215 217 217 216 214 214 220 205 71 0 0 0 255 255 148 255 255 255 255 211 217 214 211 208 211 207 225 255 255 255 251 245 245 249 251 245 247 252 239 187 141 152 176 195 196 200 208 212 218 217 218 237 131 0 0 0 0 0 0 0 0 0 0 0 0 0 0 0 0 0 0 0 0 0 0 0 0 0 0 0 0 0 0 0 0 0 0 0 0 0 0 0 0 0 0 0 0 0 0 0 0 0 0 0 0 0 0 0 0 0 0 0 0 0 0 0 0 0 0 0 0 0 0 0 0 0 0 0 0 0 0 0 0 0 0 0 0 0 0 0 0 0 0 0 0 0 0 0 0 0 0 0 0 0 0 0 0 0 0 0 0 0 0 0 0 0 0 0 0 0 0 0 0 0 0 0 0 0 0 0 0 0 0 0 0 0 0 0 0 0 0 0 0 0 0 
0 0 0 0 0 0 0 0 0 0 0 0 0 0 0 0 0 0 0 0 0 0 0 0 0 0 0 0 0 0 0 0 0 0 0 0 0 0 0 0 0 0 0 0 0 0 0 0 0 0 0 0 0 0 0 0 0 0 0 0 0 0 0 0 0 0 0 0 0 0 0 0 0 0 0 0 0 0 0 0 0 0 0 0 0 0 0 0 0 54 238 130 0 0 255 255 255 191 219 255 255 255 225 221 222 225 225 225 226 224 223 226 227 214 176 155 183 204 197 199 206 206 203 204 205 202 200 204 204 203 211 214 208 209 211 211 211 210 211 207 205 207 207 208 214 212 204 208 212 215 215 210 206 204 204 208 208 208 208 210 209 214 217 214 215 216 218 210 211 221 158 0 0 0 0 255 255 223 0 255 255 255 255 217 212 209 206 206 207 207 223 255 255 255 246 244 245 246 243 239 244 248 230 185 146 156 177 192 196 198 203 210 218 218 217 233 172 0 0 0 0 0 0 0 0 0 0 0 0 0 0 0 0 0 0 0 0 0 0 0 0 0 0 0 0 0 0 0 0 0 0 0 0 0 0 0 0 0 0 0 0 0 0 0 0 0 0 0 0 0 0 0 0 0 0 0 0 0 0 0 0 0 0 0 0 0 0 0 0 0 0 0 0 0 0 0 0 0 0 0 0 0 0 0 0 0 0 0 0 0 0 0 0 0 0 0 0 0 0 0 0 0 0 0 0 0 0 0 0 0 0 0 0 0 0 0 0 0 0 0 0 0 0 0 0 0 0 0 0 0 0 0 0 0 0 0 0 0 0 
0 0 0 0 0 0 0 0 0 0 0 0 0 0 0 0 0 0 0 0 0 0 0 0 0 0 0 0 0 0 0 0 0 0 0 0 0 0 0 0 0 0 0 0 0 0 0 0 0 0 0 0 0 0 0 0 0 0 0 0 0 0 0 0 0 0 0 0 0 0 0 0 0 0 0 0 0 0 0 0 0 0 0 0 0 0 0 0 0 9 185 215 0 0 217 255 255 191 207 255 255 255 230 223 222 224 223 223 222 220 224 226 228 218 181 158 177 200 201 204 206 203 201 205 205 204 204 205 206 207 209 215 216 213 209 209 211 209 212 210 208 213 210 213 217 211 210 215 216 213 209 202 204 207 209 209 209 210 213 213 212 213 216 212 212 214 220 219 184 29 0 0 0 225 255 255 255 0 0 255 255 255 255 222 209 209 207 207 211 214 222 255 255 255 243 239 240 239 239 238 243 245 237 202 158 149 173 191 194 200 202 207 214 214 209 228 210 0 0 0 0 0 0 0 0 0 0 0 0 0 0 0 0 0 0 0 0 0 0 0 0 0 0 0 0 0 0 0 0 0 0 0 0 0 0 0 0 0 0 0 0 0 0 0 0 0 0 0 0 0 0 0 0 0 0 0 0 0 0 0 0 0 0 0 0 0 0 0 0 0 0 0 0 0 0 0 0 0 0 0 0 0 0 0 0 0 0 0 0 0 0 0 0 0 0 0 0 0 0 0 0 0 0 0 0 0 0 0 0 0 0 0 0 0 0 0 0 0 0 0 0 0 0 0 0 0 0 0 0 0 0 0 0 0 0 0 0 0 0 
0 0 0 0 0 0 0 0 0 0 0 0 0 0 0 0 0 0 0 0 0 0 0 0 0 0 0 0 0 0 0 0 0 0 0 0 0 0 0 0 0 0 0 0 0 0 0 0 0 0 0 0 0 0 0 0 0 0 0 0 0 0 0 0 0 0 0 0 0 0 0 0 0 0 0 0 0 0 0 0 0 0 0 0 0 0 0 0 0 0 147 255 63 0 146 255 255 194 193 255 255 255 231 223 223 226 224 222 222 223 227 228 229 224 189 160 171 194 204 206 205 202 202 200 198 199 199 201 206 211 208 207 212 210 207 204 207 209 212 208 209 214 214 214 211 206 210 208 206 208 208 205 209 215 213 210 211 213 210 214 215 214 209 206 212 224 193 39 0 0 0 3 255 255 255 253 0 0 71 255 255 225 212 214 212 212 209 212 216 212 210 237 255 255 251 240 235 234 237 240 241 244 243 218 162 134 162 189 193 201 199 203 211 210 206 223 230 0 0 0 0 0 0 0 0 0 0 0 0 0 0 0 0 0 0 0 0 0 0 0 0 0 0 0 0 0 0 0 0 0 0 0 0 0 0 0 0 0 0 0 0 0 0 0 0 0 0 0 0 0 0 0 0 0 0 0 0 0 0 0 0 0 0 0 0 0 0 0 0 0 0 0 0 0 0 0 0 0 0 0 0 0 0 0 0 0 0 0 0 0 0 0 0 0 0 0 0 0 0 0 0 0 0 0 0 0 0 0 0 0 0 0 0 0 0 0 0 0 0 0 0 0 0 0 0 0 0 0 0 0 0 0 0 0 0 0 0 0 0 
0 0 0 0 0 0 0 0 0 0 0 0 0 0 0 0 0 0 0 0 0 0 0 0 0 0 0 0 0 0 0 0 0 0 0 0 0 0 0 0 0 0 0 0 0 0 0 0 0 0 0 0 0 0 0 0 0 0 0 0 0 0 0 0 0 0 0 0 0 0 0 0 0 0 0 0 0 0 0 0 0 0 0 0 0 0 0 0 0 0 79 255 133 0 69 255 255 198 183 237 255 255 229 215 224 226 224 221 224 228 230 227 225 220 188 158 168 191 204 204 199 202 204 199 195 200 202 200 205 213 208 204 209 207 207 205 207 210 208 204 204 209 211 212 206 202 206 207 205 209 209 212 216 216 216 215 215 216 215 212 214 212 216 221 191 42 0 0 0 0 255 255 255 255 7 0 0 0 255 255 255 215 210 210 209 209 210 211 212 205 204 228 255 255 255 241 237 238 238 239 237 240 238 219 161 125 158 187 191 195 196 200 211 211 211 220 235 0 0 0 0 0 0 0 0 0 0 0 0 0 0 0 0 0 0 0 0 0 0 0 0 0 0 0 0 0 0 0 0 0 0 0 0 0 0 0 0 0 0 0 0 0 0 0 0 0 0 0 0 0 0 0 0 0 0 0 0 0 0 0 0 0 0 0 0 0 0 0 0 0 0 0 0 0 0 0 0 0 0 0 0 0 0 0 0 0 0 0 0 0 0 0 0 0 0 0 0 0 0 0 0 0 0 0 0 0 0 0 0 0 0 0 0 0 0 0 0 0 0 0 0 0 0 0 0 0 0 0 0 0 0 0 0 0 0 0 0 0 0 
0 0 0 0 0 0 0 0 0 0 0 0 0 0 0 0 0 0 0 0 0 0 0 0 0 0 0 0 0 0 0 0 0 0 0 0 0 0 0 0 0 0 0 0 0 0 0 0 0 0 0 0 0 0 0 0 0 0 0 0 0 0 0 0 0 0 0 0 0 0 0 0 0 0 0 0 0 0 0 0 0 0 0 0 0 0 0 0 0 0 19 208 189 0 3 255 255 216 186 237 255 255 241 219 227 226 223 224 228 228 227 222 221 219 191 162 167 189 201 204 206 206 205 201 200 210 209 205 209 217 212 202 209 206 204 208 212 213 206 199 201 208 208 209 205 205 209 209 214 216 213 212 213 213 213 213 210 204 210 214 218 201 128 0 0 0 0 0 252 255 255 255 195 0 0 0 0 185 255 255 255 215 205 208 205 206 209 206 201 200 209 231 255 255 255 238 236 238 239 238 233 235 233 217 171 124 154 188 188 193 198 204 210 209 210 216 238 0 0 0 0 0 0 0 0 0 0 0 0 0 0 0 0 0 0 0 0 0 0 0 0 0 0 0 0 0 0 0 0 0 0 0 0 0 0 0 0 0 0 0 0 0 0 0 0 0 0 0 0 0 0 0 0 0 0 0 0 0 0 0 0 0 0 0 0 0 0 0 0 0 0 0 0 0 0 0 0 0 0 0 0 0 0 0 0 0 0 0 0 0 0 0 0 0 0 0 0 0 0 0 0 0 0 0 0 0 0 0 0 0 0 0 0 0 0 0 0 0 0 0 0 0 0 0 0 0 0 0 0 0 0 0 0 0 0 0 0 0 0 
0 0 0 0 0 0 0 0 0 0 0 0 0 0 0 0 0 0 0 0 0 0 0 0 0 0 0 0 0 0 0 0 0 0 0 0 0 0 0 0 0 0 0 0 0 0 0 0 0 0 0 0 0 0 0 0 0 0 0 0 0 0 0 0 0 0 0 0 0 0 0 0 0 0 0 0 0 0 0 0 0 0 0 0 0 0 0 0 0 0 1 140 237 0 0 255 255 237 182 233 255 255 251 230 230 225 225 227 232 228 224 224 225 225 200 167 164 184 198 203 211 204 200 201 203 207 207 207 209 216 213 201 205 207 206 205 208 207 202 199 207 214 210 206 209 214 216 216 217 213 210 207 203 200 200 203 207 206 193 113 0 0 0 0 0 0 252 255 255 255 255 0 0 0 0 0 51 255 255 255 232 211 204 211 211 208 210 205 200 207 214 227 255 255 255 236 233 234 235 238 227 223 228 214 170 125 144 182 186 191 193 199 203 206 207 211 232 9 0 0 0 0 0 0 0 0 0 0 0 0 0 0 0 0 0 0 0 0 0 0 0 0 0 0 0 0 0 0 0 0 0 0 0 0 0 0 0 0 0 0 0 0 0 0 0 0 0 0 0 0 0 0 0 0 0 0 0 0 0 0 0 0 0 0 0 0 0 0 0 0 0 0 0 0 0 0 0 0 0 0 0 0 0 0 0 0 0 0 0 0 0 0 0 0 0 0 0 0 0 0 0 0 0 0 0 0 0 0 0 0 0 0 0 0 0 0 0 0 0 0 0 0 0 0 0 0 0 0 0 0 0 0 0 0 0 0 0 0 0 
0 0 0 0 0 0 0 0 0 0 0 0 0 0 0 0 0 0 0 0 0 0 0 0 0 0 0 0 0 0 0 0 0 0 0 0 0 0 0 0 0 0 0 0 0 0 0 0 0 0 0 0 0 0 0 0 0 0 0 0 0 0 0 0 0 0 0 0 0 0 0 0 0 0 0 0 0 0 0 0 0 0 0 0 0 0 0 0 0 0 0 67 241 103 0 255 255 255 173 221 255 255 255 228 224 225 226 225 228 224 222 224 227 223 197 165 157 178 200 205 204 194 194 204 204 202 205 207 207 209 209 199 203 207 208 209 206 202 200 201 209 216 210 207 210 213 210 206 204 199 198 201 202 204 194 147 57 0 0 0 0 0 0 82 255 255 255 255 255 128 0 0 0 255 255 255 255 255 255 255 219 207 205 212 211 210 209 204 205 207 210 222 252 255 255 235 227 232 233 231 221 221 231 208 166 132 140 170 182 184 188 192 201 204 208 212 227 61 0 0 0 0 0 0 0 0 0 0 0 0 0 0 0 0 0 0 0 0 0 0 0 0 0 0 0 0 0 0 0 0 0 0 0 0 0 0 0 0 0 0 0 0 0 0 0 0 0 0 0 0 0 0 0 0 0 0 0 0 0 0 0 0 0 0 0 0 0 0 0 0 0 0 0 0 0 0 0 0 0 0 0 0 0 0 0 0 0 0 0 0 0 0 0 0 0 0 0 0 0 0 0 0 0 0 0 0 0 0 0 0 0 0 0 0 0 0 0 0 0 0 0 0 0 0 0 0 0 0 0 0 0 0 0 0 0 0 0 0 0 
0 0 0 0 0 0 0 0 0 0 0 0 0 0 0 0 0 0 0 0 0 0 0 0 0 0 0 0 0 0 0 0 0 0 0 0 0 0 0 0 0 0 0 0 0 0 0 0 0 0 0 0 0 0 0 0 0 0 0 0 0 0 0 0 0 0 0 0 0 0 0 0 0 0 0 0 0 0 0 0 0 0 0 0 0 0 0 0 0 0 0 13 186 197 0 255 255 255 172 219 255 255 255 225 222 226 226 223 224 224 222 225 224 217 196 166 159 181 201 202 201 198 198 204 203 201 208 211 207 205 208 202 200 207 207 207 207 207 202 200 207 210 201 202 212 210 204 202 201 196 177 129 40 0 0 0 0 0 0 0 124 255 255 255 255 255 255 255 159 117 200 255 255 255 228 0 196 255 255 242 217 202 206 209 202 200 199 200 202 203 206 217 243 255 255 238 227 229 229 217 213 224 236 212 169 143 138 158 182 184 187 190 197 202 204 205 223 89 0 0 0 0 0 0 0 0 0 0 0 0 0 0 0 0 0 0 0 0 0 0 0 0 0 0 0 0 0 0 0 0 0 0 0 0 0 0 0 0 0 0 0 0 0 0 0 0 0 0 0 0 0 0 0 0 0 0 0 0 0 0 0 0 0 0 0 0 0 0 0 0 0 0 0 0 0 0 0 0 0 0 0 0 0 0 0 0 0 0 0 0 0 0 0 0 0 0 0 0 0 0 0 0 0 0 0 0 0 0 0 0 0 0 0 0 0 0 0 0 0 0 0 0 0 0 0 0 0 0 0 0 0 0 0 0 0 0 0 0 0 
0 0 0 0 0 0 0 0 0 0 0 0 0 0 0 0 0 0 0 0 0 0 0 0 0 0 0 0 0 0 0 0 0 0 0 0 0 0 0 0 0 0 0 0 0 0 0 0 0 0 0 0 0 0 0 0 0 0 0 0 0 0 0 0 0 0 0 0 0 0 0 0 0 0 0 0 0 0 0 0 0 0 0 0 0 0 0 0 0 0 0 0 97 214 0 231 255 255 171 208 255 255 255 228 224 226 224 222 223 224 224 223 221 219 198 176 172 185 198 201 203 206 206 203 201 200 205 207 202 204 205 207 203 209 209 207 202 204 206 204 206 203 203 202 176 130 94 36 0 0 0 0 0 0 0 0 31 255 255 255 255 255 255 255 255 255 255 231 255 255 255 255 255 0 0 0 255 255 255 223 213 202 206 205 198 200 199 198 198 199 205 222 244 255 255 245 230 223 220 209 215 229 224 202 172 144 132 152 176 179 184 190 192 198 196 195 218 118 0 0 0 0 0 0 0 0 0 0 0 0 0 0 0 0 0 0 0 0 0 0 0 0 0 0 0 0 0 0 0 0 0 0 0 0 0 0 0 0 0 0 0 0 0 0 0 0 0 0 0 0 0 0 0 0 0 0 0 0 0 0 0 0 0 0 0 0 0 0 0 0 0 0 0 0 0 0 0 0 0 0 0 0 0 0 0 0 0 0 0 0 0 0 0 0 0 0 0 0 0 0 0 0 0 0 0 0 0 0 0 0 0 0 0 0 0 0 0 0 0 0 0 0 0 0 0 0 0 0 0 0 0 0 0 0 0 0 0 0 0 
0 0 0 0 0 0 0 0 0 0 0 0 0 0 0 0 0 0 0 0 0 0 0 0 0 0 0 0 0 0 0 0 0 0 0 0 0 0 0 0 0 0 0 0 0 0 0 0 0 0 0 0 0 0 0 0 0 0 0 0 0 0 0 0 0 0 0 0 0 0 0 0 0 0 0 0 0 0 0 0 0 0 0 0 0 0 0 0 0 0 0 0 25 158 56 179 255 255 172 195 255 255 255 236 223 223 223 223 222 223 222 220 220 218 204 180 170 178 193 204 208 210 208 208 206 205 206 204 199 200 203 211 207 203 204 204 202 202 208 208 205 211 187 0 0 0 0 0 0 0 0 0 38 243 255 255 255 255 255 255 255 255 255 255 255 254 254 255 255 255 255 146 0 0 0 255 255 255 224 215 207 203 209 205 202 204 205 205 203 202 205 217 237 255 250 234 224 213 206 206 217 223 204 188 167 134 127 148 169 172 179 184 190 194 192 188 209 148 0 0 0 0 0 0 0 0 0 0 0 0 0 0 0 0 0 0 0 0 0 0 0 0 0 0 0 0 0 0 0 0 0 0 0 0 0 0 0 0 0 0 0 0 0 0 0 0 0 0 0 0 0 0 0 0 0 0 0 0 0 0 0 0 0 0 0 0 0 0 0 0 0 0 0 0 0 0 0 0 0 0 0 0 0 0 0 0 0 0 0 0 0 0 0 0 0 0 0 0 0 0 0 0 0 0 0 0 0 0 0 0 0 0 0 0 0 0 0 0 0 0 0 0 0 0 0 0 0 0 0 0 0 0 0 0 0 0 0 0 0 
0 0 0 0 0 0 0 0 0 0 0 0 0 0 0 0 0 0 0 0 0 0 0 0 0 0 0 0 0 0 0 0 0 0 0 0 0 0 0 0 0 0 0 0 0 0 0 0 0 0 0 0 0 0 0 0 0 0 0 0 0 0 0 0 0 0 0 0 0 0 0 0 0 0 0 0 0 0 0 0 0 0 0 0 0 0 0 0 0 0 0 0 1 61 122 186 255 255 178 191 249 255 255 235 221 222 225 222 220 224 223 221 223 220 209 184 165 171 193 201 198 199 202 205 204 206 205 203 203 200 203 211 211 200 198 204 209 210 215 215 215 200 0 0 0 0 0 57 202 255 255 255 255 255 255 255 255 255 255 255 255 255 255 255 255 255 255 255 255 255 63 0 0 0 255 255 255 248 213 209 203 201 206 202 201 207 204 200 203 202 204 207 220 236 236 225 218 207 206 212 211 199 181 177 167 135 127 149 167 174 178 177 181 181 182 176 195 164 0 0 0 0 0 0 0 0 0 0 0 0 0 0 0 0 0 0 0 0 0 0 0 0 0 0 0 0 0 0 0 0 0 0 0 0 0 0 0 0 0 0 0 0 0 0 0 0 0 0 0 0 0 0 0 0 0 0 0 0 0 0 0 0 0 0 0 0 0 0 0 0 0 0 0 0 0 0 0 0 0 0 0 0 0 0 0 0 0 0 0 0 0 0 0 0 0 0 0 0 0 0 0 0 0 0 0 0 0 0 0 0 0 0 0 0 0 0 0 0 0 0 0 0 0 0 0 0 0 0 0 0 0 0 0 0 0 0 0 0 0 
0 0 0 0 0 0 0 0 0 0 0 0 0 0 0 0 0 0 0 0 0 0 0 0 0 0 0 0 0 0 0 0 0 0 0 0 0 0 0 0 0 0 0 0 0 0 0 0 0 0 0 0 0 0 0 0 0 0 0 0 0 0 0 0 0 0 0 0 0 0 0 0 0 0 0 0 0 0 0 0 0 0 0 0 0 0 0 0 0 0 0 0 0 11 91 236 255 255 189 193 247 255 255 234 218 221 226 221 222 226 226 224 225 223 209 185 164 176 199 198 190 196 201 202 200 202 206 204 202 198 202 208 208 200 201 210 213 213 216 214 218 116 0 0 126 255 255 255 255 255 255 255 255 255 255 255 255 255 255 255 255 255 255 255 255 255 255 255 229 0 0 0 0 255 255 255 255 212 211 207 206 202 202 199 197 204 205 198 196 194 193 196 209 228 233 218 203 196 194 195 189 180 170 163 155 128 123 147 164 170 169 169 169 168 171 169 188 178 0 0 0 0 0 0 0 0 0 0 0 0 0 0 0 0 0 0 0 0 0 0 0 0 0 0 0 0 0 0 0 0 0 0 0 0 0 0 0 0 0 0 0 0 0 0 0 0 0 0 0 0 0 0 0 0 0 0 0 0 0 0 0 0 0 0 0 0 0 0 0 0 0 0 0 0 0 0 0 0 0 0 0 0 0 0 0 0 0 0 0 0 0 0 0 0 0 0 0 0 0 0 0 0 0 0 0 0 0 0 0 0 0 0 0 0 0 0 0 0 0 0 0 0 0 0 0 0 0 0 0 0 0 0 0 0 0 0 0 0 0 
0 0 0 0 0 0 0 0 0 0 0 0 0 0 0 0 0 0 0 0 0 0 0 0 0 0 0 0 0 0 0 0 0 0 0 0 0 0 0 0 0 0 0 0 0 0 0 0 0 0 0 0 0 0 0 0 0 0 0 0 0 0 0 0 0 0 0 0 0 0 0 0 0 0 0 0 0 0 0 0 0 0 0 0 0 0 0 0 0 0 0 0 0 0 29 194 255 255 203 189 240 255 255 240 220 221 222 222 222 224 221 220 223 221 207 186 167 171 192 196 196 206 213 205 198 200 207 207 206 203 206 212 211 202 199 208 209 205 203 201 211 98 0 0 255 255 255 255 255 255 255 255 255 255 255 255 255 255 255 255 255 255 255 255 255 255 253 144 0 0 0 0 255 255 255 255 212 208 208 206 201 204 205 200 199 206 202 192 192 194 193 194 205 216 216 201 181 171 167 155 146 143 145 140 135 118 119 146 162 166 164 162 163 170 171 168 184 188 0 0 0 0 0 0 0 0 0 0 0 0 0 0 0 0 0 0 0 0 0 0 0 0 0 0 0 0 0 0 0 0 0 0 0 0 0 0 0 0 0 0 0 0 0 0 0 0 0 0 0 0 0 0 0 0 0 0 0 0 0 0 0 0 0 0 0 0 0 0 0 0 0 0 0 0 0 0 0 0 0 0 0 0 0 0 0 0 0 0 0 0 0 0 0 0 0 0 0 0 0 0 0 0 0 0 0 0 0 0 0 0 0 0 0 0 0 0 0 0 0 0 0 0 0 0 0 0 0 0 0 0 0 0 0 0 0 0 0 0 0 
0 0 0 0 0 0 0 0 0 0 0 0 0 0 0 0 0 0 0 0 0 0 0 0 0 0 0 0 0 0 0 0 0 0 0 0 0 0 0 0 0 0 0 0 0 0 0 0 0 0 0 0 0 0 0 0 0 0 0 0 0 0 0 0 0 0 0 0 0 0 0 0 0 0 0 0 0 0 0 0 0 0 0 0 0 0 0 0 0 0 0 0 0 0 1 55 255 255 218 180 237 255 255 243 224 225 223 223 221 220 220 221 222 221 210 189 166 165 186 197 199 209 211 200 199 200 203 203 202 205 207 210 209 203 198 201 205 205 205 205 207 165 0 0 255 255 216 236 255 255 255 255 255 255 255 255 255 255 255 255 255 255 255 253 248 190 0 0 0 0 115 255 255 255 255 216 209 203 204 202 199 202 202 199 203 203 196 189 190 194 192 192 200 201 192 179 159 151 147 136 133 130 128 125 127 129 137 150 162 165 164 162 164 167 171 170 179 189 0 0 0 0 0 0 0 0 0 0 0 0 0 0 0 0 0 0 0 0 0 0 0 0 0 0 0 0 0 0 0 0 0 0 0 0 0 0 0 0 0 0 0 0 0 0 0 0 0 0 0 0 0 0 0 0 0 0 0 0 0 0 0 0 0 0 0 0 0 0 0 0 0 0 0 0 0 0 0 0 0 0 0 0 0 0 0 0 0 0 0 0 0 0 0 0 0 0 0 0 0 0 0 0 0 0 0 0 0 0 0 0 0 0 0 0 0 0 0 0 0 0 0 0 0 0 0 0 0 0 0 0 0 0 0 0 0 0 0 0 0 
0 0 0 0 0 0 0 0 0 0 0 0 0 0 0 0 0 0 0 0 0 0 0 0 0 0 0 0 0 0 0 0 0 0 0 0 0 0 0 0 0 0 0 0 0 0 0 0 0 0 0 0 0 0 0 0 0 0 0 0 0 0 0 0 0 0 0 0 0 0 0 0 0 0 0 0 0 0 0 0 0 0 0 0 0 0 0 0 0 0 0 0 0 0 0 22 255 255 252 178 235 255 255 248 223 222 221 221 221 221 222 224 222 221 217 198 171 168 188 200 203 206 203 197 204 208 202 198 194 197 199 197 202 202 199 203 208 205 205 208 201 199 37 0 72 255 229 255 255 255 255 255 255 255 255 255 255 255 255 255 251 245 235 154 0 0 0 0 0 255 255 255 255 228 214 208 203 203 200 199 200 203 199 194 196 197 191 190 193 194 192 189 196 190 179 170 152 141 140 141 141 138 133 129 132 144 150 152 157 156 150 156 161 163 164 169 185 193 0 0 0 0 0 0 0 0 0 0 0 0 0 0 0 0 0 0 0 0 0 0 0 0 0 0 0 0 0 0 0 0 0 0 0 0 0 0 0 0 0 0 0 0 0 0 0 0 0 0 0 0 0 0 0 0 0 0 0 0 0 0 0 0 0 0 0 0 0 0 0 0 0 0 0 0 0 0 0 0 0 0 0 0 0 0 0 0 0 0 0 0 0 0 0 0 0 0 0 0 0 0 0 0 0 0 0 0 0 0 0 0 0 0 0 0 0 0 0 0 0 2 13 34 98 184 151 44 2 0 0 0 0 0 0 0 0 0 0 0 0 
0 0 0 0 0 0 0 0 0 0 0 0 0 0 0 0 0 0 0 0 0 0 0 0 0 0 0 0 0 0 0 0 0 0 0 0 0 0 0 0 0 0 0 0 0 0 0 0 0 0 0 0 0 0 0 0 0 0 0 0 0 0 0 0 0 0 0 0 0 0 0 0 0 0 0 0 0 0 0 0 0 0 0 0 0 0 0 0 0 0 0 0 0 0 0 5 255 255 255 176 223 255 255 255 224 221 218 221 222 223 220 222 219 219 220 198 173 171 187 200 204 200 199 199 207 208 200 200 199 197 195 200 206 205 200 205 208 203 204 208 202 197 173 5 0 51 172 210 244 242 244 248 251 252 250 247 242 238 221 185 113 0 0 0 0 0 0 246 255 255 255 246 211 214 211 206 201 202 201 199 199 198 194 190 193 189 189 189 188 188 187 184 188 184 174 170 161 152 152 144 144 141 136 137 138 142 144 148 153 151 145 151 155 155 162 168 188 178 0 0 0 0 0 0 0 0 0 0 0 0 0 0 0 0 0 0 0 0 0 0 0 0 0 0 0 0 0 0 0 0 0 0 0 0 0 0 0 0 0 0 0 0 0 0 0 0 0 0 0 0 0 0 0 0 0 0 0 0 0 0 0 0 0 0 0 0 0 0 0 0 0 0 0 0 0 0 0 0 0 0 0 0 0 0 0 0 0 0 0 0 0 0 0 0 0 0 0 0 0 0 0 0 0 0 0 0 0 0 0 0 0 0 0 0 0 0 0 6 43 157 255 255 255 255 255 255 44 0 0 0 0 0 0 0 0 0 0 0 0 
0 0 0 0 0 0 0 0 0 0 0 0 0 0 0 0 0 0 0 0 0 0 0 0 0 0 0 0 0 0 0 0 0 0 0 0 0 0 0 0 0 0 0 0 0 0 0 0 0 0 0 0 0 0 0 0 0 0 0 0 0 0 0 0 0 0 0 0 0 0 0 0 0 0 0 0 0 0 0 0 0 0 0 0 0 0 0 0 0 0 0 0 0 0 0 0 255 255 255 185 213 255 255 255 225 220 218 222 222 222 222 224 222 216 218 198 172 167 179 194 198 196 198 199 202 204 197 200 205 203 204 207 208 204 198 200 208 206 208 211 208 201 199 170 115 130 2 0 0 0 0 55 96 105 89 44 0 0 0 0 0 0 0 0 0 248 255 255 255 255 208 214 215 211 211 203 201 200 195 193 196 191 189 187 188 187 190 189 182 182 181 178 178 179 172 171 166 156 143 129 128 132 132 139 145 147 155 160 156 149 145 150 151 150 161 170 192 147 0 0 0 0 0 0 0 0 0 0 0 0 0 0 0 0 0 0 0 0 0 0 0 0 0 0 0 0 0 0 0 0 0 0 0 0 0 0 0 0 0 0 0 0 0 0 0 0 0 0 0 0 0 0 0 0 0 0 0 0 0 0 0 0 0 0 0 0 0 0 0 0 0 0 0 0 0 0 0 0 0 0 0 0 0 0 0 0 0 0 0 0 0 0 0 0 0 0 0 0 0 0 0 0 0 0 0 0 0 0 0 0 0 0 0 0 0 0 38 204 255 255 255 255 255 255 255 255 84 0 0 0 0 0 0 0 0 0 0 0 0 
0 0 0 0 0 0 0 0 0 0 0 0 0 0 0 0 0 0 0 0 0 0 0 0 0 0 0 0 0 0 0 0 0 0 0 0 0 0 0 0 0 0 0 0 0 0 0 0 0 0 0 0 0 0 0 0 0 0 0 0 0 0 0 0 0 0 0 0 0 0 0 0 0 0 0 0 0 0 0 0 0 0 0 0 0 0 0 0 0 0 0 0 0 0 0 0 255 255 255 194 211 255 255 255 224 217 220 223 221 222 224 223 220 216 214 199 177 171 176 193 203 204 205 200 200 201 198 204 205 201 204 208 206 200 199 200 205 206 203 204 205 198 195 198 221 255 255 169 0 0 0 0 0 0 0 0 0 0 0 0 0 0 190 255 255 255 255 255 215 212 211 206 202 202 200 191 191 194 190 191 187 187 186 185 185 187 189 188 180 180 178 173 171 172 164 161 153 136 119 118 119 127 130 137 142 149 167 166 150 141 140 147 149 154 163 169 197 79 0 0 0 0 0 0 0 0 0 0 0 0 0 0 0 0 0 0 0 0 0 0 0 0 0 0 0 0 0 0 0 0 0 0 0 0 0 0 0 0 0 0 0 0 0 0 0 0 0 0 0 0 0 0 0 0 0 0 0 0 0 0 0 0 0 0 0 0 0 0 0 0 0 0 0 0 0 0 0 0 0 0 0 0 0 0 0 0 0 0 0 0 0 0 0 0 0 0 0 0 0 0 0 0 0 0 0 0 0 0 0 0 0 0 0 0 28 132 255 255 255 255 255 255 255 216 196 190 0 0 0 0 0 0 0 0 0 0 0 0 0 
0 0 0 0 0 0 0 0 0 0 0 0 0 0 0 0 0 0 0 0 0 0 0 0 0 0 0 0 0 0 0 0 0 0 0 0 0 0 0 0 0 0 0 0 0 0 0 0 0 0 0 0 0 0 0 0 0 0 0 0 0 0 0 0 0 0 0 0 0 0 0 0 0 0 0 0 0 0 0 0 0 0 0 0 0 0 0 0 0 0 0 0 0 0 0 0 250 255 255 198 200 255 255 255 234 221 221 223 222 223 222 217 219 217 213 201 184 173 178 196 204 208 203 200 203 204 198 201 206 201 201 206 203 200 200 203 206 202 192 191 199 194 188 196 200 244 255 255 255 255 255 101 18 0 0 1 77 182 255 255 255 255 255 255 255 255 207 205 206 198 192 192 192 190 186 180 184 188 185 184 180 183 184 181 183 186 180 174 171 170 165 161 160 159 155 146 133 120 114 124 135 131 134 137 138 143 157 152 141 139 141 148 154 160 165 177 205 0 0 0 0 0 0 0 0 0 0 0 0 0 0 0 0 0 0 0 0 0 0 0 0 0 0 0 0 0 0 0 0 0 0 0 0 0 0 0 0 0 0 0 0 0 0 0 0 0 0 0 0 0 0 0 0 0 0 0 0 0 0 0 0 0 0 0 0 0 0 0 0 0 0 0 0 0 0 0 0 0 0 0 0 0 0 0 0 0 0 0 0 0 0 0 0 0 0 0 0 0 0 0 0 0 0 0 0 0 0 0 0 0 0 2 49 154 255 255 255 255 255 255 208 123 118 117 154 212 47 0 0 0 0 0 0 0 0 0 0 0 0 
0 0 0 0 0 0 0 0 0 0 0 0 0 0 0 0 0 0 0 0 0 0 0 0 0 0 0 0 0 0 0 0 0 0 0 0 0 0 0 0 0 0 0 0 0 0 0 0 0 0 0 0 0 0 0 0 0 0 0 0 0 0 0 0 0 0 0 0 0 0 0 0 0 0 0 0 0 0 0 0 0 0 0 0 0 0 0 0 0 0 0 0 0 0 0 0 168 255 255 212 192 238 255 255 239 228 223 220 222 224 221 217 217 217 218 210 190 167 172 193 201 201 192 193 199 197 196 198 204 201 200 202 199 201 204 200 197 191 191 192 201 201 193 204 209 202 204 251 255 255 255 255 255 255 255 255 255 255 255 255 255 255 254 209 201 199 195 194 191 187 187 190 189 185 181 178 182 181 177 173 176 180 180 170 175 175 164 159 159 155 155 156 154 147 145 142 132 122 119 128 140 137 142 148 142 134 133 139 141 142 145 150 153 155 163 191 186 0 0 0 0 0 0 0 0 0 0 0 0 0 0 0 0 0 0 0 0 0 0 0 0 0 0 0 0 0 0 0 0 0 0 0 0 0 0 0 0 0 0 0 0 0 0 0 0 0 0 0 0 0 0 0 0 0 0 0 0 0 0 0 0 0 0 0 0 0 0 0 0 0 0 0 0 0 0 0 0 0 0 0 0 0 0 0 0 0 0 0 0 0 0 0 0 0 0 0 0 0 0 0 0 0 0 0 0 0 0 0 0 0 52 187 255 255 255 255 255 255 242 122 144 176 186 182 211 255 224 0 0 0 0 0 0 0 0 0 0 0 0 
0 0 0 0 0 0 0 0 0 0 0 0 0 0 0 0 0 0 0 0 0 0 0 0 0 0 0 0 0 0 0 0 0 0 0 0 0 0 0 0 0 0 0 0 0 0 0 0 0 0 0 0 0 0 0 0 0 0 0 0 0 0 0 0 0 0 0 0 0 0 0 0 0 0 0 0 0 0 0 0 0 0 0 0 0 0 0 0 0 0 0 0 0 0 0 0 106 255 255 230 189 235 255 255 233 220 220 218 222 220 216 216 220 221 222 215 193 172 179 193 196 198 191 195 198 192 198 200 200 199 194 196 197 198 202 196 197 197 201 203 206 209 200 204 204 198 198 196 189 191 209 242 255 255 255 255 255 232 200 189 180 180 192 195 192 185 179 184 190 185 181 185 178 175 175 173 176 172 169 168 170 171 168 164 162 163 156 155 154 147 150 151 148 146 146 147 144 136 129 137 143 138 135 138 134 128 124 134 146 145 145 154 155 153 165 217 89 0 0 0 0 0 0 0 0 0 0 0 0 0 0 0 0 0 0 0 0 0 0 0 0 0 0 0 0 0 0 0 0 0 0 0 0 0 0 0 0 0 0 0 0 0 0 0 0 0 0 0 0 0 0 0 0 0 0 0 0 0 0 0 0 0 0 0 0 0 0 0 0 0 0 0 0 0 0 0 0 0 0 0 0 0 0 0 0 0 0 0 0 0 0 0 0 0 0 0 0 0 0 0 0 0 0 0 0 0 0 6 65 207 255 255 255 255 255 255 255 164 138 172 193 202 202 195 198 255 255 0 0 0 0 0 0 0 0 0 0 0 0 
0 0 0 0 0 0 0 0 0 0 0 0 0 0 0 0 0 0 0 0 0 0 0 0 0 0 0 0 0 0 0 0 0 0 0 0 0 0 0 0 0 0 0 0 0 0 0 0 0 0 0 0 0 0 0 0 0 0 0 0 0 0 0 0 0 0 0 0 0 0 0 0 0 0 0 0 0 0 0 0 0 0 0 0 0 0 0 0 0 0 0 0 0 0 0 0 54 255 255 255 188 237 255 255 239 222 222 221 222 216 214 216 223 225 221 207 186 174 184 187 187 197 194 194 198 197 203 202 196 196 192 192 196 199 198 194 196 203 205 202 199 203 201 194 193 190 192 194 194 182 180 182 182 184 185 184 180 174 177 183 184 186 189 182 175 176 176 177 180 178 171 173 170 167 170 166 167 166 169 171 170 163 160 161 156 154 156 152 145 144 149 149 145 148 153 157 153 149 149 160 163 146 132 125 122 121 122 126 143 151 149 154 159 163 187 222 0 0 0 0 0 0 0 0 0 0 0 0 0 0 0 0 0 0 0 0 0 0 0 0 0 0 0 0 0 0 0 0 0 0 0 0 0 0 0 0 0 0 0 0 0 0 0 0 0 0 0 0 0 0 0 0 0 0 0 0 0 0 0 0 0 0 0 0 0 0 0 0 0 0 0 0 0 0 0 0 0 0 0 0 0 0 0 0 0 0 0 0 0 0 0 0 0 0 0 0 0 0 0 0 0 0 0 0 0 30 115 255 255 255 255 255 255 255 207 178 225 167 173 196 200 205 202 196 186 203 255 108 0 0 0 0 0 0 0 0 0 0 0 
0 0 0 0 0 0 0 0 0 0 0 0 0 0 0 0 0 0 0 0 0 0 0 0 0 0 0 0 0 0 0 0 0 0 0 0 0 0 0 0 0 0 0 0 0 0 0 0 0 0 0 0 0 0 0 0 0 0 0 0 0 0 0 0 0 0 0 0 0 0 0 0 0 0 0 0 0 0 0 0 0 0 0 0 0 0 0 0 0 0 0 0 0 0 0 0 12 255 255 255 186 219 255 255 255 229 225 226 224 214 213 217 220 218 210 200 191 179 175 172 179 195 191 190 197 195 194 192 187 190 189 188 191 192 193 189 191 196 196 192 186 189 192 187 189 190 189 190 194 183 186 197 196 193 190 182 173 172 174 181 184 182 179 176 176 177 174 168 172 172 164 165 169 168 168 163 164 167 169 166 162 158 157 156 149 148 151 145 138 142 151 152 151 151 152 153 152 150 152 164 152 124 115 119 124 122 117 115 133 154 153 154 159 167 210 122 0 0 0 0 0 0 0 0 0 0 0 0 0 0 0 0 0 0 0 0 0 0 0 0 0 0 0 0 0 0 0 0 0 0 0 0 0 0 0 0 0 0 0 0 0 0 0 0 0 0 0 0 0 0 0 0 0 0 0 0 0 0 0 0 0 0 0 0 0 0 0 0 0 0 0 0 0 0 0 0 0 0 0 0 0 0 0 0 0 0 0 14 53 113 175 255 255 255 190 77 13 0 0 0 0 0 10 77 190 255 255 255 255 255 255 255 241 95 127 172 191 192 185 197 199 199 199 198 189 165 238 244 0 0 0 0 0 0 0 0 0 0 0 
0 0 0 0 0 0 0 0 0 0 0 0 0 0 0 0 0 0 0 0 0 0 0 0 0 0 0 0 0 0 0 0 0 0 0 0 0 0 0 0 0 0 0 0 0 0 0 0 0 0 0 0 0 0 0 0 0 0 0 0 0 0 0 0 0 0 0 0 0 0 0 0 0 0 0 0 0 0 0 0 0 0 0 0 0 0 0 0 0 0 0 0 0 0 0 0 0 255 255 255 189 199 254 255 255 226 219 216 215 210 213 219 218 216 214 210 201 182 169 174 183 194 191 186 189 186 181 181 186 189 186 185 188 188 184 183 189 192 187 181 179 179 182 181 181 183 184 186 189 180 185 192 183 180 179 167 167 174 176 183 178 171 168 170 174 171 166 164 170 168 161 160 170 167 160 159 163 164 161 151 143 145 144 140 133 132 137 140 142 148 155 154 152 151 149 149 148 143 128 116 99 83 102 118 118 114 115 117 125 151 161 158 163 184 207 0 0 0 0 0 0 0 0 0 0 0 0 0 0 0 0 0 0 0 0 0 0 0 0 0 0 0 0 0 0 0 0 0 0 0 0 0 0 0 0 0 0 0 0 0 0 0 0 0 0 0 0 0 0 0 0 0 0 0 0 0 0 0 0 0 0 0 0 0 0 0 0 0 0 0 0 0 0 0 0 0 0 0 0 0 0 0 0 0 6 71 160 255 255 255 255 255 255 255 255 255 179 25 0 0 48 152 255 255 255 255 255 255 255 255 202 124 119 112 129 104 127 195 193 192 199 195 196 197 189 168 213 255 0 0 0 0 0 0 0 0 0 0 0 
0 0 0 0 0 0 0 0 0 0 0 0 0 0 0 0 0 0 0 0 0 0 0 0 0 0 0 0 0 0 0 0 0 0 0 0 0 0 0 0 0 0 0 0 0 0 0 0 0 0 0 0 0 0 0 0 0 0 0 0 0 0 0 0 0 0 0 0 0 0 0 0 0 0 0 0 0 0 0 0 0 0 0 0 0 0 0 0 0 0 0 0 0 0 0 0 0 255 255 255 191 192 237 255 255 222 216 214 212 212 216 225 223 221 218 205 185 161 157 171 180 186 185 183 185 180 176 179 186 190 181 179 179 179 176 180 183 180 171 168 172 173 175 177 175 173 176 178 174 171 169 173 167 173 170 163 168 175 177 176 172 167 169 173 172 168 163 165 165 160 157 160 167 163 150 152 154 150 144 133 127 128 126 126 129 132 141 147 150 149 151 150 149 149 146 147 146 136 112 89 76 81 111 114 109 111 117 122 120 141 173 171 176 215 76 0 0 0 0 0 0 0 0 0 0 0 0 0 0 0 0 0 0 0 0 0 0 0 0 0 0 0 0 0 0 0 0 0 0 0 0 0 0 0 0 0 0 0 0 0 0 0 0 0 0 0 0 0 0 0 0 0 0 0 0 0 0 0 0 0 0 0 0 0 0 0 0 0 0 0 0 0 0 0 0 0 0 0 0 0 0 0 38 137 255 255 255 255 255 255 255 255 255 255 255 255 255 113 90 253 255 255 255 255 255 255 255 255 169 109 141 182 187 184 182 155 157 197 209 192 191 193 193 197 191 175 180 255 163 0 0 0 0 0 0 0 0 0 0 
0 0 0 0 0 0 0 0 0 0 0 0 0 0 0 0 0 0 0 0 0 0 0 0 0 0 0 0 0 0 0 0 0 0 0 0 0 0 0 0 0 0 0 0 0 0 0 0 0 0 0 0 0 0 0 0 0 0 0 0 0 0 0 0 0 0 0 0 0 0 0 0 0 0 0 0 0 0 0 0 0 0 0 0 0 0 0 0 0 0 0 0 0 0 0 0 0 198 255 255 194 180 214 255 255 232 213 213 217 222 224 225 217 208 191 165 142 128 137 156 163 168 178 177 179 177 176 178 181 183 169 167 170 171 173 175 175 170 166 171 178 172 168 168 163 160 162 157 159 164 164 165 170 172 165 167 171 175 170 165 164 162 168 170 167 161 161 163 157 154 155 154 157 150 139 140 132 122 113 111 116 123 132 141 148 152 158 157 154 146 142 144 144 144 144 145 149 138 111 88 87 103 118 118 109 116 124 120 113 134 180 190 206 170 0 0 0 0 0 0 0 0 0 0 0 0 0 0 0 0 0 0 0 0 0 0 0 0 0 0 0 0 0 0 0 0 0 0 0 0 0 0 0 0 0 0 0 0 0 0 0 0 0 0 0 0 0 0 0 0 0 0 0 0 0 0 0 0 0 0 0 0 0 0 0 0 0 0 0 0 0 0 0 0 0 0 0 0 0 2 67 209 255 255 255 255 255 255 255 255 255 198 126 103 130 198 255 253 255 255 255 255 255 255 255 209 144 137 148 166 198 215 208 200 195 174 163 191 212 203 188 192 195 197 194 188 174 255 255 0 0 0 0 0 0 0 0 0 0 
0 0 0 0 0 0 0 0 0 0 0 0 0 0 0 0 0 0 0 0 0 0 0 0 0 0 0 0 0 0 0 0 0 0 0 0 0 0 0 0 0 0 0 0 0 0 0 0 0 0 0 0 0 0 0 0 0 0 0 0 0 0 0 0 0 0 0 0 0 0 0 0 0 0 0 0 0 0 0 0 0 0 0 0 0 0 0 0 0 0 0 0 0 0 0 0 0 98 255 255 206 173 194 255 255 248 208 210 218 223 219 198 171 144 124 104 100 112 132 152 158 164 170 168 166 164 168 173 174 177 165 160 169 176 172 165 166 163 165 168 167 155 144 145 140 138 140 134 135 147 155 161 170 169 166 167 169 168 163 160 159 157 160 158 156 150 148 148 143 137 136 123 123 117 112 118 116 116 123 132 141 152 162 167 161 155 153 148 146 143 142 143 147 143 140 139 137 124 97 79 90 117 128 128 119 121 116 103 98 123 186 229 203 0 0 0 0 0 0 0 0 0 0 0 0 0 0 0 0 0 0 0 0 0 0 0 0 0 0 0 0 0 0 0 0 0 0 0 0 0 0 0 0 0 0 0 0 0 0 0 0 0 0 0 0 0 0 0 0 0 0 0 0 0 0 0 0 0 0 0 0 0 0 0 0 0 0 0 0 0 0 0 0 0 0 0 0 6 97 255 255 255 255 255 255 255 255 242 143 107 103 111 114 121 129 142 181 255 255 255 255 255 233 80 63 123 169 188 192 196 209 209 195 191 190 174 158 182 200 209 191 191 198 201 197 190 175 211 255 0 0 0 0 0 0 0 0 0 0 
0 0 0 0 0 0 0 0 0 0 0 0 0 0 0 0 0 0 0 0 0 0 0 0 0 0 0 0 0 0 0 0 0 0 0 0 0 0 0 0 0 0 0 0 0 0 0 0 0 0 0 0 0 0 0 0 0 0 0 0 0 0 0 0 0 0 0 0 0 0 0 0 0 0 0 0 0 0 0 0 0 0 0 0 0 0 0 0 0 0 0 0 0 0 0 0 0 23 255 255 236 172 180 217 255 255 217 216 213 198 169 122 83 71 74 86 105 125 142 153 160 164 164 160 157 157 162 163 161 168 167 158 165 166 161 155 159 154 147 144 133 123 121 128 131 133 139 134 132 137 140 143 145 146 147 154 158 157 153 155 154 150 149 146 143 138 129 125 112 105 97 88 97 109 116 127 133 146 163 169 172 173 169 159 151 147 144 139 135 130 129 130 129 117 111 108 92 81 70 76 105 128 131 124 112 103 100 90 84 141 241 255 2 0 0 0 0 0 0 0 0 0 0 0 0 0 0 0 0 0 0 0 0 0 0 0 0 0 0 0 0 0 0 0 0 0 0 0 0 0 0 0 0 0 0 0 0 0 0 0 0 0 0 0 0 0 0 0 0 0 0 0 0 0 0 0 0 0 0 0 0 0 0 0 0 0 0 0 0 0 0 0 0 0 0 10 119 255 255 255 255 255 255 255 255 176 134 147 164 176 187 203 202 201 195 191 210 255 255 235 140 23 22 82 148 186 197 199 195 196 197 192 189 189 188 181 162 177 199 209 203 189 195 196 193 189 178 181 255 131 0 0 0 0 0 0 0 0 0 
0 0 0 0 0 0 0 0 0 0 0 0 0 0 0 0 0 0 0 0 0 0 0 0 0 0 0 0 0 0 0 0 0 0 0 0 0 0 0 0 0 0 0 0 0 0 0 0 0 0 0 0 0 0 0 0 0 0 0 0 0 0 0 0 0 0 0 0 0 0 0 0 0 0 0 0 0 0 0 0 0 0 0 0 0 0 0 0 0 0 0 0 0 0 0 0 0 1 255 255 255 163 171 174 211 239 213 187 146 105 72 44 44 76 106 127 138 146 150 151 156 152 143 145 148 149 148 145 142 147 150 134 133 132 128 131 139 130 120 116 112 116 126 133 136 137 142 138 138 139 140 133 118 117 120 128 133 137 133 133 128 124 120 117 115 108 101 96 92 91 97 115 139 156 161 163 164 167 168 156 146 146 139 128 125 121 120 114 104 98 90 89 83 73 71 75 67 67 77 92 113 116 106 99 91 87 88 78 105 225 255 84 0 0 0 0 0 0 0 0 0 0 0 0 0 0 0 0 0 0 0 0 0 0 0 0 0 0 0 0 0 0 0 0 0 0 0 0 0 0 0 0 0 0 0 0 0 0 0 0 0 0 0 0 0 0 0 0 0 0 0 0 0 0 0 0 0 0 0 0 0 0 0 0 0 0 0 0 0 0 0 0 0 0 102 255 255 255 255 255 255 255 251 156 152 178 195 209 213 204 203 207 201 196 195 201 222 255 204 51 42 114 158 193 198 198 199 196 187 186 189 188 190 185 177 175 166 168 200 210 210 193 197 197 194 194 186 173 255 255 0 0 0 0 0 0 0 0 0 
0 0 0 0 0 0 0 0 0 0 0 0 0 0 0 0 0 0 0 0 0 0 0 0 0 0 0 0 0 0 0 0 0 0 0 0 0 0 0 0 0 0 0 0 0 0 0 0 0 0 0 0 0 0 0 0 0 0 0 0 0 0 0 0 0 0 0 0 0 0 0 0 0 0 0 0 0 0 0 0 0 0 0 0 0 0 0 0 0 0 0 0 0 0 0 0 0 0 173 255 255 152 162 159 163 188 150 78 31 19 37 55 91 129 150 151 147 142 145 140 137 126 118 129 128 123 126 124 122 126 122 101 102 112 111 112 111 107 104 108 118 128 135 133 129 132 134 133 132 133 133 127 115 118 121 117 108 106 103 97 95 93 90 93 93 86 90 101 110 123 147 170 182 169 156 148 142 138 129 114 102 110 107 99 96 88 84 79 78 77 79 82 79 77 81 89 89 95 106 103 101 94 85 82 81 73 76 119 227 255 107 0 0 0 0 0 0 0 0 0 0 0 0 0 0 0 0 0 0 0 0 0 0 0 0 0 0 0 0 0 0 0 0 0 0 0 0 0 0 0 0 0 0 0 0 0 0 0 0 0 0 0 0 0 0 0 0 0 0 0 0 0 0 0 0 0 0 0 0 0 0 0 0 0 0 0 0 0 0 0 0 0 66 253 255 255 255 255 255 255 205 149 165 183 199 207 206 203 204 200 197 198 198 196 194 202 214 252 254 145 137 209 201 193 193 196 196 192 188 187 188 187 187 182 175 178 171 154 189 211 205 196 193 193 192 192 188 176 220 255 0 0 0 0 0 0 0 0 0 
0 0 0 0 0 0 0 0 0 0 0 0 0 0 0 0 0 0 0 0 0 0 0 0 0 0 0 0 0 0 0 0 0 0 0 0 0 0 0 0 0 0 0 0 0 0 0 0 0 0 0 0 0 0 0 0 0 0 0 0 0 0 0 0 0 0 0 0 0 0 0 0 0 0 0 0 0 0 0 0 0 0 0 0 0 0 0 0 0 0 0 0 0 0 0 0 0 0 39 255 255 165 159 156 146 146 97 24 15 56 100 127 145 148 152 145 133 128 136 125 108 101 104 116 117 110 117 117 115 113 106 100 109 119 117 116 115 114 110 115 127 129 122 122 125 123 122 123 119 119 119 117 117 127 126 113 104 101 98 93 95 94 96 102 105 98 105 119 130 140 149 147 133 115 105 100 97 98 100 94 88 98 100 87 89 84 84 87 89 93 100 103 100 101 104 103 103 103 102 92 87 85 76 75 78 95 166 255 255 60 0 0 0 0 0 0 0 0 0 0 0 0 0 0 0 0 0 0 0 0 0 0 0 0 0 0 0 0 0 0 0 0 0 0 0 0 0 0 0 0 0 0 0 0 0 0 0 0 0 0 0 0 0 0 0 0 0 0 0 0 0 0 0 0 0 0 0 0 0 0 0 0 0 0 0 0 0 0 0 0 8 162 255 255 255 255 255 255 162 147 164 182 199 201 200 196 197 194 198 199 199 199 200 200 197 199 204 233 255 196 134 187 192 189 197 194 188 186 188 189 189 186 182 182 184 184 180 153 165 201 199 191 187 192 191 191 189 178 184 255 110 0 0 0 0 0 0 0 0 
0 0 0 0 0 0 0 0 0 0 0 0 0 0 0 0 0 0 0 0 0 0 0 0 0 0 0 0 0 0 0 0 0 0 0 0 0 0 0 0 0 0 0 0 0 0 0 0 0 0 0 0 0 0 0 0 0 0 0 0 0 0 0 0 0 0 0 0 0 0 0 0 0 0 0 0 0 0 0 0 0 0 0 0 0 0 0 0 0 0 0 0 0 0 0 0 0 0 1 193 255 239 149 156 149 143 120 99 110 138 151 155 147 141 146 143 128 121 134 125 102 106 114 115 116 117 120 117 110 110 111 114 116 117 114 115 117 117 114 115 119 119 110 116 119 114 118 113 109 111 112 110 114 115 110 106 108 108 111 109 110 109 107 111 112 110 111 117 115 109 103 93 79 75 75 77 80 85 90 88 83 89 93 79 81 80 82 86 83 83 87 85 78 78 79 80 87 90 85 76 76 78 74 103 175 254 255 183 0 0 0 0 0 0 0 0 0 0 0 0 0 0 0 0 0 0 0 0 0 0 0 0 0 0 0 0 0 0 0 0 0 0 0 0 0 0 0 0 0 0 0 0 0 0 0 0 0 0 0 0 0 0 0 0 0 0 0 0 0 0 0 0 0 0 0 0 0 0 0 0 0 0 0 0 0 0 0 0 0 32 250 255 255 255 255 255 146 113 151 186 196 200 202 199 195 194 191 190 197 199 202 207 202 199 195 193 199 218 255 228 127 159 200 192 191 189 190 192 191 190 183 184 185 186 187 183 179 165 151 188 203 193 188 193 196 194 191 185 170 255 255 0 0 0 0 0 0 0 0 
0 0 0 0 0 0 0 0 0 0 0 0 0 0 0 0 0 0 0 0 0 0 0 0 0 0 0 0 0 0 0 0 0 0 0 0 0 0 0 0 0 0 0 0 0 0 0 0 0 0 0 0 0 0 0 0 0 0 0 0 0 0 0 0 0 0 0 0 0 0 0 0 0 0 0 0 0 0 0 0 0 0 0 0 0 0 0 0 0 0 0 0 0 0 0 0 0 0 0 53 255 255 155 151 154 149 148 156 156 150 149 143 138 143 150 143 136 128 128 123 105 112 116 116 120 121 113 112 111 112 115 115 114 111 110 109 109 110 106 106 111 111 104 107 106 103 110 107 102 105 103 101 102 100 99 97 103 104 105 103 100 101 99 98 101 96 99 104 101 94 88 80 72 75 75 72 78 81 81 74 66 66 71 67 69 73 73 81 81 81 86 87 86 92 89 82 77 77 75 83 101 141 198 255 255 210 0 0 0 0 0 0 0 0 0 0 0 0 0 0 0 0 0 0 0 0 0 0 0 0 0 0 0 0 0 0 0 0 0 0 0 0 0 0 0 0 0 0 0 0 0 0 0 0 0 0 0 0 0 0 0 0 0 0 0 0 0 0 0 0 0 0 0 0 0 0 0 0 0 0 0 0 0 0 0 0 0 0 18 207 255 255 255 255 157 107 143 177 195 200 197 200 198 197 195 199 190 191 204 208 203 207 198 198 202 199 203 212 252 254 145 133 190 188 187 189 192 191 189 191 184 183 187 189 188 186 186 172 150 175 215 201 190 193 195 192 192 191 170 212 255 0 0 0 0 0 0 0 0 
0 0 0 0 0 0 0 0 0 0 0 0 0 0 0 0 0 0 0 0 0 0 0 0 0 0 0 0 0 0 0 0 0 0 0 0 0 0 0 0 0 0 0 0 0 0 0 0 0 0 0 0 0 0 0 0 0 0 0 0 0 0 0 0 0 0 0 0 0 0 0 0 0 0 0 0 0 0 0 0 0 0 0 0 0 0 0 0 0 0 0 0 0 0 0 0 0 0 0 3 121 255 227 147 159 153 146 150 150 145 146 135 131 136 129 119 121 112 97 99 95 101 107 115 120 116 109 107 108 107 106 105 104 105 103 99 95 99 94 93 98 99 94 94 95 91 96 92 87 92 89 93 93 93 95 92 87 88 89 86 84 85 84 86 90 87 86 88 90 86 76 74 73 78 85 85 89 92 90 86 82 82 91 95 94 97 99 107 117 119 127 137 143 156 165 167 150 132 149 207 255 255 255 181 0 0 0 0 0 0 0 0 0 0 0 0 0 0 0 0 0 0 0 0 0 0 0 0 0 0 0 0 0 0 0 0 0 0 0 0 0 0 0 0 0 0 0 0 0 0 0 0 0 0 0 0 0 0 0 0 0 0 0 0 0 0 0 0 0 0 0 0 0 0 0 0 0 0 0 0 0 0 0 0 0 0 0 0 61 255 255 255 255 120 126 160 188 198 198 198 198 203 197 192 197 196 191 201 211 203 199 201 196 195 204 202 202 203 236 255 181 118 176 189 185 193 191 183 189 192 181 183 188 186 186 180 184 178 152 159 207 208 189 191 196 191 190 191 173 172 255 94 0 0 0 0 0 0 0 
0 0 0 0 0 0 0 0 0 0 0 0 0 0 0 0 0 0 0 0 0 0 0 0 0 0 0 0 0 0 0 0 0 0 0 0 0 0 0 0 0 0 0 0 0 0 0 0 0 0 0 0 0 0 0 0 0 0 0 0 0 0 0 0 0 0 0 0 0 0 0 0 0 0 0 0 0 0 0 0 0 0 0 0 0 0 0 0 0 0 0 0 0 0 0 0 0 0 0 0 22 192 255 182 157 156 149 146 147 146 144 132 114 95 70 63 69 64 60 84 89 88 98 103 104 101 98 98 95 91 91 93 94 91 90 88 83 84 83 87 89 87 83 88 87 86 88 84 79 84 85 87 87 87 90 83 80 82 80 78 79 79 77 77 79 79 76 78 78 77 67 70 78 83 93 98 102 105 107 106 103 102 112 117 111 110 114 113 105 101 111 112 116 126 136 150 154 162 243 255 255 80 0 0 0 0 0 0 0 0 0 0 0 0 0 0 0 0 0 0 0 0 0 0 0 0 0 0 0 0 0 0 0 0 0 0 0 0 0 0 0 0 0 0 0 0 0 0 0 0 0 0 0 0 0 0 0 0 0 0 0 0 0 0 0 0 0 0 0 0 0 0 0 0 0 0 0 0 0 0 0 0 0 0 0 0 0 0 64 255 255 255 101 142 163 177 187 194 195 194 196 198 202 197 202 198 199 208 211 199 200 200 203 202 199 195 199 202 218 255 224 123 158 196 193 195 190 187 192 190 181 186 190 186 184 180 183 181 156 150 194 217 194 192 193 191 192 192 183 163 255 255 0 0 0 0 0 0 0 
0 0 0 0 0 0 0 0 0 0 0 0 0 0 0 0 0 0 0 0 0 0 0 0 0 0 0 0 0 0 0 0 0 0 0 0 0 0 0 0 0 0 0 0 0 0 0 0 0 0 0 0 0 0 0 0 0 0 0 0 0 0 0 0 0 0 0 0 0 0 0 0 0 0 0 0 0 0 0 0 0 0 0 0 0 0 0 0 0 0 0 0 0 0 0 0 0 0 0 0 0 49 208 249 174 157 153 150 152 144 139 134 91 45 33 54 69 69 76 94 97 89 94 93 92 91 84 82 82 85 88 85 86 80 79 81 78 77 82 79 77 79 82 81 79 78 76 73 73 74 76 70 68 69 69 64 64 68 67 66 68 67 65 67 66 69 68 68 71 72 68 75 79 77 87 91 89 85 86 83 76 72 80 86 80 80 82 81 69 64 72 67 70 83 84 80 89 133 246 183 0 0 0 0 0 0 0 0 0 0 0 0 0 0 0 0 0 0 0 0 0 0 0 0 0 0 0 0 0 0 0 0 0 0 0 0 0 0 0 0 0 0 0 0 0 0 0 0 0 0 0 0 0 0 0 0 0 0 0 0 0 0 0 0 0 0 0 0 0 0 0 0 0 0 0 0 0 0 0 0 0 0 0 0 0 0 0 0 25 255 255 255 134 165 165 173 182 188 189 188 187 198 205 205 204 206 208 211 207 201 207 208 206 206 197 195 197 204 204 248 250 139 131 193 196 193 188 189 193 193 185 186 189 185 185 182 185 182 162 150 180 216 200 195 194 192 193 193 187 168 223 255 0 0 0 0 0 0 0 
0 0 0 0 0 0 0 0 0 0 0 0 0 0 0 0 0 0 0 0 0 0 0 0 0 0 0 0 0 0 0 0 0 0 0 0 0 0 0 0 0 0 0 0 0 0 0 0 0 0 0 0 0 0 0 0 0 0 0 0 0 0 0 0 0 0 0 0 0 0 0 0 0 0 0 0 0 0 0 0 0 0 0 0 0 0 0 0 0 0 0 0 0 0 0 0 0 0 0 0 0 5 44 166 211 165 157 157 152 145 144 144 83 25 54 98 103 100 99 97 93 83 87 91 90 87 80 77 80 82 79 76 74 74 75 75 71 75 76 68 67 69 68 65 67 65 62 59 63 62 60 57 59 61 58 54 52 53 52 50 50 50 48 50 52 56 54 52 55 54 53 57 58 57 66 69 61 58 63 68 65 74 88 96 91 92 100 100 99 111 125 127 140 166 172 168 178 222 255 0 0 0 0 0 0 0 0 0 0 0 0 0 0 0 0 0 0 0 0 0 0 0 0 0 0 0 0 0 0 0 0 0 0 0 0 0 0 0 0 0 0 0 0 0 0 0 0 0 0 0 0 0 0 0 0 0 0 0 0 0 0 0 0 0 0 0 0 0 0 0 0 0 0 0 0 0 0 0 0 0 0 0 0 0 0 0 0 0 3 125 255 255 145 166 166 173 181 186 189 190 192 206 215 210 201 202 203 203 201 200 200 198 199 202 196 192 191 191 189 222 255 172 119 186 200 184 185 191 191 191 191 189 186 183 181 182 182 178 173 154 159 200 198 194 196 191 193 190 185 169 182 255 99 0 0 0 0 0 0 
0 0 0 0 0 0 0 0 0 0 0 0 0 0 0 0 0 0 0 0 0 0 0 0 0 0 0 0 0 0 0 0 0 0 0 0 0 0 0 0 0 0 0 0 0 0 0 0 0 0 0 0 0 0 0 0 0 0 0 0 0 0 0 0 0 0 0 0 0 0 0 0 0 0 0 0 0 0 0 0 0 0 0 0 0 0 0 0 0 0 0 0 0 0 0 0 0 0 0 0 0 0 4 37 137 180 167 166 158 148 151 152 100 39 75 120 109 99 89 90 88 82 85 88 85 80 78 75 80 78 72 70 69 75 72 66 63 68 66 60 63 66 61 61 61 59 57 62 61 58 58 59 61 62 57 54 52 50 49 47 44 43 43 45 47 52 52 55 60 64 74 80 91 107 118 117 118 127 136 147 155 169 178 177 165 163 175 167 164 183 206 216 219 228 230 226 238 255 255 0 0 0 0 0 0 0 0 0 0 0 0 0 0 0 0 0 0 0 0 0 0 0 0 0 0 0 0 0 0 0 0 0 0 0 0 0 0 0 0 0 0 0 0 0 0 0 0 0 0 0 0 0 0 0 0 0 0 0 0 0 0 0 0 0 0 0 0 0 0 0 0 0 0 0 0 0 0 0 0 0 0 0 0 0 0 0 0 0 0 57 255 255 162 162 171 174 179 188 187 189 202 214 215 204 197 197 200 199 195 194 195 192 197 200 196 192 192 193 194 208 255 220 127 167 199 182 187 194 193 192 189 188 186 184 183 180 179 178 177 166 159 188 205 194 193 186 188 189 187 174 170 255 255 0 0 0 0 0 0 
0 0 0 0 0 0 0 0 0 0 0 0 0 0 0 0 0 0 0 0 0 0 0 0 0 0 0 0 0 0 0 0 0 0 0 0 0 0 0 0 0 0 0 0 0 0 0 0 0 0 0 0 0 0 0 0 0 0 0 0 0 0 0 0 0 0 0 0 0 0 0 0 0 0 0 0 0 0 0 0 0 0 0 0 0 0 0 0 0 0 0 0 0 0 0 0 0 0 0 0 0 0 0 3 20 86 162 176 164 156 156 156 135 88 80 96 86 85 84 88 89 82 77 76 79 73 71 73 72 68 63 62 63 64 65 60 63 68 70 71 82 91 90 93 90 82 81 81 75 71 71 69 65 58 56 55 48 39 40 44 51 57 64 75 90 102 106 120 136 144 160 171 181 194 194 191 194 198 202 201 199 199 204 216 229 212 205 196 181 192 222 225 205 191 189 190 201 221 255 0 0 0 0 0 0 0 0 0 0 0 0 0 0 0 0 0 0 0 0 0 0 0 0 0 0 0 0 0 0 0 0 0 0 0 0 0 0 0 0 0 0 0 0 0 0 0 0 0 0 0 0 0 0 0 0 0 0 0 0 0 0 0 0 0 0 0 0 0 0 0 0 0 0 0 0 0 0 0 0 0 0 0 0 0 0 0 0 0 0 15 237 255 245 146 172 173 179 183 182 185 196 204 204 200 198 195 200 200 198 196 197 197 204 205 199 195 194 196 198 204 250 255 144 136 189 183 182 190 191 192 190 191 187 183 185 183 177 178 180 170 159 175 208 204 193 183 184 187 186 180 175 223 255 0 0 0 0 0 0 
0 0 0 0 0 0 0 0 0 0 0 0 0 0 0 0 0 0 0 0 0 0 0 0 0 0 0 0 0 0 0 0 0 0 0 0 0 0 0 0 0 0 0 0 0 0 0 0 0 0 0 0 0 0 0 0 0 0 0 0 0 0 0 0 0 0 0 0 0 0 0 0 0 0 0 0 0 0 0 0 0 0 0 0 0 0 0 0 0 0 0 0 0 0 0 0 0 0 0 0 0 0 0 0 0 0 17 115 164 179 173 163 158 148 121 91 73 71 77 79 79 76 73 70 72 65 57 59 58 60 63 74 84 91 95 95 99 108 108 109 111 110 109 104 96 89 88 85 76 68 72 72 71 68 75 80 74 75 85 101 122 137 148 160 180 191 195 198 205 203 205 204 199 195 179 170 173 168 159 158 159 152 164 203 236 219 197 202 186 173 205 219 177 153 168 180 186 202 243 0 0 0 0 0 0 0 0 0 0 0 0 0 0 0 0 0 0 0 0 0 0 0 0 0 0 0 0 0 0 0 0 0 0 0 0 0 0 0 0 0 0 0 0 0 0 0 0 0 0 0 0 0 0 0 0 0 0 0 0 0 0 0 0 0 0 0 0 0 0 0 0 0 0 0 0 0 0 0 0 0 0 0 0 0 0 0 0 0 0 1 136 255 255 135 168 173 180 186 183 191 199 202 197 199 201 196 202 203 201 202 202 201 205 204 199 198 199 196 193 198 231 255 176 115 176 187 184 194 195 191 187 187 187 182 181 186 181 179 179 174 150 150 198 207 186 187 182 188 190 183 173 197 255 105 0 0 0 0 0 
0 0 0 0 0 0 0 0 0 0 0 0 0 0 0 0 0 0 0 0 0 0 0 0 0 0 0 0 0 0 0 0 0 0 0 0 0 0 0 0 0 0 0 0 0 0 0 0 0 0 0 0 0 0 0 0 0 0 0 0 0 0 0 0 0 0 0 0 0 0 0 0 0 0 0 0 0 0 0 0 0 0 0 0 0 0 0 0 0 0 0 0 0 0 0 0 0 0 0 0 0 0 0 0 0 0 0 0 3 131 189 184 177 174 170 158 140 112 83 71 67 66 65 68 67 69 78 95 101 105 113 128 136 136 130 125 119 117 109 96 90 85 78 73 72 74 80 83 83 87 93 103 114 120 133 146 149 162 186 205 215 222 219 222 222 213 200 191 190 180 171 167 159 156 146 146 149 143 142 148 150 149 159 212 245 211 176 196 176 157 207 226 169 139 164 172 174 182 216 6 0 0 0 0 0 0 0 0 0 0 0 0 0 0 0 0 0 0 0 0 0 0 0 0 0 0 0 0 0 0 0 0 0 0 0 0 0 0 0 0 0 0 0 0 0 0 0 0 0 0 0 0 0 0 0 0 0 0 0 0 0 0 0 0 0 0 0 0 0 0 0 0 0 0 0 0 0 0 0 0 0 0 0 0 0 0 0 0 0 0 66 255 255 160 158 174 183 189 185 191 198 203 204 205 205 203 205 205 203 204 201 203 204 202 199 199 198 194 190 199 210 255 219 115 156 191 188 194 194 189 187 188 186 180 177 179 175 174 179 176 158 147 190 207 184 183 181 181 193 187 166 184 255 253 0 0 0 0 0 
0 0 0 0 0 0 0 0 0 0 0 0 0 0 0 0 0 0 0 0 0 0 0 0 0 0 0 0 0 0 0 0 0 0 0 0 0 0 0 0 0 0 0 0 0 0 0 0 0 0 0 0 0 0 0 0 0 0 0 0 0 0 0 0 0 0 0 0 0 0 0 0 0 0 0 0 0 0 0 0 0 0 0 0 0 0 0 0 0 0 0 0 0 0 0 0 0 0 0 0 0 0 0 0 0 0 0 0 0 0 12 139 192 192 183 195 210 215 192 155 124 109 94 93 109 139 164 173 168 158 153 148 130 106 89 85 85 80 72 70 75 81 84 92 104 111 121 135 142 155 169 183 191 194 203 215 217 222 230 232 231 222 207 199 195 190 170 165 168 168 168 166 165 162 157 154 160 153 152 161 159 152 163 223 255 225 172 187 163 123 183 212 145 120 152 159 158 168 207 52 0 0 0 0 0 0 0 0 0 0 0 0 0 0 0 0 0 0 0 0 0 0 0 0 0 0 0 0 0 0 0 0 0 0 0 0 0 0 0 0 0 0 0 0 0 0 0 0 0 0 0 0 0 0 0 0 0 0 0 0 0 0 0 0 0 0 0 0 0 0 0 0 0 0 0 0 0 0 0 0 0 0 0 0 0 0 0 0 0 0 16 217 255 255 145 180 181 185 179 185 195 197 194 195 203 206 205 200 199 198 197 201 203 201 199 197 193 188 187 198 204 255 255 127 132 194 194 191 187 189 192 191 187 181 179 176 176 177 179 178 165 147 175 203 188 181 183 183 190 189 169 179 238 255 0 0 0 0 0 
0 0 0 0 0 0 0 0 0 0 0 0 0 0 0 0 0 0 0 0 0 0 0 0 0 0 0 0 0 0 0 0 0 0 0 0 0 0 0 0 0 0 0 0 0 0 0 0 0 0 0 0 0 0 0 0 0 0 0 0 0 0 0 0 0 0 0 0 0 0 0 0 0 0 0 0 0 0 0 0 0 0 0 0 0 0 0 0 0 0 0 0 0 0 0 0 0 0 0 0 0 0 0 0 0 0 0 0 0 0 0 0 0 67 137 176 196 227 255 255 255 247 214 181 184 189 179 151 120 104 100 95 84 76 86 103 117 120 122 134 156 165 164 176 189 197 208 222 223 224 235 240 237 232 233 234 230 224 215 204 200 195 191 183 179 176 171 179 186 176 175 171 166 164 159 159 164 158 160 164 157 156 164 218 255 217 141 160 147 87 144 192 132 101 125 140 148 157 192 97 0 0 0 0 0 0 0 0 0 0 0 0 0 0 0 0 0 0 0 0 0 0 0 0 0 0 2 3 5 6 6 8 9 9 7 6 4 1 0 0 0 0 0 0 0 0 0 0 0 0 0 0 0 0 0 0 0 0 0 0 0 0 0 0 0 0 0 0 0 0 0 0 0 0 0 0 0 0 0 0 0 0 0 0 0 0 0 0 0 0 1 123 255 255 137 175 177 183 183 188 195 195 189 189 205 207 200 194 197 196 195 199 199 198 199 198 194 187 188 196 198 233 255 157 111 186 197 190 188 192 196 192 184 179 176 179 180 180 180 175 170 151 160 196 194 183 188 190 188 189 170 170 214 255 70 0 0 0 0 
0 0 0 0 0 0 0 0 0 0 0 0 0 0 0 0 0 0 0 0 0 0 0 0 0 0 0 0 0 0 0 0 0 0 0 0 0 0 0 0 0 0 0 0 0 0 0 0 0 0 0 0 0 0 0 0 0 0 0 0 0 0 0 0 0 0 0 0 0 0 0 0 0 0 0 0 0 0 0 0 0 0 0 0 0 0 0 0 0 0 0 0 0 0 0 0 0 0 0 0 0 0 0 0 0 0 0 0 0 0 0 0 0 0 0 0 0 43 117 165 214 255 255 230 157 129 120 118 127 147 167 191 211 225 247 245 230 222 223 224 230 231 233 241 240 240 241 239 234 227 228 215 205 211 213 210 206 198 194 191 194 189 185 185 182 178 171 175 179 166 166 162 155 157 158 162 165 160 158 159 157 157 159 200 251 194 106 132 126 67 127 196 129 77 107 128 138 150 184 152 0 0 0 11 12 16 20 21 21 23 28 38 48 59 65 68 75 90 100 96 87 84 88 90 90 106 121 141 161 170 158 173 196 193 182 174 148 100 51 18 3 0 0 0 0 0 0 0 0 0 0 0 0 0 0 0 0 0 0 0 0 0 0 0 0 0 0 0 0 0 0 0 0 0 0 0 0 0 0 0 0 0 0 0 0 0 0 0 0 0 0 62 255 255 158 166 175 178 185 186 192 194 198 199 211 211 197 194 196 197 196 199 198 196 199 199 197 191 191 199 200 215 255 205 103 164 199 193 191 197 196 188 181 180 177 173 174 177 175 173 175 156 145 179 196 186 185 189 183 182 173 165 202 254 200 0 0 0 0 
0 0 0 0 0 0 0 0 0 0 0 0 0 0 0 0 0 0 0 0 0 0 0 0 0 0 0 0 0 0 0 0 0 0 0 0 0 0 0 0 0 0 0 0 0 0 0 0 0 0 0 0 0 0 0 0 0 0 0 0 0 0 0 0 0 0 0 0 0 0 0 0 0 0 0 0 0 0 0 0 0 0 0 0 0 0 0 0 0 0 0 0 0 0 0 0 0 0 0 0 0 0 0 0 0 0 0 0 0 0 0 0 0 0 0 0 0 0 0 0 0 0 142 180 144 213 255 255 255 255 255 255 255 255 255 255 241 227 225 223 228 225 225 229 227 225 216 203 204 197 197 189 183 193 194 188 189 188 187 185 183 184 178 178 175 176 174 172 173 164 162 163 160 162 159 155 150 145 141 140 136 137 133 167 227 186 99 123 127 66 125 206 136 65 101 129 131 134 156 162 0 0 113 180 190 212 239 255 255 255 255 255 255 255 255 255 255 255 255 255 255 255 255 255 255 255 255 255 255 255 255 255 255 255 255 255 255 255 255 222 98 20 1 0 0 0 0 0 0 0 0 0 0 0 0 0 0 0 0 0 0 0 0 0 0 0 0 0 0 0 0 0 0 0 0 0 0 0 0 0 0 0 0 0 0 0 0 0 0 0 0 16 241 255 235 162 176 178 187 184 187 191 193 196 204 211 197 195 203 200 196 201 201 198 200 198 193 188 193 201 199 201 252 231 110 142 198 187 182 189 186 179 181 180 179 174 176 178 174 173 174 163 139 164 198 192 185 185 180 181 180 171 197 234 240 0 0 0 0 
0 0 0 0 0 0 0 0 0 0 0 0 0 0 0 0 0 0 0 0 0 0 0 0 0 0 0 0 0 0 0 0 0 0 0 0 0 0 0 0 0 0 0 0 0 0 0 0 0 0 0 0 0 0 0 0 0 0 0 0 0 0 0 0 0 0 0 0 0 0 0 0 0 0 0 0 0 0 0 0 0 0 0 0 0 0 0 0 0 0 0 0 0 0 0 0 0 0 0 0 0 0 0 0 0 0 0 0 0 0 0 0 0 0 0 0 0 0 0 0 0 0 48 197 188 255 255 255 255 255 255 255 255 255 255 206 156 168 187 192 201 205 205 209 209 211 206 200 205 197 191 195 196 202 189 179 179 177 174 174 173 171 167 167 162 159 156 156 158 148 145 147 146 147 142 135 137 136 137 137 139 139 136 153 186 152 82 101 123 91 141 196 144 108 156 186 187 191 187 156 59 111 255 255 255 255 255 255 255 255 255 255 255 255 255 255 255 255 255 255 255 255 255 255 255 255 255 255 255 255 255 255 255 255 255 255 255 255 255 255 255 175 30 1 0 0 0 0 0 0 0 0 0 0 0 0 0 0 0 0 0 0 0 0 0 0 0 0 0 0 0 0 0 0 0 0 0 0 0 0 0 0 0 0 0 0 0 0 0 0 0 1 138 255 255 163 180 180 188 183 183 187 189 189 196 207 203 200 199 194 199 203 201 198 199 198 189 189 197 206 200 193 235 252 130 116 186 183 174 177 177 176 181 174 166 166 171 171 168 164 167 163 143 149 194 199 185 181 178 180 183 172 185 215 227 7 0 0 0 
0 0 0 0 0 0 0 0 0 0 0 0 0 0 0 0 0 0 0 0 0 0 0 0 0 0 0 0 0 0 0 0 0 0 0 0 0 0 0 0 0 0 0 0 0 0 0 0 0 0 0 0 0 0 0 0 0 0 0 0 0 0 0 0 0 0 0 0 0 0 0 0 0 0 0 0 0 0 0 0 0 0 0 0 0 0 0 0 0 0 0 0 0 0 0 0 0 0 0 0 0 0 0 0 0 0 0 0 0 0 0 0 0 0 0 0 0 0 0 0 0 0 231 255 229 255 255 255 235 241 226 221 213 206 187 151 138 163 193 197 201 195 190 194 189 185 178 173 176 166 157 162 156 158 155 153 159 160 156 159 156 155 158 156 156 154 155 152 151 152 156 171 175 175 178 180 192 199 200 207 210 207 210 215 205 151 106 123 139 136 171 169 122 134 178 189 187 180 163 136 113 195 255 255 255 255 255 255 255 255 255 227 197 176 142 118 94 84 69 31 27 73 106 92 92 100 73 58 69 33 18 24 18 0 0 1 0 5 68 180 255 255 93 0 0 0 0 0 0 0 0 0 0 0 0 0 0 0 0 0 0 0 0 0 0 0 0 0 0 0 0 0 0 0 0 0 0 0 0 0 0 0 0 0 0 0 0 0 0 0 0 0 66 255 255 181 175 181 184 180 180 184 190 194 201 207 204 199 196 196 201 205 203 201 199 197 192 193 202 203 197 192 237 255 173 94 158 179 179 179 175 177 180 169 157 160 167 164 164 164 170 172 150 139 183 200 185 179 177 180 182 168 172 196 199 93 0 0 0 
0 0 0 0 0 0 0 0 0 0 0 0 0 0 0 0 0 0 0 0 0 0 0 0 0 0 0 0 0 0 0 0 0 0 0 0 0 0 0 0 0 0 0 0 0 0 0 0 0 0 0 0 0 0 0 0 0 0 0 0 0 0 0 0 0 0 0 0 0 0 0 0 0 0 0 0 0 0 0 0 0 0 0 0 0 0 0 0 0 0 0 0 0 0 0 0 0 0 0 0 0 0 0 0 0 0 0 0 0 0 0 0 0 0 0 0 0 0 0 0 0 0 255 255 255 213 255 229 205 223 222 225 230 229 200 148 116 128 154 157 149 137 129 122 109 100 99 96 102 103 108 116 121 136 152 159 168 167 162 171 164 152 156 149 143 151 160 156 139 135 152 168 170 168 169 165 171 172 155 149 153 145 147 149 138 118 99 95 94 91 97 73 52 70 73 55 49 41 27 32 40 37 18 11 5 13 17 6 0 0 0 0 10 12 3 0 0 12 37 42 47 63 61 40 31 35 40 48 65 50 29 29 21 25 36 33 14 16 35 43 55 118 82 0 0 0 0 0 0 0 0 0 0 0 0 0 0 0 0 0 0 0 0 0 0 0 0 0 0 0 0 0 0 0 0 0 0 0 0 0 0 0 0 0 0 0 0 0 0 0 0 0 14 232 255 238 172 182 176 175 182 188 194 208 205 203 203 197 192 200 208 205 202 200 198 199 198 198 201 195 187 202 219 249 176 80 134 176 175 172 171 177 179 170 164 168 171 169 172 171 170 175 158 136 166 195 184 177 180 184 182 168 176 207 188 152 0 0 0 
0 0 0 0 0 0 0 0 0 0 0 0 0 0 0 0 0 0 0 0 0 0 0 0 0 0 0 0 0 0 0 0 0 0 0 0 0 0 0 0 0 0 0 0 0 0 0 0 0 0 0 0 0 0 0 0 0 0 0 0 0 0 0 0 0 0 0 0 0 0 0 0 0 0 0 0 0 0 0 0 0 0 0 0 0 0 0 0 0 0 0 0 0 0 0 0 0 0 0 0 0 0 0 0 0 0 0 0 0 0 0 0 0 0 0 0 0 0 0 0 0 0 255 255 255 195 255 255 255 247 235 215 187 154 100 37 13 27 60 70 62 61 73 81 88 108 121 117 125 123 116 115 121 137 144 135 125 112 98 101 96 79 85 78 70 75 75 64 49 48 60 64 56 53 54 47 52 49 29 30 41 40 35 32 28 43 44 34 36 34 31 19 19 39 34 26 23 20 13 34 38 30 32 34 26 31 63 76 90 94 79 88 87 80 81 78 87 104 117 116 111 108 99 90 87 82 103 101 102 121 129 144 142 155 179 187 162 125 84 64 71 115 86 0 0 0 0 0 0 0 0 0 0 0 0 0 0 0 0 0 0 0 0 0 0 0 0 0 0 0 0 0 0 0 0 0 0 0 0 0 0 0 0 0 0 0 0 0 0 0 0 0 0 128 255 255 163 185 172 177 184 187 192 198 197 195 205 200 194 198 200 200 197 196 194 197 197 197 200 195 192 201 210 215 176 85 121 175 175 168 168 176 177 170 166 168 168 170 171 168 167 171 159 131 145 185 188 176 177 179 177 167 178 223 189 169 0 0 0 
0 0 0 0 0 0 0 0 0 0 0 0 0 0 0 0 0 0 0 0 0 0 0 0 0 0 0 0 0 0 0 0 0 0 0 0 0 0 0 0 0 0 0 0 0 0 0 0 0 0 0 0 0 0 0 0 0 0 0 0 0 0 0 0 0 0 0 0 0 0 0 0 0 0 0 0 0 0 0 0 0 0 0 0 0 0 0 0 0 0 0 0 0 0 0 0 0 0 0 0 0 0 0 0 0 0 0 0 0 0 0 0 0 0 0 0 0 0 0 0 0 0 209 255 255 194 255 255 226 173 127 65 4 0 0 0 0 5 65 80 93 125 156 166 172 189 184 151 135 119 92 78 77 78 62 41 33 21 16 20 22 24 37 39 36 42 41 28 26 35 49 56 49 53 56 59 76 80 65 58 63 70 54 42 38 48 47 40 61 65 60 64 65 85 95 100 100 96 102 105 97 88 119 144 142 167 192 123 86 60 74 143 172 169 179 173 176 174 80 0 0 55 89 111 168 203 251 255 255 255 255 255 255 255 255 255 255 255 195 98 88 135 158 0 0 0 0 0 0 0 0 0 0 0 0 0 0 0 0 0 0 0 0 0 0 0 0 0 0 0 0 0 0 0 0 0 0 0 0 0 0 0 0 0 0 0 0 0 0 0 0 0 0 55 255 255 176 182 173 181 187 186 188 188 184 188 204 203 200 199 199 195 197 199 197 198 196 197 200 196 199 196 228 255 252 119 105 167 174 169 167 172 173 170 162 165 163 166 167 162 162 170 167 139 135 177 195 182 175 174 173 168 177 233 184 141 22 0 0 
0 0 0 0 0 0 0 0 0 0 0 0 0 0 0 0 0 0 0 0 0 0 0 0 0 0 0 0 0 0 0 0 0 0 0 0 0 0 0 0 0 0 0 0 0 0 0 0 0 0 0 0 0 0 0 0 0 0 0 0 0 0 0 0 0 0 0 0 0 0 0 0 0 0 0 0 0 0 0 0 0 0 0 0 0 0 0 0 0 0 0 0 0 0 0 0 0 0 0 0 0 0 0 0 0 0 0 0 0 0 0 0 0 0 0 0 0 0 0 0 0 0 141 255 255 174 233 194 57 23 0 0 0 0 0 53 139 225 255 216 185 198 198 164 118 99 73 33 26 32 25 26 38 49 41 38 46 43 48 60 78 96 95 95 96 100 112 118 119 112 107 118 121 120 114 96 107 99 115 150 139 137 148 162 192 218 222 228 255 255 255 255 255 255 255 255 255 255 255 255 255 255 255 255 255 255 255 0 0 0 0 177 205 178 175 160 170 130 0 0 0 47 109 104 208 255 255 255 255 255 255 255 254 232 228 227 221 230 174 54 65 139 173 44 0 0 0 0 0 0 0 0 0 0 0 0 0 0 0 0 0 0 0 0 0 0 0 0 0 0 0 0 0 0 0 0 0 0 0 0 0 0 0 0 0 0 0 0 0 0 0 0 0 10 221 255 230 177 185 181 186 184 188 190 187 194 200 203 200 196 199 199 200 199 199 195 195 197 200 196 194 192 228 255 255 113 85 158 168 166 164 166 173 170 166 169 164 162 164 158 161 166 165 153 138 161 192 184 175 173 175 169 181 229 172 111 99 0 0 
0 0 0 0 0 0 0 0 0 0 0 0 0 0 0 0 0 0 0 0 0 0 0 0 0 0 0 0 0 0 0 0 0 0 0 0 0 0 0 0 0 0 0 0 0 0 0 0 0 0 0 0 0 0 0 0 0 0 0 0 0 0 0 0 0 0 0 0 0 0 0 0 0 0 0 0 0 0 0 0 0 0 0 0 0 0 0 0 0 0 0 0 0 0 0 0 0 0 0 0 0 0 0 0 0 0 0 0 0 0 0 0 0 0 0 0 0 0 0 0 36 86 239 255 255 161 169 136 58 76 115 156 165 171 206 255 255 255 255 192 117 128 105 50 14 12 19 26 45 69 77 86 104 128 127 139 156 146 138 157 150 128 108 103 119 102 40 20 83 147 155 152 152 162 161 30 0 0 0 255 255 255 255 255 255 255 255 255 255 255 255 255 255 255 255 255 255 255 255 255 255 255 255 255 255 255 27 0 0 0 144 247 109 14 11 9 40 0 0 0 0 248 196 107 236 255 248 196 148 152 135 119 120 112 115 120 129 145 89 0 0 123 170 133 0 0 0 0 0 0 0 0 0 0 0 0 0 0 0 0 0 0 0 0 0 0 0 0 0 0 0 0 0 0 0 0 0 0 0 0 0 0 0 0 0 0 0 0 0 0 0 0 0 0 131 255 255 178 188 177 180 180 190 193 192 198 203 208 203 198 197 199 197 194 192 191 195 195 196 195 190 191 210 235 200 87 72 152 171 168 168 168 174 170 163 162 159 162 165 162 161 163 164 158 135 141 182 188 176 177 177 172 181 229 173 95 138 0 0 
0 0 0 0 0 0 0 0 0 0 0 0 0 0 0 0 0 0 0 0 0 0 0 0 0 0 0 0 0 0 0 0 0 0 0 0 0 0 0 0 0 0 0 0 0 0 0 0 0 0 0 0 0 0 0 0 0 0 0 0 0 0 0 0 0 0 0 0 0 0 0 0 0 0 0 0 0 0 0 0 0 0 0 0 0 0 0 0 0 0 0 0 0 0 0 0 0 0 0 0 0 0 0 0 0 0 0 0 0 0 0 0 0 0 0 0 10 51 135 232 255 255 255 255 255 240 234 225 216 249 255 255 247 183 181 255 255 255 157 0 0 71 63 39 41 76 153 210 226 248 254 255 255 255 255 255 255 255 255 255 255 143 97 106 135 109 0 0 0 109 193 161 146 147 150 6 0 0 0 102 255 255 255 255 255 255 255 255 255 255 255 255 255 255 255 255 255 255 255 255 255 255 255 255 255 0 0 0 0 255 255 255 53 0 12 17 43 0 0 0 202 255 226 86 247 255 204 126 111 111 121 125 141 131 128 138 147 161 111 0 0 107 167 173 0 0 0 0 0 0 0 0 0 0 0 0 0 0 0 0 0 0 0 0 0 0 0 0 0 0 0 0 0 0 0 0 0 0 0 0 0 0 0 0 0 0 0 0 0 0 0 0 0 0 50 255 255 198 189 179 179 181 188 189 189 200 203 208 204 197 201 200 195 195 193 193 197 198 197 195 184 185 194 197 189 107 65 146 176 171 165 163 169 173 161 160 158 162 161 161 163 166 168 166 140 128 172 193 180 178 179 172 171 224 185 97 149 0 0 
0 0 0 0 0 0 0 0 0 0 0 0 0 0 0 0 0 0 0 0 0 0 0 0 0 0 0 0 0 0 0 0 0 0 0 0 0 0 0 0 0 0 0 0 0 0 0 0 0 0 0 0 0 0 0 0 0 0 0 0 0 0 0 0 0 0 0 0 0 0 0 0 0 0 0 0 0 0 0 0 0 0 0 0 0 0 0 0 0 0 0 0 0 0 0 0 0 0 0 0 0 0 0 0 0 0 0 0 0 0 0 0 0 26 85 146 232 255 255 255 255 255 255 255 255 252 244 240 232 236 219 198 170 98 96 255 255 188 0 0 3 99 83 81 85 117 252 255 255 255 255 255 255 255 255 255 255 255 255 255 255 67 48 119 134 138 0 0 0 99 212 117 87 98 89 45 0 0 0 0 188 255 255 255 255 255 255 255 255 255 239 218 216 222 221 234 254 255 255 255 255 255 255 255 35 0 0 0 253 255 255 164 78 112 127 119 104 0 0 0 255 255 168 58 206 255 185 123 129 132 137 145 147 142 135 144 141 157 130 0 0 106 161 183 51 0 0 0 0 0 0 0 0 0 0 0 0 0 0 0 0 0 0 0 0 0 0 0 0 0 0 0 0 0 0 0 0 0 0 0 0 0 0 0 0 0 0 0 0 0 0 0 0 0 7 202 255 244 182 183 183 183 187 186 183 193 196 197 200 196 197 194 195 199 200 197 197 189 188 193 189 187 193 191 196 130 66 132 166 165 158 163 169 173 167 163 163 161 160 164 167 165 162 163 147 128 156 188 182 172 173 166 165 192 151 72 127 0 0 
0 0 0 0 0 0 0 0 0 0 0 0 0 0 0 0 0 0 0 0 0 0 0 0 0 0 0 0 0 0 0 0 0 0 0 0 0 0 0 0 0 0 0 0 0 0 0 0 0 0 0 0 0 0 0 0 0 0 0 0 0 0 0 0 0 0 0 0 0 0 0 0 0 0 0 0 0 0 0 0 0 0 0 0 0 0 0 0 0 0 0 0 0 0 0 0 0 0 0 0 0 0 0 0 0 0 0 0 0 0 38 117 201 255 255 255 255 255 255 255 255 255 255 255 247 170 177 186 191 204 197 193 170 91 70 255 255 64 0 0 87 119 102 102 92 118 255 255 255 255 255 255 255 255 255 255 255 255 236 255 200 0 0 123 125 147 68 0 0 152 255 132 66 93 98 96 118 101 54 25 18 164 255 199 200 222 233 247 249 242 225 204 201 215 223 239 255 255 255 255 255 255 255 185 0 0 0 85 255 255 237 84 109 124 128 123 95 0 0 0 255 255 126 51 180 255 201 115 128 136 137 142 135 129 136 145 144 163 148 7 0 95 153 185 133 0 0 0 0 0 0 0 0 0 0 0 0 0 0 0 0 0 0 0 0 0 0 0 0 0 0 0 0 0 0 0 0 0 0 0 0 0 0 0 0 0 0 0 0 0 0 0 0 0 0 124 255 255 180 187 179 179 180 184 182 190 193 190 199 198 197 195 193 199 200 195 194 187 186 196 197 191 196 191 178 132 83 126 157 157 156 165 170 168 164 158 165 164 158 160 162 161 162 162 152 124 132 179 185 168 168 166 169 171 108 54 120 60 0 
0 0 0 0 0 0 0 0 0 0 0 0 0 0 0 0 0 0 0 0 0 0 0 0 0 0 0 0 0 0 0 0 0 0 0 0 0 0 0 0 0 0 0 0 0 0 0 0 0 0 0 0 0 0 0 0 0 0 0 0 0 0 0 0 0 0 0 0 0 0 0 0 0 0 0 0 0 0 0 0 0 0 0 0 0 0 0 0 0 0 0 0 0 0 0 0 0 0 0 0 0 0 0 0 0 0 0 46 145 251 255 255 255 255 255 255 255 255 255 255 219 177 179 185 171 169 177 181 202 220 213 210 170 92 74 240 255 76 0 0 103 112 106 106 91 113 255 255 255 255 255 225 196 184 164 199 203 163 143 194 173 0 0 109 129 140 155 0 0 57 255 203 79 91 109 120 133 140 79 17 11 44 202 255 240 249 255 255 255 234 217 214 213 222 233 245 255 255 255 255 255 255 253 0 0 0 0 255 255 255 101 88 95 91 72 88 59 0 0 28 255 255 107 56 179 255 237 117 124 140 141 147 144 132 141 146 150 170 169 28 0 63 133 166 166 0 0 0 0 0 0 0 0 0 0 0 0 0 0 0 0 0 0 0 0 0 0 0 0 0 0 0 0 0 0 0 0 0 0 0 0 0 0 0 0 0 0 0 0 0 0 0 0 0 84 255 255 255 195 190 182 172 177 189 186 188 193 194 202 203 202 198 195 198 198 193 191 193 193 200 192 184 193 180 150 126 92 124 157 155 156 160 163 163 162 161 165 161 156 158 158 158 164 164 158 131 121 166 188 172 172 170 170 156 94 79 145 90 0 
0 0 0 0 0 0 0 0 0 0 0 0 0 0 0 0 0 0 0 0 0 0 0 0 0 0 0 0 0 0 0 0 0 0 0 0 0 0 0 0 0 0 0 0 0 0 0 0 0 0 0 0 0 0 0 0 0 0 0 0 0 0 0 0 0 0 0 0 0 0 0 0 0 0 0 0 0 0 0 0 0 0 0 0 0 0 0 0 0 0 0 0 0 0 0 0 0 0 0 0 0 0 0 8 66 173 255 255 255 255 255 255 255 255 255 255 255 255 203 161 173 190 189 171 171 193 191 193 219 219 207 199 157 93 85 215 255 98 0 1 102 105 105 109 92 98 255 255 255 255 243 183 164 167 159 199 214 163 160 201 178 0 0 84 141 137 168 71 0 0 175 255 137 113 131 133 123 129 121 59 2 0 56 229 255 255 255 255 255 232 216 219 230 241 252 248 255 255 255 255 255 255 132 0 0 0 218 255 255 161 70 67 58 58 43 80 11 0 0 127 255 255 95 65 166 255 243 127 132 142 146 152 152 147 148 151 155 171 181 51 0 43 119 146 172 48 0 48 98 34 5 0 0 0 0 0 0 0 0 0 0 0 0 0 0 0 0 0 0 0 0 0 0 0 0 0 0 0 0 0 0 0 0 0 0 0 0 0 0 0 0 0 34 181 255 255 255 255 186 189 188 168 175 188 186 184 192 195 201 207 206 198 195 196 195 190 190 194 196 194 184 180 192 169 122 111 99 123 157 153 154 157 160 165 165 163 166 158 152 159 161 161 161 161 156 141 119 139 174 174 173 171 165 129 75 92 166 142 0 
0 0 0 0 0 0 0 0 0 0 0 0 0 0 0 0 0 0 0 0 0 0 0 0 0 0 0 0 0 0 0 0 0 0 0 0 0 0 0 0 0 0 0 0 0 0 0 0 0 0 0 0 0 0 0 0 0 0 0 0 0 0 0 0 0 0 0 0 0 0 0 0 0 0 0 0 0 0 0 0 0 0 0 0 0 0 0 0 0 0 0 0 0 0 0 0 0 0 0 0 28 98 204 255 255 255 255 255 255 255 255 255 255 250 211 193 202 192 176 179 195 206 201 187 182 190 196 215 228 214 197 189 156 102 82 189 255 108 0 30 112 110 105 109 95 85 255 255 255 187 200 171 166 191 199 202 213 184 200 244 207 0 0 66 146 128 148 137 0 0 43 255 218 133 134 133 117 109 105 99 46 0 16 86 255 255 254 255 255 234 216 228 241 249 254 247 255 255 255 255 255 243 0 0 0 0 255 255 234 89 86 56 60 69 78 102 0 0 0 236 255 203 79 68 144 255 253 141 137 143 152 147 145 145 152 162 165 177 188 71 0 26 125 132 173 146 167 255 255 255 249 178 118 63 15 0 0 0 0 0 0 0 0 0 0 0 0 0 0 0 0 0 0 0 0 0 0 0 0 0 0 0 0 0 0 0 0 0 0 0 0 90 255 255 255 255 255 250 117 188 197 174 179 192 188 184 189 190 195 202 206 200 198 198 195 192 190 191 192 190 191 191 195 152 96 108 116 127 158 155 153 156 159 164 165 160 164 158 156 159 160 161 159 157 157 147 123 119 157 178 169 166 160 106 64 115 174 186 0 
0 0 0 0 0 0 0 0 0 0 0 0 0 0 0 0 0 0 0 0 0 0 0 0 0 0 0 0 0 0 0 0 0 0 0 0 0 0 0 0 0 0 0 0 0 0 0 0 0 0 0 0 0 0 0 0 0 0 0 0 0 0 0 0 0 0 0 0 0 0 0 0 0 0 0 0 0 0 0 0 0 0 0 0 0 0 0 0 0 0 0 0 0 0 0 0 0 44 134 238 255 255 255 255 255 255 255 255 255 255 216 156 154 175 186 189 218 221 198 198 190 197 197 198 198 207 213 233 226 212 201 191 151 93 64 163 255 133 0 50 111 108 103 106 98 78 244 255 255 171 181 160 168 200 192 196 209 214 213 240 211 22 0 45 151 130 139 159 54 0 0 183 255 149 114 112 105 107 110 117 121 49 9 29 109 255 255 255 255 243 227 239 247 236 233 240 255 255 255 255 255 93 0 0 0 255 255 255 125 105 88 51 73 106 119 106 0 0 0 255 255 148 77 77 125 255 255 155 140 140 150 152 146 147 150 162 172 180 192 95 0 7 127 132 168 166 192 255 255 255 255 255 255 255 255 214 143 86 26 1 0 0 0 0 0 0 0 0 0 0 0 0 0 0 0 0 0 0 0 0 0 0 0 0 0 0 0 0 0 30 179 255 255 255 255 255 255 73 60 180 203 179 176 192 191 184 182 189 194 202 205 200 197 198 196 196 195 193 195 194 195 194 190 133 79 107 128 127 158 154 151 155 156 159 161 159 159 158 155 158 159 155 154 150 154 151 130 120 161 192 176 171 153 87 75 147 176 186 0 
0 0 0 0 0 0 0 0 0 0 0 0 0 0 0 0 0 0 0 0 0 0 0 0 0 0 0 0 0 0 0 0 0 0 0 0 0 0 0 0 0 0 0 0 0 0 0 0 0 0 0 0 0 0 0 0 0 0 0 0 0 0 0 0 0 0 0 0 0 0 0 0 0 0 0 0 0 0 0 0 0 0 0 0 0 0 0 0 0 0 0 0 0 0 48 158 255 255 255 255 255 255 255 255 255 255 255 220 189 174 156 163 200 214 214 211 219 216 199 203 199 195 201 202 207 216 220 211 213 208 201 186 141 84 68 164 253 143 7 40 99 96 91 100 104 73 214 255 255 197 178 162 191 199 178 185 188 201 194 176 167 33 0 15 148 130 145 160 138 0 0 58 255 210 123 112 101 122 124 123 151 123 32 5 17 120 255 255 247 244 244 250 250 232 227 244 255 255 255 255 239 0 0 0 30 255 255 191 90 107 84 63 94 122 139 84 0 0 2 255 255 120 81 86 104 255 255 156 139 141 151 153 156 155 154 155 166 176 189 113 0 0 117 118 149 153 143 168 158 180 216 255 255 255 255 255 255 255 255 236 159 68 13 0 0 0 0 0 0 0 0 0 0 0 0 0 0 0 0 0 0 0 0 0 0 0 0 0 92 255 255 255 255 255 255 255 191 58 46 165 205 181 174 182 184 181 181 189 194 197 202 198 193 193 191 194 197 193 198 195 185 184 169 106 67 115 135 126 156 156 149 149 148 153 160 159 156 153 154 154 155 152 147 147 156 154 130 118 154 178 173 173 131 65 89 162 169 176 0 
0 0 0 0 0 0 0 0 0 0 0 0 0 0 0 0 0 0 0 0 0 0 0 0 0 0 0 0 0 0 0 0 0 0 0 0 0 0 0 0 0 0 0 0 0 0 0 0 0 0 0 0 0 0 0 0 0 0 0 0 0 0 0 0 0 0 0 0 0 0 0 0 0 0 0 0 0 0 0 0 0 0 0 0 0 0 0 0 0 0 0 48 174 255 255 255 255 255 255 255 255 255 255 255 222 190 173 180 195 194 180 186 213 202 200 202 195 198 189 187 192 191 209 203 202 202 201 187 197 203 182 166 135 94 87 172 255 146 4 27 91 93 91 105 105 70 191 255 255 213 191 182 211 210 199 187 169 183 188 175 184 74 0 0 137 122 132 137 153 47 0 0 179 255 164 122 122 145 134 121 150 147 90 20 0 26 176 255 255 229 241 251 247 236 236 246 255 255 255 255 96 0 0 0 255 255 255 84 80 89 76 73 109 108 114 41 0 0 77 255 255 108 88 88 78 248 255 161 140 153 150 147 156 153 150 160 172 180 191 131 0 0 109 110 135 156 141 146 122 95 85 112 185 219 238 255 255 255 255 255 255 255 255 235 149 59 10 0 0 0 0 0 0 0 0 0 0 0 0 0 0 0 0 0 0 0 30 187 255 255 255 255 118 255 255 245 169 98 30 137 205 190 176 176 181 180 182 184 189 190 205 201 194 196 191 190 193 186 186 186 181 190 161 83 63 129 142 131 147 153 145 143 140 149 160 160 154 156 156 154 153 148 147 151 157 153 138 120 145 154 155 166 105 59 116 163 166 149 0 
0 0 0 0 0 0 0 0 0 0 0 0 0 0 0 0 0 0 0 0 0 0 0 0 0 0 0 0 0 0 0 0 0 0 0 0 0 0 0 0 0 0 0 0 0 0 0 0 0 0 0 0 0 0 0 0 0 0 0 0 0 0 0 0 0 0 0 0 0 0 0 0 0 0 0 0 0 0 0 0 0 0 0 0 0 0 0 0 30 133 255 255 255 255 255 255 255 255 255 255 243 201 179 186 198 204 197 193 201 198 186 194 215 202 198 206 200 202 189 196 207 199 207 207 201 192 191 190 194 196 172 160 142 108 92 170 250 133 0 26 96 106 99 103 101 72 168 255 255 239 200 186 212 213 201 184 175 213 219 210 213 118 0 0 132 123 125 128 134 113 0 0 51 255 234 133 122 130 135 140 158 142 109 90 21 8 45 206 255 254 240 253 240 233 243 254 255 255 255 250 0 0 0 51 255 255 155 69 88 85 74 77 100 80 83 0 0 0 149 255 248 90 88 93 80 226 255 185 145 151 142 146 161 160 154 167 180 176 182 144 0 0 107 121 136 168 159 153 130 100 91 101 143 137 102 95 120 186 252 255 255 255 255 255 255 255 255 240 133 56 14 1 0 0 0 0 0 0 0 0 0 0 0 0 4 104 255 255 255 255 255 0 32 255 255 205 172 114 9 100 202 195 176 174 179 185 182 179 184 194 204 200 192 193 191 187 184 181 181 182 188 191 137 59 73 133 138 127 142 148 143 134 131 144 157 157 150 159 158 156 153 151 145 151 153 149 143 126 133 147 154 151 79 72 144 164 182 115 0 
0 0 0 0 0 0 0 0 0 0 0 0 0 0 0 0 0 0 0 0 0 0 0 0 0 0 0 0 0 0 0 0 0 0 0 0 0 0 0 0 0 0 0 0 0 0 0 0 0 0 0 0 0 0 0 0 0 0 0 0 0 0 0 0 0 0 0 0 0 0 0 0 0 0 0 0 0 0 0 0 0 0 0 0 0 0 50 205 255 255 255 255 255 255 255 255 255 238 178 143 176 194 198 212 206 205 198 195 197 194 188 192 198 202 209 207 198 200 199 203 208 202 204 204 201 188 186 191 198 199 190 181 157 117 89 172 255 130 0 25 105 115 101 100 104 79 150 255 255 226 178 172 187 195 191 177 189 219 226 224 205 149 0 0 119 131 126 127 119 132 30 0 0 176 255 157 111 116 139 157 174 141 111 123 90 18 3 51 233 255 255 250 243 238 247 252 255 255 255 116 0 0 0 255 255 255 96 101 95 86 95 85 79 83 107 0 0 0 211 255 209 80 97 100 81 192 255 211 142 142 141 154 168 165 161 158 167 158 163 146 0 0 81 129 132 159 154 140 124 106 99 112 140 136 111 102 94 105 114 109 107 141 199 255 255 255 255 255 255 255 255 234 153 74 16 0 0 0 0 0 0 0 0 46 211 255 255 255 255 191 0 0 161 255 255 187 141 113 20 68 188 202 180 174 176 183 183 181 185 193 198 199 191 191 190 184 180 182 184 189 195 170 90 32 89 130 115 119 145 148 147 138 136 147 158 156 150 154 152 147 148 151 147 147 148 149 147 129 122 128 127 117 72 97 166 167 203 38 0 
0 0 0 0 0 0 0 0 0 0 0 0 0 0 0 0 0 0 0 0 0 0 0 0 0 0 0 0 0 0 0 0 0 0 0 0 0 0 0 0 0 0 0 0 0 0 0 0 0 0 0 0 0 0 0 0 0 0 0 0 0 0 0 0 0 0 0 0 0 0 0 0 0 0 0 0 0 0 0 0 0 0 0 0 14 157 255 255 255 255 255 255 255 255 224 204 180 184 188 176 194 221 206 202 197 202 197 194 198 193 192 189 180 185 198 200 195 185 192 189 186 195 199 196 197 189 177 190 186 199 202 182 161 128 89 166 255 127 0 44 116 106 96 104 113 91 125 255 255 211 173 178 193 202 194 180 182 195 193 203 205 177 0 0 98 134 123 126 112 121 123 0 0 46 255 213 114 129 148 137 151 128 100 119 121 79 13 10 65 250 255 238 241 253 247 245 252 255 255 0 0 0 0 188 255 183 82 87 81 81 92 77 63 95 104 0 0 0 255 255 171 79 95 97 81 158 255 244 137 143 150 156 157 153 147 143 148 154 166 162 17 0 54 124 120 145 150 134 109 101 103 120 144 139 117 119 120 116 113 100 82 78 93 95 105 149 213 255 255 255 255 255 255 255 255 252 172 85 19 0 0 12 140 255 255 255 255 255 175 73 0 0 255 255 255 154 108 120 63 46 167 204 184 172 177 181 182 178 182 184 190 198 197 193 187 180 180 189 188 190 193 137 50 38 113 135 107 125 151 150 148 144 144 154 155 152 151 149 150 144 138 143 143 142 149 152 146 130 108 133 137 105 99 150 185 184 199 0 0 
0 0 0 0 0 0 0 0 0 0 0 0 0 0 0 0 0 0 0 0 0 0 0 0 0 0 0 0 0 0 0 0 0 0 0 0 0 0 0 0 0 0 0 0 0 0 0 0 0 0 0 0 0 0 0 0 0 0 0 0 0 0 0 0 0 0 0 0 0 0 0 0 0 0 0 0 0 0 0 0 0 0 0 22 224 255 255 255 255 255 255 225 196 183 189 202 194 193 202 194 195 220 205 192 196 202 197 193 198 197 194 192 192 196 200 196 196 197 197 190 191 209 198 191 189 186 195 198 197 193 197 183 170 131 75 149 255 109 0 52 125 109 101 114 119 99 103 255 255 255 206 197 204 206 197 189 173 175 181 207 215 194 7 0 65 142 121 125 118 113 140 42 0 0 167 255 144 123 124 99 115 111 81 111 126 69 0 0 14 96 255 255 242 247 244 246 252 255 166 0 0 0 54 40 50 60 67 71 84 73 71 60 64 111 75 0 0 0 255 255 135 82 99 98 83 132 255 255 145 146 159 158 144 144 143 145 151 159 164 173 54 0 45 131 116 126 150 148 108 80 90 114 134 132 120 108 109 112 124 124 107 103 128 138 126 117 97 85 108 165 219 255 255 255 255 255 255 255 255 255 205 255 255 255 255 255 212 105 118 56 0 2 255 255 247 122 105 141 109 45 138 198 186 172 175 181 179 182 180 178 186 196 194 187 183 176 179 189 187 191 168 86 21 61 137 138 115 141 152 143 140 142 139 144 139 140 144 149 147 144 139 140 143 140 146 150 139 129 110 133 162 121 130 190 197 211 80 0 0 
0 0 0 0 0 0 0 0 0 0 0 0 0 0 0 0 0 0 0 0 0 0 0 0 0 0 0 0 0 0 0 0 0 0 0 0 0 0 0 0 0 0 0 0 0 0 0 0 0 0 0 0 0 0 0 0 0 0 0 0 0 0 0 0 0 0 0 0 0 0 0 0 0 0 0 0 0 0 0 0 0 0 12 179 255 255 255 255 255 199 180 187 193 194 200 206 201 194 207 204 195 204 204 197 208 206 195 190 190 192 191 192 192 196 198 198 195 196 193 196 183 191 185 187 195 192 206 206 212 203 202 191 184 130 64 142 255 126 0 52 124 108 104 124 127 104 87 255 255 255 183 191 179 179 183 191 186 187 212 210 218 209 19 0 44 143 123 122 115 112 125 103 0 0 50 255 206 105 110 113 126 120 88 116 100 0 0 0 14 25 130 255 255 235 241 248 255 255 0 0 0 0 61 20 0 0 20 90 130 97 86 86 87 114 49 0 0 66 255 255 125 87 100 96 84 120 255 255 167 145 151 155 144 143 145 149 152 166 170 174 83 0 22 130 108 111 139 149 116 73 83 105 109 101 100 104 112 114 117 114 112 122 132 134 131 136 117 101 109 102 86 88 113 148 209 255 255 255 255 255 255 255 255 255 255 139 82 79 78 0 0 41 255 255 196 119 130 153 136 59 103 197 198 180 174 174 177 181 179 179 189 202 197 191 184 181 186 185 185 186 131 36 19 96 153 129 105 127 139 141 140 140 136 134 133 135 147 155 149 141 140 141 143 140 142 143 136 134 127 107 101 82 142 209 210 174 0 0 0 
0 0 0 0 0 0 0 0 0 0 0 0 0 0 0 0 0 0 0 0 0 0 0 0 0 0 0 0 0 0 0 0 0 0 0 0 0 0 0 0 0 0 0 0 0 0 0 0 0 0 0 0 0 0 0 0 0 0 0 0 0 0 0 0 0 0 0 0 0 0 0 0 0 0 0 0 0 0 0 0 0 0 78 255 255 255 255 183 165 189 194 197 192 191 201 209 206 195 202 199 187 198 205 207 209 201 194 191 189 188 191 183 174 169 176 198 199 197 190 183 173 167 172 177 199 208 213 202 188 182 184 193 177 107 65 166 255 116 0 58 121 102 102 117 121 98 70 220 255 255 176 180 178 168 180 197 186 194 216 203 210 211 55 0 25 145 121 119 115 113 113 122 45 0 0 175 255 124 116 125 121 124 118 117 0 0 0 0 27 14 14 181 255 255 248 252 255 202 0 0 0 124 106 18 9 16 0 40 117 94 85 100 92 117 25 0 0 152 255 248 102 89 91 79 76 114 255 255 190 138 142 145 134 139 150 148 152 158 168 174 90 0 1 119 96 99 126 141 119 68 62 94 102 85 85 85 94 104 100 104 96 93 103 107 106 107 104 104 131 134 112 97 86 84 96 95 77 81 123 166 213 255 255 180 96 94 99 95 44 0 0 113 255 255 178 139 146 150 147 82 71 176 210 188 171 170 176 179 176 175 184 192 197 193 183 182 188 186 184 157 70 8 58 140 158 118 89 118 138 139 140 139 133 128 133 136 143 150 144 141 145 140 137 142 143 137 134 139 127 82 73 122 194 238 198 0 0 0 0 
0 0 0 0 0 0 0 0 0 0 0 0 0 0 0 0 0 0 0 0 0 0 0 0 0 0 0 0 0 0 0 0 0 0 0 0 0 0 0 0 0 0 0 0 0 0 0 0 0 0 0 0 0 0 0 0 0 0 0 0 0 0 0 0 0 0 0 0 0 0 0 0 0 0 0 0 0 0 0 0 0 8 188 255 255 255 151 178 187 191 200 203 198 193 198 202 201 194 204 194 187 208 216 207 201 196 196 199 198 195 184 173 163 170 177 193 196 194 194 182 198 199 203 190 210 202 197 201 195 177 187 213 165 75 46 175 255 99 0 45 112 103 109 112 110 98 70 199 255 255 209 201 197 176 189 198 181 184 210 195 212 237 93 0 0 142 123 115 114 118 110 111 123 0 0 47 253 184 104 109 93 113 133 17 0 0 0 8 86 106 37 39 239 255 255 255 255 20 0 0 0 255 255 78 6 30 23 0 15 44 62 82 84 133 28 0 0 232 255 195 87 95 84 87 85 105 255 255 184 135 138 148 145 144 146 147 151 152 157 166 104 0 0 103 97 97 125 138 116 42 22 67 92 77 71 73 65 64 81 87 94 85 91 103 104 109 105 107 126 130 121 114 102 101 103 81 51 40 38 18 7 39 77 94 107 103 104 120 84 0 0 130 255 255 172 151 148 141 143 103 53 143 202 182 169 171 173 175 175 176 177 183 189 186 182 182 185 182 168 101 14 25 114 169 149 92 74 118 143 142 137 137 135 126 136 144 140 141 141 142 141 135 138 143 141 131 132 132 95 69 123 221 255 231 0 0 0 0 0 
0 0 0 0 0 0 0 0 0 0 0 0 0 0 0 0 0 0 0 0 0 0 0 0 0 0 0 0 0 0 0 0 0 0 0 0 0 0 0 0 0 0 0 0 0 0 0 0 0 0 0 0 0 0 0 0 0 0 0 0 0 0 0 0 0 0 0 0 0 0 0 0 0 0 0 0 0 0 0 0 0 26 255 255 255 226 159 211 205 197 209 207 200 202 205 206 199 194 185 173 165 177 158 138 141 134 128 128 127 129 136 150 170 199 208 206 197 185 185 172 181 194 185 183 205 201 196 193 194 197 211 211 162 80 40 157 242 79 0 54 113 109 114 109 110 112 77 180 255 255 229 207 185 171 194 218 202 187 202 195 214 234 130 0 0 133 123 115 116 116 111 105 135 62 0 0 160 247 116 99 105 139 68 0 0 0 0 78 255 255 144 0 57 255 255 255 239 0 0 0 158 255 255 152 76 33 22 13 0 0 39 91 104 111 0 0 0 255 255 159 96 108 94 93 88 92 237 255 173 136 143 145 151 146 149 154 156 154 156 178 138 0 0 86 100 103 121 127 119 48 2 50 68 50 33 37 45 44 75 75 74 71 81 101 94 96 104 103 101 98 89 92 94 84 69 69 80 95 89 64 55 70 91 106 112 112 109 125 73 0 0 123 255 255 163 144 147 138 142 125 63 106 193 190 171 172 173 180 183 175 174 183 189 186 181 181 180 170 122 33 2 77 156 168 117 66 81 124 145 135 125 124 122 126 137 144 139 144 153 149 143 137 140 139 132 127 123 103 72 101 188 255 232 1 0 0 0 0 0 
0 0 0 0 0 0 0 0 0 0 0 0 0 0 0 0 0 0 0 0 0 0 0 0 0 0 0 0 0 0 0 0 0 0 0 0 0 0 0 0 0 0 0 0 0 0 0 0 0 0 0 0 0 0 0 0 0 0 0 0 0 0 0 0 0 0 0 0 0 0 0 0 0 0 0 0 0 0 0 0 0 47 255 255 255 170 184 210 208 206 213 203 190 183 172 148 124 93 61 38 30 20 0 0 0 0 0 0 0 0 0 0 36 79 130 163 179 189 189 172 164 150 146 177 193 197 212 203 184 202 195 190 164 100 53 146 225 57 0 67 123 112 110 112 113 115 83 157 255 255 232 181 160 176 207 208 195 190 202 198 190 221 163 0 0 122 124 117 118 113 111 110 126 114 0 0 42 249 195 123 148 108 0 0 0 0 65 224 255 255 176 0 0 92 255 255 105 0 0 0 255 255 177 99 163 104 29 14 26 2 0 55 122 86 0 0 0 255 255 130 103 111 88 92 91 92 220 255 199 141 148 142 145 147 154 155 154 149 158 179 150 0 0 77 111 104 115 121 138 101 17 33 50 47 34 34 57 47 48 56 49 56 46 69 78 74 90 79 75 83 88 76 54 45 58 92 113 100 77 62 69 92 105 112 115 105 146 202 65 0 0 113 255 255 171 134 141 132 134 133 77 77 176 200 181 172 173 177 187 177 172 179 185 185 182 179 176 146 61 0 44 138 178 152 83 49 103 135 133 121 109 111 113 123 133 136 135 138 149 150 142 135 132 132 125 117 92 71 95 183 255 226 0 0 0 0 0 0 0 
0 0 0 0 0 0 0 0 0 0 0 0 0 0 0 0 0 0 0 0 0 0 0 0 0 0 0 0 0 0 0 0 0 0 0 0 0 0 0 0 0 0 0 0 0 0 0 0 0 0 0 0 0 0 0 0 0 0 0 0 0 0 0 0 0 0 0 0 0 0 0 0 0 0 0 0 0 0 0 0 0 70 255 255 255 142 173 202 208 189 176 152 109 71 50 25 14 1 0 0 0 0 0 0 0 1 0 0 0 0 0 0 0 0 0 0 94 164 168 160 176 170 186 215 202 203 198 187 182 203 194 189 166 91 30 149 244 64 0 81 117 109 115 116 112 113 91 129 255 255 222 150 147 189 203 182 190 191 196 194 189 209 158 0 0 107 134 125 122 112 114 116 114 131 27 0 0 162 255 165 123 0 0 0 0 58 168 255 255 255 92 18 0 6 159 255 0 0 0 62 255 255 107 94 142 145 99 36 25 20 0 0 69 45 0 0 110 255 255 110 105 109 94 100 92 80 186 255 219 136 147 145 144 152 152 156 154 154 158 176 163 9 0 56 115 108 116 110 128 129 69 59 77 65 72 86 97 82 59 63 47 57 48 57 68 74 83 59 53 72 80 78 60 63 100 122 106 78 68 69 93 112 114 113 107 91 149 204 9 0 4 94 217 255 185 126 137 128 124 129 95 62 153 198 181 170 168 168 172 164 164 175 181 185 182 182 163 88 9 19 115 181 180 117 43 56 126 139 128 124 117 121 127 132 138 132 132 136 141 146 138 125 120 123 113 82 66 104 196 255 200 0 0 0 0 0 0 0 0 
0 0 0 0 0 0 0 0 0 0 0 0 0 0 0 0 0 0 0 0 0 0 0 0 0 0 0 0 0 0 0 0 0 0 0 0 0 0 0 0 0 0 0 0 0 0 0 0 0 0 0 0 0 0 0 0 0 0 0 0 0 0 0 0 0 0 0 0 0 0 0 0 0 0 0 0 0 0 0 0 0 80 255 255 255 147 152 169 161 110 66 28 2 0 15 30 45 66 79 76 67 42 32 55 90 113 105 99 103 96 103 101 81 58 14 0 0 17 83 116 152 181 189 203 180 175 186 172 182 192 184 180 166 94 24 146 255 90 0 95 118 105 115 114 107 113 103 113 255 255 214 160 168 197 188 183 203 202 192 188 208 223 190 0 0 83 141 125 119 111 116 119 113 119 107 0 0 55 255 223 0 0 0 0 29 141 255 255 255 106 92 112 23 0 49 193 0 0 0 252 255 225 69 112 140 97 104 116 70 22 7 15 13 0 0 0 186 255 234 89 108 111 98 102 95 74 149 255 243 135 148 146 149 153 153 153 158 156 155 168 176 46 0 36 118 110 110 101 108 109 106 140 132 114 137 151 135 102 82 93 85 70 68 77 79 74 78 63 54 76 79 65 63 93 119 107 88 84 85 88 101 107 105 103 92 66 138 160 0 0 55 77 161 255 204 124 138 134 126 130 115 63 120 190 184 171 163 164 165 160 158 166 171 182 186 173 107 7 0 86 171 188 146 63 29 92 138 135 121 122 131 135 132 138 143 136 139 140 139 143 136 134 128 109 80 65 123 224 255 100 0 0 0 0 0 0 0 0 0 
0 0 0 0 0 0 0 0 0 0 0 0 0 0 0 0 0 0 0 0 0 0 0 0 0 0 0 0 0 0 0 0 0 0 0 0 0 0 0 0 0 0 0 0 0 0 0 0 0 0 0 0 0 0 0 0 0 0 0 0 0 0 0 0 0 0 0 0 0 0 0 0 0 0 0 0 0 0 0 0 0 79 255 255 255 127 100 88 57 2 0 15 36 69 98 115 118 122 106 78 55 31 22 51 82 99 94 96 103 86 84 88 97 115 129 124 44 0 0 73 102 122 120 109 112 135 177 184 187 176 181 180 171 104 31 160 255 80 0 91 118 105 114 110 101 111 109 105 255 255 239 175 189 201 176 185 208 186 169 189 208 215 209 36 0 60 146 123 114 109 118 119 115 112 125 35 0 0 181 147 0 0 0 1 112 255 255 255 157 90 111 132 92 3 17 55 0 0 0 255 255 126 73 127 146 90 61 122 155 75 10 23 29 0 0 0 242 255 180 67 99 107 95 91 89 80 130 255 255 139 152 145 149 157 158 153 149 143 150 165 185 63 0 25 128 110 101 94 107 110 53 39 74 183 248 220 161 129 115 117 130 105 109 110 115 101 75 61 66 93 99 82 88 108 106 91 82 89 99 106 105 106 93 74 51 35 132 170 0 0 87 65 115 251 227 130 130 135 124 122 122 71 90 176 187 178 165 163 162 164 164 163 165 179 177 116 19 0 64 166 189 153 75 14 53 131 136 129 114 114 127 132 130 135 145 140 142 138 139 149 147 133 100 71 83 154 243 209 0 0 0 0 0 0 0 0 0 0 0 
0 0 0 0 0 0 0 0 0 0 0 0 0 0 0 0 0 0 0 0 0 0 0 0 0 0 0 0 0 0 0 0 0 0 0 0 0 0 0 0 0 0 0 0 0 0 0 0 0 0 0 0 0 0 0 0 0 0 0 0 0 0 0 0 0 0 0 0 0 0 0 0 0 0 0 0 0 0 0 0 0 82 255 255 255 26 20 29 34 37 73 106 118 116 114 108 97 96 91 87 89 87 91 112 118 100 84 88 98 86 79 73 71 83 89 106 134 53 0 41 83 88 117 111 128 157 194 207 176 157 181 187 171 103 23 156 255 87 0 89 122 109 115 111 105 110 111 97 255 255 255 187 203 192 183 185 199 181 176 188 199 207 202 55 0 28 153 121 112 106 112 117 117 116 114 114 0 0 54 0 0 0 0 85 255 255 255 182 86 115 113 114 121 62 0 17 0 0 115 255 255 78 105 140 134 78 66 107 141 137 69 28 31 18 0 55 255 255 170 71 99 110 100 89 91 93 118 255 255 147 144 141 149 164 160 150 148 153 152 166 186 85 0 7 128 109 98 93 103 115 33 0 0 169 255 255 213 171 162 163 191 171 145 142 130 128 104 72 75 98 102 85 92 111 97 80 90 105 101 95 90 88 72 46 22 30 149 205 0 0 95 77 71 167 225 149 124 130 120 113 117 81 73 162 190 180 164 163 163 160 163 168 175 179 135 32 0 49 163 198 160 88 14 22 102 140 131 130 120 122 136 138 136 140 151 150 150 148 147 145 123 90 73 108 184 204 44 0 0 0 0 0 0 0 0 0 0 0 0 
0 0 0 0 0 0 0 0 0 0 0 0 0 0 0 0 0 0 0 0 0 0 0 0 0 0 0 0 0 0 0 0 0 0 0 0 0 0 0 0 0 0 0 0 0 0 0 0 0 0 0 0 0 0 0 0 0 0 0 0 0 0 0 0 0 0 0 0 0 0 0 0 0 0 0 0 0 0 0 0 28 174 255 255 163 0 24 59 94 119 123 113 102 98 107 115 111 101 98 105 116 120 128 129 122 93 77 84 92 90 88 86 84 88 89 95 106 96 34 51 113 109 124 153 180 193 202 210 168 149 177 202 165 111 30 146 255 81 0 93 128 115 113 110 112 118 118 86 253 255 255 193 191 188 200 196 181 175 178 191 209 209 217 78 0 0 146 116 105 103 115 119 118 120 108 119 49 0 0 0 0 0 61 213 255 255 223 74 105 123 117 110 114 129 32 0 27 79 251 255 203 75 120 128 104 82 76 107 113 93 108 98 53 23 19 139 255 255 157 88 102 117 109 89 91 94 98 255 255 160 140 146 152 162 152 144 151 158 150 154 184 106 0 0 111 101 97 99 99 104 51 0 0 104 236 232 216 216 219 205 223 204 150 163 150 146 112 75 88 111 105 88 101 114 98 81 101 116 103 74 58 54 53 39 41 59 172 238 0 0 89 84 39 58 189 187 123 124 118 111 113 93 64 139 190 180 165 162 174 165 161 166 166 130 52 0 43 158 209 175 104 41 27 97 142 135 131 129 122 126 141 145 144 149 154 150 142 132 111 100 93 109 143 136 22 0 0 0 0 0 0 0 0 0 0 0 0 0 0 
0 0 0 0 0 0 0 0 0 0 0 0 0 0 0 0 0 0 0 0 0 0 0 0 0 0 0 0 0 0 0 0 0 0 0 0 0 0 0 0 0 0 0 0 0 0 0 0 0 0 0 0 0 0 0 0 0 0 0 0 0 0 0 0 0 0 0 0 0 0 0 0 0 0 0 0 0 0 26 107 255 255 255 255 118 45 99 107 115 113 103 100 102 103 114 109 103 101 109 121 121 123 124 118 104 91 81 90 95 92 92 99 100 98 104 109 106 101 107 101 129 149 141 151 159 155 160 195 180 169 189 205 183 114 35 152 255 79 0 86 128 115 110 113 114 119 115 78 194 255 255 189 168 174 189 200 184 195 193 194 204 213 217 100 0 0 141 121 107 110 116 122 120 118 111 114 109 0 0 10 37 32 157 255 255 255 83 94 124 126 116 105 107 145 63 0 0 91 255 255 152 92 135 129 99 100 94 102 105 70 64 124 102 7 18 183 255 255 124 85 93 118 101 81 91 94 80 220 255 179 138 156 165 163 151 146 150 157 151 159 191 122 0 0 99 100 88 91 88 92 85 0 0 36 96 55 38 191 255 194 204 191 135 160 180 154 86 42 72 105 100 101 121 127 98 87 102 98 73 55 46 50 45 39 48 61 164 255 7 0 76 90 51 12 129 216 136 113 110 103 105 98 64 114 184 180 168 162 168 161 157 166 126 50 5 53 155 216 200 140 73 56 113 156 141 128 133 128 120 128 143 148 143 136 126 113 104 99 100 116 128 90 0 0 0 0 0 0 0 0 0 0 0 0 0 0 0 0 0 
0 0 0 0 0 0 0 0 0 0 0 0 0 0 0 0 0 0 0 0 0 0 0 0 0 0 0 0 0 0 0 0 0 0 0 0 0 0 0 0 0 0 0 0 0 0 0 0 0 0 0 0 0 0 0 0 0 0 0 0 0 0 0 0 0 0 0 0 0 0 0 0 0 0 0 0 22 91 245 255 255 255 255 255 117 102 117 107 105 109 106 102 101 106 119 111 101 110 119 137 134 113 105 114 114 106 102 101 91 78 72 81 88 87 103 111 105 99 115 96 49 133 165 133 145 141 137 181 189 188 197 195 184 94 35 166 255 80 0 86 127 117 107 111 117 115 112 84 161 255 255 177 165 172 180 188 196 206 202 199 198 211 220 123 0 0 120 125 110 113 116 116 115 115 112 111 119 52 0 0 32 111 255 255 255 119 88 113 125 128 122 110 114 149 22 0 0 142 255 255 128 96 118 113 107 123 100 84 90 78 59 90 40 0 0 242 255 204 92 85 88 109 103 88 93 90 73 193 255 209 135 159 163 157 148 141 144 155 156 162 188 143 0 0 91 103 87 88 81 86 112 2 0 0 68 0 0 181 255 144 140 172 150 173 173 92 12 9 66 95 102 111 121 120 81 67 78 57 39 34 37 51 50 44 51 58 150 255 42 0 59 93 74 24 60 181 163 108 105 99 93 94 67 84 177 185 170 158 153 147 149 135 62 14 59 167 217 193 153 101 72 123 176 162 134 123 125 125 118 127 134 125 111 100 97 95 107 114 88 4 0 0 0 0 0 0 0 0 0 0 0 0 0 0 0 0 0 0 0 
0 0 0 0 0 0 0 0 0 0 0 0 0 0 0 0 0 0 0 0 0 0 0 0 0 0 0 0 0 0 0 0 0 0 0 0 0 0 0 0 0 0 0 0 0 0 0 0 0 0 0 0 0 0 0 0 0 0 0 0 0 0 0 0 0 0 0 0 0 0 0 0 0 0 16 88 231 255 255 255 255 255 224 117 100 103 111 107 105 108 103 102 109 117 124 112 109 129 123 121 115 94 104 118 118 119 130 116 98 92 86 83 80 77 83 92 98 101 103 96 0 45 177 152 157 163 138 171 168 171 177 175 176 100 45 177 255 68 0 94 124 116 107 108 117 111 114 91 140 255 255 195 166 192 188 191 209 196 187 198 191 197 227 153 0 0 103 132 113 114 117 120 122 114 113 109 105 109 0 0 12 238 255 255 165 94 124 120 128 127 119 122 128 134 0 0 0 217 255 255 119 77 5 49 107 127 94 61 80 89 84 101 0 0 0 255 255 161 96 115 95 88 105 99 91 88 73 169 255 245 140 154 154 146 139 145 154 160 161 158 179 160 1 0 68 107 90 89 85 87 102 25 0 0 67 46 43 209 199 25 86 149 131 169 148 28 0 5 71 89 100 100 88 80 46 28 45 32 30 38 47 48 51 61 76 69 129 255 61 0 40 93 75 31 3 119 180 120 99 101 92 86 71 68 155 188 166 156 151 153 135 72 19 56 165 235 209 130 63 63 122 195 209 185 152 129 120 121 116 110 115 110 110 119 117 106 36 0 0 0 0 0 0 0 0 0 0 0 0 0 0 0 0 0 0 0 0 0 0 
0 0 0 0 0 0 0 0 0 0 0 0 0 0 0 0 0 0 0 0 0 0 0 0 0 0 0 0 0 0 0 0 0 0 0 0 0 0 0 0 0 0 0 0 0 0 0 0 0 0 0 0 0 0 0 0 0 0 0 0 0 0 0 0 0 0 0 0 0 0 0 0 12 84 219 255 255 255 255 255 237 117 79 93 106 110 107 97 100 114 108 103 109 122 126 109 111 125 120 110 115 128 137 127 120 139 148 121 109 115 116 105 99 95 83 83 98 102 94 103 44 0 151 197 165 171 145 176 172 172 186 191 176 105 50 180 245 57 0 93 122 111 105 113 120 109 110 98 115 255 255 218 182 200 186 191 201 187 182 199 192 197 226 182 0 0 92 138 115 119 121 124 123 114 116 109 98 117 41 0 0 208 255 233 90 110 123 133 141 130 112 118 127 102 0 0 0 255 255 194 118 27 0 40 186 135 100 78 101 112 129 112 0 0 0 255 255 140 88 116 95 82 111 100 84 100 80 145 255 255 145 149 150 145 146 161 163 160 161 157 178 173 18 0 43 110 96 93 86 82 84 50 0 0 37 45 60 130 119 34 106 117 109 154 139 1 0 16 76 86 92 86 58 43 24 20 45 50 50 54 60 63 70 80 81 70 101 226 85 0 18 86 68 50 13 90 168 131 98 98 86 86 91 73 134 192 168 160 152 139 84 29 56 157 229 217 136 38 20 139 255 255 206 173 136 106 106 106 114 133 155 150 121 57 0 0 0 0 0 0 0 0 0 0 0 0 0 0 0 0 0 0 0 0 0 0 0 0 0 
0 0 0 0 0 0 0 0 0 0 0 0 0 0 0 0 0 0 0 0 0 0 0 0 0 0 0 0 0 0 0 0 0 0 0 0 0 0 0 0 0 0 0 0 0 0 0 0 0 0 0 0 0 0 0 0 0 0 0 0 0 0 0 0 0 0 0 0 0 0 26 101 230 255 255 255 255 255 250 131 86 84 95 103 110 115 110 104 108 116 109 102 109 119 127 117 110 114 122 141 154 172 180 157 151 179 165 115 106 118 115 109 103 101 92 87 95 97 93 101 100 3 91 226 155 136 131 158 181 190 202 200 179 95 48 192 255 66 0 95 120 108 108 117 117 108 111 104 99 255 255 234 201 189 181 178 196 189 184 193 195 213 236 199 0 0 74 134 110 118 122 122 117 112 115 112 102 113 117 0 0 81 255 188 103 118 119 133 135 117 111 118 133 81 0 0 24 255 255 158 122 0 0 105 255 120 88 86 94 103 134 74 0 0 41 255 255 122 82 117 105 91 116 105 88 111 86 130 255 255 153 152 148 148 154 165 159 146 156 157 169 179 37 0 24 114 97 91 83 77 75 76 0 0 8 37 30 40 68 136 194 128 115 174 119 0 0 9 82 81 76 63 42 39 35 39 65 70 63 69 70 74 79 81 76 72 86 187 126 0 0 80 61 73 46 62 134 126 87 87 82 83 101 87 110 191 178 155 133 90 44 69 172 244 217 140 39 2 120 255 255 203 104 76 58 47 81 134 186 158 62 0 0 0 0 0 0 0 0 0 0 0 0 0 0 0 0 0 0 0 0 0 0 0 0 0 0 0 0 
0 0 0 0 0 0 0 0 0 0 0 0 0 0 0 0 0 0 0 0 0 0 0 0 0 0 0 0 0 0 0 0 0 0 0 0 0 0 0 0 0 0 0 0 0 0 0 0 0 0 0 0 0 0 0 0 0 0 0 0 0 0 0 0 0 0 0 6 51 152 255 255 255 255 255 255 255 125 86 87 95 100 110 117 116 114 108 110 118 119 112 110 124 131 129 117 110 125 159 196 196 211 241 247 248 255 222 143 122 130 122 115 100 95 98 95 90 95 106 106 120 69 40 210 177 122 138 144 166 168 170 195 182 85 46 203 255 62 0 100 124 109 112 119 111 107 114 108 92 255 255 248 193 181 178 181 193 198 196 196 204 213 222 195 9 0 46 131 114 117 121 115 110 113 115 111 106 111 127 61 0 0 160 249 132 122 130 129 118 101 102 117 149 64 0 0 106 255 255 118 102 0 0 173 255 100 72 71 64 91 119 15 0 0 135 255 255 100 86 119 118 99 109 107 90 103 82 104 255 255 158 153 150 153 157 162 153 144 158 157 164 182 56 0 12 111 93 89 84 79 70 77 8 0 0 42 34 34 62 107 143 115 127 154 33 0 0 32 91 68 54 45 38 34 48 61 69 66 59 65 70 73 74 73 69 71 78 140 146 0 0 74 64 78 59 27 82 103 60 54 67 77 88 80 82 170 193 141 92 62 87 172 239 193 123 84 49 104 241 255 169 44 0 4 12 41 114 229 255 34 0 0 0 0 0 0 0 0 0 0 0 0 0 0 0 0 0 0 0 0 0 0 0 0 0 0 0 0 0 
0 0 0 0 0 0 0 0 0 0 0 0 0 0 0 0 0 0 0 0 0 0 0 0 0 0 0 0 0 0 0 0 0 0 0 0 0 0 0 0 0 0 0 0 0 0 0 0 0 0 0 0 0 0 0 0 0 0 0 0 0 0 0 0 0 16 102 220 255 255 255 255 255 255 247 127 93 98 101 101 101 107 126 120 107 105 102 107 113 116 116 135 147 137 117 112 138 174 205 233 252 255 255 255 255 255 255 208 169 150 136 122 115 114 121 112 103 109 119 106 107 94 4 116 202 139 152 155 171 171 156 186 184 94 57 204 244 33 0 100 123 108 111 113 106 109 115 108 79 241 255 255 191 195 183 183 180 206 211 208 210 210 205 185 27 0 21 134 124 120 118 118 115 113 113 106 110 113 108 108 0 0 59 255 196 109 113 107 97 85 87 113 150 31 0 0 183 255 248 93 85 0 0 246 255 114 99 106 87 103 123 0 0 0 219 255 227 84 94 110 110 99 91 98 90 91 79 81 255 255 166 141 146 153 159 155 148 147 157 155 164 188 88 0 0 100 91 91 88 78 68 70 43 0 0 36 32 29 45 62 82 98 120 71 0 0 0 47 81 59 47 41 41 45 55 69 61 58 56 64 72 68 71 70 72 73 70 91 131 29 0 59 68 68 74 26 27 56 41 28 40 65 81 74 67 145 195 129 88 101 156 182 128 55 68 136 169 195 195 104 0 0 0 0 64 167 245 255 255 0 0 0 0 0 0 0 0 0 0 0 0 0 0 0 0 0 0 0 0 0 0 0 0 0 0 0 0 0 0 
0 0 0 0 0 0 0 0 0 0 0 0 0 0 0 0 0 0 0 0 0 0 0 0 0 0 0 0 0 0 0 0 0 0 0 0 0 0 0 0 0 0 0 0 0 0 0 0 0 0 0 0 0 0 0 0 0 0 0 0 0 0 0 0 54 213 255 255 255 255 255 255 218 119 80 91 109 112 105 105 105 107 122 111 100 115 124 117 108 111 121 142 149 124 124 146 179 226 248 253 255 255 255 255 255 255 255 255 255 236 179 136 124 128 138 131 131 144 137 107 93 105 17 34 207 160 139 163 176 180 167 184 198 107 66 196 248 52 0 97 114 107 110 111 109 111 116 107 77 212 255 255 202 208 195 181 193 220 218 197 194 212 204 184 33 0 7 137 129 121 120 122 116 111 111 108 113 118 100 111 25 0 0 196 255 119 81 82 75 72 77 106 144 0 0 0 249 255 185 93 81 0 0 255 255 113 113 130 104 92 101 0 0 0 255 255 175 79 95 96 108 108 91 94 96 91 90 84 223 255 194 142 149 153 158 158 154 150 154 156 165 192 118 0 0 82 94 94 84 71 63 64 67 0 0 25 37 29 35 44 64 89 86 16 0 0 0 38 58 49 45 49 52 65 68 64 58 56 63 69 78 74 74 71 69 63 51 51 105 106 6 28 67 61 78 58 9 20 40 41 37 53 71 76 69 113 161 106 86 107 98 28 0 0 72 115 61 11 0 0 0 0 0 0 185 255 255 255 224 0 0 0 0 0 0 0 0 0 0 0 0 0 0 0 0 0 0 0 0 0 0 0 0 0 0 0 0 0 0 
0 0 0 0 0 0 0 0 0 0 0 0 0 0 0 0 0 0 0 0 0 0 0 0 0 0 0 0 0 0 0 0 0 0 0 0 0 0 0 0 0 0 0 0 0 0 0 0 0 0 0 0 0 0 0 0 0 0 0 0 0 0 34 155 255 255 255 255 255 255 187 91 74 84 98 102 106 102 97 109 111 119 122 111 109 127 136 137 129 124 128 131 136 127 161 205 210 253 255 255 255 255 255 255 255 255 255 255 255 255 237 148 99 111 126 128 139 154 143 107 92 117 67 15 180 184 118 151 166 168 166 187 206 130 62 188 248 53 0 98 114 109 112 111 112 114 123 115 80 194 255 255 185 188 191 183 211 230 206 179 193 210 216 213 61 0 0 133 130 117 117 117 109 107 112 113 115 117 106 110 98 0 0 94 255 188 87 92 97 94 105 130 153 0 0 0 255 255 139 94 79 0 0 255 255 89 96 107 94 89 87 0 0 0 255 255 143 87 98 93 111 111 96 94 98 87 92 78 199 255 236 145 151 155 159 160 160 150 153 159 164 188 131 0 0 70 100 93 74 60 58 56 73 0 0 7 40 29 32 43 48 60 78 41 0 0 1 45 46 47 47 55 60 71 75 63 59 65 77 79 72 65 55 46 40 43 34 39 87 145 71 3 50 63 68 71 28 22 60 67 59 54 45 47 49 81 147 106 42 0 0 0 0 0 9 0 0 0 0 0 0 0 0 148 255 249 219 199 85 0 0 0 0 0 0 0 0 0 0 0 0 0 0 0 0 0 0 0 0 0 0 0 0 0 0 0 0 0 0 
0 0 0 0 0 0 0 0 0 0 0 0 0 0 0 0 0 0 0 0 0 0 0 0 0 0 0 0 0 0 0 0 0 0 0 0 0 0 0 0 0 0 0 0 0 0 0 0 0 0 0 0 0 0 0 0 0 0 0 0 6 113 255 255 255 255 255 255 124 86 82 86 103 106 97 99 105 107 103 115 129 149 131 111 111 116 130 150 156 147 135 140 154 158 183 227 241 255 255 255 255 255 255 255 255 255 255 255 255 255 197 80 31 88 113 108 116 122 105 80 84 113 90 4 133 210 127 145 154 156 170 191 216 146 53 186 249 53 1 97 117 114 116 111 107 114 128 128 88 160 255 255 180 175 173 187 206 218 189 166 196 212 218 228 99 0 0 122 129 117 111 111 109 113 113 113 112 111 110 106 120 32 0 0 201 255 136 112 128 122 126 159 162 0 0 0 255 255 136 115 90 0 0 255 255 81 84 91 87 107 68 0 0 60 255 255 121 91 107 102 106 105 100 94 89 82 89 67 176 255 255 146 154 158 159 155 149 144 155 164 162 181 144 0 0 40 83 66 47 44 50 53 72 15 0 0 35 23 30 45 42 43 76 75 0 0 36 55 53 57 58 59 64 70 72 66 64 66 71 69 49 34 26 20 31 43 45 51 69 127 125 18 19 61 56 59 56 41 71 85 70 55 50 43 25 38 96 82 4 0 0 0 24 46 9 0 0 0 0 0 0 0 88 255 255 162 179 153 17 0 0 0 0 0 0 0 0 0 0 0 0 0 0 0 0 0 0 0 0 0 0 0 0 0 0 0 0 0 0 
0 0 0 0 0 0 0 0 0 0 0 0 0 0 0 0 0 0 0 0 0 0 0 0 0 0 0 0 0 0 0 0 0 0 0 0 0 0 0 0 0 0 0 0 0 0 0 0 0 0 0 0 0 0 0 0 0 0 0 62 216 255 255 255 255 255 146 80 86 98 103 99 106 108 105 114 116 115 110 118 128 140 122 110 141 136 146 153 144 142 134 153 175 178 202 244 255 255 255 255 255 255 255 255 255 255 255 239 214 202 128 0 0 66 109 104 104 101 85 67 77 102 102 10 88 223 153 149 151 151 169 199 224 137 53 198 255 80 10 96 113 111 117 114 110 116 124 122 87 121 255 255 206 185 179 203 195 189 183 176 207 218 219 226 150 0 0 116 134 117 109 110 110 111 109 103 107 111 113 100 108 104 0 0 105 255 196 106 132 130 114 136 138 0 0 0 255 255 140 127 101 0 0 255 255 87 92 107 96 105 12 0 0 140 255 255 90 79 94 91 86 87 82 72 65 66 71 41 132 255 255 152 161 161 156 154 149 150 158 164 158 175 165 0 0 75 136 126 125 115 105 96 74 39 0 0 30 22 29 42 40 40 56 61 17 13 52 51 60 66 66 68 73 73 72 66 49 41 43 34 20 21 32 35 51 61 64 60 59 88 135 75 10 49 58 50 66 61 51 67 62 55 59 55 35 20 22 0 0 0 31 70 83 78 51 23 0 0 0 0 0 33 185 255 255 217 255 215 28 0 0 0 0 0 0 0 0 0 0 0 0 0 0 0 0 0 0 0 0 0 0 0 0 0 0 0 0 0 0 
0 0 0 0 0 0 0 0 0 0 0 0 0 0 0 0 0 0 0 0 0 0 0 0 0 0 0 0 0 0 0 0 0 0 0 0 0 0 0 0 0 0 0 0 0 0 0 0 0 0 0 0 0 0 0 0 0 40 192 255 255 255 255 255 180 83 76 95 107 103 99 100 107 107 110 124 128 118 111 123 127 116 108 123 167 153 148 161 143 121 122 146 155 155 242 255 255 255 255 255 255 255 255 255 255 255 255 239 229 207 93 0 0 43 125 112 109 112 100 85 91 102 112 26 46 208 167 132 142 148 173 209 241 147 53 191 255 82 0 86 117 116 112 115 114 114 112 106 83 93 255 255 236 189 188 212 212 190 192 188 209 219 212 225 195 0 0 94 142 118 106 108 110 107 111 104 110 116 110 98 103 125 19 0 3 221 255 125 128 133 109 123 125 0 0 0 255 255 139 112 98 0 0 255 255 81 86 116 121 125 0 0 0 221 255 207 69 67 73 81 78 85 92 100 110 122 135 113 179 255 255 163 153 150 148 157 156 155 163 162 159 173 174 102 106 255 255 255 255 255 232 153 69 48 0 0 18 25 28 38 40 40 41 44 38 33 42 53 62 65 66 66 61 57 53 38 18 12 23 28 26 33 50 58 62 61 61 62 63 68 108 122 38 17 51 52 56 62 45 41 46 50 50 45 35 24 17 0 0 0 0 0 0 0 0 0 0 0 0 0 0 66 251 255 255 233 234 239 14 0 0 0 0 0 0 0 0 0 0 0 0 0 0 0 0 0 0 0 0 0 0 0 0 0 0 0 0 0 0 
0 0 0 0 0 0 0 0 0 0 0 0 0 0 0 0 0 0 0 0 0 0 0 0 0 0 0 0 0 0 0 0 0 0 0 0 0 0 0 0 0 0 0 0 0 0 0 0 0 0 0 0 0 0 0 22 157 255 255 255 255 255 230 107 95 100 108 118 113 98 103 117 108 108 127 123 113 111 121 138 133 124 154 166 153 130 117 144 149 138 130 148 165 177 255 255 242 255 255 255 255 255 255 255 255 255 255 246 233 182 47 0 0 36 130 116 107 109 100 89 94 101 117 39 21 189 178 115 135 159 187 220 245 145 47 190 255 56 0 81 125 118 103 106 108 105 109 109 98 89 255 255 255 180 193 197 209 197 201 199 206 211 198 223 191 0 0 57 144 116 109 113 104 102 116 103 104 105 95 93 98 109 73 0 0 128 255 186 113 126 104 134 146 0 0 0 255 255 131 91 99 0 0 255 255 71 69 109 123 119 0 0 0 255 255 255 236 255 255 255 255 255 255 255 255 255 255 255 255 255 255 165 145 154 166 171 167 159 169 171 165 171 169 153 201 255 255 255 255 255 245 137 18 36 18 0 0 26 26 36 41 42 40 43 44 35 33 37 41 36 35 33 26 28 31 16 8 23 36 44 49 52 58 59 61 59 58 60 63 63 78 128 95 14 31 58 55 56 66 54 38 35 36 30 27 29 31 24 10 0 0 0 0 0 0 0 0 0 0 0 12 149 255 255 221 178 168 170 0 0 0 0 0 0 0 0 0 0 0 0 0 0 0 0 0 0 0 0 0 0 0 0 0 0 0 0 0 0 0 
0 0 0 0 0 0 0 0 0 0 0 0 0 0 0 0 0 0 0 0 0 0 0 0 0 0 0 0 0 0 0 0 0 0 0 0 0 0 0 0 0 0 0 0 0 0 0 0 0 0 0 0 0 2 113 255 255 255 255 255 254 131 89 98 117 114 110 120 120 109 120 126 118 118 146 138 117 121 117 123 121 137 185 184 130 119 148 175 166 139 148 174 205 255 255 255 188 240 246 255 255 255 255 255 255 246 247 226 204 129 4 0 0 28 102 99 97 109 98 87 93 95 110 48 16 180 196 116 150 178 184 216 232 133 41 191 249 50 0 84 119 105 95 98 105 104 112 118 110 83 239 255 255 180 199 195 186 184 182 189 191 202 209 234 208 0 0 41 136 103 96 108 107 104 113 94 88 93 89 103 107 114 129 18 0 19 221 249 122 105 99 132 143 0 0 0 255 255 133 87 103 0 0 218 255 84 71 96 108 85 0 0 73 255 255 255 255 255 255 255 255 255 255 255 255 255 255 255 255 255 255 165 155 168 188 184 176 169 177 176 164 166 177 171 177 191 192 178 162 163 189 117 0 14 37 0 0 25 24 36 42 41 39 42 49 52 31 0 0 0 4 6 11 25 31 21 22 45 51 52 53 55 56 54 55 56 57 61 64 64 62 96 126 60 29 65 75 73 71 73 53 32 25 24 26 26 24 14 0 0 0 0 0 23 26 2 8 0 0 0 91 245 255 202 185 212 195 105 0 0 0 0 0 0 0 0 0 0 0 0 0 0 0 0 0 0 0 0 0 0 0 0 0 0 0 0 0 0 0 
0 0 0 0 0 0 0 0 0 0 0 0 0 0 0 0 0 0 0 0 0 0 0 0 0 0 0 0 0 0 0 0 0 0 0 0 0 0 0 0 0 0 0 0 0 0 0 0 0 0 0 0 68 235 255 255 255 255 255 128 86 88 106 115 117 108 108 116 117 120 133 127 119 120 137 144 138 137 117 111 124 167 195 155 113 129 190 229 215 168 167 176 234 255 255 229 178 243 206 255 255 247 230 255 252 240 228 215 182 91 0 0 0 40 95 101 99 103 100 93 93 90 105 61 0 150 203 132 160 182 171 206 227 141 60 204 255 69 6 89 115 101 91 93 94 90 93 93 88 66 163 255 255 183 175 177 187 201 187 190 194 211 234 241 230 77 0 72 167 159 161 176 177 155 145 161 201 249 255 255 255 255 255 255 0 0 133 255 197 103 104 133 135 0 0 0 255 255 140 85 117 0 0 158 255 100 83 104 126 69 0 0 232 255 255 255 255 255 255 255 255 255 255 245 227 221 222 204 191 207 190 162 179 196 189 183 177 176 181 189 179 174 186 182 166 167 158 148 150 154 170 141 0 0 44 0 0 15 28 38 40 40 40 41 45 46 23 0 0 11 22 25 32 48 47 34 36 50 51 50 54 53 48 50 59 59 57 61 64 67 58 63 103 110 57 57 87 86 81 90 97 76 45 24 23 24 15 3 0 0 0 0 45 53 23 6 0 0 0 82 220 255 223 188 255 255 198 28 0 0 0 0 0 0 0 0 0 0 0 0 0 0 0 0 0 0 0 0 0 0 0 0 0 0 0 0 0 0 0 
0 0 0 0 0 0 0 0 0 0 0 0 0 0 0 0 0 0 0 0 0 0 0 0 0 0 0 0 0 0 0 0 0 0 0 0 0 0 0 0 0 0 0 0 0 0 0 0 0 0 4 148 255 255 255 255 255 142 81 85 96 106 124 127 108 105 118 128 127 127 125 110 106 113 123 145 134 117 114 134 148 196 202 127 110 158 192 200 167 117 123 152 233 255 218 201 229 255 236 248 242 138 180 255 255 230 208 206 186 68 0 0 0 66 103 110 103 99 96 84 84 92 110 76 0 118 205 144 160 165 157 211 243 143 67 208 252 66 5 91 117 106 104 114 122 131 141 157 162 165 225 255 255 198 172 178 193 213 202 191 209 213 230 220 221 143 37 160 255 255 255 255 255 255 255 255 255 255 255 255 255 255 255 255 134 0 11 222 253 116 98 139 147 0 0 0 255 255 144 74 115 11 0 99 255 112 74 130 156 36 0 0 255 255 255 172 194 193 182 186 210 210 207 195 195 201 187 187 193 205 197 172 194 209 186 191 187 182 197 208 205 196 184 178 169 177 170 157 156 158 150 149 12 0 38 0 0 0 27 38 40 35 42 47 40 29 17 23 46 56 48 44 46 52 51 38 35 41 40 42 48 50 48 50 61 64 59 59 57 57 55 55 72 108 100 70 83 87 96 109 100 76 79 72 40 14 0 0 0 0 7 41 49 19 0 0 0 6 99 236 255 236 176 243 255 213 121 0 0 0 0 0 0 0 0 0 0 0 0 0 0 0 0 0 0 0 0 0 0 0 0 0 0 0 0 0 0 0 0 
0 0 0 0 0 0 0 0 0 0 0 0 0 0 0 0 0 0 0 0 0 0 0 0 0 0 0 0 0 0 0 0 0 0 0 0 0 0 0 0 0 0 0 0 0 0 0 0 0 42 233 255 255 255 255 189 89 90 113 112 109 115 129 132 117 121 129 138 148 132 114 102 113 128 128 142 129 91 104 148 154 163 166 121 108 159 159 132 103 87 100 146 235 255 168 176 224 210 213 202 185 149 224 255 255 192 168 170 137 5 0 0 43 65 84 113 100 100 95 81 82 96 113 83 0 109 228 147 150 149 151 206 238 135 61 183 197 22 0 87 108 128 227 255 255 255 255 255 255 255 255 255 255 213 196 217 211 213 199 196 216 207 195 188 209 183 129 250 255 255 255 255 255 255 255 255 255 255 255 255 255 255 255 255 117 0 0 145 253 177 100 135 151 0 0 0 255 255 153 79 125 51 0 35 255 168 96 158 149 0 0 0 255 255 255 126 177 180 179 202 216 215 217 203 189 202 191 188 210 207 202 189 197 201 182 190 187 188 212 208 196 195 191 189 181 177 168 159 159 154 138 145 75 0 0 17 0 0 26 34 40 39 42 43 33 28 36 54 60 53 50 49 48 54 45 31 39 42 39 45 51 45 50 54 59 56 52 54 55 55 54 59 68 75 87 86 92 103 110 105 65 34 71 119 112 70 14 0 0 13 40 30 5 0 0 9 54 132 248 255 240 194 219 255 255 156 0 0 0 0 0 0 0 0 0 0 0 0 0 0 0 0 0 0 0 0 0 0 0 0 0 0 0 0 0 0 0 0 0 
0 0 0 0 0 0 0 0 0 0 0 0 0 0 0 0 0 0 0 0 0 0 0 0 0 0 0 0 0 0 0 0 0 0 0 0 0 0 0 0 0 0 0 0 0 0 0 2 95 255 255 255 255 255 110 81 106 117 130 123 115 122 125 123 120 140 141 124 144 121 102 121 140 163 148 134 146 129 131 139 147 153 132 123 129 145 117 74 106 150 148 169 222 231 168 159 173 169 213 208 167 184 255 255 198 146 135 127 75 0 0 0 43 50 74 118 102 104 96 85 91 102 112 83 0 93 229 145 132 136 150 205 222 132 68 179 195 41 20 85 91 184 255 255 255 255 255 255 255 255 255 255 255 194 199 217 217 210 201 209 220 211 193 209 225 208 187 255 255 255 255 255 255 255 255 255 255 255 247 219 214 255 255 188 138 0 0 40 228 254 123 105 135 7 0 0 247 255 151 72 132 82 0 0 255 231 122 146 109 0 0 27 255 255 255 131 175 201 199 208 208 203 215 197 181 191 198 206 215 202 196 210 213 217 211 201 185 199 218 199 179 190 195 181 177 180 169 163 170 163 146 145 115 0 0 34 0 0 25 34 39 32 28 32 24 36 46 48 48 48 49 45 49 59 56 42 48 47 43 50 57 51 52 57 58 54 50 51 51 57 60 65 72 60 53 61 90 109 111 99 81 93 124 131 136 154 126 93 85 95 78 58 57 77 109 158 221 255 255 243 177 247 255 255 210 96 0 0 0 0 0 0 0 0 0 0 0 0 0 0 0 0 0 0 0 0 0 0 0 0 0 0 0 0 0 0 0 0 0 
0 0 0 0 0 0 0 0 0 0 0 0 0 0 0 0 0 0 0 0 0 0 0 0 0 0 0 0 0 0 0 0 0 0 0 0 0 0 0 0 0 0 0 0 0 0 4 133 255 255 255 255 189 95 90 110 118 114 120 108 104 126 123 120 118 118 133 132 140 118 103 156 181 175 144 115 144 152 150 152 138 127 114 119 125 125 119 95 151 186 127 123 179 195 167 140 105 137 177 150 138 168 228 202 130 107 84 67 27 0 0 8 39 40 66 113 104 106 98 87 92 100 109 80 0 83 236 145 131 153 170 214 235 149 76 184 213 75 44 85 89 237 255 255 255 255 212 243 255 255 250 207 190 195 209 207 193 190 190 209 208 189 181 220 242 211 202 246 255 228 213 235 229 205 204 192 198 222 222 209 218 238 242 196 162 64 0 0 145 255 164 68 120 47 0 0 206 255 158 62 127 97 0 0 255 255 93 98 79 0 0 172 255 255 227 181 208 221 228 236 251 228 209 217 217 205 203 215 213 197 209 226 214 217 232 211 196 214 207 187 187 207 201 175 174 191 180 161 167 162 150 148 145 0 0 41 0 0 17 33 22 18 22 33 38 46 44 38 40 44 81 86 58 49 51 48 46 49 43 51 57 52 51 60 55 54 59 57 55 63 62 60 62 51 52 48 57 89 108 111 121 152 166 155 137 131 137 176 188 164 158 183 204 225 255 255 255 253 232 231 233 255 255 176 130 0 0 0 0 0 0 0 0 0 0 0 0 0 0 0 0 0 0 0 0 0 0 0 0 0 0 0 0 0 0 0 0 0 0 
0 0 0 0 0 0 0 0 0 0 0 0 0 0 0 0 0 0 0 0 0 0 0 0 0 0 0 0 0 0 0 0 0 0 0 0 0 0 0 0 0 0 0 0 0 8 162 255 255 255 255 139 91 96 101 105 113 111 125 120 125 144 134 143 153 142 139 137 137 132 114 149 178 162 121 105 137 148 145 160 128 100 97 112 132 130 120 134 175 185 112 102 147 167 154 90 73 132 141 68 83 124 145 132 97 96 54 22 12 0 0 11 26 56 88 110 106 104 93 80 83 93 104 75 0 83 240 148 135 169 183 213 243 162 81 203 229 61 27 86 89 231 255 255 235 206 192 203 222 199 187 185 188 206 207 198 190 194 197 220 214 192 183 214 226 197 203 216 210 203 219 243 219 192 197 202 211 212 214 208 185 189 199 170 144 161 0 0 16 198 213 95 131 105 0 0 173 255 193 76 123 110 0 0 255 255 84 77 46 0 0 255 255 255 191 217 236 238 230 233 246 237 213 213 204 208 216 213 199 185 219 232 205 210 230 194 181 223 204 189 213 224 208 194 201 203 183 169 178 170 154 146 143 14 0 15 0 0 0 30 16 23 37 46 50 47 45 45 52 40 83 111 46 34 52 44 35 52 55 47 52 46 43 54 52 46 55 62 61 65 55 46 46 51 57 55 45 48 69 113 135 140 133 145 133 108 117 131 129 130 164 201 215 212 226 239 229 209 198 225 244 204 152 99 0 0 0 0 0 0 0 0 0 0 0 0 0 0 0 0 0 0 0 0 0 0 0 0 0 0 0 0 0 0 0 0 0 0 0 
0 0 0 0 0 0 0 0 0 0 0 0 0 0 0 0 0 0 0 0 0 0 0 0 0 0 0 0 0 0 0 0 0 0 0 0 0 0 0 0 0 0 0 0 8 162 255 255 255 255 90 97 120 107 110 131 128 129 153 146 144 165 161 174 195 185 158 136 128 127 127 125 145 156 121 106 143 161 148 138 114 103 149 159 149 141 113 110 132 125 81 102 147 135 119 75 69 141 145 94 110 141 90 81 76 75 46 17 28 0 0 4 31 71 99 104 103 96 83 73 81 94 108 77 0 84 244 149 137 166 172 205 240 161 77 217 237 38 28 94 83 224 255 255 227 199 198 194 191 189 189 202 194 203 188 189 201 216 225 225 228 201 197 222 221 203 211 209 203 210 215 209 197 182 182 196 199 204 223 228 192 191 202 191 186 232 120 0 0 139 248 178 139 134 0 0 130 255 236 90 115 119 0 0 221 255 78 97 26 0 0 255 255 255 189 237 238 223 212 212 214 214 188 189 199 205 229 245 227 212 235 255 215 219 219 199 203 234 228 216 231 218 197 195 201 199 195 187 173 167 163 157 143 63 0 0 18 0 0 15 19 37 50 40 43 44 48 115 156 93 64 53 0 12 72 56 42 46 50 35 45 50 49 54 50 42 50 59 56 56 44 42 54 57 56 56 56 51 44 64 96 112 118 126 111 104 149 123 86 132 168 146 147 134 169 206 192 214 195 132 149 145 79 0 0 0 0 0 0 0 0 0 0 0 0 0 0 0 0 0 0 0 0 0 0 0 0 0 0 0 0 0 0 0 0 0 0 0 0 
0 0 0 0 0 0 0 0 0 0 0 0 0 0 0 0 0 0 0 0 0 0 0 0 0 0 0 0 0 0 0 0 0 0 0 0 0 0 0 0 0 0 0 6 155 255 255 255 248 86 86 103 116 117 122 142 154 161 163 144 123 157 189 199 179 133 118 122 131 133 144 126 140 156 115 106 148 152 132 123 101 111 142 141 128 131 116 101 126 95 83 108 111 95 90 90 74 98 103 96 99 84 54 65 77 25 0 2 10 2 3 12 45 82 97 101 98 88 78 74 82 93 108 70 0 83 245 154 144 165 162 203 237 161 78 205 224 26 28 96 78 243 255 255 226 182 197 204 208 215 220 214 199 193 187 208 206 205 216 204 201 197 207 219 215 208 204 199 220 219 191 192 195 189 198 211 197 178 209 228 191 202 234 232 225 235 208 0 0 37 235 244 140 134 0 0 75 255 255 86 110 130 0 0 173 255 107 121 0 0 0 255 255 255 195 228 212 221 227 221 234 234 191 190 224 226 226 221 227 221 217 232 208 211 225 212 223 244 235 203 209 211 194 187 195 204 195 189 165 161 162 163 157 126 0 0 29 0 0 19 37 36 38 35 50 72 66 106 147 81 43 58 60 90 88 55 48 45 41 34 40 50 52 58 51 49 61 65 53 50 56 65 69 64 57 58 60 65 66 47 36 61 98 111 94 104 133 81 61 148 178 131 131 137 157 195 168 173 135 68 123 108 0 0 0 0 0 0 0 0 0 0 0 0 0 0 0 0 0 0 0 0 0 0 0 0 0 0 0 0 0 0 0 0 0 0 0 0 0 
0 0 0 0 0 0 0 0 0 0 0 0 0 0 0 0 0 0 0 0 0 0 0 0 0 0 0 0 0 0 0 0 0 0 0 0 0 0 0 0 0 0 6 142 255 255 255 243 78 98 112 123 119 113 116 125 161 162 153 146 131 174 215 187 131 91 95 109 123 138 140 132 140 134 95 117 153 141 114 131 118 105 103 95 90 93 102 107 119 102 98 120 97 84 105 101 82 78 92 88 77 34 16 60 76 48 31 18 14 29 23 41 75 86 97 104 95 85 75 77 87 94 108 64 0 84 247 165 151 163 159 211 246 165 88 201 231 34 22 96 79 231 255 255 216 185 216 217 209 218 223 213 194 182 194 223 219 199 213 200 198 221 223 209 210 220 208 203 230 213 184 193 198 208 226 218 204 202 236 241 210 203 218 230 212 189 218 91 0 0 151 255 179 131 0 0 14 255 255 101 91 145 0 0 136 255 176 132 0 0 68 255 255 255 197 227 227 239 243 228 229 222 198 210 235 227 218 205 202 208 227 218 211 211 232 231 220 219 214 211 206 213 225 212 206 217 196 178 168 180 197 180 156 152 34 0 6 0 0 27 44 31 31 58 94 103 80 49 27 0 0 44 158 200 77 18 38 43 42 47 44 45 46 51 53 58 65 61 48 57 73 79 74 62 59 68 69 63 69 65 45 29 48 71 68 90 116 89 83 120 136 109 125 133 129 138 138 152 124 38 68 0 0 0 0 0 0 0 0 0 0 0 0 0 0 0 0 0 0 0 0 0 0 0 0 0 0 0 0 0 0 0 0 0 0 0 0 0 0 
0 0 0 0 0 0 0 0 0 0 0 0 0 0 0 0 0 0 0 0 0 0 0 0 0 0 0 0 0 0 0 0 0 0 0 0 0 0 0 0 0 0 91 255 255 255 255 84 98 105 115 128 117 117 127 144 178 169 141 138 146 171 173 108 68 96 130 134 131 137 136 136 132 119 124 156 149 121 112 113 102 95 103 87 85 87 107 116 94 80 102 139 101 77 116 132 112 83 79 90 67 51 79 112 84 104 104 46 42 55 48 76 90 91 95 97 89 84 75 77 97 100 111 50 0 104 255 173 162 164 165 223 255 178 100 214 234 37 12 93 81 226 255 255 182 176 204 194 185 193 215 211 203 186 191 226 236 214 211 197 203 214 202 195 212 218 204 218 234 220 197 194 192 220 243 222 221 231 255 247 202 209 224 225 199 179 222 211 0 0 31 228 248 167 11 0 0 255 255 118 66 140 31 0 82 255 220 94 0 0 225 255 255 255 232 226 217 232 226 194 176 197 209 222 228 233 228 220 213 228 244 249 247 234 241 226 202 214 243 236 222 235 237 212 206 232 216 188 186 187 199 195 167 166 78 0 0 0 0 9 32 24 31 88 135 82 27 25 43 40 38 34 80 90 0 0 43 44 38 47 44 41 49 55 61 64 59 53 55 73 80 70 59 58 58 61 64 61 62 65 71 69 49 31 32 57 86 107 92 85 136 125 107 124 136 116 110 106 60 0 0 0 0 0 0 0 0 0 0 0 0 0 0 0 0 0 0 0 0 0 0 0 0 0 0 0 0 0 0 0 0 0 0 0 0 0 0 0 0 
0 0 0 0 0 0 0 0 0 0 0 0 0 0 0 0 0 0 0 0 0 0 0 0 0 0 0 0 0 0 0 0 0 0 0 0 0 0 0 0 0 36 255 255 255 255 87 97 118 115 131 130 112 123 142 168 188 157 128 120 114 125 95 61 81 119 132 130 135 128 113 133 149 131 125 132 110 92 113 106 82 98 99 78 91 96 97 112 95 82 98 112 99 79 88 116 119 90 83 119 114 93 111 121 95 75 65 50 95 82 72 87 92 92 94 93 88 81 76 82 103 104 112 28 0 129 255 169 164 163 172 220 255 167 75 202 221 24 7 93 85 255 255 255 218 204 212 195 196 214 232 211 203 199 201 226 217 191 196 207 196 194 194 189 208 215 202 214 227 222 214 220 223 239 255 217 209 236 235 221 165 192 228 213 202 215 230 245 98 0 0 149 255 229 57 0 0 239 255 146 67 130 74 0 6 255 255 44 0 0 255 255 255 229 219 192 191 199 196 179 157 165 196 220 211 203 190 199 236 239 237 230 224 226 228 202 194 225 255 230 210 226 229 222 219 254 242 198 192 204 198 194 174 168 114 0 0 22 0 0 27 23 33 74 97 40 4 46 86 76 40 38 32 0 0 0 51 47 35 41 41 33 50 64 67 61 58 61 68 82 72 54 54 58 57 56 62 66 70 74 81 95 103 83 54 39 37 56 29 19 99 83 21 52 64 52 56 73 0 0 0 0 0 0 0 0 0 0 0 0 0 0 0 0 0 0 0 0 0 0 0 0 0 0 0 0 0 0 0 0 0 0 0 0 0 0 0 0 0 
0 0 0 0 0 0 0 0 0 0 0 0 0 0 0 0 0 0 0 0 0 0 0 0 0 0 0 0 0 0 0 0 0 0 0 0 0 0 0 0 12 218 255 255 255 126 104 114 115 109 131 146 128 139 157 167 169 137 117 111 101 118 103 105 141 155 138 121 121 120 114 135 143 114 110 107 88 78 109 102 71 96 94 86 103 104 101 101 93 100 100 94 110 106 98 123 110 72 89 118 146 126 123 126 118 84 64 63 73 83 93 98 104 97 96 97 92 82 77 88 103 104 106 1 0 162 255 156 155 160 163 204 248 170 69 197 215 25 16 92 79 255 255 255 238 210 217 217 215 229 236 214 194 201 209 225 211 190 178 205 215 222 227 211 205 201 206 221 213 203 209 224 232 241 248 207 193 213 204 203 194 214 223 190 197 214 221 255 255 0 0 32 239 255 106 0 0 195 255 184 114 159 107 0 0 255 255 0 0 0 255 255 255 154 164 151 187 194 187 175 160 172 211 219 203 195 195 221 255 253 223 217 213 195 225 215 196 207 241 221 162 201 255 243 230 247 228 186 197 219 199 192 194 170 141 0 0 28 0 0 44 51 38 61 78 82 87 66 56 36 0 0 24 34 35 32 45 44 35 36 40 44 63 70 67 65 69 77 78 69 61 55 64 65 60 56 68 78 81 88 98 102 109 112 113 101 83 77 48 36 79 52 21 75 97 128 125 1 0 0 0 0 0 0 0 0 0 0 0 0 0 0 0 0 0 0 0 0 0 0 0 0 0 0 0 0 0 0 0 0 0 0 0 0 0 0 0 0 0 
0 0 0 0 0 0 0 0 0 0 0 0 0 0 0 0 0 0 0 0 0 0 0 0 0 0 0 0 0 0 0 0 0 0 0 0 0 0 0 0 122 255 255 255 210 105 128 143 124 106 123 140 129 147 170 169 151 124 112 113 112 138 130 116 135 157 161 136 116 124 121 124 129 116 108 104 113 119 128 113 68 76 83 86 104 107 108 117 114 106 87 105 138 124 108 120 94 69 103 115 111 87 77 97 77 65 77 92 73 75 87 95 97 99 97 99 92 86 86 93 99 104 104 0 0 202 255 152 158 168 171 198 238 173 80 222 225 24 8 89 78 255 255 255 197 187 195 202 213 228 224 212 209 217 217 219 223 205 187 235 233 221 233 216 201 206 208 217 217 210 213 228 225 220 227 213 210 214 200 199 217 228 220 208 203 208 224 230 250 82 0 0 165 255 189 0 0 138 255 233 125 145 125 0 0 255 255 0 0 0 255 255 255 153 185 184 209 212 204 201 202 206 249 255 255 255 255 255 255 255 227 228 237 208 225 241 228 234 246 217 152 203 255 243 222 227 217 207 230 236 207 196 213 184 152 14 0 3 0 0 59 101 35 22 58 85 80 8 0 0 0 10 58 54 45 41 43 50 42 39 40 53 71 71 71 73 68 69 67 56 59 66 74 70 66 65 75 82 84 94 104 107 107 103 110 134 145 154 153 158 177 186 228 255 255 162 0 0 0 0 0 0 0 0 0 0 0 0 0 0 0 0 0 0 0 0 0 0 0 0 0 0 0 0 0 0 0 0 0 0 0 0 0 0 0 0 0 0 0 
0 0 0 0 0 0 0 0 0 0 0 0 0 0 0 0 0 0 0 0 0 0 0 0 0 0 0 0 0 0 0 0 0 0 0 0 0 0 0 40 255 255 255 255 130 114 107 132 122 121 150 142 130 146 168 165 140 137 137 130 139 133 112 113 136 159 147 113 107 126 129 131 137 142 140 113 111 136 130 124 82 86 101 105 101 91 131 155 117 81 70 107 126 104 103 92 97 117 120 117 96 80 72 99 75 74 80 83 83 85 91 89 89 95 90 93 88 80 90 96 99 105 98 0 0 231 255 152 168 178 179 203 246 171 81 219 222 31 8 87 77 255 255 255 174 184 207 212 203 210 213 210 228 216 208 218 234 219 210 245 227 204 203 209 228 231 219 225 229 213 214 218 225 206 183 191 207 193 206 224 214 221 207 234 227 211 239 224 214 209 0 0 43 255 255 0 0 65 255 255 124 102 91 0 0 229 255 0 0 103 255 255 255 202 247 250 252 248 236 237 255 255 255 255 255 255 255 244 250 255 228 223 247 223 223 254 236 242 250 243 220 246 255 234 221 227 246 243 237 231 201 195 207 185 144 53 0 0 20 0 11 83 2 0 38 41 0 0 0 1 0 28 57 46 33 44 50 49 46 47 52 62 69 72 79 76 60 59 60 57 62 71 75 75 70 73 85 97 96 101 101 102 107 114 121 129 144 162 187 215 245 255 255 211 14 0 0 0 0 0 0 0 0 0 0 0 0 0 0 0 0 0 0 0 0 0 0 0 0 0 0 0 0 0 0 0 0 0 0 0 0 0 0 0 0 0 0 0 0 
0 0 0 0 0 0 0 0 0 0 0 0 0 0 0 0 0 0 0 0 0 0 0 0 0 0 0 0 0 0 0 0 0 0 0 0 0 0 8 208 255 255 255 151 137 134 107 127 117 120 160 140 149 153 163 168 137 144 154 134 141 119 107 140 151 159 142 120 112 115 133 132 132 136 138 111 87 100 114 102 68 81 117 134 115 87 117 139 96 59 78 113 109 95 97 80 100 136 113 90 79 100 108 103 92 82 87 83 89 91 99 93 88 94 87 81 75 68 79 89 92 97 70 0 10 248 238 156 170 161 158 204 255 173 79 207 193 12 14 92 81 248 255 255 202 210 237 245 214 196 211 214 221 198 192 219 230 213 218 237 232 208 207 206 216 219 229 234 222 209 210 214 243 218 176 210 242 215 214 224 216 221 211 223 234 214 247 246 237 255 166 0 0 183 255 19 0 0 255 255 113 76 82 0 0 200 255 0 0 255 255 255 231 226 251 255 255 234 228 255 255 255 255 255 227 224 230 199 203 223 216 215 217 187 198 250 229 219 217 235 238 233 243 250 255 239 214 177 161 170 168 169 192 154 112 86 0 0 28 0 0 30 0 0 50 57 4 0 0 11 29 47 54 50 40 44 43 40 49 59 64 70 71 75 78 67 51 57 68 68 70 74 77 77 73 75 92 101 100 105 111 116 119 123 129 139 157 167 186 219 222 168 14 0 0 0 0 0 0 0 0 0 0 0 0 0 0 0 0 0 0 0 0 0 0 0 0 0 0 0 0 0 0 0 0 0 0 0 0 0 0 0 0 0 0 0 0 0 0 
0 0 0 0 0 0 0 0 0 0 0 0 0 0 0 0 0 0 0 0 0 0 0 0 0 0 0 0 0 0 0 0 0 0 0 0 0 0 86 255 255 255 240 125 123 114 104 123 128 128 137 117 139 149 163 167 125 119 124 96 104 112 130 178 155 134 143 144 133 116 134 132 128 106 88 81 70 90 112 85 70 84 125 122 94 75 107 99 58 67 105 126 114 97 101 90 92 98 75 77 91 95 102 86 85 82 94 90 90 95 99 92 85 88 86 80 70 66 76 85 89 93 39 0 51 255 217 160 166 150 155 209 255 172 74 224 191 4 25 91 85 255 255 255 207 213 235 235 212 203 224 224 209 213 213 219 207 200 212 220 228 218 210 210 203 203 231 231 212 213 216 226 255 243 178 226 255 244 228 231 217 211 215 218 231 200 230 240 241 255 255 0 0 10 255 132 0 0 255 255 107 46 99 0 0 177 255 0 0 255 255 255 189 220 230 247 228 204 217 255 255 222 222 231 201 215 253 231 200 128 134 186 213 205 230 255 235 219 229 232 234 210 217 255 255 247 82 0 0 16 30 26 39 5 0 0 0 0 28 0 0 16 0 17 49 28 3 0 22 33 48 61 57 50 43 41 44 48 67 73 65 68 75 77 73 57 48 59 72 67 70 79 80 80 78 83 94 102 104 109 117 125 136 140 149 166 191 214 229 202 70 0 0 0 0 0 0 0 0 0 0 0 0 0 0 0 0 0 0 0 0 0 0 0 0 0 0 0 0 0 0 0 0 0 0 0 0 0 0 0 0 0 0 0 0 0 0 0 0 
0 0 0 0 0 0 0 0 0 0 0 0 0 0 0 0 0 0 0 0 0 0 0 0 0 0 0 0 0 0 0 0 0 0 0 0 0 16 255 255 255 255 140 130 115 114 123 122 120 126 129 108 131 148 163 149 103 98 106 91 99 123 152 168 133 98 112 116 117 112 127 144 122 68 55 87 90 106 131 112 81 92 129 110 78 79 114 116 91 93 111 127 125 97 85 81 86 84 80 91 104 93 84 77 95 107 99 91 91 98 98 89 84 90 91 80 70 76 85 90 94 98 26 0 108 255 197 176 177 163 163 216 255 156 55 225 192 14 43 92 80 255 255 255 196 219 223 198 208 222 234 227 211 218 234 220 208 217 219 216 218 212 200 203 193 220 249 235 215 227 230 232 255 239 166 199 227 214 209 233 214 188 211 237 225 200 222 234 233 234 253 94 0 0 206 220 0 0 255 255 119 69 132 0 0 93 204 0 0 255 255 255 166 234 226 229 227 231 222 191 150 129 147 115 47 51 94 77 19 0 0 112 217 255 255 255 248 230 249 223 231 228 228 255 255 197 0 0 0 0 0 0 0 0 0 0 0 0 41 0 0 13 34 44 42 16 25 28 40 53 54 44 37 43 47 53 64 70 78 71 59 68 76 70 62 48 49 65 73 70 67 73 78 81 89 96 106 113 114 120 127 136 150 160 174 207 237 239 157 0 0 0 0 0 0 0 0 0 0 0 0 0 0 0 0 0 0 0 0 0 0 0 0 0 0 0 0 0 0 0 0 0 0 0 0 0 0 0 0 0 0 0 0 0 0 0 0 0 0 
0 0 0 0 0 0 0 0 0 0 0 0 0 0 0 0 0 0 0 0 0 0 0 0 0 0 0 0 0 0 0 0 0 0 0 0 0 114 255 255 255 235 150 157 134 120 143 126 113 137 146 120 138 149 150 117 90 115 114 105 115 132 136 111 92 91 104 101 91 80 87 120 92 58 89 133 116 103 127 112 76 92 124 112 84 93 112 118 104 100 110 117 110 84 81 99 96 102 120 114 108 93 88 95 102 104 84 82 89 96 93 91 89 92 89 76 73 81 87 87 91 95 4 0 165 255 182 199 193 163 157 213 255 141 46 225 188 4 37 94 76 255 255 255 206 204 217 210 221 220 225 225 223 227 237 212 197 216 223 223 214 204 217 223 203 235 247 212 203 240 242 220 236 243 208 210 250 245 234 247 233 216 249 255 238 247 255 255 248 215 207 210 0 0 48 224 0 0 199 255 132 98 129 0 0 2 147 0 5 255 255 96 21 89 52 39 44 43 1 0 0 0 0 0 0 0 0 0 0 0 0 68 224 255 252 232 212 210 246 228 208 227 246 255 255 182 0 0 0 38 33 34 0 27 30 0 1 36 57 31 0 0 33 24 9 6 33 34 40 48 36 34 42 49 52 65 79 75 66 58 55 71 73 65 59 55 60 70 73 76 75 74 80 82 95 105 115 123 124 130 145 164 179 194 212 239 201 48 0 0 0 0 0 0 0 0 0 0 0 0 0 0 0 0 0 0 0 0 0 0 0 0 0 0 0 0 0 0 0 0 0 0 0 0 0 0 0 0 0 0 0 0 0 0 0 0 0 0 0 
0 0 0 0 0 0 0 0 0 0 0 0 0 0 0 0 0 0 0 0 0 0 0 0 0 0 0 0 0 0 0 0 0 0 0 0 18 255 255 255 255 195 150 131 116 104 127 105 113 141 135 119 124 133 114 92 99 122 95 93 108 122 113 85 81 88 111 111 92 75 81 100 91 100 121 121 102 87 103 88 69 97 109 92 84 91 101 103 89 82 92 102 92 81 93 113 108 101 114 106 91 88 90 106 101 89 80 84 91 91 90 89 89 84 77 66 70 86 87 87 94 88 0 0 212 255 174 205 183 136 148 229 255 132 55 228 188 3 30 91 77 255 255 255 210 187 209 245 241 220 220 218 231 236 239 210 182 212 229 228 211 214 237 228 216 239 232 193 199 255 255 220 219 238 237 238 255 255 248 240 222 214 242 229 205 193 177 173 112 69 89 132 1 0 0 150 7 0 123 255 169 109 120 34 0 0 91 0 106 255 239 0 0 0 0 0 0 0 0 0 0 0 0 0 0 0 0 0 0 0 34 136 255 255 227 181 165 177 210 234 218 253 255 252 255 230 0 0 133 192 179 171 117 137 148 90 75 95 68 52 0 0 0 5 2 17 26 27 32 37 32 44 57 67 68 71 81 68 56 60 62 65 62 61 64 63 68 80 82 85 90 92 102 106 112 114 116 128 142 158 172 185 206 224 212 105 0 0 0 0 0 0 0 0 0 0 0 0 0 0 0 0 0 0 0 0 0 0 0 0 0 0 0 0 0 0 0 0 0 0 0 0 0 0 0 0 0 0 0 0 0 0 0 0 0 0 0 0 0 
0 0 0 0 0 0 0 0 0 0 0 0 0 0 0 0 0 0 0 0 0 0 0 0 0 0 0 0 0 0 0 0 0 0 0 0 105 255 255 255 225 170 128 97 93 108 119 98 116 131 113 103 118 134 113 104 122 125 100 99 103 113 115 113 109 91 106 119 105 107 110 114 124 117 99 92 95 84 79 82 73 103 101 79 88 94 96 102 95 83 90 100 90 91 104 106 106 97 93 89 78 87 87 95 92 84 89 90 88 87 84 82 87 79 65 57 70 82 83 84 93 67 0 14 255 253 175 197 158 123 152 255 255 124 68 213 146 0 32 91 82 255 255 255 221 224 219 232 237 243 254 246 239 233 234 208 192 221 230 232 210 213 227 209 198 225 236 217 165 148 133 85 79 85 59 59 82 63 13 3 0 0 0 0 0 0 0 0 0 0 0 0 0 0 0 26 29 0 57 255 240 131 124 83 0 0 23 0 197 255 157 0 0 0 0 0 0 0 0 6 47 100 110 97 125 138 140 154 134 133 141 183 255 255 255 206 176 188 206 233 233 251 255 244 253 251 0 0 109 178 135 130 106 129 142 86 64 84 69 68 0 0 0 18 14 25 30 29 30 40 53 61 63 81 101 90 74 64 64 66 65 60 62 63 66 64 71 84 88 97 102 106 112 124 127 129 132 149 165 180 204 224 223 158 0 0 0 0 0 0 0 0 0 0 0 0 0 0 0 0 0 0 0 0 0 0 0 0 0 0 0 0 0 0 0 0 0 0 0 0 0 0 0 0 0 0 0 0 0 0 0 0 0 0 0 0 0 0 0 
0 0 0 0 0 0 0 0 0 0 0 0 0 0 0 0 0 0 0 0 0 0 0 0 0 0 0 0 0 0 0 0 0 0 0 22 255 255 255 255 182 154 125 108 103 119 110 93 120 127 120 115 141 147 140 129 119 114 106 111 108 110 118 122 117 107 108 119 95 95 111 116 116 99 84 104 107 85 82 89 88 95 85 82 99 106 96 89 88 91 103 112 107 98 99 95 95 95 90 89 85 89 90 88 88 87 91 85 81 84 83 81 82 74 60 66 80 85 79 78 85 29 0 72 255 233 186 189 143 138 166 255 255 105 73 216 147 0 49 96 98 255 255 255 213 225 185 153 177 182 173 165 116 139 216 202 193 213 216 216 209 213 218 211 205 227 248 219 35 0 0 0 0 0 0 0 0 0 0 0 0 0 0 0 0 0 0 0 0 0 0 0 0 0 0 0 1 0 44 255 255 121 85 82 0 0 0 59 255 255 227 124 135 153 131 127 156 166 166 170 170 157 151 145 147 137 112 115 115 122 134 180 255 255 255 248 238 238 228 219 201 193 233 247 255 255 0 0 66 192 125 117 156 145 148 126 96 81 60 69 21 0 0 24 16 22 29 32 34 44 61 66 54 72 100 86 67 71 72 61 60 65 70 74 79 78 84 96 94 98 107 108 114 124 128 138 157 180 197 216 245 211 71 0 0 0 0 0 0 0 0 0 0 0 0 0 0 0 0 0 0 0 0 0 0 0 0 0 0 0 0 0 0 0 0 0 0 0 0 0 0 0 0 0 0 0 0 0 0 0 0 0 0 0 0 0 0 0 0 
0 0 0 0 0 0 0 0 0 0 0 0 0 0 0 0 0 0 0 0 0 0 0 0 0 0 0 0 0 0 0 0 0 0 0 107 255 255 255 233 166 139 125 96 99 123 110 84 128 137 116 105 130 138 114 104 89 85 77 85 96 107 118 117 104 100 96 99 87 88 105 90 78 93 102 117 113 85 87 93 100 95 86 92 103 105 91 78 96 112 108 110 107 93 91 92 97 97 92 89 87 83 83 83 91 94 85 80 81 87 85 80 78 67 62 76 89 83 76 80 79 0 0 152 255 215 192 180 149 157 184 255 252 82 67 225 192 44 67 102 104 237 255 150 0 0 0 0 0 0 0 0 0 0 217 234 191 205 207 207 194 203 219 225 239 245 255 203 0 0 0 0 0 0 0 0 0 0 0 0 0 0 0 2 23 37 53 82 98 100 106 105 106 152 14 0 0 9 67 255 255 72 80 129 0 0 0 149 255 255 209 126 134 153 127 129 154 154 154 140 126 118 122 110 112 127 114 115 137 134 150 194 255 255 255 228 233 239 237 223 202 188 235 255 255 247 10 0 32 185 139 113 183 155 122 148 108 77 61 63 48 0 0 6 4 24 42 52 48 48 57 63 60 65 78 72 65 73 71 66 72 77 73 77 84 88 91 101 98 103 112 117 126 135 148 162 185 216 251 252 139 0 0 0 0 0 0 0 0 0 0 0 0 0 0 0 0 0 0 0 0 0 0 0 0 0 0 0 0 0 0 0 0 0 0 0 0 0 0 0 0 0 0 0 0 0 0 0 0 0 0 0 0 0 0 0 0 0 0 
0 0 0 0 0 0 0 0 0 0 0 0 0 0 0 0 0 0 0 0 0 0 0 0 0 0 0 0 0 0 0 0 0 0 18 255 255 255 255 193 160 129 105 81 91 121 108 93 138 137 104 90 99 112 79 74 66 85 93 94 102 98 110 106 89 85 83 85 105 111 104 75 63 85 97 91 82 69 85 96 97 102 106 105 103 98 92 87 107 120 104 102 102 91 90 96 97 96 93 85 82 85 86 88 89 89 79 80 85 87 79 75 75 67 68 79 84 72 71 78 65 0 0 232 255 195 191 165 160 166 195 255 247 86 76 231 196 26 41 100 105 137 103 0 0 0 0 0 0 0 0 0 0 6 255 255 183 199 206 214 196 201 213 213 234 231 229 204 0 0 0 111 112 111 116 118 126 129 132 141 146 141 142 141 142 146 145 150 152 138 130 135 136 152 114 0 0 37 63 249 255 98 126 169 0 0 0 217 255 255 149 98 117 142 142 143 148 135 126 107 94 120 137 132 139 144 130 130 159 169 168 172 255 255 255 186 175 186 215 235 250 255 255 255 255 250 79 0 46 191 162 113 149 131 103 143 118 88 75 55 58 0 0 0 4 37 61 60 44 43 68 88 92 87 87 79 69 64 67 74 77 76 79 82 81 89 94 102 108 117 129 134 143 161 182 207 232 249 185 18 0 0 0 0 0 0 0 0 0 0 0 0 0 0 0 0 0 0 0 0 0 0 0 0 0 0 0 0 0 0 0 0 0 0 0 0 0 0 0 0 0 0 0 0 0 0 0 0 0 0 0 0 0 0 0 0 0 0 0 
0 0 0 0 0 0 0 0 0 0 0 0 0 0 0 0 0 0 0 0 0 0 0 0 0 0 0 0 0 0 0 0 0 0 79 255 255 255 248 176 141 127 99 87 101 129 100 102 117 107 90 93 94 110 102 85 79 103 118 114 109 106 108 87 81 83 82 83 95 113 95 81 86 89 90 73 71 71 87 101 85 95 110 96 90 86 92 96 102 102 97 109 108 95 96 99 99 95 86 83 81 87 93 93 90 90 82 76 81 80 77 71 65 62 67 76 76 70 71 88 36 0 63 255 254 180 190 160 167 167 199 255 249 100 72 204 149 0 22 104 105 99 68 4 0 0 17 35 51 55 58 75 71 183 255 255 182 198 208 212 218 223 220 216 207 194 194 212 53 0 8 147 147 142 140 132 133 133 131 131 131 131 123 122 129 131 129 126 121 111 122 131 131 124 148 29 0 0 34 195 255 194 149 148 0 0 0 255 255 255 120 118 123 138 150 139 128 114 111 115 116 143 158 151 149 144 129 130 142 163 141 104 255 255 255 169 194 195 226 245 255 255 255 255 255 255 108 0 32 223 185 145 151 149 133 152 149 109 90 63 64 12 0 0 38 52 58 44 35 65 107 124 113 102 90 80 66 61 64 75 79 74 84 91 94 103 112 117 126 135 145 158 176 197 230 255 211 62 0 0 0 0 0 0 0 0 0 0 0 0 0 0 0 0 0 0 0 0 0 0 0 0 0 0 0 0 0 0 0 0 0 0 0 0 0 0 0 0 0 0 0 0 0 0 0 0 0 0 0 0 0 0 0 0 0 0 0 0 0 
0 0 0 0 0 0 0 0 0 0 0 0 0 0 0 0 0 0 0 0 0 0 0 0 0 0 0 0 0 0 0 0 0 14 218 255 255 255 193 152 107 94 79 88 110 116 99 98 95 93 95 104 112 118 101 80 82 97 112 85 84 112 108 89 94 102 95 82 90 97 84 89 96 80 88 85 93 94 102 99 81 95 109 86 77 89 99 96 94 89 93 103 93 86 90 94 97 89 81 79 81 85 89 85 81 88 86 75 77 74 71 63 56 62 70 74 74 71 77 83 0 0 152 255 209 185 193 171 166 159 207 255 222 86 48 176 126 0 46 107 101 100 103 122 134 137 138 135 133 124 124 135 120 182 255 255 205 212 227 212 225 228 212 231 224 207 218 219 57 0 0 134 135 128 125 115 122 122 114 117 127 129 118 116 123 124 121 118 117 119 128 130 129 113 127 125 0 0 5 179 255 223 106 110 14 0 0 255 255 222 119 138 130 130 130 111 107 112 128 142 142 139 140 126 113 117 120 119 122 130 107 79 241 255 255 182 247 255 255 255 255 235 201 215 255 255 51 0 0 200 184 153 159 163 143 183 185 134 118 95 78 32 0 0 75 50 40 71 101 125 136 125 104 84 75 73 77 75 80 83 87 90 97 103 112 120 126 128 139 149 165 181 215 248 225 99 0 0 0 0 0 0 0 0 0 0 0 0 0 0 0 0 0 0 0 0 0 0 0 0 0 0 0 0 0 0 0 0 0 0 0 0 0 0 0 0 0 0 0 0 0 0 0 0 0 0 0 0 0 0 0 0 0 0 0 0 0 0 0 
0 0 0 0 0 0 0 0 0 0 0 0 0 0 0 0 0 0 0 0 0 0 0 0 0 0 0 0 0 0 0 0 0 59 255 255 255 243 167 139 104 70 60 93 114 97 95 89 106 111 120 105 113 110 82 77 84 103 107 88 102 110 90 84 94 99 86 88 104 99 85 83 83 71 90 106 100 101 102 93 81 95 105 84 79 97 103 97 89 86 92 94 83 72 75 85 87 77 77 80 91 92 86 79 80 85 85 75 74 69 65 57 57 67 77 76 73 67 76 54 0 7 238 255 186 203 187 178 179 172 231 255 213 77 46 178 170 41 72 108 103 100 102 118 125 123 126 126 117 106 113 127 107 150 255 255 231 208 232 226 225 211 200 233 235 205 224 236 68 0 0 120 130 122 125 118 123 122 114 119 126 126 119 120 124 125 122 126 127 125 128 124 117 109 112 151 19 0 0 149 255 211 76 119 35 0 0 255 255 201 129 136 120 119 121 116 128 128 137 147 124 114 118 108 93 106 108 113 133 135 116 99 236 255 255 219 255 255 255 255 244 197 178 211 255 255 79 0 1 208 197 168 157 141 120 179 189 141 134 115 85 34 0 0 63 57 67 123 155 154 132 111 92 79 76 80 90 95 96 92 95 99 99 102 109 121 134 142 152 183 216 241 231 117 0 0 0 0 0 0 0 0 0 0 0 0 0 0 0 0 0 0 0 0 0 0 0 0 0 0 0 0 0 0 0 0 0 0 0 0 0 0 0 0 0 0 0 0 0 0 0 0 0 0 0 0 0 0 0 0 0 0 0 0 0 0 0 0 0 
0 0 0 0 0 0 0 0 0 0 0 0 0 0 0 0 0 0 0 0 0 0 0 0 0 0 0 0 0 0 0 0 6 157 255 255 255 194 159 137 117 75 75 115 110 89 89 100 107 112 102 76 89 100 83 99 110 105 103 109 116 106 81 89 88 78 81 94 105 102 88 87 98 95 101 114 102 91 92 93 86 97 98 77 82 97 96 91 83 87 95 93 82 76 84 90 86 78 77 79 88 93 81 78 82 84 77 66 66 61 61 60 61 64 72 70 65 66 74 16 0 96 255 242 187 220 170 156 171 181 245 255 221 89 60 192 177 49 64 114 110 104 107 118 121 117 122 130 119 114 117 124 106 134 255 255 238 188 212 219 211 203 206 233 224 190 221 255 136 0 0 106 129 120 120 119 117 114 112 118 126 128 122 124 122 127 132 132 129 124 124 119 116 120 118 138 127 0 0 90 255 255 114 131 0 0 0 255 255 180 128 121 108 124 135 130 138 131 123 131 118 116 126 131 135 153 143 143 160 175 157 125 218 255 255 223 229 241 198 178 198 210 226 254 255 255 176 0 60 208 190 156 143 140 139 165 181 124 120 124 107 50 0 0 37 105 138 165 153 128 110 103 97 88 84 88 90 99 99 98 98 108 112 121 127 142 151 172 205 248 245 137 0 0 0 0 0 0 0 0 0 0 0 0 0 0 0 0 0 0 0 0 0 0 0 0 0 0 0 0 0 0 0 0 0 0 0 0 0 0 0 0 0 0 0 0 0 0 0 0 0 0 0 0 0 0 0 0 0 0 0 0 0 0 0 0 0 0 0 
0 0 0 0 0 0 0 0 0 0 0 0 0 0 0 0 0 0 0 0 0 0 0 0 0 0 0 0 0 0 0 0 33 255 255 255 255 176 145 129 106 80 85 109 103 91 108 103 97 103 76 67 94 101 76 82 100 91 85 100 90 76 72 91 82 75 97 101 100 95 88 92 108 104 94 97 78 81 106 93 98 101 93 78 92 100 92 87 86 87 95 91 82 86 93 91 83 80 77 77 78 75 62 64 76 79 65 62 59 59 61 57 56 64 72 75 69 70 56 0 0 195 255 221 213 215 169 166 171 173 232 255 211 71 68 220 184 44 56 109 104 105 109 121 126 123 122 119 110 112 114 108 102 105 255 255 255 176 191 206 195 201 217 227 221 214 242 255 191 0 0 99 143 126 114 110 105 112 117 118 126 132 125 115 118 121 127 125 118 114 124 121 123 128 117 109 171 55 0 11 255 255 124 114 0 0 0 255 255 157 105 112 114 137 146 131 127 124 121 132 136 134 147 136 144 167 161 143 158 170 159 115 173 255 255 234 216 241 208 184 231 249 255 255 255 255 228 42 0 127 162 137 132 141 147 175 183 149 140 156 131 71 10 15 98 183 180 163 136 117 100 90 93 96 94 99 100 106 111 104 113 126 128 143 162 183 209 238 210 114 0 0 0 0 0 0 0 0 0 0 0 0 0 0 0 0 0 0 0 0 0 0 0 0 0 0 0 0 0 0 0 0 0 0 0 0 0 0 0 0 0 0 0 0 0 0 0 0 0 0 0 0 0 0 0 0 0 0 0 0 0 0 0 0 0 0 0 0 0 
0 0 0 0 0 0 0 0 0 0 0 0 0 0 0 0 0 0 0 0 0 0 0 0 0 0 0 0 0 0 0 0 109 255 255 255 210 165 122 101 85 69 71 96 109 103 104 102 107 115 99 88 110 114 86 92 106 94 94 104 96 74 77 96 91 93 97 93 97 92 83 93 106 98 83 82 76 97 112 96 94 90 83 84 97 102 93 86 90 82 88 84 86 96 94 79 71 76 72 73 76 74 64 66 73 65 63 53 47 51 54 55 62 65 79 85 71 67 13 0 68 255 255 207 212 188 163 177 188 194 251 255 206 61 76 233 177 19 50 100 99 101 102 114 124 118 115 112 116 118 113 105 109 102 255 255 255 168 194 203 197 197 204 218 229 234 239 255 184 0 0 80 156 130 121 119 117 120 122 118 123 126 120 111 117 120 121 116 115 121 121 115 124 129 114 107 149 123 0 0 202 255 127 103 0 0 97 255 255 128 99 124 132 136 138 120 120 132 137 137 136 141 153 137 120 142 137 108 127 143 122 68 114 255 255 255 219 254 250 255 255 255 255 255 255 250 246 73 0 62 166 159 153 158 158 177 180 188 193 190 153 97 26 77 163 213 179 138 122 117 106 97 102 107 106 107 113 116 117 117 134 145 142 154 188 218 195 92 0 0 0 0 0 0 0 0 0 0 0 0 0 0 0 0 0 0 0 0 0 0 0 0 0 0 0 0 0 0 0 0 0 0 0 0 0 0 0 0 0 0 0 0 0 0 0 0 0 0 0 0 0 0 0 0 0 0 0 0 0 0 0 0 0 0 0 0 0 0 0 
0 0 0 0 0 0 0 0 0 0 0 0 0 0 0 0 0 0 0 0 0 0 0 0 0 0 0 0 0 0 0 16 241 255 255 255 162 142 113 91 73 67 87 103 113 96 96 103 110 114 103 83 98 99 93 100 107 105 93 101 105 86 91 110 97 90 88 90 103 91 87 92 93 103 92 86 87 96 94 77 86 87 78 85 90 91 87 87 84 80 83 86 89 89 85 77 74 78 72 73 68 65 70 68 66 67 68 51 38 44 56 61 68 68 72 69 52 34 0 0 184 255 240 215 204 164 170 173 170 196 247 255 199 65 83 234 164 0 47 101 100 99 106 119 125 114 115 121 123 123 111 106 117 111 255 255 255 190 207 210 217 226 240 253 255 247 213 214 165 0 0 64 154 122 116 131 130 130 124 123 122 122 117 115 122 128 127 118 123 127 121 120 122 123 117 116 124 136 0 0 36 228 222 105 0 0 222 255 255 110 120 144 144 124 124 117 125 146 149 139 137 137 138 131 112 133 131 103 116 145 106 74 115 255 255 255 225 251 247 254 250 255 255 237 208 204 255 118 0 6 191 186 180 183 170 175 183 196 191 164 161 139 32 58 149 167 155 134 130 133 125 121 123 113 108 115 122 131 141 149 167 195 210 211 165 46 0 0 0 0 0 0 0 0 0 0 0 0 0 0 0 0 0 0 0 0 0 0 0 0 0 0 0 0 0 0 0 0 0 0 0 0 0 0 0 0 0 0 0 0 0 0 0 0 0 0 0 0 0 0 0 0 0 0 0 0 0 0 0 0 0 0 0 0 0 0 0 0 0 
0 0 0 0 0 0 0 0 0 0 0 0 0 0 0 0 0 0 0 0 0 0 0 0 0 0 0 0 0 0 0 64 255 255 255 207 139 113 99 88 85 79 91 97 88 90 98 100 89 100 101 75 72 72 73 88 84 84 90 96 90 86 88 105 85 80 90 92 101 88 86 90 88 94 98 85 80 87 90 86 85 81 82 86 85 85 80 80 74 79 85 91 89 80 71 75 67 70 75 70 66 59 60 66 63 58 60 45 40 55 68 62 60 65 72 70 53 0 0 70 255 255 221 221 189 164 202 181 180 198 228 255 194 65 76 238 174 0 49 107 97 98 115 129 121 106 110 126 120 115 107 104 114 104 242 255 255 198 220 222 231 255 245 191 203 223 195 216 218 7 0 47 140 120 115 125 122 125 126 124 125 125 121 116 120 128 126 118 127 130 128 132 126 122 120 114 119 145 111 0 0 158 255 57 0 0 255 255 207 115 138 145 133 113 127 137 138 156 151 133 129 127 122 122 115 136 151 138 140 170 151 116 134 255 255 255 228 240 238 227 211 204 218 220 217 234 255 155 0 0 187 196 186 161 168 188 170 189 168 144 166 146 34 42 168 173 162 160 152 149 146 147 152 143 141 152 163 175 188 208 212 177 103 0 0 0 0 0 0 0 0 0 0 0 0 0 0 0 0 0 0 0 0 0 0 0 0 0 0 0 0 0 0 0 0 0 0 0 0 0 0 0 0 0 0 0 0 0 0 0 0 0 0 0 0 0 0 0 0 0 0 0 0 0 0 0 0 0 0 0 0 0 0 0 0 0 0 0 0 
0 0 0 0 0 0 0 0 0 0 0 0 0 0 0 0 0 0 0 0 0 0 0 0 0 0 0 0 0 0 8 158 255 255 255 182 131 98 98 88 82 67 76 81 68 82 93 74 87 100 109 94 77 79 79 90 88 104 108 93 85 88 89 84 73 77 88 83 92 87 83 88 84 92 109 92 86 90 94 97 90 83 83 82 83 86 88 83 79 83 87 84 82 71 70 63 54 65 66 57 62 58 58 64 45 33 24 16 26 52 64 67 75 89 88 76 41 0 0 191 255 254 212 210 155 168 207 183 187 193 237 255 188 56 75 232 167 0 39 104 96 107 121 122 105 99 119 127 113 112 116 109 121 109 199 255 255 200 208 229 239 209 86 0 0 96 200 246 255 103 0 12 127 119 115 121 116 115 119 120 123 126 128 126 122 124 123 116 125 131 133 133 120 115 113 108 129 145 160 1 0 54 255 25 0 0 255 255 170 130 138 120 114 121 145 156 144 139 128 115 117 122 121 140 141 138 153 159 153 168 157 119 97 255 255 255 216 235 228 240 255 255 253 237 255 255 255 195 0 0 221 227 184 148 146 178 162 172 172 178 190 161 65 0 0 0 0 28 64 90 113 136 155 156 159 167 156 130 94 46 0 0 0 0 0 0 0 0 0 0 0 0 0 0 0 0 0 0 0 0 0 0 0 0 0 0 0 0 0 0 0 0 0 0 0 0 0 0 0 0 0 0 0 0 0 0 0 0 0 0 0 0 0 0 0 0 0 0 0 0 0 0 0 0 0 0 0 0 0 0 0 0 0 0 0 0 0 0 0 
0 0 0 0 0 0 0 0 0 0 0 0 0 0 0 0 0 0 0 0 0 0 0 0 0 0 0 0 0 0 38 255 255 255 255 159 108 100 111 93 75 60 74 85 78 71 71 75 101 110 93 88 79 93 92 96 86 87 94 80 76 87 94 84 79 79 84 84 91 86 85 80 80 97 110 92 75 88 99 93 81 74 85 84 81 80 90 83 83 83 77 71 71 64 62 59 57 53 45 37 46 40 39 38 14 1 23 23 43 71 83 96 94 85 58 20 0 0 92 255 255 221 225 196 132 180 192 171 185 186 252 255 169 56 82 218 147 0 24 106 104 109 121 117 104 111 132 128 116 115 119 115 125 110 165 255 255 236 208 224 205 87 0 0 0 52 207 255 255 147 0 0 125 127 111 122 119 115 111 115 119 122 126 128 124 126 127 116 120 126 127 128 114 106 108 116 137 144 144 103 0 0 149 20 0 27 255 255 161 137 127 107 121 134 147 150 129 116 115 115 121 142 151 159 151 126 132 137 117 110 107 88 59 244 255 255 243 234 239 255 255 255 255 255 255 255 255 219 0 0 204 216 175 154 137 159 162 180 198 191 187 180 131 0 0 0 0 0 0 0 0 0 0 0 0 0 0 0 0 0 0 0 0 0 0 0 0 0 0 0 0 0 0 0 0 0 0 0 0 0 0 0 0 0 0 0 0 0 0 0 0 0 0 0 0 0 0 0 0 0 0 0 0 0 0 0 0 0 0 0 0 0 0 0 0 0 0 0 0 0 0 0 0 0 0 0 0 0 0 0 0 0 0 0 0 0 0 0 0 
0 0 0 0 0 0 0 0 0 0 0 0 0 0 0 0 0 0 0 0 0 0 0 0 0 0 0 0 0 2 112 255 255 255 215 151 97 109 108 86 79 83 89 96 84 65 87 113 107 95 83 95 84 84 92 93 92 84 83 76 79 87 90 85 80 86 96 93 87 77 83 82 78 92 87 73 65 79 88 92 75 72 79 78 82 82 76 66 67 70 68 68 70 61 63 63 56 52 37 45 40 28 18 15 11 43 94 100 99 95 92 81 56 33 8 0 0 28 231 255 255 214 219 164 144 190 190 180 193 178 251 255 146 57 71 198 135 0 39 115 110 106 116 117 114 121 132 126 120 123 117 114 116 102 138 255 255 237 192 222 180 0 0 0 131 150 234 255 255 160 0 0 106 130 112 130 121 110 114 115 116 116 124 127 121 123 126 121 118 125 130 124 109 103 115 133 139 142 120 128 11 0 35 7 0 108 255 255 140 122 125 118 136 136 127 123 114 108 121 139 143 144 142 134 122 100 111 129 124 121 125 118 90 227 255 255 243 239 245 254 255 253 232 247 255 248 253 251 0 0 94 147 151 141 145 161 184 195 195 175 166 176 174 12 0 0 0 0 0 0 0 0 0 0 0 0 0 0 0 0 0 0 0 0 0 0 0 0 0 0 0 0 0 0 0 0 0 0 0 0 0 0 0 0 0 0 0 0 0 0 0 0 0 0 0 0 0 0 0 0 0 0 0 0 0 0 0 0 0 0 0 0 0 0 0 0 0 0 0 0 0 0 0 0 0 0 0 0 0 0 0 0 0 0 0 0 0 0 0 
0 0 0 0 0 0 0 0 0 0 0 0 0 0 0 0 0 0 0 0 0 0 0 0 0 0 0 0 0 17 255 255 255 255 199 136 102 107 87 78 84 93 96 103 77 61 92 120 101 70 85 95 84 79 76 86 96 91 87 91 85 81 87 85 76 80 86 80 80 79 85 92 79 85 81 76 84 80 85 87 61 73 78 79 80 71 64 62 59 65 70 65 57 60 62 56 35 28 37 44 32 23 37 77 150 208 173 112 69 62 51 35 18 20 5 0 2 174 255 255 229 220 188 148 187 207 187 187 192 196 244 236 137 57 66 170 115 3 51 115 109 106 110 114 113 118 126 125 121 114 114 114 113 100 128 255 255 235 185 232 176 0 0 108 177 146 234 255 255 191 0 0 86 136 114 126 123 108 121 119 123 129 130 133 121 119 128 123 122 134 138 116 102 114 130 138 142 141 112 115 115 0 0 6 0 193 255 255 112 118 135 127 135 129 120 126 124 119 135 151 143 131 125 118 121 123 128 148 159 156 149 149 120 186 255 255 251 216 226 234 230 218 206 206 229 238 255 255 9 0 60 143 156 127 130 156 191 200 179 169 174 181 183 64 0 0 0 0 0 0 0 0 0 0 0 0 0 0 0 0 0 0 0 0 0 0 0 0 0 0 0 0 0 0 0 0 0 0 0 0 0 0 0 0 0 0 0 0 0 0 0 0 0 0 0 0 0 0 0 0 0 0 0 0 0 0 0 0 0 0 0 0 0 0 0 0 0 0 0 0 0 0 0 0 0 0 0 0 0 0 0 0 0 0 0 0 0 0 0 
0 0 0 0 0 0 0 0 0 0 0 0 0 0 0 0 0 0 0 0 0 0 0 0 0 0 0 0 0 60 255 255 255 227 183 121 100 106 88 76 69 70 80 77 58 62 109 107 92 71 89 99 80 69 63 84 91 84 90 93 85 85 92 90 83 78 75 79 85 85 91 90 77 81 85 83 88 80 84 73 60 72 72 80 79 64 57 60 63 72 69 51 44 51 47 36 17 21 29 40 43 55 118 189 230 188 73 0 0 24 45 50 48 35 0 0 108 255 255 241 234 229 168 175 208 182 165 183 177 224 248 226 150 44 68 170 100 16 65 106 100 103 110 121 126 119 120 121 122 118 110 109 113 103 118 255 255 255 198 255 190 0 0 128 158 125 202 255 255 222 0 0 60 131 117 121 119 110 125 121 122 132 132 134 127 122 124 122 123 132 133 110 107 132 137 132 142 146 117 121 179 16 0 0 82 255 255 216 105 134 140 121 125 127 126 136 145 144 135 137 126 120 134 147 158 158 142 143 148 123 115 111 97 134 255 255 255 201 214 225 238 242 227 237 255 255 255 251 17 0 86 181 168 150 137 161 188 194 174 169 176 186 182 93 0 0 0 0 0 0 0 0 0 0 0 0 0 0 0 0 0 0 0 0 0 0 0 0 0 0 0 0 0 0 0 0 0 0 0 0 0 0 0 0 0 0 0 0 0 0 0 0 0 0 0 0 0 0 0 0 0 0 0 0 0 0 0 0 0 0 0 0 0 0 0 0 0 0 0 0 0 0 0 0 0 0 0 0 0 0 0 0 0 0 0 0 0 0 0 
0 0 0 0 0 0 0 0 0 0 0 0 0 0 0 0 0 0 0 0 0 0 0 0 0 0 0 0 10 185 255 255 255 190 145 109 97 97 84 84 71 53 59 54 61 85 112 109 95 84 93 113 84 82 90 90 89 82 89 92 91 92 90 83 79 68 77 89 87 81 78 76 71 77 81 76 74 82 76 67 66 75 67 66 69 59 58 57 57 64 52 35 36 47 36 33 28 25 50 83 90 86 108 102 53 0 0 0 28 57 61 56 45 0 0 60 244 255 255 222 245 204 147 182 172 148 172 192 202 242 237 214 164 62 79 176 115 45 71 95 97 104 113 129 132 124 122 127 122 116 116 120 111 106 107 255 255 255 240 255 200 0 0 129 168 120 197 255 255 255 0 0 38 130 119 125 123 117 125 122 123 134 133 132 130 124 124 123 124 127 125 114 118 135 130 119 135 153 134 126 167 82 0 0 90 255 255 174 117 143 131 118 123 127 129 137 141 139 128 130 134 136 156 156 146 138 119 114 121 101 101 119 111 137 255 255 255 219 244 255 255 255 255 255 255 255 253 250 67 0 78 192 177 188 191 178 188 184 165 163 181 191 195 117 0 0 0 0 0 0 0 0 0 0 0 0 0 0 0 0 0 0 0 0 0 0 0 0 0 0 0 0 0 0 0 0 0 0 0 0 0 0 0 0 0 0 0 0 0 0 0 0 0 0 0 0 0 0 0 0 0 0 0 0 0 0 0 0 0 0 0 0 0 0 0 0 0 0 0 0 0 0 0 0 0 0 0 0 0 0 0 0 0 0 0 0 0 0 0 
0 0 0 0 0 0 0 0 0 0 0 0 0 0 0 0 0 0 0 0 0 0 0 0 0 0 0 0 37 255 255 255 255 187 111 97 93 70 70 83 79 70 68 55 83 103 96 89 86 92 93 115 100 103 93 73 79 88 90 86 86 83 69 70 71 68 76 81 75 69 70 68 64 79 72 68 75 83 79 64 66 70 60 56 57 51 47 49 50 55 39 35 48 51 46 55 65 66 86 90 67 28 28 0 0 0 0 52 62 54 53 47 11 0 32 198 255 255 231 228 233 163 149 192 157 167 211 190 218 234 214 197 156 65 60 185 149 50 76 103 104 112 121 126 121 117 118 122 114 103 113 124 118 111 101 255 255 255 201 222 189 0 0 180 211 136 224 255 255 255 34 0 18 130 127 129 126 121 120 116 124 138 138 128 121 119 123 122 119 118 117 118 122 124 120 119 132 149 129 106 135 98 0 0 64 255 255 165 128 137 122 124 134 133 138 140 125 116 127 148 153 150 150 128 117 118 109 114 135 135 137 148 139 151 255 255 255 227 254 255 255 255 255 255 255 255 245 252 129 0 31 182 167 164 173 158 164 184 179 168 196 193 175 117 0 0 0 0 0 0 0 0 0 0 0 0 0 0 0 0 0 0 0 0 0 0 0 0 0 0 0 0 0 0 0 0 0 0 0 0 0 0 0 0 0 0 0 0 0 0 0 0 0 0 0 0 0 0 0 0 0 0 0 0 0 0 0 0 0 0 0 0 0 0 0 0 0 0 0 0 0 0 0 0 0 0 0 0 0 0 0 0 0 0 0 0 0 0 0 
0 0 0 0 0 0 0 0 0 0 0 0 0 0 0 0 0 0 0 0 0 0 0 0 0 0 0 2 117 255 255 255 219 179 115 100 95 69 75 82 68 62 61 70 97 102 93 75 75 93 93 87 81 85 76 62 74 92 85 69 71 73 70 78 78 74 72 73 75 78 77 67 71 78 66 68 74 73 61 49 58 56 48 45 49 46 33 38 48 50 38 40 57 61 64 68 84 74 68 48 17 8 33 49 68 87 74 57 51 52 51 24 0 25 166 255 255 240 218 231 192 154 195 201 169 200 213 177 208 212 208 209 156 55 38 169 139 26 66 107 106 112 122 127 121 116 118 121 116 111 120 121 118 111 98 216 255 255 158 186 207 15 0 97 129 81 186 255 255 255 70 0 0 127 127 123 127 117 114 112 121 134 125 116 108 109 115 120 117 120 124 124 126 126 126 128 141 150 116 80 126 135 0 0 22 244 255 181 121 129 125 137 141 140 142 129 116 121 141 152 143 132 126 109 114 136 135 142 156 161 148 148 140 120 255 255 255 206 238 237 226 219 223 235 239 250 235 249 175 0 0 169 150 126 144 152 168 200 193 178 189 171 146 130 33 0 0 0 0 0 0 0 0 0 0 0 0 0 0 0 0 0 0 0 0 0 0 0 0 0 0 0 0 0 0 0 0 0 0 0 0 0 0 0 0 0 0 0 0 0 0 0 0 0 0 0 0 0 0 0 0 0 0 0 0 0 0 0 0 0 0 0 0 0 0 0 0 0 0 0 0 0 0 0 0 0 0 0 0 0 0 0 0 0 0 0 0 0 0 
0 0 0 0 0 0 0 0 0 0 0 0 0 0 0 0 0 0 0 0 0 0 0 0 0 0 0 17 255 255 255 255 200 153 106 105 102 86 83 68 48 55 63 76 103 112 98 75 82 100 84 67 68 70 65 69 85 91 80 66 71 79 78 78 75 71 70 70 77 73 65 70 77 75 64 60 66 65 54 45 54 51 48 47 42 43 39 44 56 46 38 44 67 68 54 59 62 41 28 32 36 57 73 73 72 62 48 54 58 54 31 0 12 136 255 255 245 234 241 196 154 192 219 178 164 187 181 184 209 230 235 224 156 60 54 197 147 11 62 106 98 103 118 128 124 121 123 124 124 122 127 124 118 108 93 166 255 255 238 228 81 0 0 0 0 0 0 190 255 255 108 0 0 118 121 117 122 114 112 116 123 131 120 112 104 109 121 123 125 134 133 125 122 127 129 131 140 141 111 84 128 164 0 0 0 221 255 191 111 130 133 135 127 130 134 128 125 135 141 133 118 119 127 128 135 141 135 145 151 143 132 129 128 98 255 255 255 218 246 227 224 231 241 245 238 237 229 255 227 0 0 170 167 128 162 174 167 190 189 179 163 150 155 178 128 0 0 0 0 0 0 0 0 0 0 0 0 0 0 0 0 0 0 0 0 0 0 0 0 0 0 0 0 0 0 0 0 0 0 0 0 0 0 0 0 0 0 0 0 0 0 0 0 0 0 0 0 0 0 0 0 0 0 0 0 0 0 0 0 0 0 0 0 0 0 0 0 0 0 0 0 0 0 0 0 0 0 0 0 0 0 0 0 0 0 0 0 0 0 
0 0 0 0 0 0 0 0 0 0 0 0 0 0 0 0 0 0 0 0 0 0 0 0 0 0 0 60 255 255 255 242 195 140 101 97 87 75 82 71 51 69 99 98 95 92 83 65 74 88 74 67 76 84 73 72 73 77 76 67 75 79 75 57 56 69 72 69 69 62 57 62 67 66 59 54 63 67 58 47 56 50 50 56 47 47 54 58 59 45 55 78 92 68 38 33 35 28 41 63 63 66 65 53 55 53 49 54 53 33 0 2 119 255 255 246 235 251 222 133 165 233 201 158 170 174 186 221 210 229 232 203 146 63 76 214 164 26 70 106 104 112 121 130 124 122 124 126 123 121 118 124 121 112 95 151 255 255 255 17 0 0 0 0 0 0 0 0 111 255 165 0 0 96 121 118 116 121 120 124 132 135 129 127 122 127 137 136 131 131 126 112 111 118 123 124 127 123 103 97 131 173 0 0 0 178 255 207 115 134 129 121 120 131 128 133 140 135 125 128 131 134 130 132 137 126 127 129 130 127 124 135 141 113 250 255 255 248 255 255 255 255 255 255 255 241 233 255 246 7 0 157 192 166 179 174 151 191 203 184 152 148 185 210 167 26 0 0 0 0 0 0 0 0 0 0 0 0 0 0 0 0 0 0 0 0 0 0 0 0 0 0 0 0 0 0 0 0 0 0 0 0 0 0 0 0 0 0 0 0 0 0 0 0 0 0 0 0 0 0 0 0 0 0 0 0 0 0 0 0 0 0 0 0 0 0 0 0 0 0 0 0 0 0 0 0 0 0 0 0 0 0 0 0 0 0 0 0 0 
0 0 0 0 0 0 0 0 0 0 0 0 0 0 0 0 0 0 0 0 0 0 0 0 0 0 6 169 255 255 255 235 189 134 99 89 70 59 77 75 72 87 112 97 78 75 75 70 76 82 73 71 74 83 78 74 75 74 68 60 70 73 59 42 49 64 59 61 61 58 58 61 61 53 47 48 60 69 54 51 57 48 54 65 58 55 53 57 59 64 84 89 63 30 16 31 46 47 55 57 47 48 59 49 49 51 50 40 14 0 8 123 255 255 251 255 255 232 134 123 198 214 168 171 189 182 233 250 211 206 210 189 149 49 63 193 151 17 65 112 110 118 120 130 124 115 121 121 123 121 114 124 130 123 104 155 255 255 116 0 0 0 0 0 0 0 0 0 0 100 190 0 0 87 134 129 119 127 131 126 134 138 131 130 127 127 127 126 121 119 116 106 110 119 123 126 120 117 114 113 123 163 0 0 0 135 255 255 123 127 125 127 137 138 127 133 135 122 128 147 155 146 127 120 127 130 143 140 139 139 128 143 160 142 234 255 255 255 255 255 255 255 255 255 255 252 255 255 255 22 0 85 157 159 171 177 154 196 198 164 138 143 182 196 161 65 0 0 0 0 0 0 0 0 0 0 0 0 0 0 0 0 0 0 0 0 0 0 0 0 0 0 0 0 0 0 0 0 0 0 0 0 0 0 0 0 0 0 0 0 0 0 0 0 0 0 0 0 0 0 0 0 0 0 0 0 0 0 0 0 0 0 0 0 0 0 0 0 0 0 0 0 0 0 0 0 0 0 0 0 0 0 0 0 0 0 0 0 0 
0 0 0 0 0 0 0 0 0 0 0 0 0 0 0 0 0 0 0 0 0 0 0 0 0 0 31 255 255 255 255 213 144 96 90 90 70 63 79 78 73 86 94 74 63 80 86 84 89 94 83 81 79 79 74 77 79 72 68 59 66 69 58 55 66 68 58 59 61 57 50 52 52 46 39 42 54 57 46 59 59 50 56 63 49 42 50 66 69 67 62 32 4 5 26 48 49 50 45 44 43 40 46 45 46 46 19 0 0 31 148 255 255 255 255 255 255 133 110 197 220 184 166 170 165 192 244 230 194 208 201 189 150 42 61 196 154 19 51 108 108 113 114 119 123 116 119 121 131 127 114 120 130 120 104 132 255 255 0 0 0 0 159 211 234 211 135 48 0 8 201 0 0 75 139 124 116 123 128 120 127 135 127 121 117 116 109 112 114 117 122 118 119 126 125 125 116 115 119 114 110 149 34 0 0 108 255 255 127 120 140 141 137 130 125 132 128 120 140 151 138 129 123 125 141 147 147 137 134 148 150 141 148 130 184 255 255 255 222 240 235 213 214 230 238 240 250 255 255 53 0 31 133 142 134 148 156 164 159 135 138 159 190 197 183 114 0 0 0 0 0 0 0 0 0 0 0 0 0 0 0 0 0 0 0 0 0 0 0 0 0 0 0 0 0 0 0 0 0 0 0 0 0 0 0 0 0 0 0 0 0 0 0 0 0 0 0 0 0 0 0 0 0 0 0 0 0 0 0 0 0 0 0 0 0 0 0 0 0 0 0 0 0 0 0 0 0 0 0 0 0 0 0 0 0 0 0 0 0 
0 0 0 0 0 0 0 0 0 0 0 0 0 0 0 0 0 0 0 0 0 0 0 0 0 2 99 255 255 255 217 169 107 79 87 80 63 60 82 74 62 78 82 68 68 83 93 93 90 88 85 86 83 75 70 69 64 59 66 64 60 64 63 65 69 62 58 55 46 43 43 39 41 42 43 48 55 58 44 66 71 55 52 55 42 45 70 67 44 30 9 0 5 38 51 48 39 43 41 44 48 36 33 29 23 12 0 2 65 167 255 255 238 255 255 251 126 83 167 217 185 167 172 150 153 209 218 197 192 217 197 194 154 52 59 203 167 21 37 106 109 113 114 118 130 127 121 125 130 129 115 115 125 114 98 113 255 255 0 0 0 253 255 255 255 255 255 214 42 0 187 162 0 25 131 124 117 120 121 123 127 124 116 113 115 115 116 122 127 125 128 123 118 119 122 124 122 115 112 111 106 143 79 0 0 91 255 255 126 116 148 134 117 124 130 132 132 130 139 139 125 126 135 137 141 134 131 130 128 144 145 119 111 95 128 255 255 255 216 234 237 220 223 237 247 247 251 255 255 89 0 17 155 159 153 157 166 143 146 140 169 194 204 206 199 143 0 0 0 0 0 0 0 0 0 0 0 0 0 0 0 0 0 0 0 0 0 0 0 0 0 0 0 0 0 0 0 0 0 0 0 0 0 0 0 0 0 0 0 0 0 0 0 0 0 0 0 0 0 0 0 0 0 0 0 0 0 0 0 0 0 0 0 0 0 0 0 0 0 0 0 0 0 0 0 0 0 0 0 0 0 0 0 0 0 0 0 0 0 
0 0 0 0 0 0 0 0 0 0 0 0 0 0 0 0 0 0 0 0 0 0 0 0 0 3 240 255 255 255 208 150 123 110 101 75 53 52 67 72 64 73 79 70 73 83 89 82 80 83 81 81 77 67 67 67 63 57 60 63 57 52 52 58 53 46 40 35 19 24 32 33 45 50 54 64 67 77 64 72 73 52 54 73 63 50 52 22 0 0 0 14 37 50 40 38 35 37 41 36 34 13 1 2 6 13 46 106 182 224 230 236 255 255 235 89 54 152 213 190 158 167 167 149 203 232 206 193 197 198 206 200 166 61 45 180 159 22 41 115 116 116 117 125 132 125 116 118 121 122 109 109 123 118 101 111 255 194 0 0 118 255 255 255 255 255 255 255 82 0 102 230 16 14 127 132 119 119 124 129 131 119 111 117 117 118 126 128 131 126 123 113 107 111 116 128 129 116 108 113 118 137 105 0 0 88 255 255 136 128 148 126 122 143 138 125 135 140 142 144 137 135 137 128 132 134 140 146 134 145 132 104 117 113 130 255 255 255 227 249 255 255 255 255 255 255 255 255 255 128 0 6 165 177 205 194 191 157 159 176 198 205 193 189 185 158 36 0 0 0 0 0 0 0 0 0 0 0 0 0 0 0 0 0 0 0 0 0 0 0 0 0 0 0 0 0 0 0 0 0 0 0 0 0 0 0 0 0 0 0 0 0 0 0 0 0 0 0 0 0 0 0 0 0 0 0 0 0 0 0 0 0 0 0 0 0 0 0 0 0 0 0 0 0 0 0 0 0 0 0 0 0 0 0 0 0 0 0 0 
0 0 0 0 0 0 0 0 0 0 0 0 0 0 0 0 0 0 0 0 0 0 0 0 0 39 255 255 255 253 202 145 130 110 89 75 75 68 69 74 72 80 88 82 76 86 88 81 82 89 84 79 81 75 75 78 66 61 56 54 49 35 35 42 34 27 29 28 23 35 37 40 56 65 66 69 79 89 86 80 77 50 53 64 36 7 0 0 0 0 15 21 31 32 23 25 24 23 21 13 9 0 0 21 51 85 131 183 214 219 239 255 255 192 83 72 155 216 202 184 178 189 174 181 232 220 195 205 183 193 227 199 149 39 31 168 148 23 42 114 118 116 115 121 130 119 114 115 116 120 113 105 117 117 108 116 255 60 0 0 255 255 255 222 113 96 112 189 72 0 0 168 181 92 124 126 112 117 131 128 126 121 115 121 115 114 127 125 125 125 113 104 106 113 117 124 129 116 106 119 126 119 110 0 0 58 249 255 161 130 138 126 134 147 129 114 143 154 142 133 134 125 120 122 132 148 154 145 125 137 132 128 153 144 142 255 255 255 229 255 255 255 253 255 255 250 249 250 255 163 0 0 147 183 219 183 172 174 166 189 200 196 172 156 175 174 87 0 0 0 0 0 0 0 0 0 0 0 0 0 0 0 0 0 0 0 0 0 0 0 0 0 0 0 0 0 0 0 0 0 0 0 0 0 0 0 0 0 0 0 0 0 0 0 0 0 0 0 0 0 0 0 0 0 0 0 0 0 0 0 0 0 0 0 0 0 0 0 0 0 0 0 0 0 0 0 0 0 0 0 0 0 0 0 0 0 0 0 0 
0 0 0 0 0 0 0 0 0 0 0 0 0 0 0 0 0 0 0 0 0 0 0 0 0 167 255 255 255 238 175 122 95 85 69 62 68 65 79 92 92 91 82 80 79 88 94 91 92 94 85 84 88 79 82 88 73 65 57 47 37 28 34 41 26 18 26 34 45 55 62 68 77 85 99 102 106 106 89 76 69 35 33 18 0 0 0 0 0 0 0 0 0 0 0 0 0 0 0 0 14 25 59 109 134 147 171 197 216 226 242 230 141 56 98 189 225 210 181 181 190 173 179 204 193 181 195 206 167 198 225 188 125 31 35 158 129 23 47 103 108 109 112 118 128 120 121 125 124 127 124 111 118 118 116 120 203 0 0 0 255 255 255 95 142 141 132 187 114 0 0 107 255 208 111 107 116 126 134 125 120 126 123 122 120 128 136 125 127 124 105 106 113 120 122 125 129 113 102 123 124 103 116 0 0 0 214 255 194 119 125 130 132 125 114 118 148 155 129 111 122 130 128 134 143 146 130 125 124 134 146 152 157 130 106 255 255 255 227 244 247 247 234 232 232 244 255 255 254 169 0 0 159 210 209 146 134 159 158 174 160 164 160 153 182 195 122 0 0 0 0 0 0 0 0 0 0 0 0 0 0 0 0 0 0 0 0 0 0 0 0 0 0 0 0 0 0 0 0 0 0 0 0 0 0 0 0 0 0 0 0 0 0 0 0 0 0 0 0 0 0 0 0 0 0 0 0 0 0 0 0 0 0 0 0 0 0 0 0 0 0 0 0 0 0 0 0 0 0 0 0 0 0 0 0 0 0 0 0 
0 0 0 0 0 0 0 0 0 0 0 0 0 0 0 0 0 0 0 0 0 0 0 0 20 255 255 255 255 211 148 108 88 85 70 57 59 53 74 100 101 87 76 86 90 93 95 89 90 92 85 85 85 81 80 83 74 68 66 54 36 29 32 31 25 29 31 41 55 60 80 96 107 119 132 131 118 98 76 55 34 0 0 0 0 0 0 0 0 0 0 0 0 0 0 0 2 12 32 49 70 90 118 150 149 145 175 195 193 177 139 104 86 134 225 244 191 174 182 174 170 154 193 202 177 182 214 187 181 219 225 187 123 36 58 171 131 42 61 101 108 110 113 119 134 126 125 128 124 132 131 114 118 124 123 123 161 0 0 0 255 255 255 101 130 128 150 187 155 0 0 40 255 255 119 102 120 128 126 123 123 127 132 123 126 138 141 122 122 119 107 110 119 122 122 132 130 110 115 128 116 95 134 0 0 0 211 255 214 114 127 144 136 124 125 136 138 130 111 117 136 150 144 142 132 127 121 130 137 132 145 143 127 101 90 248 255 255 236 232 245 255 248 244 255 255 255 255 252 186 0 0 187 221 211 166 162 160 154 175 157 155 171 172 189 209 159 1 0 0 0 0 0 0 0 0 0 0 0 0 0 0 0 0 0 0 0 0 0 0 0 0 0 0 0 0 0 0 0 0 0 0 0 0 0 0 0 0 0 0 0 0 0 0 0 0 0 0 0 0 0 0 0 0 0 0 0 0 0 0 0 0 0 0 0 0 0 0 0 0 0 0 0 0 0 0 0 0 0 0 0 0 0 0 0 0 0 0 0 
0 0 0 0 0 0 0 0 0 0 0 0 0 0 0 0 0 0 0 0 0 0 0 0 94 255 255 255 239 177 131 104 94 87 66 63 75 57 76 99 81 67 77 90 94 94 91 88 84 86 85 79 82 82 79 75 70 71 76 71 53 32 18 12 22 38 42 53 67 79 100 118 132 151 147 111 79 62 48 60 33 0 0 0 0 0 0 0 0 0 13 27 42 44 49 62 66 71 89 96 100 107 115 128 129 139 168 165 140 126 119 152 204 239 248 198 149 165 189 171 164 203 204 183 178 199 214 184 210 230 213 184 133 36 71 204 162 60 70 105 110 113 116 119 138 134 124 125 121 131 128 116 117 123 123 129 150 0 0 0 255 255 248 0 0 0 35 153 148 0 0 0 255 255 143 108 119 120 120 126 127 120 127 119 118 129 131 117 116 117 113 118 119 120 122 135 130 113 133 130 110 107 146 17 0 0 205 255 215 115 130 146 144 139 144 136 124 123 124 137 147 140 127 124 120 127 145 144 133 113 125 130 122 102 97 241 255 255 255 238 255 255 250 252 255 255 255 255 255 239 31 0 130 176 193 168 157 156 153 182 184 184 205 200 196 212 185 56 0 0 0 0 0 0 0 0 0 0 0 0 0 0 0 0 0 0 0 0 0 0 0 0 0 0 0 0 0 0 0 0 0 0 0 0 0 0 0 0 0 0 0 0 0 0 0 0 0 0 0 0 0 0 0 0 0 0 0 0 0 0 0 0 0 0 0 0 0 0 0 0 0 0 0 0 0 0 0 0 0 0 0 0 0 0 0 0 0 0 0 
0 0 0 0 0 0 0 0 0 0 0 0 0 0 0 0 0 0 0 0 0 0 0 0 224 255 255 255 219 150 132 106 82 80 64 63 71 51 77 102 74 61 77 82 80 85 81 81 85 83 86 80 80 77 74 68 75 75 71 68 65 45 26 26 35 44 57 80 107 127 136 147 159 143 107 75 68 102 78 66 24 0 0 0 0 0 10 43 68 82 86 90 92 83 79 84 83 83 95 98 92 102 122 137 145 149 158 141 135 173 207 242 255 222 177 148 147 174 179 150 185 227 196 166 172 192 175 202 235 228 193 178 127 20 52 179 132 40 69 106 110 114 118 122 142 133 110 120 123 132 128 113 121 124 119 130 158 0 0 0 255 255 241 0 0 0 0 177 180 0 0 0 214 255 173 112 121 122 126 126 120 117 126 123 113 122 127 118 119 126 122 119 117 121 126 127 119 112 123 115 112 128 145 48 0 0 159 255 244 126 122 126 132 132 137 118 118 146 153 138 129 118 120 126 127 129 147 131 120 122 135 150 151 132 105 205 255 255 255 232 246 243 234 245 241 245 255 243 250 255 37 0 54 141 154 138 105 121 137 164 167 165 188 196 196 200 194 99 0 0 0 0 0 0 0 0 0 0 0 0 0 0 0 0 0 0 0 0 0 0 0 0 0 0 0 0 0 0 0 0 0 0 0 0 0 0 0 0 0 0 0 0 0 0 0 0 0 0 0 0 0 0 0 0 0 0 0 0 0 0 0 0 0 0 0 0 0 0 0 0 0 0 0 0 0 0 0 0 0 0 0 0 0 0 0 0 0 0 0 
0 0 0 0 0 0 0 0 0 0 0 0 0 0 0 0 0 0 0 0 0 0 0 40 255 255 255 255 194 123 120 93 76 69 50 55 63 60 97 111 68 64 89 90 82 87 87 79 77 80 89 83 78 73 73 74 81 76 66 70 73 62 58 64 62 54 57 79 113 139 143 136 115 80 88 112 147 216 203 90 0 0 0 0 43 56 75 93 89 79 72 72 72 65 64 67 65 72 87 98 103 124 140 149 155 150 152 149 176 228 244 234 198 150 156 174 169 176 158 168 212 192 155 139 168 167 159 216 250 223 177 171 118 10 47 161 111 25 63 104 112 117 122 125 136 126 107 120 122 130 129 115 117 121 111 126 156 0 0 0 255 255 251 0 0 0 110 255 248 0 0 0 195 255 202 114 124 126 129 121 112 119 133 128 115 122 126 118 111 120 122 117 115 120 126 120 123 126 121 112 122 131 133 76 0 0 103 255 255 142 115 118 130 127 120 109 127 159 150 120 116 124 138 143 128 123 134 115 118 147 157 156 150 133 109 172 255 255 255 217 243 244 235 244 239 244 254 239 238 255 65 0 68 192 158 147 133 158 156 159 168 172 189 206 215 201 202 142 0 0 0 0 0 0 0 0 0 0 0 0 0 0 0 0 0 0 0 0 0 0 0 0 0 0 0 0 0 0 0 0 0 0 0 0 0 0 0 0 0 0 0 0 0 0 0 0 0 0 0 0 0 0 0 0 0 0 0 0 0 0 0 0 0 0 0 0 0 0 0 0 0 0 0 0 0 0 0 0 0 0 0 0 0 0 0 0 0 0 0 
0 0 0 0 0 0 0 0 0 0 0 0 0 0 0 0 0 0 0 0 0 0 0 146 255 255 255 253 162 112 109 85 69 61 39 43 70 93 105 96 68 78 93 90 85 90 96 88 79 84 86 78 75 78 81 84 81 75 70 81 82 69 65 76 75 61 51 47 45 52 61 58 44 56 152 220 223 224 148 0 0 0 0 48 79 70 66 66 52 45 51 59 61 63 65 70 72 82 102 116 125 141 145 146 153 154 159 169 207 230 200 160 149 170 190 173 166 164 173 203 206 153 106 144 145 157 206 241 238 189 164 170 136 34 92 215 144 48 73 109 109 115 126 123 126 124 113 127 121 123 124 116 113 122 110 119 148 0 0 0 255 255 255 0 0 0 179 255 255 0 0 0 171 255 229 115 115 114 121 115 110 122 123 120 109 112 123 119 111 113 112 110 114 122 127 121 131 135 123 119 125 120 119 109 0 0 84 255 255 135 107 128 141 140 126 122 133 144 126 108 124 143 136 127 122 121 135 130 135 151 135 123 127 112 102 143 255 255 255 236 255 255 255 255 255 255 255 255 255 255 141 0 84 250 203 178 178 200 166 129 147 155 156 143 136 142 182 172 27 0 0 0 0 0 0 0 0 0 0 0 0 0 0 0 0 0 0 0 0 0 0 0 0 0 0 0 0 0 0 0 0 0 0 0 0 0 0 0 0 0 0 0 0 0 0 0 0 0 0 0 0 0 0 0 0 0 0 0 0 0 0 0 0 0 0 0 0 0 0 0 0 0 0 0 0 0 0 0 0 0 0 0 0 0 0 0 0 0 0 
0 0 0 0 0 0 0 0 0 0 0 0 0 0 0 0 0 0 0 0 0 0 12 255 255 255 255 214 132 115 102 94 79 59 49 45 76 101 88 79 78 86 91 89 86 86 85 82 80 87 87 77 78 81 85 85 77 70 69 78 71 55 53 53 54 49 47 41 13 0 0 0 0 3 67 53 0 0 0 0 0 0 70 29 63 50 54 56 51 52 60 64 66 64 68 76 89 109 126 137 135 137 139 140 151 154 158 164 183 184 146 145 171 188 166 133 142 176 196 193 174 119 125 158 143 182 254 246 210 175 155 158 129 44 81 180 124 41 81 111 106 111 124 123 125 128 118 118 117 120 125 117 109 120 118 117 144 0 0 0 255 255 255 0 0 0 161 255 255 29 0 0 139 255 254 113 111 114 117 113 114 121 112 111 106 112 128 131 117 111 115 117 120 125 123 117 122 121 116 116 112 108 115 120 0 0 74 255 255 142 116 134 137 138 135 130 122 119 119 127 141 138 119 113 129 133 147 150 145 147 129 128 137 132 117 130 255 255 255 242 246 218 185 175 187 170 123 87 75 84 1 0 0 59 37 0 0 0 0 0 0 0 0 0 0 0 106 196 92 0 0 0 0 0 0 0 0 0 0 0 0 0 0 0 0 0 0 0 0 0 0 0 0 0 0 0 0 0 0 0 0 0 0 0 0 0 0 0 0 0 0 0 0 0 0 0 0 0 0 0 0 0 0 0 0 0 0 0 0 0 0 0 0 0 0 0 0 0 0 0 0 0 0 0 0 0 0 0 0 0 0 0 0 0 0 0 0 0 0 
0 0 0 0 0 0 0 0 0 0 0 0 0 0 0 0 0 0 0 0 0 0 66 255 255 255 246 177 123 110 97 94 93 63 53 68 102 121 98 92 91 88 90 92 89 83 86 86 79 83 85 80 83 84 81 77 73 70 72 70 61 51 46 43 36 28 32 35 20 44 48 0 0 0 0 0 0 0 0 0 0 97 82 0 71 52 58 56 58 61 65 61 61 65 75 84 103 122 132 141 134 128 130 134 150 151 152 147 164 178 166 177 175 161 141 136 188 223 198 170 135 139 156 140 195 255 255 223 189 195 190 177 128 37 61 146 67 32 92 108 107 109 121 121 127 133 119 118 118 118 121 111 102 111 119 115 141 20 0 0 252 255 255 0 0 0 145 255 255 94 0 0 109 255 255 114 108 119 121 118 119 122 118 121 118 122 131 133 117 112 121 121 126 128 118 112 114 112 118 119 103 105 116 128 0 0 39 244 255 161 124 136 124 127 127 114 113 130 144 147 136 120 112 120 144 124 97 75 54 57 29 20 19 18 4 12 110 151 0 0 0 0 0 0 0 0 0 0 0 0 0 0 0 0 0 0 0 0 0 0 0 0 0 0 0 0 122 255 143 0 0 0 0 0 0 0 0 0 0 0 0 0 0 0 0 0 0 0 0 0 0 0 0 0 0 0 0 0 0 0 0 0 0 0 0 0 0 0 0 0 0 0 0 0 0 0 0 0 0 0 0 0 0 0 0 0 0 0 0 0 0 0 0 0 0 0 0 0 0 0 0 0 0 0 0 0 0 0 0 0 0 0 0 0 0 0 0 0 0 
0 0 0 0 0 0 0 0 0 0 0 0 0 0 0 0 0 0 0 0 0 0 210 255 255 255 216 144 115 106 81 71 84 63 50 84 119 115 90 93 87 85 84 94 91 84 87 88 84 87 86 80 84 90 82 80 73 74 77 65 58 54 49 43 32 21 17 16 21 65 69 0 0 0 0 0 0 0 0 0 0 147 73 0 73 52 52 50 54 64 67 63 69 80 92 104 119 129 126 134 136 127 136 146 160 161 169 172 192 200 182 178 176 160 158 192 220 197 174 147 144 183 145 142 255 255 237 206 198 201 193 182 146 45 110 249 130 63 98 101 104 111 123 127 126 132 128 123 119 113 114 111 110 116 120 114 132 40 0 0 224 255 255 0 0 0 135 255 255 115 0 0 99 255 255 119 107 116 113 119 119 117 116 115 121 129 128 117 109 119 130 125 122 122 118 122 118 108 123 121 102 106 120 140 0 0 0 204 255 184 118 122 117 123 115 111 123 150 154 133 116 107 113 118 153 68 0 0 0 0 0 0 0 0 0 0 0 0 0 0 0 0 0 0 0 0 0 0 0 0 0 0 0 0 0 0 0 0 0 0 0 10 71 77 0 25 219 255 210 0 0 0 0 0 0 0 0 0 0 0 0 0 0 0 0 0 0 0 0 0 0 0 0 0 0 0 0 0 0 0 0 0 0 0 0 0 0 0 0 0 0 0 0 0 0 0 0 0 0 0 0 0 0 0 0 0 0 0 0 0 0 0 0 0 0 0 0 0 0 0 0 0 0 0 0 0 0 0 0 0 0 0 0 0 0 0 0 0 0 
0 0 0 0 0 0 0 0 0 0 0 0 0 0 0 0 0 0 0 0 0 32 255 255 255 255 198 131 120 111 72 58 63 56 49 72 85 66 66 83 84 83 89 98 94 86 91 86 80 89 88 83 90 89 84 83 76 74 70 58 54 51 44 39 27 16 17 20 37 65 29 0 0 0 0 0 151 122 0 0 52 162 74 11 71 51 51 56 62 66 68 71 88 105 112 119 125 133 133 137 140 135 142 162 177 176 174 184 189 193 172 163 165 170 201 220 200 156 129 150 193 155 130 191 255 255 189 190 209 191 170 175 124 22 110 255 131 31 99 98 101 110 124 132 125 130 128 118 114 115 124 120 121 118 114 120 137 65 0 0 190 255 255 0 0 0 114 255 255 163 0 0 86 255 255 124 101 123 122 131 132 128 137 136 130 123 119 112 115 126 126 120 125 125 116 116 113 111 125 124 110 111 116 135 1 0 0 179 255 210 114 132 136 133 123 125 136 142 130 107 111 115 115 113 158 48 0 0 0 0 0 0 0 0 0 0 0 0 0 0 0 0 0 25 47 75 105 156 211 255 255 255 239 255 255 255 255 255 255 255 255 255 255 255 255 81 193 255 255 57 0 0 0 0 0 0 0 0 0 0 0 0 0 0 0 0 0 0 0 0 0 0 0 0 0 0 0 0 0 0 0 0 0 0 0 0 0 0 0 0 0 0 0 0 0 0 0 0 0 0 0 0 0 0 0 0 0 0 0 0 0 0 0 0 0 0 0 0 0 0 0 0 0 0 0 0 0 0 0 0 0 0 0 0 0 0 0 0 0 
0 0 0 0 0 0 0 0 0 0 0 0 0 0 0 0 0 0 0 0 0 132 255 255 255 246 175 135 121 103 69 62 79 57 41 49 72 80 85 98 95 83 80 89 88 78 88 87 87 96 91 80 83 82 78 82 78 68 68 62 57 53 44 28 17 13 22 28 51 57 0 0 0 0 9 141 215 56 0 0 79 172 66 13 73 53 58 65 67 68 76 90 107 118 119 121 124 132 135 142 140 140 144 156 164 160 158 168 171 170 167 162 158 180 210 194 146 123 145 174 158 125 153 241 255 218 187 192 203 187 170 182 112 19 113 255 87 0 100 114 116 116 122 122 115 124 129 118 108 119 125 121 121 111 102 119 147 91 0 0 153 255 255 0 0 0 81 253 255 16 0 0 49 255 255 131 94 94 78 54 33 9 14 9 40 99 113 114 118 128 123 116 126 121 112 112 110 113 124 124 114 112 109 134 41 0 0 178 255 240 114 135 140 129 124 136 137 123 123 122 128 125 115 113 155 57 0 0 79 165 213 229 234 231 242 244 255 255 255 255 255 255 255 255 255 255 255 255 255 255 255 255 255 255 255 255 255 255 255 255 255 255 255 255 255 0 88 255 255 133 0 0 0 0 0 0 0 0 0 0 0 0 0 0 0 0 0 0 0 0 0 0 0 0 0 0 0 0 0 0 0 0 0 0 0 0 0 0 0 0 0 0 0 0 0 0 0 0 0 0 0 0 0 0 0 0 0 0 0 0 0 0 0 0 0 0 0 0 0 0 0 0 0 0 0 0 0 0 0 0 0 0 0 0 0 0 0 0 0 
0 0 0 0 0 0 0 0 0 0 0 0 0 0 0 0 0 0 0 0 4 255 255 255 255 218 155 127 104 84 64 67 77 66 63 70 95 105 92 99 91 76 79 85 77 77 80 81 89 94 84 76 82 83 84 84 72 64 67 59 49 43 34 19 15 22 28 33 58 45 0 0 4 0 74 255 138 0 0 0 81 178 66 9 74 55 63 68 72 79 91 105 113 114 113 121 129 135 134 135 133 136 145 147 147 153 154 150 159 160 168 169 158 178 189 143 108 146 161 120 114 168 241 255 239 185 186 202 192 187 185 180 109 23 95 209 81 0 87 124 114 108 110 112 111 126 136 124 109 115 129 124 129 121 112 134 156 122 0 0 86 216 79 0 0 0 64 90 17 0 0 0 15 189 161 0 0 0 0 0 0 0 0 0 0 66 146 125 120 120 114 108 116 117 116 120 119 123 125 122 117 107 105 140 97 0 0 159 255 246 115 121 118 113 121 133 123 118 140 147 138 135 131 120 156 75 0 0 214 255 255 255 255 255 255 255 255 255 255 255 255 255 255 255 255 255 255 255 255 255 255 255 157 186 244 224 196 181 204 184 178 179 168 200 127 0 0 255 255 181 0 0 0 0 0 0 0 0 0 0 0 0 0 0 0 0 0 0 0 0 0 0 0 0 0 0 0 0 0 0 0 0 0 0 0 0 0 0 0 0 0 0 0 0 0 0 0 0 0 0 0 0 0 0 0 0 0 0 0 0 0 0 0 0 0 0 0 0 0 0 0 0 0 0 0 0 0 0 0 0 0 0 0 0 0 0 0 0 0 
0 0 0 0 0 0 0 0 0 0 0 0 0 0 0 0 0 0 0 0 78 255 255 255 255 189 134 113 92 74 70 71 73 72 81 95 102 91 92 100 88 78 82 89 92 89 91 86 87 85 77 78 88 86 80 77 66 61 62 57 43 37 29 23 25 32 25 37 63 34 0 0 15 37 203 229 0 0 0 0 83 166 58 5 81 63 70 72 81 97 108 112 109 108 113 122 126 131 138 138 132 137 148 139 130 156 168 151 155 168 184 190 175 175 154 135 172 192 137 107 170 255 255 253 196 176 187 199 191 184 183 170 110 30 79 157 53 0 94 116 97 93 104 127 135 135 131 109 93 86 91 73 60 50 25 15 10 0 0 0 41 47 0 0 0 0 54 29 0 0 0 0 9 26 0 0 0 0 0 0 0 0 0 0 0 184 230 133 123 129 127 115 119 122 119 121 125 126 130 127 125 111 106 133 110 0 0 116 255 251 123 113 118 127 136 134 111 113 147 151 124 120 131 127 165 90 0 0 199 255 255 214 200 186 168 154 213 255 255 255 255 255 255 255 255 255 255 255 255 255 255 79 0 0 115 131 121 124 158 148 143 146 127 143 118 0 0 236 255 240 0 0 0 0 0 0 0 0 0 0 0 0 0 0 0 0 0 0 0 0 0 0 0 0 0 0 0 0 0 0 0 0 0 0 0 0 0 0 0 0 0 0 0 0 0 0 0 0 0 0 0 0 0 0 0 0 0 0 0 0 0 0 0 0 0 0 0 0 0 0 0 0 0 0 0 0 0 0 0 0 0 0 0 0 0 0 0 0 0 
0 0 0 0 0 0 0 0 0 0 0 0 0 0 0 0 0 0 0 2 209 255 255 255 232 167 129 104 92 74 70 65 63 65 74 83 78 77 98 102 88 82 91 96 96 95 93 84 86 81 78 83 83 79 77 74 68 65 58 48 38 38 35 32 28 27 20 48 61 5 0 23 48 145 255 113 0 0 0 0 86 170 62 17 84 74 82 86 99 113 115 111 112 112 113 121 126 129 136 140 134 140 140 133 132 171 188 168 181 193 190 186 174 177 184 188 192 144 111 153 248 255 253 187 151 178 209 201 197 189 179 171 109 24 86 205 143 65 99 106 95 107 116 85 27 0 0 0 0 0 0 0 0 0 0 0 0 0 0 0 21 42 0 0 0 16 31 11 0 0 8 0 0 0 6 5 0 0 7 91 146 163 111 46 90 255 255 141 119 132 131 123 125 130 121 122 123 119 123 129 122 109 109 127 119 0 0 101 255 255 133 114 133 144 141 126 115 125 150 142 112 111 129 135 157 85 0 0 196 255 234 104 107 114 107 103 127 255 255 255 230 242 227 224 233 242 238 241 250 255 255 99 0 0 127 167 162 155 170 165 168 170 167 175 169 0 0 74 255 255 77 0 0 0 0 0 0 0 0 0 0 0 0 0 0 0 0 0 0 0 0 0 0 0 0 0 0 0 0 0 0 0 0 0 0 0 0 0 0 0 0 0 0 0 0 0 0 0 0 0 0 0 0 0 0 0 0 0 0 0 0 0 0 0 0 0 0 0 0 0 0 0 0 0 0 0 0 0 0 0 0 0 0 0 0 0 0 0 0 
0 0 0 0 0 0 0 0 0 0 0 0 0 0 0 0 0 0 0 37 255 255 255 255 203 151 117 94 91 79 62 58 56 69 69 68 70 84 101 101 87 89 101 102 96 86 78 81 86 87 89 84 78 80 80 72 64 60 50 43 38 29 29 24 25 28 30 66 62 0 0 60 126 255 255 0 0 0 0 0 93 179 73 34 91 82 93 99 107 113 112 109 114 117 116 122 128 132 137 141 133 134 132 126 150 192 215 178 174 180 167 175 187 185 179 171 146 121 139 226 255 255 198 172 168 179 196 192 197 194 174 168 106 19 106 249 158 46 75 112 105 135 81 0 0 0 0 0 0 0 0 0 0 0 0 0 0 0 0 0 21 50 55 61 35 20 28 85 167 238 255 255 255 255 255 255 255 255 255 255 255 255 255 64 37 243 255 159 106 121 123 115 114 125 123 122 120 113 121 126 111 109 115 127 151 0 0 58 255 255 149 121 141 139 125 118 131 138 138 125 113 130 145 129 130 88 0 0 175 255 246 115 123 148 152 132 136 255 255 255 233 239 235 239 239 245 249 250 255 255 255 157 0 0 140 175 163 154 168 161 160 156 162 201 242 117 0 0 255 255 130 0 0 0 0 0 0 0 0 0 0 0 0 0 0 0 0 0 0 0 0 0 0 0 0 0 0 0 0 0 0 0 0 0 0 0 0 0 0 0 0 0 0 0 0 0 0 0 0 0 0 0 0 0 0 0 0 0 0 0 0 0 0 0 0 0 0 0 0 0 0 0 0 0 0 0 0 0 0 0 0 0 0 0 0 0 0 0 0 
0 0 0 0 0 0 0 0 0 0 0 0 0 0 0 0 0 0 0 134 255 255 255 254 170 124 109 91 82 75 55 59 75 81 79 80 90 95 103 102 96 98 104 97 85 78 80 83 82 82 86 82 81 85 80 65 60 60 46 46 43 29 30 28 30 31 44 71 40 0 4 90 223 255 64 0 0 0 0 0 98 183 71 40 106 95 99 106 108 109 107 106 109 115 120 129 129 124 129 129 124 119 129 141 169 189 199 150 152 178 175 184 175 150 140 135 118 137 204 255 255 221 174 196 200 186 199 188 180 182 173 159 106 25 104 224 109 1 71 113 107 142 36 0 0 0 0 0 0 0 0 5 38 79 139 185 221 255 255 255 255 255 255 255 178 0 10 255 255 255 255 255 255 255 255 255 255 255 255 255 255 255 203 0 0 216 255 186 107 123 129 121 114 122 125 118 111 116 134 123 114 116 120 125 151 0 0 0 227 255 177 124 148 130 115 131 142 123 117 129 138 142 138 110 117 103 0 0 137 255 236 125 131 147 145 127 127 255 255 255 230 234 236 237 237 245 243 234 242 251 255 202 0 0 147 185 174 174 193 181 170 177 177 191 226 164 0 0 255 255 191 0 0 0 0 0 0 0 0 0 0 0 0 0 0 0 0 0 0 0 0 0 0 0 0 0 0 0 0 0 0 0 0 0 0 0 0 0 0 0 0 0 0 0 0 0 0 0 0 0 0 0 0 0 0 0 0 0 0 0 0 0 0 0 0 0 0 0 0 0 0 0 0 0 0 0 0 0 0 0 0 0 0 0 0 0 0 0 0 
0 0 0 0 0 0 0 0 0 0 0 0 0 0 0 0 0 0 10 255 255 255 255 209 129 98 109 99 83 75 62 54 75 83 85 86 101 105 109 109 96 92 93 79 72 77 88 87 85 88 89 79 78 81 76 68 68 69 52 43 36 23 27 34 33 37 56 50 1 0 42 163 255 206 0 0 0 0 0 0 89 184 78 57 122 103 103 104 104 107 109 112 111 115 122 129 126 127 145 136 122 123 143 166 185 192 187 146 161 202 172 157 158 143 148 149 143 198 252 228 206 181 175 198 186 167 201 197 163 166 174 159 107 32 110 207 91 13 86 107 104 135 6 0 0 104 202 243 255 255 255 255 255 255 255 255 255 255 255 255 255 255 255 255 179 0 0 255 255 255 255 255 255 255 104 0 128 117 91 102 97 85 74 0 0 151 255 216 109 126 127 117 111 115 116 118 112 120 130 112 120 126 109 111 141 0 0 0 237 255 196 117 138 118 119 143 138 106 107 134 144 130 113 102 128 131 0 0 128 255 255 145 140 136 137 135 106 255 255 255 234 239 247 239 250 255 250 238 246 255 255 234 0 0 128 175 162 159 193 190 186 198 191 170 161 128 0 0 177 255 255 53 0 0 0 0 0 0 0 0 0 0 0 0 0 0 0 0 0 0 0 0 0 0 0 0 0 0 0 0 0 0 0 0 0 0 0 0 0 0 0 0 0 0 0 0 0 0 0 0 0 0 0 0 0 0 0 0 0 0 0 0 0 0 0 0 0 0 0 0 0 0 0 0 0 0 0 0 0 0 0 0 0 0 0 0 0 0 0 
0 0 0 0 0 0 0 0 0 0 0 0 0 0 0 0 0 0 67 255 255 255 255 177 116 89 122 109 68 64 70 72 66 88 95 105 113 109 107 103 89 82 76 73 74 83 90 89 90 92 91 82 80 78 70 68 68 63 46 36 29 21 31 38 30 39 54 30 4 42 115 255 255 4 0 0 0 0 0 0 74 179 100 70 125 102 102 102 104 106 112 113 116 126 131 127 122 133 156 146 117 143 163 166 171 173 163 140 157 174 144 145 165 162 142 148 211 255 254 198 193 201 190 159 135 159 207 198 167 171 178 161 115 35 107 198 93 25 83 99 109 148 0 0 0 249 255 255 255 255 255 255 255 255 255 255 245 219 222 255 255 255 255 255 0 0 0 255 255 255 172 191 232 180 0 0 69 104 94 114 124 120 132 0 0 64 255 255 117 118 121 112 106 114 113 114 115 118 119 106 119 123 99 107 145 27 0 0 214 255 211 116 119 114 126 132 116 98 115 133 125 112 109 115 132 133 0 0 154 255 255 141 132 134 134 146 102 214 255 255 246 239 251 249 255 253 231 233 251 255 255 255 23 0 130 175 164 139 148 148 152 188 199 165 151 150 0 0 0 255 255 115 0 0 0 0 0 0 0 0 0 0 0 0 0 0 0 0 0 0 0 0 0 0 0 0 0 0 0 0 0 0 0 0 0 0 0 0 0 0 0 0 0 0 0 0 0 0 0 0 0 0 0 0 0 0 0 0 0 0 0 0 0 0 0 0 0 0 0 0 0 0 0 0 0 0 0 0 0 0 0 0 0 0 0 0 0 0 0 
0 0 0 0 0 0 0 0 0 0 0 0 0 0 0 0 0 0 141 255 255 255 226 170 113 90 134 109 53 57 79 82 79 98 94 95 94 90 86 87 86 82 84 87 87 92 94 94 88 85 82 81 81 78 73 73 62 50 38 28 23 26 38 38 28 47 53 21 26 92 180 255 201 0 0 0 0 0 0 0 65 178 131 83 128 102 103 106 110 109 112 114 116 124 129 125 129 139 144 127 114 152 173 163 157 161 162 157 175 172 144 135 146 145 158 214 255 225 193 206 229 215 182 155 132 182 214 192 173 182 197 176 120 33 111 192 91 36 85 97 116 153 0 0 0 254 255 255 206 151 132 133 122 110 95 80 73 65 93 255 255 255 217 162 0 0 0 255 255 255 205 226 255 247 0 0 67 120 115 125 127 114 139 0 0 3 255 255 136 112 119 114 116 123 118 112 120 119 117 117 123 118 101 107 139 55 0 0 150 255 245 117 119 128 129 112 111 117 127 127 126 128 123 116 119 141 0 0 124 255 255 145 127 136 129 141 117 187 255 255 255 237 253 253 255 249 229 224 228 241 255 234 0 0 83 153 166 154 147 146 135 163 187 169 163 201 114 0 0 255 255 177 0 0 0 0 0 0 0 0 0 0 0 0 0 0 0 0 0 0 0 0 0 0 0 0 0 0 0 0 0 0 0 0 0 0 0 0 0 0 0 0 0 0 0 0 0 0 0 0 0 0 0 0 0 0 0 0 0 0 0 0 0 0 0 0 0 0 0 0 0 0 0 0 0 0 0 0 0 0 0 0 0 0 0 0 0 0 0 
0 0 0 0 0 0 0 0 0 0 0 0 0 0 0 0 0 0 135 255 255 255 209 152 95 81 128 105 50 60 81 82 78 88 88 83 82 81 88 97 99 89 87 91 92 91 93 93 89 83 83 81 77 77 76 71 60 44 30 17 24 38 45 36 36 61 44 20 64 135 252 255 0 0 0 0 0 0 0 0 71 189 159 98 124 101 104 115 119 113 110 116 124 127 123 120 130 143 141 130 133 161 173 164 167 176 181 178 169 162 143 136 143 189 233 251 234 175 177 203 196 176 164 167 163 196 221 194 166 169 193 179 107 26 106 207 117 60 92 102 116 141 0 0 0 255 255 163 57 59 76 98 118 116 101 114 122 109 137 255 255 255 234 214 0 0 0 255 255 255 243 219 255 233 0 0 36 126 125 130 125 113 129 23 0 0 255 255 159 104 119 117 118 124 117 110 124 124 111 120 122 120 114 111 129 89 0 0 108 255 255 125 126 133 114 95 112 130 124 119 131 139 120 109 121 162 0 0 70 255 255 153 121 130 133 134 119 153 255 255 255 230 242 234 240 241 234 239 248 254 255 233 0 0 54 138 156 156 146 159 146 168 176 142 131 187 143 0 0 255 255 234 0 0 0 0 0 0 0 0 0 0 0 0 0 0 0 0 0 0 0 0 0 0 0 0 0 0 0 0 0 0 0 0 0 0 0 0 0 0 0 0 0 0 0 0 0 0 0 0 0 0 0 0 0 0 0 0 0 0 0 0 0 0 0 0 0 0 0 0 0 0 0 0 0 0 0 0 0 0 0 0 0 0 0 0 0 0 0 
0 0 0 0 0 0 0 0 0 0 0 0 0 0 0 0 0 0 56 255 255 255 188 132 81 84 131 104 52 55 75 75 77 83 89 93 100 102 104 103 98 88 83 91 94 89 88 91 86 80 88 84 77 72 74 68 55 37 23 21 35 42 42 44 71 82 43 40 117 211 255 194 0 0 0 0 0 0 0 0 89 210 172 104 118 104 111 114 114 113 114 122 124 129 132 128 133 140 147 145 142 159 166 158 148 149 166 157 134 143 140 173 224 255 231 202 186 183 216 199 151 167 178 160 155 190 231 203 157 163 184 152 90 30 107 211 121 42 76 96 108 136 0 0 0 255 255 207 110 119 120 123 139 127 110 117 116 106 116 255 255 255 248 220 0 0 0 255 255 255 255 212 245 242 10 0 8 128 119 121 122 118 128 70 0 0 233 255 185 110 122 121 123 116 109 114 126 119 110 115 115 112 119 109 118 119 0 0 94 255 255 135 118 121 106 110 123 119 109 118 133 123 103 114 139 167 0 0 21 255 255 154 113 113 133 125 119 149 255 255 255 229 241 240 251 255 250 255 255 255 255 255 99 0 105 178 179 163 147 169 166 199 219 182 143 166 159 0 0 143 255 255 56 0 0 0 0 0 0 0 0 0 0 0 0 0 0 0 0 0 0 0 0 0 0 0 0 0 0 0 0 0 0 0 0 0 0 0 0 0 0 0 0 0 0 0 0 0 0 0 0 0 0 0 0 0 0 0 0 0 0 0 0 0 0 0 0 0 0 0 0 0 0 0 0 0 0 0 0 0 0 0 0 0 0 0 0 0 0 
0 0 0 0 0 0 0 0 0 0 0 0 0 0 0 0 0 0 8 177 255 255 151 114 80 94 131 96 45 51 73 79 82 87 96 98 107 103 97 95 92 90 89 90 92 90 89 95 88 84 87 82 72 72 72 63 45 27 24 36 47 47 36 54 104 88 44 81 176 255 255 0 0 0 0 0 0 0 0 0 96 224 170 105 118 106 111 111 110 112 116 124 122 121 132 132 135 142 151 140 129 146 151 151 140 146 172 153 143 175 192 213 235 228 186 167 177 211 221 179 150 185 185 147 159 196 223 204 175 173 188 157 94 42 136 239 116 14 69 91 103 142 0 0 0 255 255 178 98 107 115 123 136 128 109 116 117 110 107 237 255 255 254 225 0 0 0 217 255 255 255 210 255 255 71 0 0 122 108 113 119 113 119 99 0 0 149 255 218 110 118 123 122 114 119 131 125 114 113 115 112 108 119 108 117 128 0 0 63 255 255 147 111 110 112 133 134 115 115 131 134 117 111 130 139 149 0 0 0 255 255 158 114 117 143 142 134 179 255 255 255 246 255 255 255 255 239 221 221 210 198 175 99 0 23 145 145 116 102 113 126 139 154 135 104 136 175 0 0 28 255 255 118 0 0 0 0 0 0 0 0 0 0 0 0 0 0 0 0 0 0 0 0 0 0 0 0 0 0 0 0 0 0 0 0 0 0 0 0 0 0 0 0 0 0 0 0 0 0 0 0 0 0 0 0 0 0 0 0 0 0 0 0 0 0 0 0 0 0 0 0 0 0 0 0 0 0 0 0 0 0 0 0 0 0 0 0 0 0 
0 0 0 0 0 0 0 0 0 0 0 0 0 0 0 0 0 0 0 36 235 255 165 104 80 96 118 84 47 53 80 81 90 97 101 98 97 94 94 100 101 99 92 91 94 96 94 91 87 84 88 76 68 70 67 55 35 24 34 45 49 48 38 73 108 64 40 123 214 255 160 0 0 0 0 0 0 0 0 0 94 228 170 103 117 102 106 107 109 116 119 119 121 121 132 128 129 142 150 141 131 161 172 172 161 166 185 176 186 202 196 198 192 167 167 198 214 202 175 142 149 163 163 152 174 205 204 198 174 165 191 165 93 42 130 229 95 12 79 96 102 143 0 0 0 255 255 171 108 111 110 125 140 127 103 114 117 114 102 214 255 255 255 248 0 0 0 173 255 255 255 223 255 255 83 0 0 119 113 120 120 108 109 117 0 0 62 255 255 118 109 116 113 109 121 132 123 111 118 120 111 110 118 117 114 128 0 0 23 208 255 172 106 106 118 134 125 113 125 136 127 119 127 137 119 136 0 0 0 255 255 170 117 121 148 155 117 127 255 255 171 6 0 0 0 0 0 0 0 0 0 0 0 0 0 0 0 0 0 0 0 0 0 0 0 0 0 0 0 0 255 255 179 0 0 0 0 0 0 0 0 0 0 0 0 0 0 0 0 0 0 0 0 0 0 0 0 0 0 0 0 0 0 0 0 0 0 0 0 0 0 0 0 0 0 0 0 0 0 0 0 0 0 0 0 0 0 0 0 0 0 0 0 0 0 0 0 0 0 0 0 0 0 0 0 0 0 0 0 0 0 0 0 0 0 0 0 0 0 
0 0 0 0 0 0 0 0 0 0 0 0 0 0 0 0 0 0 0 0 43 184 196 115 89 97 107 70 51 58 81 80 97 100 102 94 90 99 107 110 109 100 90 91 93 97 93 85 85 83 83 72 66 72 67 51 33 28 39 48 50 44 45 94 98 37 59 157 250 255 0 0 0 0 0 0 0 0 0 2 106 237 180 101 116 106 108 110 113 116 112 115 121 127 135 136 132 134 133 152 155 179 189 177 142 136 169 178 187 183 166 168 164 176 217 232 192 156 156 148 161 148 153 178 176 180 189 192 175 158 168 156 84 31 125 204 69 6 83 98 105 143 0 0 0 255 255 180 117 116 109 118 130 119 104 116 120 114 97 186 255 255 255 255 0 0 0 134 255 255 255 207 255 255 104 0 0 119 123 126 122 110 116 130 0 0 0 255 255 137 107 119 109 106 115 116 106 108 124 124 113 117 120 119 108 133 0 0 0 181 255 208 93 107 118 124 121 115 124 129 119 114 117 117 111 146 13 0 0 221 236 70 0 0 2 0 0 0 0 0 0 0 0 0 0 0 0 0 0 0 0 0 0 0 0 0 0 0 0 0 0 0 0 0 0 0 0 0 0 0 255 255 255 63 0 0 0 0 0 0 0 0 0 0 0 0 0 0 0 0 0 0 0 0 0 0 0 0 0 0 0 0 0 0 0 0 0 0 0 0 0 0 0 0 0 0 0 0 0 0 0 0 0 0 0 0 0 0 0 0 0 0 0 0 0 0 0 0 0 0 0 0 0 0 0 0 0 0 0 0 0 0 0 0 0 0 0 0 0 
0 0 0 0 0 0 0 0 0 0 0 0 0 0 0 0 0 0 0 0 5 18 41 46 72 94 88 50 50 70 79 92 105 103 99 96 98 109 111 105 101 89 84 84 88 89 88 83 87 89 80 71 68 76 61 40 30 34 43 50 50 39 59 103 76 40 118 203 255 163 0 0 0 0 0 0 0 0 0 5 120 248 182 105 120 111 112 115 117 120 115 121 130 131 136 146 147 139 126 145 165 158 147 138 114 118 175 181 169 156 163 181 177 210 241 197 144 148 173 164 177 182 192 208 166 182 214 201 176 158 166 153 86 37 141 221 90 24 89 97 110 144 0 0 0 255 255 174 108 107 99 117 135 118 109 121 121 111 89 158 255 255 255 254 0 0 0 105 255 255 255 186 255 242 164 0 0 109 132 124 118 115 120 129 0 0 0 241 255 167 99 116 114 111 116 113 99 109 121 118 116 123 118 110 107 143 44 0 0 169 255 219 93 118 122 120 123 117 109 114 121 120 115 117 121 150 26 0 0 122 42 0 0 0 0 0 0 0 0 0 0 0 0 0 0 0 0 0 0 0 0 0 0 0 28 52 62 65 12 0 6 18 8 46 41 8 12 0 0 74 255 255 255 104 0 0 0 0 0 0 0 0 0 0 0 0 0 0 0 0 0 0 0 0 0 0 0 0 0 0 0 0 0 0 0 0 0 0 0 0 0 0 0 0 0 0 0 0 0 0 0 0 0 0 0 0 0 0 0 0 0 0 0 0 0 0 0 0 0 0 0 0 0 0 0 0 0 0 0 0 0 0 0 0 0 0 0 0 0 
0 0 0 0 0 0 0 0 0 0 0 0 0 0 0 0 0 0 0 0 0 14 7 65 128 99 58 47 61 86 88 103 110 110 105 105 108 109 105 95 94 84 82 89 91 90 88 82 86 87 82 78 74 73 54 34 36 39 50 54 48 40 77 105 64 74 184 255 255 0 0 0 0 0 0 0 0 0 0 4 120 246 175 114 121 113 113 114 119 119 120 135 142 138 143 151 153 144 134 145 167 146 122 129 136 143 191 193 166 159 184 197 183 203 208 150 144 180 166 140 176 204 199 205 184 211 231 202 168 144 155 147 93 47 152 217 80 26 87 100 111 146 2 0 0 240 255 171 105 103 97 114 130 112 101 115 116 112 89 132 255 255 255 255 30 0 0 57 255 255 255 248 255 255 255 0 0 102 151 135 132 135 130 133 59 0 0 215 255 202 95 112 119 113 119 116 107 117 120 108 117 120 113 112 108 143 61 0 0 142 255 218 103 123 118 115 121 120 106 112 125 124 122 132 131 144 38 0 0 19 0 0 0 0 0 0 0 0 53 96 111 195 255 255 255 255 255 255 255 255 255 255 255 255 255 255 255 255 255 255 255 255 255 255 255 255 255 255 255 255 255 255 255 97 0 0 0 0 0 0 0 0 0 0 0 0 0 0 0 0 0 0 0 0 0 0 0 0 0 0 0 0 0 0 0 0 0 0 0 0 0 0 0 0 0 0 0 0 0 0 0 0 0 0 0 0 0 0 0 0 0 0 0 0 0 0 0 0 0 0 0 0 0 0 0 0 0 0 0 0 0 0 0 0 0 0 0 0 0 
0 0 0 0 0 0 0 0 0 0 0 0 0 0 0 0 0 32 110 175 246 255 255 255 255 255 91 57 67 87 89 96 103 106 102 101 103 106 104 96 98 93 91 97 93 90 89 84 85 83 82 78 72 66 53 39 45 48 59 56 45 50 98 106 72 125 218 255 177 0 0 0 0 0 0 0 0 0 0 5 126 255 182 120 123 112 114 116 118 118 117 133 138 137 144 147 144 139 131 149 170 161 128 135 155 159 180 193 181 177 186 186 179 184 192 171 174 150 119 125 179 198 182 197 204 210 218 191 167 159 159 147 90 48 147 216 79 29 88 100 109 151 6 0 0 232 255 183 112 111 106 105 118 104 88 105 113 115 99 119 255 255 255 255 119 0 0 14 255 255 255 221 249 229 187 0 0 31 109 77 57 45 40 64 44 0 0 164 255 224 98 112 124 115 113 112 117 125 122 107 108 109 108 119 110 131 83 0 0 114 255 239 111 112 116 120 119 117 114 121 129 119 126 134 120 125 92 0 0 114 161 166 172 224 255 255 255 255 255 255 255 255 255 255 255 255 255 255 255 255 255 255 255 255 255 255 255 255 255 255 255 255 255 255 255 255 255 255 255 255 255 255 255 104 0 0 0 0 0 0 0 0 0 0 0 0 0 0 0 0 0 0 0 0 0 0 0 0 0 0 0 0 0 0 0 0 0 0 0 0 0 0 0 0 0 0 0 0 0 0 0 0 0 0 0 0 0 0 0 0 0 0 0 0 0 0 0 0 0 0 0 0 0 0 0 0 0 0 0 0 0 0 0 0 0 0 0 0 0 
0 0 0 0 0 0 0 0 0 0 0 0 0 0 14 119 252 255 255 255 255 255 255 255 255 255 255 139 82 81 91 100 105 105 94 95 95 101 104 97 99 96 92 95 90 87 91 85 88 86 83 74 67 59 54 39 41 54 61 49 42 72 113 99 86 161 231 255 8 0 0 0 0 0 0 0 0 0 0 6 140 255 195 126 131 111 114 115 116 116 122 133 129 129 145 146 129 126 134 148 161 159 133 136 169 167 177 178 169 159 168 188 195 200 208 192 172 124 137 188 180 153 167 197 205 196 194 181 165 166 170 157 91 47 141 212 87 36 84 96 108 151 0 0 0 244 255 196 115 116 111 113 136 133 119 135 141 130 112 119 255 255 225 65 0 0 0 2 255 255 0 0 0 0 0 0 0 0 0 0 0 0 0 0 0 0 0 79 255 250 116 111 124 112 107 116 125 125 111 106 107 111 116 115 98 118 104 0 0 83 255 255 124 104 128 131 120 121 123 119 122 125 125 122 107 117 139 93 147 255 255 255 255 255 255 255 255 255 255 255 255 255 255 255 255 255 255 255 255 255 255 255 255 217 0 84 191 189 182 164 172 183 197 182 181 155 164 202 213 210 210 244 243 161 83 0 0 0 0 0 0 0 0 0 0 0 0 0 0 0 0 0 0 0 0 0 0 0 0 0 0 0 0 0 0 0 0 0 0 0 0 0 0 0 0 0 0 0 0 0 0 0 0 0 0 0 0 0 0 0 0 0 0 0 0 0 0 0 0 0 0 0 0 0 0 0 0 0 0 0 0 0 0 0 0 0 0 0 0 
0 0 0 0 0 0 0 0 0 0 0 0 20 158 255 255 255 255 255 255 255 255 255 255 255 255 255 218 167 132 110 111 110 106 102 102 102 104 104 99 98 92 88 94 96 93 92 88 89 89 82 73 63 53 47 43 48 59 56 40 50 103 117 84 109 189 255 203 0 0 0 0 0 0 0 0 0 0 0 6 145 255 188 120 131 111 109 113 115 114 126 134 128 123 147 149 125 115 142 154 157 145 130 154 182 167 177 157 147 151 166 206 220 218 184 152 160 163 175 184 148 152 190 209 196 188 164 165 152 146 162 149 85 47 159 206 63 13 80 97 108 151 0 0 0 255 255 213 136 135 130 125 128 94 42 27 23 0 0 0 0 0 0 0 0 0 0 16 113 0 0 0 0 0 0 0 0 0 0 0 0 0 0 0 0 0 0 90 255 255 134 111 128 115 107 126 132 118 106 115 115 115 119 111 97 113 108 0 0 49 254 255 146 108 137 127 115 120 123 110 112 124 119 110 115 123 131 132 180 255 255 255 247 255 240 204 190 174 165 255 255 255 255 247 238 235 231 229 227 229 231 220 232 112 0 0 138 123 123 109 118 108 113 115 137 129 123 142 142 141 158 178 190 179 134 0 0 0 0 0 0 0 0 0 0 0 0 0 0 0 0 0 0 0 0 0 0 0 0 0 0 0 0 0 0 0 0 0 0 0 0 0 0 0 0 0 0 0 0 0 0 0 0 0 0 0 0 0 0 0 0 0 0 0 0 0 0 0 0 0 0 0 0 0 0 0 0 0 0 0 0 0 0 0 0 0 0 0 0 
0 0 0 0 0 0 0 0 0 0 0 124 255 255 255 255 255 255 255 255 255 226 170 166 255 255 255 166 174 178 150 130 113 103 106 104 104 111 112 103 99 91 88 94 91 90 87 87 88 86 77 72 62 48 48 56 53 56 48 42 68 121 106 73 136 216 255 57 0 0 0 0 0 0 0 0 0 0 0 8 149 255 182 114 126 107 105 116 121 123 129 133 122 124 146 150 127 123 157 164 149 139 130 169 192 166 181 164 158 201 208 220 208 184 159 148 184 184 145 116 134 193 224 218 194 193 167 149 157 148 166 142 68 49 180 218 53 16 90 102 112 155 11 0 0 255 255 173 67 34 0 0 0 0 0 0 0 0 0 0 0 0 0 0 0 0 0 42 41 0 0 0 0 0 0 0 0 31 105 125 121 207 214 164 147 174 219 255 255 255 139 106 126 115 115 133 133 108 107 120 121 118 118 112 108 112 111 0 0 23 247 255 159 106 131 118 110 116 115 105 112 123 115 116 131 130 118 117 115 133 133 118 117 119 117 120 120 108 94 255 255 255 215 228 244 238 242 255 252 246 255 246 255 175 0 0 154 119 120 138 146 127 122 123 119 121 150 184 153 122 106 101 130 183 149 30 0 0 0 0 0 0 0 0 0 0 0 0 0 0 0 0 0 0 0 0 0 0 0 0 0 0 0 0 0 0 0 0 0 0 0 0 0 0 0 0 0 0 0 0 0 0 0 0 0 0 0 0 0 0 0 0 0 0 0 0 0 0 0 0 0 0 0 0 0 0 0 0 0 0 0 0 0 0 0 0 0 0 0 
0 0 0 0 0 0 0 0 0 38 245 255 255 255 255 255 255 255 214 198 187 168 153 211 255 255 218 138 127 117 120 143 133 113 106 104 109 117 114 103 97 88 87 92 87 84 84 85 84 76 69 65 59 45 52 61 51 52 52 54 87 115 88 85 163 243 231 0 0 0 0 0 0 0 0 0 0 0 0 9 151 255 193 123 127 115 111 119 125 125 130 136 131 137 157 167 142 135 152 165 154 152 152 186 193 186 198 179 195 240 237 230 217 181 170 181 196 162 137 164 206 229 203 180 190 198 180 158 178 175 182 149 82 75 187 205 41 33 103 103 112 149 36 0 0 152 179 0 0 0 0 0 0 0 0 0 0 0 0 0 0 0 0 0 30 29 40 34 75 232 255 255 255 255 255 255 255 255 255 255 255 255 255 255 255 255 255 255 255 234 139 108 119 111 118 129 116 101 110 122 115 113 117 114 113 100 118 0 0 5 223 255 166 100 117 112 111 113 106 110 120 123 121 121 126 120 125 132 125 121 123 122 129 129 137 145 138 139 125 255 255 255 233 244 250 240 244 255 250 239 249 249 255 224 0 0 111 81 89 130 135 131 134 152 162 160 171 208 195 200 225 204 196 207 154 67 0 0 0 0 0 0 0 0 0 0 0 0 0 0 0 0 0 0 0 0 0 0 0 0 0 0 0 0 0 0 0 0 0 0 0 0 0 0 0 0 0 0 0 0 0 0 0 0 0 0 0 0 0 0 0 0 0 0 0 0 0 0 0 0 0 0 0 0 0 0 0 0 0 0 0 0 0 0 0 0 0 0 0 
0 0 0 0 0 0 0 0 78 255 255 255 255 255 255 243 209 203 202 194 187 174 174 255 255 255 187 159 130 81 84 127 146 134 118 110 108 106 96 92 97 90 85 91 92 92 92 89 82 71 66 67 59 49 55 56 44 50 54 64 105 109 80 121 196 255 107 0 0 0 0 0 0 0 0 0 0 0 0 9 154 255 201 122 123 120 118 118 125 130 131 136 143 154 165 167 146 127 140 167 175 172 171 181 184 180 179 168 196 219 219 221 216 198 193 185 176 175 190 209 226 220 176 171 213 206 169 157 170 184 174 149 98 87 177 181 35 38 106 102 112 141 67 0 0 26 0 0 0 0 0 0 0 0 0 47 117 145 172 234 255 255 255 255 255 255 68 0 156 255 255 255 255 255 255 255 255 255 255 255 224 224 190 180 216 212 177 140 134 141 131 113 117 108 112 118 98 99 112 115 118 116 108 106 108 96 127 6 0 0 183 255 191 105 118 119 116 111 108 113 119 119 119 114 111 119 134 137 123 124 131 118 121 127 121 116 102 109 80 173 255 255 251 240 253 250 255 255 245 243 252 255 255 245 49 14 255 255 255 255 255 255 255 255 255 255 255 255 255 255 255 255 255 255 154 71 0 0 0 0 0 0 0 0 0 0 0 0 0 0 0 0 0 0 0 0 0 0 0 0 0 0 0 0 0 0 0 0 0 0 0 0 0 0 0 0 0 0 0 0 0 0 0 0 0 0 0 0 0 0 0 0 0 0 0 0 0 0 0 0 0 0 0 0 0 0 0 0 0 0 0 0 0 0 0 0 0 0 0 
0 0 0 0 0 0 0 110 255 255 255 255 255 241 208 213 213 208 203 195 190 179 203 255 255 255 168 168 137 99 107 135 147 141 141 131 113 89 73 78 89 92 89 92 91 87 85 81 78 71 70 73 60 53 52 52 51 57 56 69 105 100 83 143 230 255 0 0 0 0 0 0 0 0 0 0 0 0 0 9 158 255 198 111 117 114 113 117 124 134 133 137 149 157 151 138 137 122 143 174 188 175 160 164 176 174 168 165 191 196 190 188 173 170 192 194 194 207 235 214 192 177 168 200 219 207 173 159 172 181 175 159 100 59 161 189 54 42 100 101 111 141 89 0 0 0 15 0 25 112 154 188 233 255 255 255 255 255 255 255 255 255 255 255 255 255 0 0 255 255 255 255 255 255 255 255 39 0 85 101 89 86 88 96 97 86 81 87 94 106 115 111 111 107 106 106 98 108 111 102 113 116 103 105 109 102 132 23 0 0 149 255 232 112 114 120 113 107 112 111 111 108 103 93 86 98 101 95 76 91 106 98 111 118 124 150 159 168 175 255 255 255 255 244 255 251 250 247 247 248 254 254 249 247 198 255 255 255 255 255 255 255 255 255 255 255 255 255 255 255 255 255 255 255 166 79 0 0 0 0 0 0 0 0 0 0 0 0 0 0 0 0 0 0 0 0 0 0 0 0 0 0 0 0 0 0 0 0 0 0 0 0 0 0 0 0 0 0 0 0 0 0 0 0 0 0 0 0 0 0 0 0 0 0 0 0 0 0 0 0 0 0 0 0 0 0 0 0 0 0 0 0 0 0 0 0 0 0 0 
0 0 0 0 0 0 102 255 255 255 255 255 206 211 213 212 207 204 200 193 190 175 230 255 255 219 167 168 135 112 127 148 148 142 134 125 123 115 108 98 85 75 80 88 90 89 84 76 75 71 67 69 54 51 50 56 56 59 62 83 101 84 101 180 255 164 0 0 0 0 0 0 0 0 0 0 0 0 0 11 164 255 202 117 124 116 113 121 132 131 130 142 155 154 131 123 140 144 159 164 157 156 157 169 177 179 172 178 194 182 169 172 163 169 202 196 182 199 225 202 188 189 196 220 212 202 178 161 185 186 181 158 92 46 155 189 57 32 94 99 105 123 109 0 0 184 255 255 255 255 255 255 255 255 255 255 255 255 255 225 219 255 255 255 255 237 7 189 255 255 255 229 189 210 227 198 0 0 63 112 107 118 124 114 106 109 109 115 119 115 112 113 112 110 108 107 106 113 105 93 100 97 85 94 95 88 109 32 0 0 130 255 229 79 79 97 92 98 106 101 113 144 151 153 185 229 255 255 255 255 255 255 255 255 255 255 255 255 255 255 255 255 255 238 245 241 240 241 247 250 250 246 246 254 254 255 255 255 255 255 255 255 255 255 255 255 255 255 255 255 255 255 241 246 138 53 46 0 0 0 0 0 0 0 0 0 0 0 0 0 0 0 0 0 0 0 0 0 0 0 0 0 0 0 0 0 0 0 0 0 0 0 0 0 0 0 0 0 0 0 0 0 0 0 0 0 0 0 0 0 0 0 0 0 0 0 0 0 0 0 0 0 0 0 0 0 0 0 0 0 0 0 0 0 0 0 0 0 0 
0 0 0 0 0 66 255 255 255 255 240 164 207 219 213 208 204 199 193 194 188 187 255 255 255 192 172 164 134 118 129 145 151 141 113 93 102 120 135 142 127 110 94 82 74 73 67 68 73 74 68 60 54 50 53 55 58 59 69 90 91 87 133 225 255 4 0 0 0 0 0 0 0 0 0 0 0 0 0 12 173 255 206 126 127 117 119 130 138 133 137 145 157 157 138 127 130 145 159 141 109 145 166 167 168 169 163 165 182 163 155 177 193 216 221 191 155 173 196 186 186 191 204 221 208 200 179 157 168 182 177 146 80 49 169 190 41 25 99 100 102 109 117 106 167 255 255 255 255 255 255 232 216 205 181 134 114 109 95 73 86 255 255 255 182 196 219 255 255 255 255 217 212 242 255 227 0 0 61 137 122 126 125 106 98 107 108 109 111 104 104 103 98 97 93 86 84 78 65 70 93 90 85 95 100 110 146 94 0 0 135 255 255 255 255 255 255 255 255 255 255 255 255 255 255 255 255 255 255 255 255 255 255 255 255 255 255 255 255 255 255 255 255 240 239 244 253 254 255 254 252 246 247 251 252 255 255 252 255 254 250 248 249 241 242 240 236 238 249 255 254 239 249 255 116 0 52 0 0 0 0 0 0 0 0 0 0 0 0 0 0 0 0 0 0 0 0 0 0 0 0 0 0 0 0 0 0 0 0 0 0 0 0 0 0 0 0 0 0 0 0 0 0 0 0 0 0 0 0 0 0 0 0 0 0 0 0 0 0 0 0 0 0 0 0 0 0 0 0 0 0 0 0 0 0 0 0 0 0 
0 0 0 0 34 255 255 255 255 255 146 178 215 218 207 205 204 199 193 202 198 219 255 255 255 184 175 159 140 134 136 146 138 108 76 75 102 117 120 124 132 143 140 126 107 89 73 60 56 53 50 47 52 50 51 54 54 55 73 79 78 108 179 255 121 0 0 0 0 0 0 0 0 0 0 0 0 0 0 12 175 255 202 122 124 111 118 135 137 129 135 147 153 151 143 141 125 118 150 133 113 164 184 161 152 161 163 172 191 169 166 208 238 252 229 172 147 173 201 192 172 182 198 203 184 183 180 172 160 177 182 150 84 57 173 195 47 33 99 104 106 119 121 123 147 208 217 154 123 109 90 91 92 90 105 102 104 113 111 104 102 255 255 255 215 242 255 255 255 255 255 229 226 245 254 251 13 0 40 134 106 109 103 93 95 95 96 98 105 111 127 137 145 171 190 205 230 243 255 255 255 255 255 255 255 255 255 255 0 0 132 255 255 255 255 255 255 255 255 255 255 255 255 255 255 255 255 255 255 255 255 255 255 255 255 255 255 255 255 255 255 233 236 242 240 245 255 252 247 250 255 253 249 252 252 255 250 243 245 250 248 240 237 238 244 249 244 241 250 253 245 244 254 255 124 0 15 0 0 0 0 0 0 0 0 0 0 0 0 0 0 0 0 0 0 0 0 0 0 0 0 0 0 0 0 0 0 0 0 0 0 0 0 0 0 0 0 0 0 0 0 0 0 0 0 0 0 0 0 0 0 0 0 0 0 0 0 0 0 0 0 0 0 0 0 0 0 0 0 0 0 0 0 0 0 0 0 0 0 
0 0 0 14 220 255 255 255 255 168 162 189 214 213 203 204 201 194 191 204 217 255 255 255 229 179 169 143 131 136 138 127 96 56 48 79 113 123 121 117 113 113 120 131 145 149 141 129 118 104 88 76 69 68 71 78 71 75 95 107 109 135 148 63 0 0 0 0 0 0 0 0 0 0 0 0 0 0 0 14 182 255 205 124 129 116 121 133 132 128 131 149 150 146 140 123 126 131 163 166 155 186 198 169 153 175 186 190 197 175 166 202 230 233 204 160 157 185 209 190 177 189 193 180 160 171 177 160 150 168 190 158 85 53 169 197 41 31 105 105 105 119 123 116 101 89 91 97 101 110 112 114 108 104 115 114 107 114 115 112 96 220 255 255 198 203 246 242 204 199 223 229 219 245 255 255 114 0 90 237 218 233 255 255 255 255 255 255 255 255 255 255 255 255 255 255 255 255 255 255 255 255 255 255 255 255 255 255 0 0 81 255 255 255 255 255 255 255 255 255 255 255 255 255 255 255 255 255 255 255 248 230 238 255 252 241 246 221 221 255 249 224 241 248 248 251 255 251 244 249 251 255 255 255 255 255 247 232 242 245 243 236 241 250 252 251 246 246 250 246 244 251 255 251 113 0 13 46 0 0 0 0 0 0 0 0 0 0 0 0 0 0 0 0 0 0 0 0 0 0 0 0 0 0 0 0 0 0 0 0 0 0 0 0 0 0 0 0 0 0 0 0 0 0 0 0 0 0 0 0 0 0 0 0 0 0 0 0 0 0 0 0 0 0 0 0 0 0 0 0 0 0 0 0 0 0 0 0 0 
0 0 0 105 255 255 255 255 220 188 178 197 206 205 207 210 202 195 189 202 242 255 255 255 205 178 161 127 118 131 116 78 45 28 56 98 117 117 116 116 108 107 106 107 119 131 136 151 167 176 172 164 137 119 139 173 201 132 12 0 0 0 0 0 0 0 0 0 0 0 0 0 0 0 0 0 0 0 0 15 188 255 207 123 127 121 126 138 143 133 120 136 144 141 145 120 129 148 160 190 186 177 163 165 165 196 210 195 188 165 156 175 190 189 171 160 187 206 192 168 180 206 197 171 171 176 173 148 140 156 177 159 86 46 168 198 48 35 101 100 104 112 113 120 128 116 106 102 92 96 103 106 96 89 103 94 84 92 101 107 110 230 255 255 202 173 223 217 228 244 236 235 234 255 255 255 204 131 255 255 255 255 255 255 255 255 255 255 255 255 255 255 255 255 255 255 255 255 255 255 255 255 255 255 255 255 255 255 0 0 41 255 255 255 221 229 254 255 255 229 242 255 255 255 255 233 240 254 245 249 242 228 222 232 234 228 235 228 237 255 252 223 248 255 255 249 245 251 249 249 251 249 247 238 241 241 239 235 247 249 243 246 248 255 255 250 243 247 252 250 250 253 255 255 160 0 20 76 0 0 0 0 0 0 0 0 0 0 0 0 0 0 0 0 0 0 0 0 0 0 0 0 0 0 0 0 0 0 0 0 0 0 0 0 0 0 0 0 0 0 0 0 0 0 0 0 0 0 0 0 0 0 0 0 0 0 0 0 0 0 0 0 0 0 0 0 0 0 0 0 0 0 0 0 0 0 0 0 0 
0 0 30 255 255 255 255 245 224 198 190 195 192 204 213 210 207 199 192 202 255 255 255 244 190 179 150 121 134 138 90 32 17 44 88 120 121 115 114 112 108 108 110 109 110 114 106 109 123 130 138 143 130 128 176 247 255 27 0 0 0 0 0 0 0 0 0 0 0 0 0 0 0 0 0 0 0 0 0 15 186 255 197 121 125 121 121 136 142 127 113 132 149 146 147 143 158 162 151 194 193 164 151 172 194 200 203 188 188 166 147 175 198 199 194 173 173 198 196 170 181 213 189 168 185 187 175 144 143 149 161 162 91 49 184 206 39 19 90 102 105 107 103 105 105 96 96 110 112 119 150 164 173 191 205 202 214 248 255 255 255 255 255 255 247 220 238 223 252 255 244 228 242 246 250 245 234 255 255 255 255 255 255 255 255 255 255 255 255 255 255 255 255 255 255 255 255 253 248 248 243 249 244 231 224 219 234 193 0 0 0 255 255 255 229 245 254 255 253 243 245 255 255 255 255 240 242 248 237 237 250 251 231 236 245 243 242 242 238 250 244 240 255 255 244 249 246 245 239 242 249 247 244 239 238 245 250 250 255 251 253 255 254 255 251 249 243 242 243 239 250 254 235 241 233 93 25 70 0 0 0 0 0 0 0 0 0 0 0 0 0 0 0 0 0 0 0 0 0 0 0 0 0 0 0 0 0 0 0 0 0 0 0 0 0 0 0 0 0 0 0 0 0 0 0 0 0 0 0 0 0 0 0 0 0 0 0 0 0 0 0 0 0 0 0 0 0 0 0 0 0 0 0 0 0 0 0 0 0 
0 6 162 255 255 255 255 248 246 220 192 185 191 209 207 202 199 197 196 198 246 255 255 214 184 168 134 130 143 98 20 2 39 86 114 122 118 115 114 114 114 113 114 110 111 115 109 106 106 104 101 98 80 87 166 247 159 0 0 0 0 0 0 0 0 0 0 0 0 0 0 0 0 0 0 0 0 0 0 17 192 255 204 129 132 126 126 135 127 112 119 144 172 164 147 157 171 155 149 179 184 161 151 192 207 181 171 179 195 165 154 183 206 220 210 180 172 203 202 173 189 217 179 153 189 197 151 140 151 172 180 176 92 37 169 189 23 18 94 108 111 136 181 229 255 255 255 255 255 255 255 255 255 255 255 255 255 255 255 255 255 255 255 255 255 255 245 237 255 255 233 232 253 242 248 249 248 246 255 255 251 244 248 255 255 255 255 239 241 222 227 245 248 255 235 236 255 246 247 246 243 245 244 229 234 248 255 226 0 0 0 255 255 255 231 233 232 241 241 230 229 245 243 245 251 236 231 247 241 237 238 237 234 243 254 254 235 236 230 244 255 251 253 253 248 255 255 248 251 248 250 246 250 255 255 255 255 253 250 241 251 255 251 249 245 246 247 247 248 241 245 255 246 246 255 164 0 43 0 0 0 0 0 0 0 0 0 0 0 0 0 0 0 0 0 0 0 0 0 0 0 0 0 0 0 0 0 0 0 0 0 0 0 0 0 0 0 0 0 0 0 0 0 0 0 0 0 0 0 0 0 0 0 0 0 0 0 0 0 0 0 0 0 0 0 0 0 0 0 0 0 0 0 0 0 0 0 0 0 
0 39 255 255 255 255 247 255 255 231 188 182 193 208 206 205 201 194 192 191 207 255 248 197 172 155 124 114 79 6 0 28 82 111 123 121 116 117 115 111 115 114 112 114 113 112 108 107 105 110 120 107 85 101 182 232 0 0 0 0 0 0 0 0 0 0 0 0 0 0 0 0 0 0 0 0 0 0 0 18 198 255 211 138 136 125 128 146 137 130 153 168 177 163 142 164 175 131 140 175 181 176 169 176 180 175 178 190 203 164 155 192 213 225 207 190 200 222 197 155 176 211 181 153 203 206 129 121 161 192 196 155 82 54 159 170 19 29 105 99 126 255 255 255 255 255 255 255 255 255 255 255 255 255 255 255 255 255 255 255 255 255 255 255 245 254 230 240 255 244 216 221 235 236 245 255 252 235 216 233 234 237 249 255 238 225 228 236 252 255 252 255 255 255 244 237 255 235 235 235 230 245 235 216 234 255 254 223 0 0 0 255 255 255 216 209 218 246 243 219 212 219 225 230 242 237 233 250 255 242 237 240 236 245 255 251 235 235 246 255 255 253 244 251 253 255 250 244 252 254 253 253 255 254 247 250 249 247 245 245 254 255 247 237 233 242 246 248 254 255 252 246 249 255 255 228 12 0 35 0 0 0 0 0 0 0 0 0 0 0 0 0 0 0 0 0 0 0 0 0 0 0 0 0 0 0 0 0 0 0 0 0 0 0 0 0 0 0 0 0 0 0 0 0 0 0 0 0 0 0 0 0 0 0 0 0 0 0 0 0 0 0 0 0 0 0 0 0 0 0 0 0 0 0 0 0 0 0 0 
4 164 255 255 255 232 255 255 255 207 166 170 185 201 207 211 208 196 194 194 193 216 227 190 155 125 82 57 17 0 21 83 104 110 114 111 114 118 113 108 112 111 109 115 115 115 114 112 111 113 124 105 86 117 208 197 0 0 0 0 0 0 0 0 0 0 0 0 0 0 0 0 0 0 0 0 0 0 0 18 196 255 217 156 144 125 130 152 153 153 179 185 175 160 140 165 179 150 162 188 190 193 169 168 186 204 191 194 205 158 155 201 230 226 188 191 227 210 164 152 179 216 203 176 202 200 121 115 172 179 166 119 89 94 182 187 50 35 98 87 140 255 255 255 255 255 255 255 255 255 255 255 255 255 255 253 239 240 255 235 224 244 214 220 243 240 232 241 239 235 208 221 252 247 239 255 240 220 220 253 249 234 253 255 240 230 234 255 255 255 249 253 249 255 236 216 248 253 238 223 211 238 241 220 237 251 238 239 0 0 0 255 255 255 216 212 231 252 236 228 236 237 239 239 239 243 246 249 248 243 254 255 248 235 240 245 241 238 255 255 255 250 244 251 248 242 239 245 252 247 246 255 254 250 245 244 243 242 245 248 255 253 245 237 241 251 252 237 240 251 252 253 255 255 255 255 79 0 77 0 0 0 0 0 0 0 0 0 0 0 0 0 0 0 0 0 0 0 0 0 0 0 0 0 0 0 0 0 0 0 0 0 0 0 0 0 0 0 0 0 0 0 0 0 0 0 0 0 0 0 0 0 0 0 0 0 0 0 0 0 0 0 0 0 0 0 0 0 0 0 0 0 0 0 0 0 0 0 0 
26 255 255 255 255 232 255 255 255 217 178 168 184 203 209 207 200 196 196 200 203 203 205 191 155 103 55 24 14 24 74 94 98 107 108 107 108 109 106 102 109 114 113 118 113 115 115 115 115 117 119 101 82 131 236 205 0 0 0 0 0 0 0 0 0 0 0 0 0 0 0 0 0 0 0 0 0 0 0 18 197 255 232 165 143 121 137 163 154 148 163 173 167 160 155 168 177 164 177 193 176 178 172 177 196 203 177 176 200 194 195 211 209 188 164 189 207 166 138 172 204 215 204 171 172 171 105 117 181 179 159 135 108 100 115 84 0 13 91 86 154 255 255 255 255 253 234 236 227 236 226 185 220 245 238 213 194 204 240 223 218 243 232 221 232 243 246 245 227 226 219 242 255 255 238 239 237 222 246 255 241 216 243 235 226 240 230 250 255 246 241 248 235 231 236 235 249 251 241 225 226 255 255 235 246 251 244 254 31 0 0 213 255 255 244 219 242 255 235 233 244 247 253 255 254 251 255 250 244 250 255 248 232 225 239 244 240 255 255 255 248 249 245 255 255 247 246 251 250 246 244 253 253 246 248 251 252 252 254 255 253 249 251 250 253 254 250 241 249 255 251 246 254 255 255 255 127 0 34 0 0 0 0 0 0 0 0 0 0 0 0 0 0 0 0 0 0 0 0 0 0 0 0 0 0 0 0 0 0 0 0 0 0 0 0 0 0 0 0 0 0 0 0 0 0 0 0 0 0 0 0 0 0 0 0 0 0 0 0 0 0 0 0 0 0 0 0 0 0 0 0 0 0 0 0 0 0 0 0 
107 255 255 255 224 242 255 255 255 237 194 170 193 209 209 206 198 197 201 202 206 206 199 191 162 120 99 68 70 97 125 144 154 149 142 139 133 118 106 105 109 113 112 110 110 112 112 110 113 114 122 108 89 153 255 255 0 0 0 0 0 0 0 0 0 0 0 0 0 0 0 0 0 0 0 0 0 0 0 18 204 255 229 153 130 105 129 167 155 137 143 157 156 152 164 178 180 181 193 191 179 192 185 177 196 203 194 182 193 198 192 185 174 179 183 203 208 173 154 194 221 198 191 162 143 162 131 110 163 170 161 162 106 45 27 7 0 49 103 89 154 255 255 255 250 231 224 243 233 235 230 199 224 253 226 204 205 226 240 242 238 255 250 231 238 255 243 233 240 248 244 241 255 248 232 239 238 232 242 252 237 233 255 248 217 235 236 221 236 226 223 234 232 244 253 244 255 255 247 231 253 255 255 236 248 255 255 255 89 0 0 151 255 255 255 211 247 255 226 238 255 246 246 255 255 255 255 246 240 248 251 239 241 240 245 249 246 249 251 241 245 254 253 255 255 246 254 255 255 246 248 255 252 245 247 245 249 254 252 254 251 247 255 255 250 249 248 255 255 255 250 249 252 255 255 255 192 0 0 30 0 0 0 0 0 0 0 0 0 0 0 0 0 0 0 0 0 0 0 0 0 0 0 0 0 0 0 0 0 0 0 0 0 0 0 0 0 0 0 0 0 0 0 0 0 0 0 0 0 0 0 0 0 0 0 0 0 0 0 0 0 0 0 0 0 0 0 0 0 0 0 0 0 0 0 0 0 0 0 
251 255 255 255 212 244 255 255 255 228 182 159 184 204 207 205 203 206 207 204 209 208 204 196 171 133 142 158 175 239 255 255 252 237 220 201 183 157 138 133 125 117 109 104 107 109 108 110 113 116 126 112 95 175 255 255 0 0 0 0 0 0 0 0 0 0 0 0 0 0 0 0 0 0 0 0 0 0 0 18 207 255 219 147 133 111 126 160 159 147 158 162 154 153 163 176 173 176 208 207 189 197 186 182 198 203 215 184 177 193 173 159 174 212 230 214 202 182 175 198 218 199 185 167 162 191 181 135 149 170 164 147 70 7 52 123 157 146 112 86 152 255 255 255 255 235 224 219 218 236 245 225 235 252 224 202 211 255 255 247 237 249 246 222 228 255 239 218 237 248 240 236 242 233 223 238 242 232 236 238 226 233 255 253 222 249 255 234 255 255 238 243 244 255 255 231 246 255 235 226 253 255 228 224 243 244 229 250 150 0 0 89 255 255 255 198 248 248 214 236 255 242 231 253 255 243 244 240 238 229 223 236 239 244 255 250 255 251 241 244 252 250 244 248 248 243 249 252 254 252 251 255 249 248 252 249 243 249 250 250 249 246 254 249 243 249 249 254 255 249 252 255 255 255 255 255 237 34 0 74 0 0 0 0 0 0 0 0 0 0 0 0 0 0 0 0 0 0 0 0 0 0 0 0 0 0 0 0 0 0 0 0 0 0 0 0 0 0 0 0 0 0 0 0 0 0 0 0 0 0 0 0 0 0 0 0 0 0 0 0 0 0 0 0 0 0 0 0 0 0 0 0 0 0 0 0 0 0 0 
255 255 255 207 214 251 255 255 255 228 189 158 175 203 206 204 205 210 212 206 204 206 203 196 179 163 174 203 244 255 255 255 255 255 242 227 211 186 170 162 151 133 124 115 108 104 105 109 114 116 120 104 104 207 255 255 14 0 0 0 0 0 0 0 0 0 0 0 0 0 0 0 0 0 0 0 0 0 0 20 214 255 220 155 143 119 135 178 175 149 157 172 170 177 179 181 177 170 193 182 152 159 163 184 194 185 193 187 181 192 178 175 188 212 225 191 180 185 184 193 212 204 175 163 167 182 185 159 158 203 195 125 37 41 159 228 200 144 109 85 157 255 255 255 241 231 231 225 238 251 253 242 255 255 227 224 225 247 255 246 248 243 237 225 230 243 220 220 239 226 219 233 248 238 244 255 245 251 248 247 246 233 228 216 225 250 255 241 255 255 248 255 255 242 245 227 243 255 237 229 240 237 221 231 239 243 231 254 189 0 0 12 255 255 255 210 248 244 238 255 255 228 235 251 252 246 239 229 239 232 229 248 253 237 247 246 253 252 237 255 252 246 245 250 250 249 251 253 253 253 254 254 250 252 255 250 253 255 255 251 253 249 250 243 241 245 245 250 255 253 255 255 255 254 255 255 254 106 0 47 0 0 0 0 0 0 0 0 0 0 0 0 0 0 0 0 0 0 0 0 0 0 0 0 0 0 0 0 0 0 0 0 0 0 0 0 0 0 0 0 0 0 0 0 0 0 0 0 0 0 0 0 0 0 0 0 0 0 0 0 0 0 0 0 0 0 0 0 0 0 0 0 0 0 0 0 0 0 0 
255 255 255 187 228 254 255 255 255 240 201 163 177 207 209 208 206 208 208 204 201 203 204 197 185 188 202 215 215 207 202 205 213 217 209 200 196 188 175 169 154 141 128 120 112 104 106 109 112 116 116 98 119 241 255 226 45 0 0 0 0 0 0 0 0 0 0 0 0 0 0 0 0 0 0 0 0 0 0 19 217 255 229 161 141 120 137 167 165 128 134 167 169 191 195 187 190 170 175 176 145 167 167 192 192 175 194 202 184 180 189 189 179 183 201 176 157 166 182 203 206 196 167 156 179 173 170 162 145 181 189 107 45 127 236 218 147 108 87 69 170 255 255 255 255 225 231 244 249 251 244 255 246 223 215 236 239 239 255 241 237 227 218 237 250 229 222 247 248 227 225 239 243 235 255 255 245 251 251 250 255 255 234 217 228 244 235 224 242 255 238 241 247 230 234 238 248 255 247 236 237 244 244 250 244 244 246 255 223 0 0 0 255 255 255 230 253 240 243 255 253 231 242 249 255 252 237 234 247 249 252 255 255 254 243 241 236 245 246 250 233 242 255 255 250 243 244 252 255 249 249 246 249 253 255 249 254 255 254 246 247 252 249 241 248 249 249 255 252 251 254 255 253 254 254 254 255 173 0 0 0 0 0 0 0 0 0 0 0 0 0 0 0 0 0 0 0 0 0 0 0 0 0 0 0 0 0 0 0 0 0 0 0 0 0 0 0 0 0 0 0 0 0 0 0 0 0 0 0 0 0 0 0 0 0 0 0 0 0 0 0 0 0 0 0 0 0 0 0 0 0 0 0 0 0 0 0 0 0 
255 255 255 207 233 249 255 255 255 247 195 156 174 205 208 209 209 208 208 202 199 206 207 196 189 190 196 194 194 187 190 194 192 196 195 191 192 189 181 177 168 160 139 125 114 107 111 112 103 109 109 96 139 255 244 176 83 0 0 0 0 0 0 0 0 0 0 0 0 0 0 0 0 0 0 0 0 0 0 18 211 255 226 162 144 127 138 145 134 118 137 187 187 186 185 170 171 156 169 193 178 192 180 184 195 189 198 217 200 162 180 201 175 166 192 187 167 178 202 217 191 172 159 158 187 189 173 169 148 152 168 107 75 175 252 217 156 96 52 49 169 255 255 255 246 237 244 245 237 232 240 255 247 210 222 255 245 237 255 239 212 223 221 249 255 240 250 255 251 247 246 243 246 244 244 242 234 236 234 245 255 251 234 255 255 248 235 238 254 255 255 248 240 231 246 251 249 250 250 242 233 240 255 251 250 252 248 255 243 0 0 0 255 255 255 238 242 236 243 244 244 244 250 250 255 255 240 241 246 245 254 255 254 255 254 255 253 247 255 255 253 255 255 251 248 240 237 247 254 248 245 248 246 250 253 251 242 248 247 245 249 255 253 253 255 254 252 255 255 252 252 248 249 253 252 255 255 217 0 0 25 0 0 0 0 0 0 0 0 0 0 0 0 0 0 0 0 0 0 0 0 0 0 0 0 0 0 0 0 0 0 0 0 0 0 0 0 0 0 0 0 0 0 0 0 0 0 0 0 0 0 0 0 0 0 0 0 0 0 0 0 0 0 0 0 0 0 0 0 0 0 0 0 0 0 0 0 0 0 
255 255 226 219 232 245 255 255 255 253 194 152 173 203 208 209 209 207 207 204 201 207 206 198 190 187 186 188 194 191 188 190 188 185 185 191 198 194 186 180 180 174 161 149 139 121 120 114 88 82 79 80 160 255 185 140 134 0 0 0 0 0 0 0 0 0 0 0 0 0 0 0 0 0 0 0 0 0 0 20 213 255 223 155 140 123 143 148 130 149 161 192 197 184 179 160 152 151 175 217 200 178 166 159 196 200 188 202 208 175 172 193 165 146 181 194 190 201 227 217 158 143 164 177 198 205 172 167 177 162 163 137 122 199 255 223 154 67 35 56 178 255 255 255 218 240 252 245 235 228 240 242 243 216 231 255 255 240 251 237 225 237 253 255 255 248 250 236 229 241 249 249 255 255 235 227 235 230 211 245 255 244 223 246 255 250 244 250 255 255 241 235 238 230 251 253 252 246 235 245 236 225 240 233 243 255 251 253 252 0 0 0 255 255 255 238 233 236 255 255 255 249 254 255 255 255 248 247 246 243 247 255 239 233 241 255 253 245 255 254 254 255 255 255 254 249 247 255 255 251 251 253 246 246 252 250 244 251 250 247 249 254 251 255 255 248 251 255 255 255 255 255 252 255 255 255 255 248 43 0 14 0 0 0 0 0 0 0 0 0 0 0 0 0 0 0 0 0 0 0 0 0 0 0 0 0 0 0 0 0 0 0 0 0 0 0 0 0 0 0 0 0 0 0 0 0 0 0 0 0 0 0 0 0 0 0 0 0 0 0 0 0 0 0 0 0 0 0 0 0 0 0 0 0 0 0 0 0 0 
255 255 203 215 225 240 255 255 255 255 197 157 177 206 210 210 210 206 205 205 204 204 204 197 189 188 186 191 194 192 189 188 185 183 187 188 191 189 187 184 182 178 165 160 161 148 137 117 83 73 48 24 142 249 148 133 177 0 0 0 0 0 0 0 0 0 0 0 0 0 0 0 0 0 0 0 0 0 0 21 221 255 232 157 137 113 144 157 139 161 168 171 178 176 174 162 166 173 192 228 205 152 146 152 188 204 191 187 200 178 165 181 160 142 177 198 202 199 198 180 150 165 196 191 181 187 161 142 170 174 169 168 161 230 255 222 172 77 40 58 189 255 255 255 210 238 251 217 221 226 241 240 228 221 235 255 248 220 236 236 235 251 255 255 245 244 226 216 240 255 236 244 255 254 227 240 255 250 227 255 250 226 215 220 241 248 255 255 244 236 227 228 248 243 247 240 237 255 244 252 240 224 239 255 254 255 237 254 255 0 0 0 255 255 255 234 221 242 255 255 255 251 249 248 247 255 253 245 255 255 252 254 227 208 243 255 227 239 254 255 252 255 252 247 243 246 255 255 255 255 252 255 255 254 255 255 255 255 255 255 255 255 255 255 255 255 255 238 241 253 253 251 244 243 241 223 228 233 54 0 0 0 0 0 0 0 0 0 0 0 0 0 0 0 0 0 0 0 0 0 0 0 0 0 0 0 0 0 0 0 0 0 0 0 0 0 0 0 0 0 0 0 0 0 0 0 0 0 0 0 0 0 0 0 0 0 0 0 0 0 0 0 0 0 0 0 0 0 0 0 0 0 0 0 0 0 0 0 0 
255 255 209 215 222 237 255 255 255 254 197 157 171 200 209 208 210 205 205 205 202 201 203 203 189 186 186 189 194 193 192 191 189 187 188 186 182 179 179 184 185 184 177 170 163 159 149 134 124 151 106 3 110 240 149 153 198 0 0 0 0 0 0 0 0 0 0 0 0 0 0 0 0 0 0 0 0 0 0 21 227 255 234 160 143 120 152 151 126 156 174 166 173 179 164 148 173 188 183 201 191 139 137 159 172 195 199 180 185 191 177 156 158 173 204 228 227 200 172 160 162 186 202 187 160 150 143 128 150 176 176 163 135 205 255 232 181 54 0 25 206 255 255 255 219 248 248 206 227 237 237 244 226 233 237 237 236 215 225 244 238 243 255 240 219 248 243 224 253 255 247 240 242 225 216 243 255 255 250 255 240 221 224 223 255 255 254 249 229 227 244 244 245 248 253 255 248 255 251 254 244 230 247 255 255 255 227 246 255 55 0 0 191 255 255 240 211 246 255 253 248 246 237 243 244 255 252 231 239 255 246 238 237 243 255 255 240 249 255 255 255 255 255 255 255 255 255 255 255 255 255 255 255 255 255 255 255 250 248 239 229 223 215 203 184 179 146 42 31 96 79 44 45 33 14 0 0 27 0 0 0 0 0 0 0 0 0 0 0 0 0 0 0 0 0 0 0 0 0 0 0 0 0 0 0 0 0 0 0 0 0 0 0 0 0 0 0 0 0 0 0 0 0 0 0 0 0 0 0 0 0 0 0 0 0 0 0 0 0 0 0 0 0 0 0 0 0 0 0 0 0 0 0 0 0 0 0 0 0 
255 255 212 217 224 238 255 255 255 255 206 157 164 198 208 208 205 203 203 206 204 202 200 204 191 182 181 181 188 188 192 192 187 183 183 180 179 177 172 175 179 179 180 171 167 159 150 147 188 255 255 135 169 255 180 155 202 0 0 0 0 0 0 0 0 0 0 0 0 0 0 0 0 0 0 0 0 0 0 23 228 255 226 151 135 126 157 148 127 163 177 175 193 196 167 142 167 188 178 192 195 152 133 171 178 180 179 153 166 215 208 152 155 195 226 247 233 205 180 170 178 174 183 186 152 136 156 149 153 171 175 140 87 128 191 154 63 0 0 21 232 255 255 255 238 248 245 224 241 255 222 224 236 254 247 245 255 246 233 255 244 225 240 253 229 239 247 238 246 248 243 242 231 223 230 242 252 255 251 225 224 251 247 237 255 249 239 235 214 236 255 250 235 248 249 247 250 255 254 249 235 234 250 255 255 245 228 250 255 110 0 0 108 255 255 255 210 244 249 245 241 236 225 240 247 244 255 237 221 249 255 255 255 255 255 255 255 255 255 255 255 255 255 248 234 228 216 203 194 181 162 143 131 114 87 71 45 27 19 0 0 0 0 0 0 0 0 0 0 0 0 0 0 0 0 0 0 0 0 0 16 0 0 0 0 0 0 0 0 0 0 0 0 0 0 0 0 0 0 0 0 0 0 0 0 0 0 0 0 0 0 0 0 0 0 0 0 0 0 0 0 0 0 0 0 0 0 0 0 0 0 0 0 0 0 0 0 0 0 0 0 0 0 0 0 0 0 0 0 0 0 0 0 0 0 0 0 0 0 
255 255 218 220 228 242 255 255 255 255 210 156 159 194 209 207 203 204 203 202 205 202 201 202 196 184 182 184 190 192 192 188 181 178 177 179 179 176 172 175 175 170 170 166 165 162 149 157 221 255 255 255 237 255 204 162 207 0 0 0 0 0 0 0 0 0 0 0 0 0 0 0 0 0 0 0 0 0 0 22 227 255 222 143 120 115 145 143 141 178 174 162 182 184 168 152 168 186 191 196 190 150 122 168 197 187 175 167 180 207 206 166 182 228 229 214 203 193 186 177 175 156 164 187 146 125 167 171 165 175 182 136 71 104 159 86 0 0 0 66 232 255 255 255 252 238 236 240 243 239 206 220 250 255 249 246 255 255 243 255 255 235 246 255 247 222 232 226 221 236 238 236 234 254 255 255 245 246 238 218 238 255 252 235 251 224 214 232 236 255 255 237 221 250 250 234 239 244 250 246 233 237 247 254 248 208 220 255 255 163 0 0 36 255 255 255 238 255 255 255 255 255 255 255 255 255 255 255 200 191 224 210 219 211 199 181 157 144 138 116 94 76 48 5 0 0 0 0 0 0 0 0 0 0 0 0 0 0 0 0 0 0 0 0 0 0 0 0 0 53 28 5 6 8 29 66 63 38 38 63 94 0 0 0 0 0 0 0 0 0 0 0 0 0 0 0 0 0 0 0 0 0 0 0 0 0 0 0 0 0 0 0 0 0 0 0 0 0 0 0 0 0 0 0 0 0 0 0 0 0 0 0 0 0 0 0 0 0 0 0 0 0 0 0 0 0 0 0 0 0 0 0 0 0 0 0 0 0 0 
255 255 219 226 237 241 252 255 255 255 208 148 151 195 212 205 202 204 202 200 202 199 198 204 201 187 183 185 191 190 187 181 176 177 176 177 178 175 173 174 176 168 164 162 160 156 146 164 233 255 255 255 206 215 194 180 215 0 0 0 0 0 0 0 0 0 0 0 0 0 0 0 0 0 0 0 0 0 0 23 230 255 228 143 128 129 151 141 137 172 166 149 157 158 141 133 149 180 195 177 157 135 119 164 214 213 192 210 229 184 176 183 208 244 229 194 190 186 176 163 168 156 160 180 138 115 166 188 188 200 192 133 73 104 175 129 21 2 69 84 233 255 255 255 247 231 229 231 220 221 214 234 255 255 238 229 254 230 225 255 255 232 239 251 243 218 227 225 226 251 254 241 237 255 255 242 238 250 232 237 255 255 241 225 241 227 227 244 248 255 254 228 227 247 245 234 225 234 255 255 248 252 255 255 255 238 255 255 255 227 0 0 0 255 255 255 239 255 239 201 169 169 167 153 133 103 76 40 0 0 0 0 0 0 0 0 0 0 0 0 0 0 0 0 0 0 0 0 0 0 0 0 0 0 0 0 0 0 27 31 40 72 87 104 119 153 148 141 165 168 169 170 155 154 187 204 183 167 179 171 114 0 0 0 0 0 0 0 0 0 0 0 0 0 0 0 0 0 0 0 0 0 0 0 0 0 0 0 0 0 0 0 0 0 0 0 0 0 0 0 0 0 0 0 0 0 0 0 0 0 0 0 0 0 0 0 0 0 0 0 0 0 0 0 0 0 0 0 0 0 0 0 0 0 0 0 0 0 0 
255 255 222 231 229 223 239 255 255 255 204 148 153 195 209 202 202 206 200 200 202 201 200 201 193 181 171 171 178 178 175 176 174 176 176 172 176 176 173 172 174 168 163 161 157 150 143 173 240 255 255 234 159 102 157 191 216 0 0 0 0 0 0 0 0 0 0 0 0 0 0 0 0 0 0 0 0 0 0 24 238 255 225 141 138 142 152 141 132 152 153 157 163 173 159 143 152 179 195 162 156 164 143 187 242 235 172 189 231 180 181 220 206 209 197 188 196 191 169 148 172 189 177 163 131 114 164 202 206 201 181 142 83 100 176 152 66 48 73 80 246 255 255 255 242 239 223 216 215 223 228 235 254 255 240 232 255 233 219 249 248 223 221 242 246 218 227 255 255 255 255 247 234 228 232 221 223 248 247 254 255 242 220 228 245 248 255 255 255 252 249 250 255 255 255 255 254 255 255 255 255 255 252 241 235 218 229 207 175 120 0 0 0 255 255 253 0 0 0 0 0 0 0 0 0 0 0 0 0 0 0 0 0 0 0 0 0 0 0 0 0 0 0 0 0 26 60 62 67 89 111 123 130 162 170 162 182 185 195 180 164 175 185 194 183 184 168 161 169 166 160 140 111 108 131 140 129 132 145 148 118 43 0 0 0 0 0 0 0 0 0 0 0 0 0 0 0 0 0 0 0 0 0 0 0 0 0 0 0 0 0 0 0 0 0 0 0 0 0 0 0 0 0 0 0 0 0 0 0 0 0 0 0 0 0 0 0 0 0 0 0 0 0 0 0 0 0 0 0 0 0 0 0 0 0 0 0 0 0 
255 255 222 225 218 211 237 255 255 255 209 159 159 190 204 206 206 204 200 201 194 183 182 184 187 199 210 220 231 233 228 217 205 197 190 187 187 190 189 179 173 165 160 158 156 153 147 169 233 255 255 226 140 44 107 185 210 0 0 0 0 0 0 0 0 0 0 0 0 0 0 0 0 0 0 0 0 0 0 24 237 255 208 127 127 124 127 137 147 154 150 155 155 178 177 163 176 194 203 170 157 173 148 206 240 205 135 144 198 184 197 218 189 191 188 189 196 188 159 141 183 200 153 132 138 152 193 221 205 178 149 127 79 99 175 151 44 18 56 84 245 255 255 254 249 244 218 220 237 240 236 239 240 244 239 217 224 221 227 245 234 220 229 255 254 221 230 255 255 245 252 253 228 224 245 255 253 255 255 244 255 245 228 239 255 255 255 255 255 255 255 225 203 194 168 146 139 129 114 78 38 6 0 0 0 0 0 0 0 0 0 0 0 246 255 0 0 0 0 0 0 0 0 0 0 0 0 0 0 0 8 15 24 60 76 75 84 117 134 132 122 125 145 178 182 174 186 166 161 174 160 155 162 175 163 149 169 168 162 159 143 150 156 157 155 147 151 165 179 165 141 124 117 137 155 165 149 125 131 156 146 81 0 0 0 0 0 0 0 0 0 0 0 0 0 0 0 0 0 0 0 0 0 0 0 0 0 0 0 0 0 0 0 0 0 0 0 0 0 0 0 0 0 0 0 0 0 0 0 0 0 0 0 0 0 0 0 0 0 0 0 0 0 0 0 0 0 0 0 0 0 0 0 0 0 0 0 0 0 
255 255 220 220 215 215 246 255 255 255 221 176 164 185 204 210 203 190 184 187 197 218 245 255 255 255 255 255 255 255 255 234 215 210 212 190 115 91 133 168 172 164 159 157 156 153 151 153 196 255 255 230 143 70 98 174 196 28 0 0 0 0 0 0 0 0 0 0 0 0 0 0 0 0 0 0 0 0 0 26 245 255 204 132 128 113 118 140 150 141 139 152 158 170 161 146 172 189 195 193 157 162 160 213 225 161 134 153 207 206 186 171 180 200 206 201 196 177 152 135 170 187 121 107 156 188 218 227 192 173 145 115 63 83 158 122 26 22 67 87 215 255 255 255 255 226 207 219 240 240 247 255 255 253 240 228 219 240 255 251 253 246 250 255 255 255 255 255 255 239 255 255 255 255 249 226 226 234 179 99 91 119 80 65 94 93 45 16 11 0 0 0 0 0 0 0 0 0 0 0 0 0 0 0 0 0 0 0 0 0 0 0 0 150 255 81 0 0 0 14 36 70 73 81 107 123 121 127 150 153 151 160 161 176 180 156 155 162 164 161 145 137 147 159 133 110 139 140 128 140 137 137 155 166 166 144 155 163 159 166 156 157 161 152 159 166 164 170 165 149 136 139 139 152 179 188 166 133 131 158 161 92 0 0 0 0 0 0 0 0 0 0 0 0 0 0 0 0 0 0 0 0 0 0 0 0 0 0 0 0 0 0 0 0 0 0 0 0 0 0 0 0 0 0 0 0 0 0 0 0 0 0 0 0 0 0 0 0 0 0 0 0 0 0 0 0 0 0 0 0 0 0 0 0 0 0 0 0 0 
255 255 217 219 218 228 245 255 255 255 227 179 161 184 203 197 182 187 218 255 255 255 255 255 255 225 182 147 123 104 101 96 103 126 147 127 30 0 58 171 207 197 185 171 159 150 150 144 168 255 255 242 148 98 107 169 188 58 0 0 0 0 0 0 0 0 0 0 0 0 0 0 0 0 0 0 0 0 0 27 250 255 202 151 150 130 136 148 136 117 113 141 163 170 157 147 167 177 180 193 163 145 183 214 202 153 165 192 218 207 167 143 174 201 202 197 183 159 156 160 184 204 156 136 177 194 206 191 162 165 147 116 66 72 124 80 24 43 80 90 171 255 255 255 255 218 207 235 237 249 255 255 255 255 255 255 255 255 255 255 255 255 246 231 227 223 194 176 147 122 120 96 62 43 0 0 0 0 0 0 0 0 0 0 0 0 0 0 0 0 0 0 0 0 0 0 0 0 0 0 0 0 0 0 7 7 13 45 59 88 48 0 0 111 255 255 139 140 163 169 159 145 134 142 151 153 140 133 146 141 137 143 145 149 141 125 127 124 132 129 122 131 146 159 147 123 144 163 139 141 156 147 162 172 168 163 169 168 168 173 163 161 180 181 188 193 179 166 153 137 128 138 114 84 89 96 92 87 110 135 108 66 0 0 0 0 0 0 0 0 0 0 0 0 0 0 0 0 0 0 0 0 0 0 0 0 0 0 0 0 0 0 0 0 0 0 0 0 0 0 0 0 0 0 0 0 0 0 0 0 0 0 0 0 0 0 0 0 0 0 0 0 0 0 0 0 0 0 0 0 0 0 0 0 0 0 0 0 0 
255 255 214 215 210 222 237 255 255 255 232 181 155 171 187 194 211 248 255 255 255 206 131 64 12 0 0 0 0 0 3 17 35 58 71 63 57 120 235 255 255 194 182 187 177 164 160 154 165 255 255 255 129 84 103 157 192 86 0 0 0 0 0 0 0 0 0 0 0 0 0 0 0 0 0 0 0 0 0 29 254 255 196 151 141 122 140 141 131 125 119 140 154 156 153 154 163 166 159 163 157 137 174 204 161 133 171 210 213 186 144 132 180 214 201 190 165 157 171 179 197 208 174 139 175 198 184 156 145 148 126 94 59 55 100 78 38 64 89 101 159 255 255 255 250 244 254 255 255 247 212 194 207 180 149 147 154 133 83 38 33 13 0 0 0 0 0 0 0 0 0 0 0 0 0 0 0 0 0 0 0 0 0 0 0 0 0 0 0 0 0 0 27 58 73 86 93 93 111 135 137 133 138 142 146 140 138 148 142 152 110 0 0 117 255 255 147 121 135 138 129 126 116 111 110 120 119 113 124 127 127 133 131 141 132 120 125 125 134 138 134 139 142 142 148 151 158 172 161 148 165 154 159 188 169 148 145 146 150 152 130 118 128 114 105 90 72 68 67 62 63 84 90 91 88 65 104 146 184 219 114 0 0 0 0 0 0 0 0 0 0 0 0 0 0 0 0 0 0 0 0 0 0 0 0 0 0 0 0 0 0 0 0 0 0 0 0 0 0 0 0 0 0 0 0 0 0 0 0 0 0 0 0 0 0 0 0 0 0 0 0 0 0 0 0 0 0 0 0 0 0 0 0 0 0 0 0 0 0 
255 255 214 213 213 215 233 255 255 255 231 186 151 163 193 212 235 231 178 102 18 0 0 0 0 0 6 34 52 64 73 77 80 86 85 78 105 191 255 255 215 81 102 149 166 175 174 165 177 255 255 255 127 62 98 147 193 111 0 0 0 0 0 0 0 0 0 0 0 0 0 0 0 0 0 0 0 0 0 32 255 255 200 151 123 100 125 124 123 124 125 155 167 158 159 146 143 146 154 165 169 151 171 207 146 122 179 193 182 177 163 160 203 226 200 176 154 158 164 158 182 175 137 119 159 189 168 144 157 150 109 89 64 53 101 122 96 99 108 103 140 245 247 123 93 118 85 42 34 0 0 0 0 0 0 0 0 0 0 0 0 0 0 0 0 0 0 0 0 0 0 0 0 0 0 0 8 30 46 55 78 105 107 112 132 124 126 145 138 118 124 140 142 142 143 142 135 128 140 151 138 129 131 128 132 126 122 124 117 132 107 0 0 81 255 255 144 114 125 123 111 113 112 103 111 117 121 116 120 124 129 133 127 149 135 119 128 138 144 154 155 157 147 140 147 155 141 146 166 113 74 78 90 104 60 7 1 4 29 56 59 59 89 105 117 132 146 172 181 195 222 255 255 255 255 255 255 255 255 255 242 30 0 0 0 0 0 0 0 0 0 0 0 0 0 0 0 0 0 0 0 0 0 0 0 0 0 0 0 0 0 0 0 0 0 0 0 0 0 0 0 0 0 0 0 0 0 0 0 0 0 0 0 0 0 0 0 0 0 0 0 0 0 0 0 0 0 0 0 0 0 0 0 0 0 0 0 0 0 
255 255 212 220 221 223 247 255 255 255 231 178 145 162 182 168 135 65 0 0 0 0 12 41 68 87 97 106 108 109 107 112 115 114 112 107 115 126 114 91 33 0 65 107 114 137 159 160 156 211 255 255 140 59 98 147 188 126 0 0 0 0 0 0 0 0 0 0 0 0 0 0 0 0 0 0 0 0 0 35 255 255 193 145 123 109 125 120 109 116 129 174 180 169 170 154 146 151 162 171 166 148 157 187 138 132 190 190 162 177 190 191 219 233 191 151 143 144 126 115 157 159 131 142 163 183 158 160 177 140 102 110 101 84 118 153 136 117 104 87 111 154 114 0 0 0 0 0 0 0 0 0 0 0 0 0 0 0 0 0 0 0 0 0 3 12 35 64 82 91 98 115 130 132 141 139 135 148 153 138 134 143 148 136 135 135 123 125 113 99 116 133 126 123 127 123 119 116 126 129 124 117 118 121 123 119 116 112 105 125 113 0 0 84 255 255 170 113 118 127 123 118 114 112 125 132 129 123 129 144 146 134 127 135 126 105 112 122 116 99 88 87 118 128 101 84 60 21 1 0 0 30 104 128 93 51 93 129 161 210 241 255 255 255 255 255 255 255 255 255 255 255 255 255 255 255 255 255 229 198 176 85 0 0 0 0 0 0 0 0 0 0 0 0 0 0 0 0 0 0 0 0 0 0 0 0 0 0 0 0 0 0 0 0 0 0 0 0 0 0 0 0 0 0 0 0 0 0 0 0 0 0 0 0 0 0 0 0 0 0 0 0 0 0 0 0 0 0 0 0 0 0 0 0 0 0 0 0 0 
255 255 209 216 216 221 244 255 255 255 221 152 110 107 98 55 13 0 0 29 60 81 100 103 109 114 116 118 119 118 118 121 122 123 127 125 126 119 102 80 62 76 101 106 106 107 120 134 116 135 199 237 158 69 95 150 178 133 0 0 0 0 0 0 0 0 0 0 0 0 0 0 0 0 0 0 0 0 0 36 255 255 190 143 122 107 123 130 119 117 137 179 177 161 160 152 153 161 162 160 144 140 159 159 130 149 189 191 178 179 193 193 213 224 174 146 147 131 99 113 151 140 126 161 174 183 171 163 172 143 119 140 119 90 122 159 119 72 55 83 114 120 72 0 0 0 0 0 0 0 0 32 54 60 80 82 69 104 121 117 129 132 134 138 138 139 142 136 132 136 133 128 126 125 128 123 118 124 131 121 120 130 134 117 108 117 110 114 117 111 125 129 118 122 124 116 117 115 119 124 122 116 116 120 121 119 118 107 105 119 128 18 0 154 255 255 174 102 108 113 114 122 110 95 93 103 111 99 91 95 85 65 56 54 43 32 49 63 65 74 104 129 174 209 175 169 193 131 63 58 165 255 255 255 255 255 255 255 255 255 255 255 255 255 228 208 201 182 154 142 159 112 0 0 0 0 0 0 0 0 134 83 0 0 0 0 0 0 0 0 0 0 0 0 0 0 0 0 0 0 0 0 0 0 0 0 0 0 0 0 0 0 0 0 0 0 0 0 0 0 0 0 0 0 0 0 0 0 0 0 0 0 0 0 0 0 0 0 0 0 0 0 0 0 0 0 0 0 0 0 0 0 0 0 0 0 0 0 0 
255 255 211 217 207 213 235 255 255 251 184 91 36 23 11 5 24 46 66 88 96 106 111 111 111 113 110 111 111 111 112 115 111 115 120 118 120 124 127 124 122 123 118 118 118 111 112 122 101 129 160 143 142 90 95 152 174 147 0 0 0 0 0 0 0 0 0 0 0 0 0 0 0 0 0 0 0 0 0 34 255 255 188 142 121 107 125 138 140 139 152 178 163 135 134 129 132 140 162 156 158 156 167 157 147 169 176 170 165 154 165 177 189 182 141 146 172 158 128 146 172 160 152 183 185 176 181 159 155 141 133 145 122 82 97 133 93 48 67 110 123 117 108 95 100 111 123 132 127 125 132 127 133 140 144 127 104 133 149 129 132 130 121 126 126 118 121 116 118 119 108 109 121 124 120 120 117 118 125 119 120 131 125 108 102 114 109 113 127 122 128 122 105 114 118 111 117 114 115 128 126 122 125 136 134 133 130 112 121 132 128 111 79 202 255 189 96 47 33 17 10 9 0 0 0 0 0 0 2 79 96 121 149 166 153 148 173 190 216 255 255 255 255 255 255 255 255 255 255 255 255 255 255 155 82 34 42 3 0 0 0 0 0 0 0 0 98 114 107 116 127 146 0 0 0 0 0 0 0 16 255 155 0 0 0 0 0 0 0 0 0 0 0 0 0 0 0 0 0 0 0 0 0 0 0 0 0 0 0 0 0 0 0 0 0 0 0 0 0 0 0 0 0 0 0 0 0 0 0 0 0 0 0 0 0 0 0 0 0 0 0 0 0 0 0 0 0 0 0 0 0 0 0 0 0 0 0 0 0 
255 255 211 211 209 216 235 255 255 208 89 0 0 0 15 48 72 83 94 104 109 113 110 102 95 93 67 27 0 0 0 0 0 28 74 95 102 114 124 125 123 120 122 128 122 117 120 124 115 147 175 128 140 136 110 138 169 164 0 0 0 0 0 0 0 0 0 0 0 0 0 0 0 0 0 0 0 0 0 35 255 255 184 129 115 114 131 138 146 155 155 174 172 149 133 130 135 134 159 157 144 158 158 156 155 164 166 163 148 138 162 176 157 147 145 164 186 168 149 164 191 188 197 219 211 187 162 149 144 149 147 128 116 87 95 103 77 73 104 115 110 109 109 104 104 113 126 125 121 122 133 124 126 138 135 119 92 118 134 115 117 117 111 119 123 110 109 118 121 121 111 115 127 131 125 121 117 112 116 120 118 123 114 103 106 114 112 115 123 118 122 124 122 136 135 124 123 119 117 128 119 107 101 93 78 65 50 26 25 18 0 2 12 72 123 37 0 0 0 0 27 66 47 61 129 138 90 113 173 236 255 255 255 255 255 255 255 252 243 255 255 255 220 176 145 173 104 0 0 0 0 0 0 0 0 0 0 0 0 0 0 0 0 0 0 0 255 205 134 148 145 191 23 0 0 0 0 0 0 255 255 201 0 0 0 0 0 0 0 0 0 0 0 0 0 0 0 0 0 0 0 0 0 0 0 0 0 0 0 0 0 0 0 0 0 0 0 0 0 0 0 0 0 0 0 0 0 0 0 0 0 0 0 0 0 0 0 0 0 0 0 0 0 0 0 0 0 0 0 0 0 0 0 0 0 0 0 0 0 
255 255 207 205 204 210 237 255 240 111 0 0 0 24 62 88 98 104 110 113 110 99 76 8 0 0 0 0 0 0 0 0 0 0 0 0 0 0 74 101 109 114 124 133 128 125 127 127 125 137 136 107 163 164 122 121 158 172 0 0 0 0 0 0 0 0 0 0 0 0 0 0 0 0 0 0 0 0 0 38 255 255 189 128 114 116 123 118 132 141 138 151 166 163 153 142 157 141 134 151 145 159 148 158 165 155 166 183 155 145 182 186 166 168 167 184 181 166 163 171 194 199 204 220 213 184 154 139 133 148 167 143 124 96 94 135 144 126 111 98 95 100 96 91 101 110 124 122 123 124 131 118 112 125 119 115 100 116 128 112 117 114 103 113 119 109 105 114 119 113 113 123 138 139 134 135 133 127 127 129 126 125 120 120 120 120 114 110 109 95 87 83 69 60 49 29 18 6 0 0 0 0 0 0 0 0 0 0 0 0 0 19 55 68 97 85 78 140 145 159 255 255 255 255 255 255 255 255 255 209 176 126 39 0 0 0 0 0 0 0 133 121 87 87 111 181 49 0 0 0 0 0 0 0 0 0 0 0 0 0 0 0 0 0 0 196 255 255 121 150 137 189 60 0 0 61 42 8 32 255 255 243 0 0 0 0 0 0 0 0 0 0 0 0 0 0 0 0 0 0 0 0 0 0 0 0 0 0 0 0 0 0 0 0 0 0 0 0 0 0 0 0 0 0 0 0 0 0 0 0 0 0 0 0 0 0 0 0 0 0 0 0 0 0 0 0 0 0 0 0 0 0 0 0 0 0 0 0 0 
255 255 217 204 205 212 255 255 142 0 0 0 37 75 96 110 116 114 106 91 40 0 0 0 0 0 0 0 0 0 0 0 0 0 0 0 0 0 0 0 6 85 119 123 128 131 135 133 132 129 117 129 181 153 106 122 155 183 0 0 0 0 0 0 0 0 0 0 0 0 0 0 0 0 0 0 0 0 0 39 255 255 187 128 117 119 125 117 123 128 133 144 154 161 156 148 158 132 96 143 163 153 157 166 170 154 166 194 161 146 182 185 174 184 179 188 169 161 185 186 196 203 211 210 186 158 137 144 162 171 195 164 121 91 89 153 170 129 93 85 101 105 101 97 109 121 120 113 112 111 122 117 107 118 114 114 113 117 126 118 124 120 112 129 138 132 125 133 134 124 119 127 136 122 106 105 99 86 69 64 47 33 23 11 0 0 0 0 0 0 0 0 0 0 0 0 0 0 0 1 18 31 49 78 113 133 161 188 210 202 213 255 255 255 255 255 255 255 255 255 255 255 255 164 0 0 0 0 0 0 0 0 0 0 0 0 0 0 0 0 242 201 116 153 175 211 81 0 0 0 0 0 0 0 15 17 4 14 25 38 46 44 36 20 20 199 255 255 124 158 149 175 100 0 0 25 29 9 20 255 255 255 0 0 0 0 0 0 0 0 0 0 0 0 0 0 0 0 0 0 0 0 0 0 0 0 0 0 0 0 0 0 0 0 0 0 0 0 0 0 0 0 0 0 0 0 0 0 0 0 0 0 0 0 0 0 0 0 0 0 0 0 0 0 0 0 0 0 0 0 0 0 0 0 0 0 0 0 0 
255 255 232 203 207 235 255 196 20 0 0 46 73 98 115 115 111 96 53 0 0 0 0 0 0 0 0 0 0 0 0 0 0 0 0 0 0 0 0 0 0 51 179 148 127 128 133 138 135 136 148 167 187 153 96 118 156 188 0 0 0 0 0 0 0 0 0 0 0 0 0 0 0 0 0 0 0 0 0 41 255 255 179 126 123 122 126 135 137 131 141 149 131 148 172 177 178 153 113 169 200 156 165 174 176 167 171 191 166 146 181 183 176 192 175 171 161 158 192 183 187 197 209 191 159 152 151 156 172 180 179 141 92 81 85 140 147 70 44 79 102 106 98 92 103 117 114 104 109 114 113 119 116 125 122 124 127 117 122 120 117 108 91 96 90 74 54 47 39 20 5 0 0 0 0 0 0 0 0 0 0 0 0 0 0 0 0 24 47 71 96 114 140 168 185 190 212 247 255 255 255 255 255 255 255 255 255 255 255 255 255 255 255 255 255 255 255 255 255 255 255 255 255 0 0 0 0 0 0 0 0 0 0 0 0 0 0 0 0 186 255 251 86 153 163 170 95 0 0 23 42 24 41 39 34 27 10 25 34 40 51 46 25 8 9 165 255 255 150 161 153 166 154 0 0 9 45 20 17 255 255 255 1 0 0 0 0 0 0 0 0 0 0 0 0 0 0 0 0 0 0 0 0 0 0 0 0 0 0 0 0 0 0 0 0 0 0 0 0 0 0 0 0 0 0 0 0 0 0 0 0 0 0 0 0 0 0 0 0 0 0 0 0 0 0 0 0 0 0 0 0 0 0 0 0 0 0 0 0 
255 255 250 197 216 255 228 67 0 0 49 80 100 120 118 100 89 12 0 0 0 0 0 0 0 0 0 0 0 0 0 0 0 0 0 0 0 0 0 0 0 255 255 255 159 129 128 136 138 139 144 143 137 113 92 108 148 193 26 0 0 0 0 0 0 0 0 0 0 0 0 0 0 0 0 0 0 0 0 44 255 255 177 130 122 116 122 148 151 147 150 139 108 131 172 182 173 152 153 209 221 171 173 174 169 162 160 185 175 158 188 206 198 190 163 162 177 186 199 185 173 173 185 188 157 165 186 175 140 146 137 99 90 90 86 132 171 122 96 123 141 158 164 173 180 157 122 103 106 101 83 76 56 50 42 29 14 0 0 0 0 0 0 0 0 0 0 0 0 0 0 0 0 0 0 0 18 47 75 96 107 147 167 176 210 218 223 229 229 224 206 173 146 129 97 33 166 255 255 255 255 255 255 255 255 255 255 255 255 255 255 255 255 255 255 255 255 255 255 255 255 255 255 0 0 0 8 6 4 14 26 31 28 36 36 32 34 28 34 180 255 255 115 160 148 146 125 0 0 0 43 21 29 36 28 21 13 27 30 28 43 26 17 20 23 143 255 255 157 147 132 147 179 0 0 0 64 26 6 203 255 255 44 0 0 0 0 0 0 0 0 0 0 0 0 0 0 0 0 0 0 0 0 0 0 0 0 0 0 0 0 0 0 0 0 0 0 0 0 0 0 0 0 0 0 0 0 0 0 0 0 0 0 0 0 0 0 0 0 0 0 0 0 0 0 0 0 0 0 0 0 0 0 0 0 0 0 0 0 
255 255 255 199 240 246 120 0 0 34 85 105 117 117 106 87 0 0 0 0 0 0 0 0 0 0 0 0 0 0 0 0 0 0 0 0 0 0 0 0 196 255 255 255 193 160 141 140 139 133 132 127 122 126 124 111 125 184 62 0 0 0 0 0 0 0 0 0 0 0 0 0 0 0 0 0 0 0 0 45 255 255 179 140 116 106 130 154 150 141 144 144 136 154 191 163 116 124 168 196 191 161 157 158 161 160 163 177 178 161 180 211 201 172 155 176 200 199 194 174 162 159 176 200 182 185 184 162 125 127 122 95 102 91 85 181 255 236 189 224 255 255 253 242 208 91 0 0 0 0 0 0 0 0 0 0 0 0 0 0 0 0 0 9 33 48 62 86 120 156 166 178 173 185 240 255 255 255 255 255 249 144 74 33 19 0 0 0 0 0 0 0 0 0 0 0 0 255 255 255 255 255 255 255 255 255 255 255 231 35 0 0 104 192 189 182 181 182 178 178 187 224 255 0 0 0 67 36 20 24 30 22 16 23 19 18 25 24 22 128 255 255 182 183 166 166 158 0 0 0 44 20 31 38 25 15 15 27 30 30 45 25 19 26 17 100 255 255 169 135 123 143 186 0 0 0 66 25 0 141 255 255 74 0 0 0 0 0 0 0 0 0 0 0 0 0 0 0 0 0 0 0 0 0 0 0 0 0 0 0 0 0 0 0 0 0 0 0 0 0 0 0 0 0 0 0 0 0 0 0 0 0 0 0 0 0 0 0 0 0 0 0 0 0 0 0 0 0 0 0 0 0 0 0 0 0 0 0 0 
255 255 255 212 255 172 0 0 22 87 112 115 106 98 90 0 0 0 0 0 0 0 0 0 0 0 0 0 0 0 0 0 0 0 0 0 0 0 0 14 255 255 255 183 132 157 161 147 142 138 136 145 143 143 146 128 109 158 101 0 0 0 0 0 0 0 0 0 0 0 0 0 0 0 0 0 0 0 0 45 255 255 179 143 107 117 157 164 155 151 150 162 178 192 203 169 129 157 181 170 156 150 154 158 164 173 184 190 187 172 180 199 188 175 186 204 202 172 180 174 162 165 180 207 190 184 181 161 133 124 95 54 25 0 12 148 228 105 14 55 55 21 0 0 0 0 0 0 0 0 0 10 35 32 32 50 80 114 141 162 164 166 177 182 173 154 123 105 101 87 56 7 0 102 245 255 218 200 175 157 115 0 0 0 0 0 0 0 0 0 0 0 0 0 0 0 8 255 255 251 193 200 196 188 184 184 197 70 0 0 0 0 0 180 249 215 217 219 218 214 215 229 255 0 0 0 45 31 26 36 39 29 30 29 27 30 32 26 13 95 255 255 216 178 160 165 181 0 0 0 30 18 29 31 20 17 21 23 26 25 39 37 21 24 11 77 255 255 205 139 133 141 199 0 0 0 57 21 0 107 255 255 119 0 0 0 0 0 0 0 0 0 0 0 0 0 0 0 0 0 0 0 0 0 0 0 0 0 0 0 0 0 0 0 0 0 0 0 0 0 0 0 0 0 0 0 0 0 0 0 0 0 0 0 0 0 0 0 0 0 0 0 0 0 0 0 0 0 0 0 0 0 0 0 0 0 0 0 0 
255 255 255 228 225 67 0 0 84 103 112 101 87 92 29 0 0 0 0 0 0 0 0 0 0 0 0 0 0 0 0 0 0 0 0 0 0 0 0 61 255 255 255 115 104 132 169 150 139 146 145 148 146 137 136 136 113 126 120 0 0 0 0 0 0 0 0 0 0 0 0 0 0 0 0 0 0 0 0 43 255 255 179 139 116 134 167 163 155 158 160 161 169 161 159 167 170 187 179 163 157 154 155 177 181 169 166 183 187 185 191 202 188 179 200 196 180 160 179 175 150 171 193 208 183 162 140 95 59 8 0 0 0 0 1 88 19 0 0 0 0 0 0 0 0 0 42 174 203 204 223 233 252 237 121 68 67 60 42 6 0 0 0 0 0 0 0 0 0 0 0 0 0 0 205 204 126 103 113 110 93 0 0 0 0 0 0 1 5 22 37 42 40 46 49 0 84 255 255 238 162 195 207 209 217 239 135 0 0 0 0 0 0 255 255 206 205 225 224 218 217 226 255 81 0 0 39 35 29 37 35 29 33 27 24 26 24 26 20 81 255 255 224 150 136 145 181 0 0 0 36 39 28 17 23 29 27 26 25 24 35 31 8 13 8 54 255 255 234 134 146 160 220 34 0 0 37 15 0 91 255 255 173 0 0 0 0 0 0 0 0 0 0 0 0 0 0 0 0 0 0 0 0 0 0 0 0 0 0 0 0 0 0 0 0 0 0 0 0 0 0 0 0 0 0 0 0 0 0 0 0 0 0 0 0 0 0 0 0 0 0 0 0 0 0 0 0 0 0 0 0 0 0 0 0 0 0 0 0 
255 255 255 212 132 0 0 64 111 117 106 97 103 80 0 0 0 0 0 0 0 0 0 0 0 0 0 0 0 0 0 0 0 0 0 0 0 0 0 125 255 255 255 119 135 157 185 165 140 150 150 143 142 133 135 139 121 101 110 0 0 0 0 0 0 0 0 0 0 0 0 0 0 0 0 0 0 0 0 32 255 255 178 139 135 142 151 145 150 153 142 138 148 135 136 170 170 162 162 174 179 161 169 186 167 151 153 165 170 167 178 183 170 162 178 153 143 168 185 171 144 166 170 131 66 0 0 0 0 0 0 0 67 171 255 255 85 0 24 33 1 0 18 30 3 0 120 252 243 226 232 198 183 164 0 0 0 0 0 0 0 0 0 0 0 0 0 0 0 0 0 0 0 161 255 235 126 98 129 127 118 0 0 0 70 39 37 40 39 41 32 27 26 23 26 0 25 255 255 255 184 213 222 218 240 221 0 0 0 0 0 60 255 255 255 197 192 234 233 219 224 236 255 146 0 0 22 42 31 32 26 20 24 25 28 30 31 35 30 65 255 255 230 128 133 136 173 14 0 0 43 56 18 3 29 34 22 28 36 41 43 32 11 15 22 40 255 255 248 121 123 155 222 83 0 0 23 25 0 72 255 255 197 0 0 0 0 0 0 0 0 0 0 0 0 0 0 0 0 0 0 0 0 0 0 0 0 0 0 0 0 0 0 0 0 0 0 0 0 0 0 0 0 0 0 0 0 0 0 0 0 0 0 0 0 0 0 0 0 0 0 0 0 0 0 0 0 0 0 0 0 0 0 0 0 0 0 0 0 
255 255 255 173 48 0 22 98 111 118 115 125 130 0 0 0 0 0 0 0 0 0 0 0 0 0 0 0 0 0 0 0 0 0 0 0 0 0 0 201 255 255 226 127 143 156 177 176 143 138 149 137 133 134 133 136 129 99 92 0 0 0 0 0 0 0 0 0 0 0 0 0 0 0 0 0 0 0 0 23 228 255 186 146 142 134 136 136 153 160 143 139 164 161 157 186 176 155 170 190 183 160 171 178 145 148 173 178 168 161 154 152 155 165 177 167 155 136 118 80 28 8 0 0 0 0 0 0 62 140 190 255 255 255 255 255 71 98 189 25 0 0 0 0 0 0 0 202 170 128 146 120 125 125 0 0 0 0 0 0 0 6 19 24 30 37 33 33 42 43 47 42 16 163 255 255 138 117 139 133 128 0 0 0 53 16 23 25 25 30 19 16 22 22 31 6 8 255 255 255 193 217 223 226 255 91 0 0 0 152 255 255 255 255 255 197 211 243 235 221 231 240 255 197 0 0 0 45 32 36 38 31 29 24 28 30 35 43 30 45 255 255 238 119 146 137 158 52 0 0 36 45 9 6 38 34 13 19 31 44 35 22 17 29 27 29 219 255 255 141 126 152 216 96 0 0 17 48 9 46 255 255 218 0 0 0 0 0 0 0 0 0 0 0 0 0 0 0 0 0 0 0 0 0 0 0 0 0 0 0 0 0 0 0 0 0 0 0 0 0 0 0 0 0 0 0 0 0 0 0 0 0 0 0 0 0 0 0 0 0 0 0 0 0 0 0 0 0 0 0 0 0 0 0 0 0 0 0 0 
255 255 255 151 16 0 80 104 112 123 120 123 58 0 0 0 0 0 0 0 0 0 0 0 0 0 0 0 0 0 0 0 0 0 0 0 0 0 10 255 255 255 171 123 125 134 169 185 163 127 137 138 133 135 130 130 129 109 82 0 0 0 0 0 0 0 0 0 0 0 0 0 0 0 0 0 0 0 0 19 202 255 210 150 143 136 141 142 160 170 153 159 183 178 170 198 181 164 184 194 169 154 160 166 143 156 187 176 165 177 169 159 160 166 148 112 66 0 0 0 0 0 0 0 19 142 255 255 255 255 255 255 255 255 193 0 0 28 122 0 0 0 0 0 0 0 116 255 217 126 148 119 123 140 0 0 0 60 30 36 42 39 28 27 20 21 14 9 23 25 26 29 0 109 255 255 143 125 139 138 125 0 0 0 52 24 34 31 26 29 25 27 30 21 26 20 0 255 255 255 202 219 222 233 255 0 0 0 127 255 255 255 255 255 255 206 241 248 234 220 227 238 255 226 0 0 0 47 26 33 45 42 30 21 23 21 25 34 19 23 224 255 255 122 162 143 141 78 0 0 21 41 17 27 43 34 21 27 39 41 25 10 15 25 16 10 181 255 255 155 150 162 210 107 0 0 8 52 14 25 255 255 255 12 0 0 0 0 0 0 0 0 0 0 0 0 0 0 0 0 0 0 0 0 0 0 0 0 0 0 0 0 0 0 0 0 0 0 0 0 0 0 0 0 0 0 0 0 0 0 0 0 0 0 0 0 0 0 0 0 0 0 0 0 0 0 0 0 0 0 0 0 0 0 0 0 0 0 0 
255 255 255 73 0 16 86 109 116 120 110 86 0 0 0 0 0 0 0 0 0 0 0 0 0 0 0 0 0 0 0 0 0 0 0 0 0 0 45 255 255 255 141 130 121 141 186 198 179 132 121 138 132 133 130 128 130 114 81 0 0 0 0 0 0 0 0 0 0 0 0 0 0 0 0 0 0 0 0 12 169 255 241 150 147 143 154 156 173 177 158 166 165 158 175 193 172 169 182 184 167 159 166 160 160 167 179 173 166 167 150 106 55 4 0 0 0 0 0 0 56 145 255 255 255 255 255 255 255 255 237 229 203 153 86 0 0 111 141 0 0 0 65 44 52 44 163 255 253 129 133 118 109 134 0 0 0 49 16 23 22 21 19 25 22 21 20 11 22 29 29 31 0 86 255 255 151 118 130 128 124 16 0 0 53 29 31 27 23 30 29 31 31 22 29 28 0 254 255 255 209 211 220 233 229 0 0 0 255 255 255 255 255 255 178 0 0 159 233 215 217 229 250 250 0 0 0 46 25 28 43 35 14 15 23 26 30 32 20 24 204 255 255 129 155 140 132 99 0 0 6 46 21 33 30 26 28 29 44 38 20 10 13 20 16 2 134 255 255 158 134 142 177 131 0 0 0 50 18 10 255 255 255 34 0 0 0 0 0 0 0 0 0 0 0 0 0 0 0 0 0 0 0 0 0 0 0 0 0 0 0 0 0 0 0 0 0 0 0 0 0 0 0 0 0 0 0 0 0 0 0 0 0 0 0 0 0 0 0 0 0 0 0 0 0 0 0 0 0 0 0 0 0 0 0 0 0 0 0 
255 255 255 30 0 34 100 115 116 111 98 14 0 0 0 0 0 0 0 0 0 0 0 0 0 0 0 0 0 0 0 0 0 0 0 0 0 0 90 255 255 255 142 136 120 140 182 191 174 133 106 129 126 125 130 128 126 113 85 0 0 0 0 0 0 0 0 0 0 0 0 0 0 0 0 0 0 0 0 7 137 255 255 156 148 131 141 164 183 175 154 163 165 173 189 176 168 167 177 186 176 176 182 159 164 163 129 110 72 14 0 0 0 0 0 0 28 134 255 255 255 255 255 255 255 255 255 209 176 160 161 171 164 169 112 0 21 146 124 25 0 0 49 30 31 17 108 255 255 136 125 124 119 142 19 0 0 53 24 26 24 23 24 24 29 25 25 16 21 29 27 25 1 64 255 255 163 121 131 120 127 52 0 0 51 37 28 33 27 28 30 28 30 22 25 28 0 193 255 255 216 203 216 232 200 0 0 0 255 255 255 132 163 232 16 0 0 12 255 222 212 230 247 255 0 0 0 49 26 29 43 37 15 20 32 36 37 35 22 22 159 255 255 121 126 118 126 128 0 0 0 45 14 28 26 23 34 24 30 27 13 16 16 26 23 1 97 255 255 164 118 122 159 183 0 0 0 45 21 8 239 255 255 82 0 0 0 0 0 0 0 0 0 0 0 0 0 0 0 0 0 0 0 0 0 0 0 0 0 0 0 0 0 0 0 0 0 0 0 0 0 0 0 0 0 0 0 0 0 0 0 0 0 0 0 0 0 0 0 0 0 0 0 0 0 0 0 0 0 0 0 0 0 0 0 0 0 0 0 
238 255 255 8 9 86 111 113 114 103 86 0 0 0 0 0 0 0 0 0 0 0 0 0 0 0 0 0 0 0 0 0 0 0 0 0 0 0 133 255 255 255 148 129 106 128 184 187 177 142 110 128 123 119 127 125 121 115 93 0 0 0 0 0 0 0 0 0 0 0 0 0 0 0 0 0 0 0 0 2 108 255 255 159 156 147 150 174 174 162 144 144 167 189 200 188 177 163 176 208 194 172 152 91 45 12 0 0 0 0 0 0 50 163 251 255 255 255 255 255 255 255 255 236 192 182 179 176 171 162 170 174 164 177 133 6 73 148 94 68 0 0 30 35 29 12 83 255 255 157 133 132 127 145 48 0 0 41 26 21 21 22 33 27 23 19 19 15 19 33 34 24 4 49 255 255 180 126 133 117 125 78 0 0 38 43 30 35 31 28 26 19 21 15 17 27 0 130 255 255 230 198 219 238 203 0 0 0 255 255 255 137 244 255 0 0 0 164 255 255 198 230 239 255 0 0 0 50 25 32 42 43 27 23 35 36 31 31 18 4 95 255 255 131 130 142 144 175 0 0 0 50 16 36 35 24 36 23 26 29 26 33 29 34 29 0 64 255 255 173 120 135 167 224 0 0 0 38 19 2 198 255 255 136 0 0 0 0 0 0 0 0 0 0 0 0 0 0 0 0 0 0 0 0 0 0 0 0 0 0 0 0 0 0 0 0 0 0 0 0 0 0 0 0 0 0 0 0 0 0 0 0 0 0 0 0 0 0 0 0 0 0 0 0 0 0 0 0 0 0 0 0 0 0 0 0 0 0 0 
198 255 255 0 4 83 100 109 109 102 38 0 0 0 0 0 0 0 0 0 0 0 0 0 0 0 0 0 0 0 0 0 0 0 0 0 0 0 173 255 255 246 152 121 102 143 196 188 188 176 133 131 122 117 124 124 123 121 102 0 0 0 0 0 0 0 0 0 0 0 0 0 0 0 0 0 0 0 0 0 71 255 255 164 167 177 179 171 150 147 142 139 164 185 176 171 167 153 155 147 73 0 0 0 0 0 0 0 79 158 255 255 255 255 255 255 255 255 255 220 177 171 197 187 174 182 177 171 171 167 179 186 172 182 166 100 128 135 76 90 0 0 14 46 29 9 69 255 255 170 125 116 110 132 69 0 0 32 37 23 24 23 31 28 26 19 16 17 18 35 37 26 15 37 238 255 202 131 132 123 127 94 0 0 20 48 25 28 24 21 19 14 13 12 14 30 0 84 255 255 255 198 222 236 238 0 0 0 255 255 255 160 236 255 0 0 0 255 255 255 189 226 230 255 0 0 0 44 27 32 36 41 29 14 24 30 25 25 27 7 71 255 255 171 151 182 163 202 0 0 0 49 21 33 35 19 27 16 21 40 48 40 34 30 31 0 42 255 255 200 115 131 166 246 7 0 0 36 22 0 140 255 255 138 0 0 0 0 0 0 0 0 0 0 0 0 0 0 0 0 0 0 0 0 0 0 0 0 0 0 0 0 0 0 0 0 0 0 0 0 0 0 0 0 0 0 0 0 0 0 0 0 0 0 0 0 0 0 0 0 0 0 0 0 0 0 0 0 0 0 0 0 0 0 0 0 0 0 0 
182 255 255 0 59 93 103 115 109 103 0 0 0 0 0 0 0 0 0 0 0 0 0 0 0 0 0 0 0 0 0 0 0 0 0 0 0 0 216 255 255 204 153 123 107 149 183 179 192 206 154 125 117 117 121 127 129 121 98 0 0 0 0 0 0 0 0 0 0 0 0 0 0 0 0 0 0 0 0 0 46 255 255 176 176 177 163 141 140 156 164 156 180 188 117 49 35 0 0 0 0 0 0 0 53 174 255 255 255 255 255 255 255 255 248 220 204 190 178 168 170 178 193 189 172 177 180 176 177 178 181 190 176 179 177 143 139 106 67 99 0 0 0 52 33 14 54 255 255 171 110 102 106 121 89 0 0 16 45 20 24 23 25 22 24 26 27 27 17 28 34 27 19 27 199 255 221 125 119 121 128 110 0 0 0 51 20 21 24 21 16 13 18 19 18 30 0 42 255 255 255 190 218 231 245 47 0 25 255 255 255 152 239 255 0 0 0 255 255 255 197 230 223 255 69 0 0 34 30 29 32 38 33 14 22 28 25 28 34 11 53 255 255 210 149 172 142 190 0 0 0 39 30 33 36 24 29 15 19 42 44 27 25 26 25 3 27 255 255 250 125 142 167 251 77 0 0 37 34 0 96 255 255 141 0 0 0 0 0 0 0 0 0 0 0 0 0 0 0 0 0 0 0 0 0 0 0 0 0 0 0 0 0 0 0 0 0 0 0 0 0 0 0 0 0 0 0 0 0 0 0 0 0 0 0 0 0 0 0 0 0 0 0 0 0 0 0 0 0 0 0 0 0 0 0 0 0 0 0 
162 255 255 18 109 113 115 122 113 106 0 0 0 0 0 0 0 0 0 0 0 0 0 0 0 0 0 0 0 0 0 0 0 0 0 0 0 10 255 255 255 170 147 125 104 135 167 182 201 232 167 102 103 112 116 129 129 116 91 0 0 0 0 0 0 0 0 0 0 0 0 0 0 0 0 0 0 0 0 0 33 255 255 200 186 164 139 145 171 183 156 103 72 29 0 0 0 0 0 0 17 141 255 255 255 255 255 255 255 255 248 212 182 166 175 190 184 177 179 175 182 189 195 200 176 174 188 188 184 178 174 185 173 169 175 134 72 21 34 108 0 0 0 53 32 19 39 241 255 181 123 119 118 127 113 0 0 0 51 13 21 24 20 15 16 23 27 25 10 18 33 29 24 13 164 255 244 122 112 120 119 114 0 0 0 55 25 23 26 27 22 21 30 29 24 35 6 19 255 255 255 190 216 224 218 189 111 255 255 255 255 227 255 204 0 0 0 255 255 255 195 227 217 255 175 0 0 9 26 29 39 48 40 20 23 29 31 30 28 6 28 255 255 255 145 169 139 182 47 0 0 36 46 45 44 31 26 29 26 36 29 17 25 23 15 8 19 238 255 255 144 171 172 224 115 0 0 30 45 4 64 255 255 177 0 0 0 0 0 0 0 0 0 0 0 0 0 0 0 0 0 0 0 0 0 0 0 0 0 0 0 0 0 0 0 0 0 0 0 0 0 0 0 0 0 0 0 0 0 0 0 0 0 0 0 0 0 0 0 0 0 0 0 0 0 0 0 0 0 0 0 0 0 0 0 0 0 0 0 
138 255 255 52 105 116 123 120 107 99 0 0 0 0 0 0 0 0 0 0 0 0 0 0 0 0 0 0 0 0 0 0 0 0 0 0 0 25 255 255 255 154 147 127 103 131 170 194 217 254 165 72 92 109 114 126 123 110 82 0 0 0 0 0 0 0 0 0 0 0 0 0 0 0 0 0 0 0 0 0 28 241 255 248 207 160 105 102 100 40 0 0 0 0 0 0 49 134 197 255 255 255 255 255 255 255 255 212 174 178 174 168 174 182 188 188 178 177 188 184 186 204 211 213 185 182 196 189 180 170 167 185 180 167 174 133 23 0 4 120 0 0 0 58 31 18 28 209 255 200 134 140 117 118 129 0 0 0 56 13 27 34 25 17 18 20 17 14 7 18 32 26 24 4 135 255 255 139 118 130 123 124 0 0 0 53 30 25 27 26 23 24 33 36 28 40 25 1 255 255 255 202 226 224 207 210 255 255 255 255 239 189 106 0 0 0 0 255 255 255 181 218 218 242 247 0 0 0 31 36 40 41 34 14 17 24 28 25 20 9 24 240 255 255 144 177 164 183 103 0 0 35 52 43 34 23 18 32 28 21 21 20 29 18 14 18 15 190 255 255 153 174 168 196 154 0 0 0 14 0 19 255 255 192 0 0 0 0 0 0 0 0 0 0 0 0 0 0 0 0 0 0 0 0 0 0 0 0 0 0 0 0 0 0 0 0 0 0 0 0 0 0 0 0 0 0 0 0 0 0 0 0 0 0 0 0 0 0 0 0 0 0 0 0 0 0 0 0 0 0 0 0 0 0 0 0 0 0 0 
109 255 255 82 95 114 122 113 98 68 0 0 0 0 0 0 0 0 0 0 0 0 0 0 0 0 0 0 0 0 0 0 0 0 0 0 0 40 255 255 255 161 155 136 114 143 184 207 234 255 145 45 92 109 117 127 120 108 67 0 0 0 0 0 0 0 0 0 0 0 0 0 0 0 0 0 0 0 0 0 17 204 255 255 125 27 0 0 0 0 0 0 0 61 192 255 255 255 255 255 255 255 253 193 186 189 188 175 176 188 181 178 195 202 188 177 180 187 195 192 189 202 206 206 186 182 194 187 177 173 171 184 186 170 176 146 27 0 40 147 5 0 0 63 38 15 12 168 255 229 129 136 105 99 132 0 0 0 59 16 31 41 34 23 22 22 21 17 17 27 31 24 26 5 111 255 255 145 123 127 123 119 0 0 0 47 32 25 27 26 22 17 25 31 28 33 31 0 255 255 255 200 223 224 212 212 221 233 251 205 0 0 0 0 0 0 240 255 255 255 177 215 223 238 255 0 0 0 39 41 38 23 16 7 12 20 24 24 23 23 26 189 255 255 128 156 165 174 146 0 0 22 43 26 20 17 13 22 15 1 14 14 3 0 0 0 0 109 255 255 185 170 153 174 173 0 0 44 121 117 164 255 255 148 0 0 0 0 0 0 0 0 0 0 0 0 0 0 0 0 0 0 0 0 0 0 0 0 0 0 0 0 0 0 0 0 0 0 0 0 0 0 0 0 0 0 0 0 0 0 0 0 0 0 0 0 0 0 0 0 0 0 0 0 0 0 0 0 0 0 0 0 0 0 0 0 0 0 0 
74 255 255 115 91 111 113 104 95 10 0 0 0 0 0 0 0 0 0 0 0 0 0 0 0 0 0 0 0 0 0 0 0 0 0 0 0 51 255 255 255 159 156 141 133 171 198 210 255 254 114 30 100 106 120 127 117 106 44 0 0 0 0 0 0 0 0 0 0 0 0 0 0 0 0 0 0 0 0 0 6 99 238 107 0 0 0 0 0 5 93 215 255 255 255 255 255 255 255 251 215 188 161 155 191 194 185 185 181 175 174 178 185 188 182 177 185 193 193 187 187 188 190 197 184 172 180 179 179 176 175 182 188 173 172 158 49 0 58 159 58 0 0 59 48 15 0 125 255 255 126 132 111 97 140 10 0 0 62 23 22 36 30 21 19 24 35 36 31 36 32 29 32 8 86 255 255 142 119 124 139 131 26 0 0 44 38 23 19 19 25 24 25 27 21 20 25 0 235 255 255 201 208 218 208 212 220 212 223 101 0 0 0 0 0 0 255 255 255 240 198 220 228 227 255 0 0 0 41 34 33 26 22 28 25 25 25 32 28 28 20 140 255 255 133 139 163 159 162 0 0 0 5 0 0 0 0 0 0 0 10 26 19 28 45 74 84 201 255 255 148 112 98 95 93 0 0 255 255 255 255 255 255 41 0 0 0 0 0 0 0 0 0 0 0 0 0 0 0 0 0 0 0 0 0 0 0 0 0 0 0 0 0 0 0 0 0 0 0 0 0 0 0 0 0 0 0 0 0 0 0 0 0 0 0 0 0 0 0 0 0 0 0 0 0 0 0 0 0 0 0 0 0 0 0 0 0 0 0 
39 255 255 144 80 104 109 97 81 0 0 0 0 0 0 0 0 0 0 0 0 0 0 0 0 0 0 0 0 0 0 0 0 0 0 0 0 58 255 255 255 156 153 147 159 202 202 202 255 234 74 33 107 105 121 124 111 104 0 0 0 0 0 0 0 0 0 0 0 0 0 0 0 0 0 0 0 0 0 0 1 17 95 71 0 0 92 192 255 255 255 255 255 255 255 255 191 183 187 166 165 176 176 181 197 190 181 181 179 182 182 174 170 178 181 182 192 195 189 183 181 178 182 197 185 169 175 177 178 170 174 178 181 171 163 159 66 0 38 149 98 0 0 41 54 19 0 97 255 255 127 128 118 96 139 46 0 0 55 30 16 25 27 17 17 26 40 47 39 38 28 26 33 9 60 255 255 156 124 120 147 150 71 0 0 33 48 24 15 22 34 35 24 24 18 20 28 0 175 255 255 213 207 219 208 211 225 236 255 120 0 0 0 0 36 255 255 255 255 194 219 222 229 218 255 0 0 0 35 27 30 29 27 30 18 3 4 14 0 0 0 78 255 255 161 150 170 155 170 0 0 0 63 69 93 124 143 156 192 216 239 255 255 255 255 255 255 255 255 255 16 0 0 0 0 0 28 253 255 255 255 192 68 0 0 0 0 0 0 0 0 0 0 0 0 0 0 0 0 0 0 0 0 0 0 0 0 0 0 0 0 0 0 0 0 0 0 0 0 0 0 0 0 0 0 0 0 0 0 0 0 0 0 0 0 0 0 0 0 0 0 0 0 0 0 0 0 0 0 0 0 0 0 0 0 0 0 0 0 
19 255 255 182 67 94 100 92 36 0 0 0 0 0 0 0 0 0 0 0 0 0 0 0 0 0 0 0 0 0 0 0 0 0 0 0 0 62 255 255 255 154 159 157 168 211 190 204 255 193 32 55 107 106 116 120 108 91 0 0 0 0 0 0 0 0 0 0 0 0 0 0 0 0 0 0 0 0 0 0 0 3 127 255 255 255 255 255 255 255 255 255 255 255 226 175 153 185 196 168 159 170 186 196 195 197 188 176 175 192 186 181 179 191 195 187 188 191 185 181 184 186 190 200 191 168 171 187 183 169 175 171 171 172 164 162 83 0 23 146 134 0 0 17 58 16 0 75 255 255 131 114 110 87 126 71 0 0 38 35 17 26 33 27 23 29 34 40 37 29 20 19 30 17 43 255 255 172 139 116 140 139 87 0 0 17 54 28 18 27 40 35 20 20 21 30 34 0 126 255 255 225 203 222 219 217 226 230 240 201 0 0 102 220 255 255 255 255 220 201 228 225 237 229 255 59 0 0 0 0 0 0 0 0 0 0 9 32 31 43 52 127 255 255 163 110 125 119 114 0 0 220 255 255 255 255 255 255 255 255 255 255 255 255 255 255 255 244 185 47 0 0 0 0 0 44 96 116 91 37 0 0 0 0 0 0 0 0 0 0 0 0 0 0 0 0 0 0 0 0 0 0 0 0 0 0 0 0 0 0 0 0 0 0 0 0 0 0 0 0 0 0 0 0 0 0 0 0 0 0 0 0 0 0 0 0 0 0 0 0 0 0 0 0 0 0 0 0 0 0 0 0 0 0 0 0 0 0 0 
11 208 255 231 58 89 95 84 0 0 0 0 0 0 0 0 0 0 0 0 0 0 0 0 0 0 0 0 0 0 0 0 0 0 0 0 0 63 255 255 255 157 167 164 170 211 190 235 255 136 9 74 100 105 117 118 104 59 0 0 0 0 0 0 0 0 0 0 0 0 0 0 0 0 0 0 0 0 0 0 0 6 149 255 255 255 255 255 255 255 235 203 192 190 174 165 184 199 198 189 178 185 205 200 193 200 185 171 179 188 181 185 190 187 189 187 188 189 185 175 182 188 195 194 187 176 176 185 180 172 174 164 168 174 165 166 96 0 17 139 155 0 0 0 57 21 10 50 255 255 151 116 113 96 124 101 0 0 16 39 16 29 35 37 33 33 30 31 28 19 20 20 28 25 32 244 255 179 136 117 135 143 93 0 0 0 47 22 17 21 30 26 14 18 24 32 31 0 78 255 255 238 194 221 222 216 223 223 216 220 189 243 255 255 255 255 255 255 200 237 234 229 236 224 255 106 0 0 56 90 115 134 155 178 214 233 255 255 255 255 255 255 255 255 103 24 26 26 13 0 32 250 255 255 255 223 188 152 108 71 29 3 0 0 0 0 0 0 0 0 0 0 0 0 36 128 72 0 0 0 0 0 0 0 0 0 0 0 0 0 0 0 0 0 0 0 0 0 0 0 0 0 0 0 0 0 0 0 0 0 0 0 0 0 0 0 0 0 0 0 0 0 0 0 0 0 0 0 0 0 0 0 0 0 0 0 0 0 0 0 0 0 0 0 0 0 0 0 0 0 0 0 0 0 0 0 0 0 0 
5 133 255 255 48 77 93 58 0 0 0 0 0 0 0 0 0 0 0 0 0 0 0 0 0 0 0 0 0 0 0 0 0 0 0 0 0 63 255 255 255 159 173 174 178 226 243 255 237 63 17 80 90 102 118 115 99 0 0 0 0 0 0 0 0 0 0 0 0 0 0 0 0 0 0 0 0 0 0 0 0 2 132 255 255 231 237 227 206 185 190 188 194 190 170 176 192 179 180 197 190 182 208 202 177 189 186 178 182 176 166 174 185 186 186 193 197 188 184 172 181 188 184 180 180 185 179 177 173 169 170 161 169 176 168 170 105 0 0 114 152 0 0 0 54 24 14 33 252 255 164 126 136 117 124 122 0 0 0 46 16 21 24 27 29 29 28 31 27 15 22 24 23 23 17 200 255 194 127 112 111 142 108 0 0 0 43 23 24 21 25 26 18 21 22 26 25 0 32 255 255 255 199 227 228 224 226 225 215 214 221 255 255 255 255 255 180 113 118 103 77 47 26 0 0 0 0 0 255 255 255 255 255 255 255 255 255 255 255 255 255 255 255 154 0 0 0 0 0 0 0 0 0 0 0 0 0 0 0 0 0 0 0 0 0 0 0 0 0 0 0 0 12 53 0 0 0 0 0 0 0 0 0 0 0 0 0 0 0 0 0 0 0 0 0 0 0 0 0 0 0 0 0 0 0 0 0 0 0 0 0 0 0 0 0 0 0 0 0 0 0 0 0 0 0 0 0 0 0 0 0 0 0 0 0 0 0 0 0 0 0 0 0 0 0 0 0 0 0 0 0 0 0 0 0 0 0 0 0 
1 63 255 255 57 76 92 0 0 0 0 0 0 0 0 0 0 0 0 0 0 0 0 0 0 0 0 0 0 0 0 0 0 0 0 0 0 59 255 255 255 162 177 179 191 247 255 252 154 4 40 82 93 110 117 108 77 0 0 0 0 0 0 0 0 0 0 0 0 0 0 0 0 0 0 0 0 0 0 0 0 0 115 255 255 215 212 195 188 190 188 181 196 205 186 185 185 176 185 205 190 173 191 194 173 190 188 168 158 147 142 146 162 185 194 199 195 182 183 181 189 194 181 180 192 192 173 171 176 173 166 163 170 175 169 171 121 0 0 94 155 0 0 0 49 30 12 16 222 255 182 120 123 118 114 124 0 0 0 49 21 20 23 25 27 22 17 28 33 18 22 25 23 29 10 152 255 222 127 131 109 138 134 0 0 0 39 14 11 1 7 13 3 2 2 2 1 0 0 255 255 255 156 161 146 121 96 71 53 22 0 0 0 0 0 0 0 0 0 0 0 0 0 0 0 0 0 0 255 255 247 221 193 157 124 92 61 32 0 0 0 0 0 0 0 0 0 0 0 0 0 0 0 0 0 0 0 0 0 0 0 0 0 0 13 22 31 40 38 41 44 32 9 140 67 0 0 0 0 0 0 0 0 0 0 0 0 0 0 0 0 0 0 0 0 0 0 0 0 0 0 0 0 0 0 0 0 0 0 0 0 0 0 0 0 0 0 0 0 0 0 0 0 0 0 0 0 0 0 0 0 0 0 0 0 0 0 0 0 0 0 0 0 0 0 0 0 0 0 0 0 0 0 0 0 0 0 0 0 
0 25 255 255 117 95 70 0 0 0 0 0 0 0 0 0 0 0 0 0 0 0 0 0 0 0 0 0 0 0 0 0 0 0 0 0 0 53 255 255 255 171 186 186 211 255 240 158 45 0 65 82 99 118 110 96 27 0 0 0 0 0 0 0 0 0 0 0 0 0 0 0 0 0 0 0 0 0 0 0 0 0 91 255 255 238 204 196 210 213 187 166 182 189 178 176 174 179 190 209 197 178 194 193 180 187 174 147 143 162 186 183 169 176 174 174 186 178 176 182 187 195 181 181 197 186 167 174 176 175 165 161 164 168 168 166 123 0 0 98 161 17 0 0 46 38 19 9 184 255 198 121 101 100 101 126 0 0 0 48 21 21 29 28 28 26 20 21 28 20 26 27 25 23 0 99 255 255 120 142 127 135 163 0 0 0 28 14 19 26 42 62 72 85 104 118 137 156 175 255 255 124 0 0 0 0 0 0 0 0 0 0 0 0 0 0 0 0 0 0 0 0 0 0 0 0 0 0 0 0 0 0 0 0 0 0 0 0 0 0 0 0 0 0 0 0 0 0 0 0 0 0 0 0 0 0 2 15 29 37 42 46 52 56 60 54 51 45 38 37 40 35 23 141 255 45 0 0 0 0 0 0 0 0 0 0 0 0 0 0 0 0 0 0 0 0 0 0 0 0 0 0 0 0 0 0 0 0 0 0 0 0 0 0 0 0 0 0 0 0 0 0 0 0 0 0 0 0 0 0 0 0 0 0 0 0 0 0 0 0 0 0 0 0 0 0 0 0 0 0 0 0 0 0 0 0 0 0 0 
0 8 180 255 218 102 0 0 0 0 0 0 0 0 0 0 0 0 0 0 0 0 0 0 0 0 0 0 0 0 0 0 0 0 0 0 0 43 255 255 255 178 190 195 233 231 165 81 23 25 74 89 107 116 103 77 0 0 0 0 0 0 0 0 0 0 0 0 0 0 0 0 0 0 0 0 0 0 0 0 0 0 63 255 255 255 208 221 226 209 176 160 187 193 166 167 178 179 184 198 193 169 187 199 181 170 160 146 144 153 130 74 24 5 0 12 85 126 141 156 170 185 177 178 191 183 162 173 178 172 164 166 166 164 168 169 132 9 0 90 163 59 0 0 34 41 23 7 144 255 224 122 103 102 109 137 0 0 0 45 21 18 21 19 13 6 5 2 4 0 0 5 19 17 0 74 255 255 128 121 116 102 126 48 0 15 218 231 249 255 255 255 255 255 255 255 255 255 255 255 255 0 0 0 0 0 0 0 0 0 0 0 0 0 0 0 0 0 0 0 0 0 0 0 0 0 0 0 0 0 0 0 0 0 0 0 0 0 0 0 0 0 0 0 0 0 0 0 11 20 26 27 36 45 45 45 47 49 50 44 39 41 38 34 32 35 36 37 44 56 66 73 92 162 255 255 5 0 0 0 0 0 0 0 0 0 0 0 0 0 0 0 0 0 0 0 0 0 0 0 0 0 0 0 0 0 0 0 0 0 0 0 0 0 0 0 0 0 0 0 0 0 0 0 0 0 0 0 0 0 0 0 0 0 0 0 0 0 0 0 0 0 0 0 0 0 0 0 0 0 0 0 0 0 0 0 0 0 0 
0 1 56 208 165 0 0 0 0 0 0 0 0 0 0 0 0 0 0 0 0 0 0 0 0 0 0 0 0 0 0 0 0 0 0 0 0 33 255 255 255 183 190 209 255 209 107 83 52 49 81 96 116 116 103 23 0 0 0 0 0 0 0 0 0 0 0 0 0 0 0 0 0 0 0 0 0 0 0 0 0 0 44 255 255 255 204 215 210 192 175 167 192 207 184 179 189 182 183 197 195 165 167 169 160 153 108 46 0 0 0 0 0 0 0 0 0 0 0 37 133 173 167 172 194 185 156 165 178 167 160 165 165 161 164 162 134 58 42 96 144 85 0 0 16 38 17 13 113 255 255 130 117 111 117 146 40 0 0 22 11 13 16 19 25 34 46 65 86 105 119 144 178 198 191 255 255 255 113 86 74 62 59 45 25 187 255 255 255 255 255 255 255 245 219 189 153 127 97 66 1 0 0 0 0 0 0 0 0 0 0 0 0 0 0 0 0 0 0 0 0 0 0 0 0 0 0 0 0 0 0 0 0 0 0 0 0 2 6 14 24 34 38 38 40 50 54 52 55 56 55 55 56 54 53 52 54 57 56 53 53 58 56 57 59 66 69 66 70 76 81 97 126 194 255 255 134 0 0 0 0 0 0 0 0 0 0 0 0 0 0 0 0 0 0 0 0 0 0 0 0 0 0 0 0 0 0 0 0 0 0 0 0 0 0 0 0 0 0 0 0 0 0 0 0 0 0 0 0 0 0 0 0 0 0 0 0 0 0 0 0 0 0 0 0 0 0 0 0 0 0 0 0 0 0 0 0 0 0 
0 0 5 14 0 0 0 0 0 0 0 0 0 0 0 0 0 0 0 0 0 0 0 0 0 0 0 0 0 0 0 0 0 0 0 0 0 22 255 255 255 192 191 239 255 174 65 79 44 55 91 106 113 100 68 0 0 0 0 0 0 0 0 0 0 0 0 0 0 0 0 0 0 0 0 0 0 0 0 0 0 0 35 255 255 255 189 193 191 186 185 181 194 209 194 186 189 178 176 200 196 165 153 146 117 49 0 0 0 0 0 0 0 23 93 105 71 0 0 0 0 57 115 145 181 179 157 165 178 165 159 163 155 148 152 149 134 108 95 84 111 112 0 0 0 35 3 0 68 255 255 128 120 121 123 135 75 0 0 161 181 195 217 244 255 255 255 255 255 255 255 255 255 255 255 255 255 230 59 27 16 14 4 0 0 44 92 63 28 0 0 0 0 0 0 0 0 0 0 0 0 0 0 0 0 0 0 0 0 0 0 0 0 0 0 0 0 0 0 0 0 0 0 0 0 9 16 22 29 35 40 42 46 51 52 52 53 55 58 60 65 67 64 62 61 63 63 59 60 61 56 60 58 57 61 63 64 64 62 63 69 74 68 65 71 74 75 72 75 83 92 117 152 200 255 255 236 0 0 0 0 0 0 0 0 0 0 0 0 0 0 0 0 0 0 0 0 0 0 0 0 0 0 0 0 0 0 0 0 0 0 0 0 0 0 0 0 0 0 0 0 0 0 0 0 0 0 0 0 0 0 0 0 0 0 0 0 0 0 0 0 0 0 0 0 0 0 0 0 0 0 0 0 0 0 0 0 0 0 
0 0 0 0 0 0 0 0 0 0 0 0 0 0 0 0 0 0 0 0 0 0 0 0 0 0 0 0 0 0 0 0 0 0 0 0 0 8 255 255 255 196 204 255 240 77 5 50 41 70 101 112 109 82 0 0 0 0 0 0 0 0 0 0 0 0 0 0 0 0 0 0 0 0 0 0 0 0 0 0 0 0 23 232 255 255 188 191 199 195 186 180 193 208 191 185 185 181 190 203 192 159 145 97 0 0 0 0 0 27 158 255 255 255 255 255 255 255 255 240 66 0 0 63 154 183 170 170 174 165 161 161 152 145 148 154 142 96 34 0 54 131 0 0 30 126 114 132 186 255 255 120 100 104 105 98 79 39 156 255 255 255 255 255 255 255 255 255 255 248 222 189 162 125 92 66 36 0 0 0 0 0 0 0 0 0 0 0 0 0 0 0 0 0 0 0 0 0 0 13 17 30 47 71 81 77 96 102 111 122 135 125 39 0 0 26 29 31 37 38 40 43 45 48 54 59 60 59 62 64 62 63 64 63 64 64 60 59 60 59 63 64 60 59 60 62 64 62 63 64 66 67 67 65 70 67 67 69 67 69 72 70 71 73 76 77 80 81 83 88 100 146 178 194 235 255 255 156 0 0 0 0 0 0 0 0 0 0 0 0 0 0 0 0 0 0 0 0 0 0 0 0 0 0 0 0 0 0 0 0 0 0 0 0 0 0 0 0 0 0 0 0 0 0 0 0 0 0 0 0 0 0 0 0 0 0 0 0 0 0 0 0 0 0 0 0 0 0 0 0 0 0 0 0 0 0 0 0 0 
0 0 0 0 0 0 0 0 0 0 0 0 0 0 0 0 0 0 0 0 0 0 0 0 0 0 0 0 0 0 0 0 0 0 0 0 0 1 226 255 255 200 234 255 166 0 0 47 67 90 105 103 89 0 0 0 0 0 0 0 0 0 0 0 0 0 0 0 0 0 0 0 0 0 0 0 0 0 0 0 0 0 10 177 255 255 196 208 213 201 191 170 177 201 192 179 176 171 185 197 182 143 70 0 0 0 0 50 255 255 255 255 255 255 255 255 255 255 255 255 255 255 71 0 77 166 186 174 166 154 157 156 154 154 151 146 128 65 0 0 48 118 47 39 245 255 255 255 255 255 255 96 59 41 23 27 26 36 108 187 152 110 84 57 19 0 0 0 0 0 0 0 0 0 0 0 0 0 0 0 0 0 0 0 0 0 0 0 0 0 0 0 0 0 0 0 22 94 152 162 183 190 198 228 208 151 161 150 154 161 146 104 6 0 34 62 57 59 60 60 63 63 60 61 62 61 60 59 63 64 61 64 65 63 68 67 66 65 67 65 69 71 69 71 71 72 73 69 70 68 68 72 75 74 76 73 76 81 76 79 83 80 82 80 84 90 88 92 103 107 113 166 211 206 223 242 229 215 26 0 0 0 0 0 0 0 0 0 0 0 0 0 0 0 0 0 0 0 0 0 0 0 0 0 0 0 0 0 0 0 0 0 0 0 0 0 0 0 0 0 0 0 0 0 0 0 0 0 0 0 0 0 0 0 0 0 0 0 0 0 0 0 0 0 0 0 0 0 0 0 0 0 0 0 0 0 0 0 0 
0 0 0 0 0 0 0 0 0 0 0 0 0 0 0 0 0 0 0 0 0 0 0 0 0 0 0 0 0 0 0 0 0 0 0 0 0 0 207 255 255 212 255 239 62 0 29 70 83 100 102 80 0 0 0 0 0 0 0 0 0 0 0 0 0 0 0 0 0 0 0 0 0 0 0 0 0 0 0 0 0 0 2 145 255 255 204 201 198 192 197 177 175 200 193 171 168 173 172 172 144 43 0 0 0 0 207 255 255 255 255 255 255 255 255 255 234 210 200 213 255 255 255 78 64 89 141 166 164 150 156 155 134 110 78 46 28 0 0 0 53 81 65 98 217 255 227 193 164 115 51 0 0 0 0 0 0 0 0 0 0 0 0 0 0 0 0 0 0 0 0 0 0 0 0 0 0 0 0 0 0 0 0 0 0 0 0 1 10 16 19 20 24 30 33 36 36 83 138 136 164 152 128 139 103 28 41 43 27 34 0 0 0 0 47 72 63 61 60 60 61 61 61 65 66 64 66 65 69 71 69 70 72 70 73 72 69 72 76 75 75 74 72 76 79 79 81 79 80 80 79 84 85 87 85 92 97 94 86 90 99 99 100 106 107 113 117 125 133 139 161 218 251 219 214 232 219 205 167 0 0 0 0 0 0 0 0 0 0 0 0 0 0 0 0 0 0 0 0 0 0 0 0 0 0 0 0 0 0 0 0 0 0 0 0 0 0 0 0 0 0 0 0 0 0 0 0 0 0 0 0 0 0 0 0 0 0 0 0 0 0 0 0 0 0 0 0 0 0 0 0 0 0 0 0 0 0 0 0 
0 0 0 0 0 0 0 0 0 0 0 0 0 0 0 0 0 0 0 0 0 0 0 0 0 0 0 0 0 0 0 0 0 0 0 0 0 0 177 255 255 246 255 158 0 0 43 76 93 105 79 0 0 0 0 0 0 0 0 0 0 0 0 0 0 0 0 0 0 0 0 0 0 0 0 0 0 0 0 0 0 0 0 115 255 255 219 184 186 185 191 178 187 208 194 164 172 185 162 140 58 0 0 0 1 255 255 255 255 255 255 255 255 227 192 181 187 192 187 183 179 195 161 0 51 139 61 135 144 104 94 74 20 0 0 0 0 0 0 0 0 0 0 0 0 0 0 0 0 0 0 0 0 0 0 0 0 0 0 0 0 0 0 0 0 0 0 0 0 0 0 0 0 0 0 0 5 14 16 20 27 27 27 34 38 41 41 47 50 50 49 56 59 62 63 59 30 44 90 56 22 0 0 0 0 0 0 0 0 0 0 0 0 18 56 74 68 67 66 67 69 71 69 72 73 73 74 75 71 72 74 74 72 74 78 82 77 77 77 81 83 85 83 85 89 88 93 96 96 96 110 116 108 110 113 127 131 115 109 120 129 130 135 148 144 139 166 179 158 173 201 244 255 214 213 236 234 206 211 66 0 0 0 0 0 0 0 0 0 0 0 0 0 0 0 0 0 0 0 0 0 0 0 0 0 0 0 0 0 0 0 0 0 0 0 0 0 0 0 0 0 0 0 0 0 0 0 0 0 0 0 0 0 0 0 0 0 0 0 0 0 0 0 0 0 0 0 0 0 0 0 0 0 0 0 0 0 0 0 
0 0 0 0 0 0 0 0 0 0 0 0 0 0 0 0 0 0 0 0 0 0 0 0 0 0 0 0 0 0 0 0 0 0 0 0 0 0 151 255 255 255 228 45 0 0 54 82 92 51 0 0 0 0 0 0 0 0 0 0 0 0 0 0 0 0 0 0 0 0 0 0 0 0 0 0 0 0 0 0 0 0 0 71 255 255 240 178 186 191 193 180 181 196 190 168 179 182 135 56 0 0 0 42 255 255 255 255 255 222 201 181 167 174 179 176 179 184 179 181 189 186 136 17 92 255 147 58 64 0 0 0 0 0 0 0 0 0 0 0 0 0 0 0 0 0 0 0 0 0 0 0 0 0 0 0 0 0 0 0 0 0 0 8 13 16 15 23 31 32 34 36 41 46 47 50 56 57 57 58 60 63 63 66 68 64 61 63 64 61 62 69 68 63 62 62 58 58 86 50 0 0 0 0 0 0 2 22 23 37 47 61 66 68 65 68 70 72 73 72 73 75 74 78 78 78 80 82 80 80 81 81 83 86 91 96 95 90 99 116 113 110 114 114 119 115 121 131 135 126 136 148 122 143 165 144 146 138 146 159 148 161 184 177 151 143 182 215 181 185 236 255 252 219 222 244 246 212 191 190 0 0 0 0 0 0 0 0 0 0 0 0 0 0 0 0 0 0 0 0 0 0 0 0 0 0 0 0 0 0 0 0 0 0 0 0 0 0 0 0 0 0 0 0 0 0 0 0 0 0 0 0 0 0 0 0 0 0 0 0 0 0 0 0 0 0 0 0 0 0 0 0 0 0 0 0 0 0 0 
0 0 0 0 0 0 0 0 0 0 0 0 0 0 0 0 0 0 0 0 0 0 0 0 0 0 0 0 0 0 0 0 0 0 0 0 0 0 130 255 255 255 128 0 0 21 69 74 0 0 0 0 0 0 0 0 0 0 0 0 0 0 0 0 0 0 0 0 0 0 0 0 0 0 0 0 0 0 0 0 0 0 0 42 255 255 255 174 184 190 200 189 181 187 188 179 182 167 74 0 0 0 11 255 255 255 255 194 167 165 172 174 174 179 177 175 178 183 179 179 184 182 168 147 233 255 255 71 4 0 0 0 0 0 0 0 0 0 0 0 0 0 0 0 0 0 0 0 0 2 0 2 5 11 17 21 25 37 41 43 44 46 54 58 58 58 60 58 60 63 64 64 66 66 66 68 66 65 65 64 64 66 62 62 63 60 62 62 62 61 63 67 63 60 63 64 71 60 62 67 42 53 67 73 81 79 80 79 83 85 86 84 82 79 74 71 74 78 77 77 79 83 83 84 90 89 89 90 93 91 97 115 119 112 117 117 122 130 154 181 168 152 161 146 143 153 150 153 162 154 151 161 128 154 183 125 111 142 175 198 181 181 196 177 163 171 185 216 205 197 243 255 255 255 255 244 255 229 172 207 44 0 0 0 0 0 0 0 0 0 0 0 0 0 0 0 0 0 0 0 0 0 0 0 0 0 0 0 0 0 0 0 0 0 0 0 0 0 0 0 0 0 0 0 0 0 0 0 0 0 0 0 0 0 0 0 0 0 0 0 0 0 0 0 0 0 0 0 0 0 0 0 0 0 0 0 0 0 0 
0 0 0 0 0 0 0 0 0 0 0 0 0 0 0 0 0 0 0 0 0 0 0 0 0 0 0 0 0 0 0 0 0 0 0 0 0 0 77 255 255 255 0 0 0 51 34 0 0 0 0 0 0 0 0 0 0 0 0 0 0 0 0 0 0 0 0 0 0 0 0 0 0 0 0 0 0 0 0 0 0 0 0 30 255 255 255 170 188 186 195 193 186 192 187 177 178 126 0 0 0 0 255 255 255 255 168 141 156 166 183 184 174 174 174 181 182 181 179 182 184 184 175 172 214 255 248 176 80 0 0 0 0 0 0 0 0 0 0 5 17 24 31 35 34 38 42 43 43 46 44 49 56 58 62 61 62 70 71 67 67 69 72 69 67 67 69 66 66 68 67 67 70 68 67 71 70 67 67 68 67 70 67 65 65 65 66 64 64 68 68 68 67 66 69 73 76 75 50 63 83 79 81 86 83 79 78 82 83 84 81 83 87 88 91 82 79 89 90 88 92 101 106 103 109 115 128 132 123 124 137 159 147 122 136 141 145 165 169 167 153 160 190 172 162 202 194 178 194 191 198 255 200 153 178 134 137 180 180 204 244 255 242 210 222 222 231 249 240 225 255 255 255 255 255 243 249 247 167 193 136 0 0 0 0 0 0 0 0 0 0 0 0 0 0 0 0 0 0 0 0 0 0 0 0 0 0 0 0 0 0 0 0 0 0 0 0 0 0 0 0 0 0 0 0 0 0 0 0 0 0 0 0 0 0 0 0 0 0 0 0 0 0 0 0 0 0 0 0 0 0 0 0 0 0 0 0 0 0 
0 0 0 0 0 0 0 0 0 0 0 0 0 0 0 0 0 0 0 0 0 0 0 0 0 0 0 0 0 0 0 0 0 0 0 0 0 0 18 255 255 166 0 0 2 0 0 0 0 0 0 0 0 0 0 0 0 0 0 0 0 0 0 0 0 0 0 0 0 0 0 0 0 0 0 0 0 0 0 0 0 0 0 21 240 255 255 178 189 186 192 195 183 182 180 177 168 53 0 0 0 255 255 255 217 202 174 151 166 177 195 192 170 170 176 184 181 170 171 177 179 178 179 170 170 177 171 166 146 101 38 15 14 15 27 40 49 56 56 57 62 59 62 64 62 67 64 64 64 65 63 67 70 66 68 67 67 68 66 60 64 63 65 67 65 64 69 66 67 75 73 70 74 72 72 74 70 71 74 74 74 72 71 73 72 73 71 69 70 72 73 73 72 72 74 75 76 82 66 46 98 107 86 89 93 92 96 97 96 98 95 103 110 106 109 103 92 102 116 115 114 125 130 118 142 167 179 183 148 176 200 174 123 114 168 177 187 190 167 149 152 178 212 190 181 226 225 173 180 184 211 255 255 182 205 236 235 249 235 220 255 255 255 255 255 228 245 255 240 246 255 255 255 255 247 202 207 245 206 210 218 0 0 0 0 0 0 0 0 0 0 0 0 0 0 0 0 0 0 0 0 0 0 0 0 0 0 0 0 0 0 0 0 0 0 0 0 0 0 0 0 0 0 0 0 0 0 0 0 0 0 0 0 0 0 0 0 0 0 0 0 0 0 0 0 0 0 0 0 0 0 0 0 0 0 0 0 0 0 
0 0 0 0 0 0 0 0 0 0 0 0 0 0 0 0 0 0 0 0 0 0 0 0 0 0 0 0 0 0 0 0 0 0 0 0 0 0 0 113 247 0 0 0 0 0 0 0 0 0 0 0 0 0 0 0 0 0 0 0 0 0 0 0 0 0 0 0 0 0 0 0 0 0 0 0 0 0 0 0 0 0 0 10 201 255 255 191 186 188 186 196 185 173 178 183 133 0 0 0 165 255 255 255 168 222 183 157 174 185 197 194 177 177 179 178 173 159 167 175 177 173 177 174 181 185 168 162 147 150 168 143 114 90 78 75 72 69 67 69 70 63 61 66 64 66 63 65 66 61 61 66 65 61 61 63 66 70 68 65 67 66 67 72 72 70 72 70 73 77 73 71 76 75 72 71 71 73 76 74 72 71 68 73 75 76 76 74 79 82 78 81 81 85 88 90 94 97 91 58 79 126 95 95 103 103 104 107 112 116 109 110 118 110 111 124 116 116 128 130 122 129 150 154 197 222 200 180 158 191 225 160 121 166 212 193 212 236 208 233 253 242 255 239 189 206 222 182 210 232 255 255 190 93 209 255 249 235 241 226 251 238 199 201 196 201 246 252 226 234 227 200 190 227 211 148 116 183 202 186 226 104 0 0 0 0 0 0 0 0 0 0 0 0 0 0 0 0 0 0 0 0 0 0 0 0 0 0 0 0 0 0 0 0 0 0 0 0 0 0 0 0 0 0 0 0 0 0 0 0 0 0 0 0 0 0 0 0 0 0 0 0 0 0 0 0 0 0 0 0 0 0 0 0 0 0 0 0 0 
0 0 0 0 0 0 0 0 0 0 0 0 0 0 0 0 0 0 0 0 0 0 0 0 0 0 0 0 0 0 0 0 0 0 0 0 0 0 0 22 7 0 0 0 0 0 0 0 0 0 0 0 0 0 0 0 0 0 0 0 0 0 0 0 0 0 0 0 0 0 0 0 0 0 0 0 0 0 0 0 0 0 0 2 163 255 255 194 175 181 178 191 180 165 182 179 56 0 0 0 255 255 255 179 227 226 164 189 199 197 191 190 179 179 181 179 170 162 175 183 177 175 176 177 173 179 177 173 159 141 163 136 122 124 107 90 81 73 67 66 66 63 65 68 66 65 63 64 66 64 69 70 69 68 67 69 72 78 75 73 74 77 77 78 79 73 74 76 76 79 78 79 81 81 77 78 81 83 84 83 81 83 83 83 88 90 90 90 100 109 99 102 107 105 109 116 130 128 113 86 55 134 144 99 103 112 112 113 134 143 124 109 117 117 122 140 141 122 119 140 137 143 177 204 220 215 181 179 195 220 230 187 194 255 255 192 203 234 223 255 255 236 255 255 198 225 255 234 224 211 251 255 176 43 174 226 210 183 184 168 207 204 151 119 154 219 230 201 204 168 109 93 98 134 144 92 61 83 128 128 173 200 0 0 0 0 0 0 0 0 0 0 0 0 0 0 0 0 0 0 0 0 0 0 0 0 0 0 0 0 0 0 0 0 0 0 0 0 0 0 0 0 0 0 0 0 0 0 0 0 0 0 0 0 0 0 0 0 0 0 0 0 0 0 0 0 0 0 0 0 0 0 0 0 0 0 0 0 0 
0 0 0 0 0 0 0 0 0 0 0 0 0 0 0 0 0 0 0 0 0 0 0 0 0 0 0 0 0 0 0 0 0 0 0 0 0 0 0 0 0 0 0 0 0 0 0 0 0 0 0 0 0 0 0 0 0 0 0 0 0 0 0 0 0 0 0 0 0 0 0 0 0 0 0 0 0 0 0 0 0 0 0 0 122 255 255 200 169 177 180 193 188 174 193 138 0 0 0 242 255 255 226 147 193 168 137 221 209 186 182 185 180 173 171 176 176 175 183 183 175 178 180 179 174 179 180 172 166 144 157 159 85 112 126 112 103 96 85 77 71 70 73 74 75 69 71 70 70 69 73 72 75 77 75 77 83 81 76 77 84 86 86 85 86 83 83 88 89 93 95 96 93 95 101 100 100 102 101 99 100 104 103 101 108 117 111 107 116 121 114 116 123 117 121 125 132 126 111 109 66 137 253 145 105 129 142 142 155 158 135 126 154 168 177 171 175 166 140 179 200 203 223 216 192 167 166 187 205 207 192 220 234 235 232 200 219 220 197 218 195 173 208 213 183 220 254 179 99 44 0 116 172 138 177 158 141 141 114 103 141 139 113 103 143 186 158 147 157 92 68 104 137 177 194 183 227 254 255 255 255 255 59 0 0 0 0 0 0 0 0 0 0 0 0 0 0 0 0 0 0 0 0 0 0 0 0 0 0 0 0 0 0 0 0 0 0 0 0 0 0 0 0 0 0 0 0 0 0 0 0 0 0 0 0 0 0 0 0 0 0 0 0 0 0 0 0 0 0 0 0 0 0 0 0 0 0 0 0 
0 0 0 0 0 0 0 0 0 0 0 0 0 0 0 0 0 0 0 0 0 0 0 0 0 0 0 0 0 0 0 0 0 0 0 0 0 0 0 0 0 0 0 0 0 0 0 0 0 0 0 0 0 0 0 0 0 0 0 0 0 0 0 0 0 0 0 0 0 0 0 0 0 0 0 0 0 0 0 0 0 0 0 0 84 255 255 211 171 184 184 187 179 173 175 60 0 0 60 255 255 255 173 159 138 102 121 191 205 175 173 178 186 179 174 179 180 180 180 179 178 181 183 178 175 175 179 168 169 164 147 189 117 61 110 112 113 110 100 92 86 80 77 75 76 74 75 78 76 79 81 79 80 82 82 85 92 96 91 91 95 97 99 99 103 104 104 107 107 109 110 110 108 115 120 114 110 110 111 115 115 111 108 108 109 118 120 113 117 115 119 120 119 121 135 137 127 115 115 139 110 86 255 211 110 154 173 178 174 158 137 158 199 209 202 185 183 220 184 187 222 218 242 206 172 171 187 192 166 153 126 160 179 167 151 166 174 164 169 174 109 97 130 126 105 108 165 126 30 70 132 102 203 233 157 162 168 196 208 226 200 159 158 222 234 202 186 255 255 238 228 255 255 255 255 255 255 255 255 255 255 255 197 0 0 0 0 0 0 0 0 0 0 0 0 0 0 0 0 0 0 0 0 0 0 0 0 0 0 0 0 0 0 0 0 0 0 0 0 0 0 0 0 0 0 0 0 0 0 0 0 0 0 0 0 0 0 0 0 0 0 0 0 0 0 0 0 0 0 0 0 0 0 0 0 0 0 0 0 
0 0 0 0 0 0 0 0 0 0 0 0 0 0 0 0 0 0 0 0 0 0 0 0 0 0 0 0 0 0 0 0 0 0 0 0 0 0 0 0 0 0 0 0 0 0 0 0 0 0 0 0 0 0 0 0 0 0 0 0 0 0 0 0 0 0 0 0 0 0 0 0 0 0 0 0 0 0 0 0 0 0 0 0 60 255 255 239 164 169 127 78 54 49 36 0 0 0 255 255 255 190 155 178 153 95 134 177 202 181 185 184 186 188 179 179 185 181 173 175 180 180 183 176 176 174 180 177 176 178 152 165 184 56 70 110 112 116 115 108 99 94 90 86 85 81 85 87 84 88 91 92 93 95 98 99 101 112 110 104 104 105 106 108 114 115 111 115 115 113 114 115 114 119 119 113 118 116 118 128 123 109 107 129 143 138 140 139 145 148 142 137 134 141 162 158 143 146 162 181 172 70 153 219 95 161 191 189 180 155 131 167 185 183 179 176 172 234 197 128 169 160 167 140 121 141 141 135 113 103 71 67 61 56 46 65 53 34 79 97 53 44 99 104 85 104 255 255 89 92 255 186 255 255 255 255 255 255 255 255 255 255 255 255 255 255 255 255 255 255 255 255 255 255 255 255 255 255 255 255 255 255 195 0 0 0 0 0 0 0 0 0 0 0 0 0 0 0 0 0 0 0 0 0 0 0 0 0 0 0 0 0 0 0 0 0 0 0 0 0 0 0 0 0 0 0 0 0 0 0 0 0 0 0 0 0 0 0 0 0 0 0 0 0 0 0 0 0 0 0 0 0 0 0 0 0 0 0 0 
0 0 0 0 0 0 0 0 0 0 0 0 0 0 0 0 0 0 0 0 0 0 0 0 0 0 0 0 0 0 0 0 0 0 0 0 0 0 0 0 0 0 0 0 0 0 0 0 0 0 0 0 0 0 0 0 0 0 0 0 0 0 0 0 0 0 0 0 0 0 0 0 0 0 0 0 0 0 0 0 0 0 0 0 44 255 255 255 87 45 0 0 0 0 0 0 0 128 255 255 244 131 153 183 182 138 153 194 207 192 188 190 188 187 177 179 187 183 170 171 183 184 181 177 182 177 181 178 174 174 157 140 200 136 22 100 121 117 119 115 105 103 103 103 99 100 98 98 99 101 102 100 103 106 106 106 106 111 110 104 111 111 112 111 112 111 108 113 116 116 121 124 124 122 122 121 134 139 144 148 136 122 143 176 195 192 187 193 193 197 179 170 175 179 185 178 172 189 200 202 204 140 58 177 108 125 197 189 187 187 142 169 182 200 228 225 214 255 209 73 93 95 60 50 32 75 82 68 63 69 75 84 43 27 47 104 131 111 179 232 210 206 255 255 255 255 255 255 248 92 180 125 255 255 255 255 255 255 255 255 255 255 255 255 255 255 255 255 255 243 255 255 255 218 211 255 255 252 211 255 225 189 149 0 0 0 0 0 0 0 0 0 0 0 0 0 0 0 0 0 0 0 0 0 0 0 0 0 0 0 0 0 0 0 0 0 0 0 0 0 0 0 0 0 0 0 0 0 0 0 0 0 0 0 0 0 0 0 0 0 0 0 0 0 0 0 0 0 0 0 0 0 0 0 0 0 0 0 0 
0 0 0 0 0 0 0 0 0 0 0 0 0 0 0 0 0 0 0 0 0 0 0 0 0 0 0 0 0 0 0 0 0 0 0 0 0 0 0 0 0 0 0 0 0 0 0 0 0 0 0 0 0 0 0 0 0 0 0 0 0 0 0 0 0 0 0 0 0 0 0 0 0 0 0 0 0 0 0 0 0 0 0 0 17 190 255 192 0 0 0 0 20 90 114 115 155 255 255 255 143 156 169 188 190 145 118 182 218 198 185 187 183 179 177 183 185 178 168 162 181 193 183 176 183 170 165 166 160 168 165 145 171 215 40 41 124 111 106 104 100 107 109 110 111 116 116 111 112 112 109 104 106 108 108 108 110 110 112 116 122 121 123 128 128 131 134 144 145 143 156 161 164 162 160 166 179 185 180 180 171 175 199 212 205 200 206 207 194 190 186 195 206 201 198 208 200 192 181 189 201 197 41 98 230 156 226 247 255 255 250 213 247 255 255 255 255 255 255 66 65 128 135 138 151 197 192 159 150 177 252 255 222 229 255 255 255 255 255 255 255 255 255 255 255 255 255 255 255 255 255 255 255 255 255 122 255 255 255 226 255 255 251 238 213 249 255 254 204 202 255 255 215 185 246 255 217 170 158 192 157 140 122 34 0 0 0 0 0 0 0 0 0 0 0 0 0 0 0 0 0 0 0 0 0 0 0 0 0 0 0 0 0 0 0 0 0 0 0 0 0 0 0 0 0 0 0 0 0 0 0 0 0 0 0 0 0 0 0 0 0 0 0 0 0 0 0 0 0 0 0 0 0 0 0 0 0 0 0 
0 0 0 0 0 0 0 0 0 0 0 0 0 0 0 0 0 0 0 0 0 0 0 0 0 0 0 0 0 0 0 0 0 0 0 0 0 0 0 0 0 0 0 0 0 0 0 0 0 0 0 0 0 0 0 0 0 0 0 0 0 0 0 0 0 0 0 0 0 0 0 0 0 0 0 0 0 0 0 0 0 0 0 0 2 58 164 38 0 0 0 0 0 0 0 0 46 255 255 207 137 166 178 193 197 154 121 184 238 208 180 184 183 176 180 188 181 175 176 168 178 194 179 174 183 169 150 164 166 180 180 162 140 210 137 0 95 115 100 98 100 109 111 112 118 122 125 125 124 119 123 125 121 122 126 135 135 132 137 142 144 145 154 172 186 189 192 190 186 184 195 197 198 204 206 217 223 218 200 190 198 204 216 226 207 200 205 193 179 179 193 207 215 216 209 223 199 149 147 170 192 210 96 1 255 255 255 255 255 255 255 241 255 255 255 255 255 255 255 49 90 247 255 255 255 255 255 255 255 255 255 255 255 255 255 255 255 255 255 255 227 226 255 252 232 255 255 255 255 255 255 255 255 255 225 73 186 255 232 190 198 203 117 158 164 184 202 133 82 126 188 141 119 198 227 172 141 148 134 160 154 148 154 116 0 0 0 0 0 0 0 0 0 0 0 0 0 0 0 0 0 0 0 0 0 0 0 0 0 0 0 0 0 0 0 0 0 0 0 0 0 0 0 0 0 0 0 0 0 0 0 0 0 0 0 0 0 0 0 0 0 0 0 0 0 0 0 0 0 0 0 0 0 0 0 0 0 0 0 
0 0 0 0 0 0 0 0 0 0 0 0 0 0 0 0 0 0 0 0 0 0 0 0 0 0 0 0 0 0 0 0 0 0 0 0 0 0 0 0 0 0 0 0 0 0 0 0 0 0 0 0 0 0 0 0 0 0 0 0 0 0 0 0 0 0 0 0 0 0 0 0 0 0 0 0 0 0 0 0 0 0 0 0 0 8 12 0 0 0 0 0 0 0 0 0 0 255 255 137 150 175 180 184 186 172 166 224 247 210 186 184 186 183 178 182 179 177 188 187 185 189 178 174 179 174 152 166 179 187 187 169 136 160 217 22 23 122 107 109 111 117 119 117 127 127 126 131 133 133 141 149 147 148 157 169 169 173 184 183 182 190 200 209 218 211 207 204 206 205 203 196 198 213 224 232 234 227 213 218 232 225 226 237 209 207 221 200 185 205 213 203 210 222 223 207 156 125 166 166 165 199 176 0 143 255 255 255 255 255 255 255 228 255 255 255 255 255 210 0 74 255 255 255 255 255 255 199 255 255 255 255 255 255 250 243 255 234 203 185 118 176 238 230 226 255 255 255 221 132 109 170 223 130 68 41 80 190 153 124 72 114 82 112 135 148 170 129 101 142 155 88 76 163 144 103 156 188 149 138 175 175 180 157 0 0 0 0 0 0 0 0 0 0 0 0 0 0 0 0 0 0 0 0 0 0 0 0 0 0 0 0 0 0 0 0 0 0 0 0 0 0 0 0 0 0 0 0 0 0 0 0 0 0 0 0 0 0 0 0 0 0 0 0 0 0 0 0 0 0 0 0 0 0 0 0 0 0 0 
0 0 0 0 0 0 0 0 0 0 0 0 0 0 0 0 0 0 0 0 0 0 0 0 0 0 0 0 0 0 0 0 0 0 0 0 0 0 0 0 0 0 0 0 0 0 0 0 0 0 0 0 0 0 0 0 0 0 0 0 0 0 0 0 0 0 0 0 0 0 0 0 0 0 0 0 0 0 0 0 0 0 0 0 0 0 0 0 0 0 0 0 0 0 0 0 255 255 255 132 168 193 186 176 174 174 141 185 208 194 195 187 188 184 173 170 175 179 188 192 181 177 178 180 173 166 153 166 185 181 180 167 146 131 221 146 0 113 129 125 130 137 137 130 141 146 146 147 145 150 157 165 161 165 174 177 176 187 206 213 222 238 230 207 194 185 186 207 221 223 214 211 207 221 231 234 232 244 250 255 255 255 253 230 172 169 241 245 207 216 197 164 177 197 210 184 142 149 198 164 167 217 220 16 0 255 255 255 240 231 255 255 101 255 255 198 170 255 85 0 10 255 255 255 255 203 169 166 234 229 246 255 255 248 160 194 215 195 150 224 235 223 218 184 185 197 156 128 91 28 31 49 71 78 45 82 122 138 129 146 86 113 123 144 192 195 177 158 161 190 170 93 86 176 148 93 147 161 160 161 193 187 171 171 65 0 0 0 0 0 0 0 0 0 0 0 0 0 0 0 0 0 0 0 0 0 0 0 0 0 0 0 0 0 0 0 0 0 0 0 0 0 0 0 0 0 0 0 0 0 0 0 0 0 0 0 0 0 0 0 0 0 0 0 0 0 0 0 0 0 0 0 0 0 0 0 0 0 0 
0 0 0 0 0 0 0 0 0 0 0 0 0 0 0 0 0 0 0 0 0 0 0 0 0 0 0 0 0 0 0 0 0 0 0 0 0 0 0 0 0 0 0 0 0 0 0 0 0 0 0 0 0 0 0 0 0 0 0 0 0 0 0 0 0 0 0 0 0 0 0 0 0 0 0 0 0 0 0 0 0 0 0 0 0 0 0 0 0 0 0 0 0 0 0 255 255 255 255 144 177 191 183 177 175 173 148 179 211 182 192 186 186 182 179 178 184 183 187 188 178 172 177 189 176 162 162 170 189 177 174 170 161 135 183 234 24 57 155 142 143 143 139 140 149 154 157 161 163 159 160 168 163 165 171 170 178 193 202 205 205 215 211 192 186 196 203 206 214 229 231 241 238 241 240 240 248 236 230 228 238 255 255 217 159 159 229 247 199 203 203 156 159 179 201 198 193 207 199 148 171 220 204 76 0 255 255 255 144 118 204 140 0 140 255 121 100 150 63 0 0 255 255 244 211 134 89 181 206 186 181 205 190 152 129 193 224 176 120 193 224 182 151 108 112 163 119 95 103 97 164 182 163 161 127 142 182 159 169 189 151 133 139 147 177 176 154 137 122 166 158 78 106 230 197 120 115 140 157 168 185 184 170 188 136 0 0 0 0 0 0 0 0 0 0 0 0 0 0 0 0 0 0 0 0 0 0 0 0 0 0 0 0 0 0 0 0 0 0 0 0 0 0 0 0 0 0 0 0 0 0 0 0 0 0 0 0 0 0 0 0 0 0 0 0 0 0 0 0 0 0 0 0 0 0 0 0 0 0 
0 0 0 0 0 0 0 0 0 0 0 0 0 0 0 0 0 0 0 0 0 0 0 0 0 0 0 0 0 0 0 0 0 0 0 0 0 0 0 0 0 0 0 0 0 0 0 0 0 0 0 0 0 0 0 0 0 0 0 0 0 0 0 0 0 0 0 0 0 0 0 0 0 0 0 0 0 0 0 0 0 0 0 0 0 0 0 0 0 0 0 0 0 0 24 255 255 255 165 165 180 177 177 179 182 186 192 244 255 172 189 194 182 177 177 185 192 187 180 182 185 174 181 193 176 163 179 184 187 174 174 178 169 150 145 231 96 0 140 150 144 136 136 150 152 143 149 153 156 158 162 165 161 156 168 178 196 206 198 176 154 131 148 174 173 191 222 207 203 232 241 233 244 250 255 244 255 232 188 172 203 255 255 223 200 191 204 216 188 162 199 195 157 156 196 217 215 212 156 121 154 183 172 126 0 138 255 255 81 38 73 87 0 34 224 64 42 112 104 0 0 214 255 123 42 76 119 173 168 130 134 115 70 75 95 156 167 118 126 158 133 84 80 87 96 153 138 127 137 142 206 176 94 87 91 114 174 130 123 179 166 139 138 140 144 123 131 138 121 144 130 81 138 220 167 119 148 181 167 138 147 176 189 204 158 0 0 0 0 0 0 0 0 0 0 0 0 0 0 0 0 0 0 0 0 0 0 0 0 0 0 0 0 0 0 0 0 0 0 0 0 0 0 0 0 0 0 0 0 0 0 0 0 0 0 0 0 0 0 0 0 0 0 0 0 0 0 0 0 0 0 0 0 0 0 0 0 0 0 
0 0 0 0 0 0 0 0 0 0 0 0 0 0 0 0 0 0 0 0 0 0 0 0 0 0 0 0 0 0 0 0 0 0 0 0 0 0 0 0 0 0 0 0 0 0 0 0 0 0 0 0 0 0 0 0 0 0 0 0 0 0 0 0 0 0 0 0 0 0 0 0 0 0 0 0 0 0 0 0 0 0 0 0 0 0 0 0 0 0 0 0 0 0 98 255 255 255 145 172 184 177 180 180 188 191 197 236 221 141 179 201 181 179 178 184 187 182 174 180 185 172 178 182 172 165 182 184 176 174 173 178 173 161 129 183 163 0 85 157 140 139 141 155 162 148 153 156 155 164 175 184 178 174 180 193 195 193 171 140 121 117 134 142 130 138 177 187 203 238 240 218 238 247 248 223 236 223 181 162 178 255 225 163 191 200 160 193 211 166 155 159 129 147 214 231 166 151 139 115 161 202 177 186 0 0 255 237 44 7 48 101 3 5 190 94 39 108 131 59 2 128 255 142 0 65 161 155 178 135 133 102 99 74 135 175 143 101 121 146 138 95 60 113 158 172 150 138 140 145 175 132 57 80 112 110 170 150 146 178 155 126 110 109 116 126 171 190 158 135 124 132 192 202 164 165 199 178 138 130 169 186 180 201 164 0 0 0 0 0 0 0 0 0 0 0 0 0 0 0 0 0 0 0 0 0 0 0 0 0 0 0 0 0 0 0 0 0 0 0 0 0 0 0 0 0 0 0 0 0 0 0 0 0 0 0 0 0 0 0 0 0 0 0 0 0 0 0 0 0 0 0 0 0 0 0 0 0 0 
0 0 0 0 0 0 0 0 0 0 0 0 0 0 0 0 0 0 0 0 0 0 0 0 0 0 0 0 0 0 0 0 0 0 0 0 0 0 0 0 0 0 0 0 0 0 0 0 0 0 0 0 0 0 0 0 0 0 0 0 0 0 0 0 0 0 0 0 0 0 0 0 0 0 0 0 0 0 0 0 0 0 0 0 0 0 0 0 0 0 0 0 0 0 221 255 255 255 152 171 181 181 179 181 190 187 182 203 189 121 166 201 171 180 185 180 183 181 176 182 194 177 169 170 165 176 186 181 168 176 174 175 180 170 138 142 182 28 37 172 142 151 155 152 154 156 164 170 174 183 185 177 171 169 174 175 171 164 153 130 118 146 173 145 120 144 167 164 170 207 198 186 201 214 206 199 182 210 178 138 163 236 170 80 116 130 103 138 191 154 126 124 101 143 222 225 125 117 149 108 133 185 146 180 38 0 255 255 92 71 90 127 79 31 166 172 106 136 149 113 15 58 234 218 108 150 159 127 154 189 161 133 145 110 161 173 127 117 121 140 157 135 94 164 191 165 157 153 154 140 136 122 103 149 184 141 175 179 156 171 154 144 138 133 130 141 187 187 138 105 152 176 188 156 167 200 176 125 109 165 207 191 162 178 168 0 0 0 0 0 0 0 0 0 0 0 0 0 0 0 0 0 0 0 0 0 0 0 0 0 0 0 0 0 0 0 0 0 0 0 0 0 0 0 0 0 0 0 0 0 0 0 0 0 0 0 0 0 0 0 0 0 0 0 0 0 0 0 0 0 0 0 0 0 0 0 0 0 0 
0 0 0 0 0 0 0 0 0 0 0 0 0 0 0 0 0 0 0 0 0 0 0 0 0 0 0 0 0 0 0 0 0 0 0 0 0 0 0 0 0 0 0 0 0 0 0 0 0 0 0 0 0 0 0 0 0 0 0 0 0 0 0 0 0 0 0 0 0 0 0 0 0 0 0 0 0 0 0 0 0 0 0 0 0 0 0 0 0 0 0 0 0 2 255 255 255 178 155 170 181 183 175 185 194 184 186 218 215 130 154 209 177 178 182 175 179 184 181 179 189 180 165 165 170 185 183 180 175 178 175 175 182 173 150 125 167 99 28 174 169 161 162 143 146 160 161 164 165 165 162 141 135 134 129 133 150 163 143 127 136 151 163 147 140 151 164 179 152 178 182 151 145 157 168 170 150 171 173 136 170 235 150 60 105 97 69 113 171 145 130 131 112 125 162 156 116 123 148 102 105 164 133 132 90 0 160 255 126 100 119 147 120 71 142 199 141 145 151 140 61 53 178 245 189 167 162 164 159 165 139 121 155 153 169 179 127 113 116 154 174 133 112 170 165 132 129 139 165 140 123 141 131 148 165 131 181 202 113 113 133 124 143 169 170 144 157 148 100 85 147 152 129 108 146 181 140 108 132 207 197 143 131 154 170 56 0 0 0 0 0 0 0 0 0 0 0 0 0 0 0 0 0 0 0 0 0 0 0 0 0 0 0 0 0 0 0 0 0 0 0 0 0 0 0 0 0 0 0 0 0 0 0 0 0 0 0 0 0 0 0 0 0 0 0 0 0 0 0 0 0 0 0 0 0 0 0 0 0 
0 0 0 0 0 0 0 0 0 0 0 0 0 0 0 0 0 0 0 0 0 0 0 0 0 0 0 0 0 0 0 0 0 0 0 0 0 0 0 0 0 0 0 0 0 0 0 0 0 0 0 0 0 0 0 0 0 0 0 0 0 0 0 0 0 0 0 0 0 0 0 0 0 0 0 0 0 0 0 0 0 0 0 0 0 0 0 0 0 0 0 0 0 33 255 255 255 147 154 164 177 185 181 193 197 183 177 205 231 166 141 210 192 184 182 173 181 191 183 180 181 181 164 163 183 198 184 175 176 173 175 171 178 174 162 128 143 141 38 125 175 145 146 125 141 160 148 136 140 134 132 124 123 130 121 134 147 170 145 117 160 180 150 127 122 123 141 177 144 140 164 142 132 134 154 140 99 98 124 104 131 165 101 66 122 129 98 115 137 140 115 118 122 107 119 118 117 110 120 104 98 149 153 130 127 0 44 255 175 118 130 148 115 75 118 188 141 119 134 144 80 36 135 230 182 117 116 162 184 151 126 113 128 128 133 162 139 129 157 173 159 118 105 133 130 128 136 130 162 139 133 134 129 163 156 125 159 170 91 93 149 120 118 155 159 107 113 150 113 88 133 140 134 116 125 163 124 104 142 185 138 79 92 123 158 81 0 0 0 0 0 0 0 0 0 0 0 0 0 0 0 0 0 0 0 0 0 0 0 0 0 0 0 0 0 0 0 0 0 0 0 0 0 0 0 0 0 0 0 0 0 0 0 0 0 0 0 0 0 0 0 0 0 0 0 0 0 0 0 0 0 0 0 0 0 0 0 0 0 
0 0 0 0 0 0 0 0 0 0 0 0 0 0 0 0 0 0 0 0 0 0 0 0 0 0 0 0 0 0 0 0 0 0 0 0 0 0 0 0 0 0 0 0 0 0 0 0 0 0 0 0 0 0 0 0 0 0 0 0 0 0 0 0 0 0 0 0 0 0 0 0 0 0 0 0 0 0 0 0 0 0 0 0 0 0 0 0 0 0 0 0 0 94 255 255 255 152 157 172 181 188 182 190 192 183 172 187 228 218 150 193 202 174 185 183 185 194 187 179 183 185 168 163 189 198 178 171 174 170 174 173 175 176 170 137 119 133 51 80 165 128 137 134 146 149 126 118 125 131 128 128 132 149 146 152 147 147 131 118 156 169 137 135 124 127 161 172 130 110 139 125 116 114 128 102 68 78 86 79 85 95 83 81 111 116 100 100 98 120 102 88 107 103 113 116 104 92 95 105 98 120 134 105 132 6 0 255 234 132 119 126 121 87 89 162 163 128 136 146 84 16 97 209 187 105 75 89 122 127 117 130 128 104 115 131 129 135 154 142 119 103 100 122 123 127 141 130 157 123 99 106 112 150 144 111 122 128 96 113 168 143 151 161 123 99 114 154 126 98 133 144 159 139 116 148 96 72 106 132 95 68 93 119 133 73 0 0 0 0 0 0 0 0 0 0 0 0 0 0 0 0 0 0 0 0 0 0 0 0 0 0 0 0 0 0 0 0 0 0 0 0 0 0 0 0 0 0 0 0 0 0 0 0 0 0 0 0 0 0 0 0 0 0 0 0 0 0 0 0 0 0 0 0 0 0 0 0 0 
0 0 0 0 0 0 0 0 0 0 0 0 0 0 0 0 0 0 0 0 0 0 0 0 0 0 0 0 0 0 0 0 0 0 0 0 0 0 0 0 0 0 0 0 0 0 0 0 0 0 0 0 0 0 0 0 0 0 0 0 0 0 0 0 0 0 0 0 0 0 0 0 0 0 0 0 0 0 0 0 0 0 0 0 0 0 0 0 0 0 0 0 0 165 255 255 255 145 167 178 183 181 179 189 190 187 177 180 211 246 181 162 206 187 191 186 187 196 184 177 185 177 164 170 192 192 176 171 176 175 164 165 170 175 175 148 106 104 59 63 156 133 132 143 136 130 118 122 127 123 116 124 128 135 130 135 137 126 140 134 128 134 90 88 120 142 164 161 128 112 137 141 112 97 109 91 75 86 105 103 89 84 83 89 101 92 90 109 107 102 105 113 127 110 108 127 115 114 117 122 118 114 122 107 143 58 0 207 255 128 100 113 138 103 59 135 179 139 151 150 92 27 79 177 190 133 110 96 101 118 103 113 153 117 126 140 126 147 145 116 97 120 122 121 142 154 161 133 122 112 84 101 113 142 110 76 113 125 103 117 160 122 134 155 113 111 129 119 99 100 135 136 127 117 99 129 97 74 105 110 96 75 93 122 116 72 0 0 0 0 0 0 0 0 0 0 0 0 0 0 0 0 0 0 0 0 0 0 0 0 0 0 0 0 0 0 0 0 0 0 0 0 0 0 0 0 0 0 0 0 0 0 0 0 0 0 0 0 0 0 0 0 0 0 0 0 0 0 0 0 0 0 0 0 0 0 0 0 0 
0 0 0 0 0 0 0 0 0 0 0 0 0 0 0 0 0 0 0 0 0 0 0 0 0 0 0 0 0 0 0 0 0 0 0 0 0 0 0 0 0 0 0 0 0 0 0 0 0 0 0 0 0 0 0 0 0 0 0 0 0 0 0 0 0 0 0 0 0 0 0 0 0 0 0 0 0 0 0 0 0 0 0 0 0 0 0 0 0 0 0 0 0 243 255 255 231 145 171 177 183 179 179 190 192 189 178 178 202 217 150 107 186 203 186 188 185 184 173 170 175 171 173 190 186 181 174 171 176 178 164 166 167 167 177 166 116 87 67 49 121 127 112 123 116 111 115 126 123 123 123 119 131 127 98 105 142 129 137 137 108 108 80 66 99 135 144 130 128 129 134 132 111 96 100 97 99 109 105 102 102 84 84 93 94 95 113 129 111 106 130 129 119 115 113 123 122 126 134 123 118 102 100 112 141 97 0 134 255 126 94 111 134 99 30 118 185 125 126 139 97 27 65 165 192 133 108 118 117 144 119 122 152 118 119 121 118 145 132 113 117 130 135 127 138 141 132 119 91 95 105 123 131 155 118 99 115 125 98 108 114 92 103 124 87 86 114 82 86 117 129 124 115 112 100 121 102 79 116 124 96 63 90 118 96 69 0 0 0 0 0 0 0 0 0 0 0 0 0 0 0 0 0 0 0 0 0 0 0 0 0 0 0 0 0 0 0 0 0 0 0 0 0 0 0 0 0 0 0 0 0 0 0 0 0 0 0 0 0 0 0 0 0 0 0 0 0 0 0 0 0 0 0 0 0 0 0 0 0 
0 0 0 0 0 0 0 0 0 0 0 0 0 0 0 0 0 0 0 0 0 0 0 0 0 0 0 0 0 0 0 0 0 0 0 0 0 0 0 0 0 0 0 0 0 0 0 0 0 0 0 0 0 0 0 0 0 0 0 0 0 0 0 0 0 0 0 0 0 0 0 0 0 0 0 0 0 0 0 0 0 0 0 0 0 0 0 0 0 0 0 0 6 255 255 255 173 158 189 185 187 184 189 190 188 185 181 178 194 191 138 104 175 205 174 174 181 178 171 175 178 176 185 192 180 174 180 173 172 168 163 170 176 173 178 174 132 77 68 49 92 132 115 121 125 110 103 125 120 114 125 130 133 131 122 112 143 142 123 105 93 104 100 99 141 144 122 107 119 125 123 122 109 102 104 110 111 124 121 110 100 95 106 110 108 112 124 132 111 114 136 131 112 109 115 115 108 114 127 121 118 106 109 116 133 126 0 63 255 156 116 123 128 98 33 99 177 116 104 129 109 30 36 137 192 135 85 101 118 132 129 136 137 111 95 117 124 113 98 117 133 97 100 123 109 85 87 102 88 95 127 130 136 147 112 108 133 123 105 112 93 95 121 108 53 37 74 75 75 107 104 84 86 97 92 93 82 85 101 97 77 71 100 110 92 64 0 0 0 0 0 0 0 0 0 0 0 0 0 0 0 0 0 0 0 0 0 0 0 0 0 0 0 0 0 0 0 0 0 0 0 0 0 0 0 0 0 0 0 0 0 0 0 0 0 0 0 0 0 0 0 0 0 0 0 0 0 0 0 0 0 0 0 0 0 0 0 0 0 
0 0 0 0 0 0 0 0 0 0 0 0 0 0 0 0 0 0 0 0 0 0 0 0 0 0 0 0 0 0 0 0 0 0 0 0 0 0 0 0 0 0 0 0 0 0 0 0 0 0 0 0 0 0 0 0 0 0 0 0 0 0 0 0 0 0 0 0 0 0 0 0 0 0 0 0 0 0 0 0 0 0 0 0 0 0 0 0 0 0 0 0 29 255 255 255 158 167 188 196 189 176 185 193 188 190 188 182 189 173 151 163 188 203 185 175 179 180 179 187 186 183 189 178 174 180 189 178 174 169 164 160 172 179 180 179 144 74 59 54 77 144 136 126 137 120 100 115 125 108 128 124 129 123 125 124 134 115 97 106 114 117 120 117 137 133 116 104 114 124 114 110 106 103 114 120 109 111 111 105 108 105 119 121 109 115 120 122 115 100 95 102 109 108 108 108 103 106 111 108 111 103 100 103 119 133 0 6 255 190 101 79 70 45 11 46 102 49 23 54 56 81 126 154 169 134 69 94 135 125 114 138 129 95 90 116 118 96 84 103 118 86 91 131 93 76 113 105 84 92 133 128 100 85 71 86 111 98 98 89 84 95 118 88 54 63 90 94 73 77 80 61 77 94 80 68 59 74 85 84 89 81 94 95 87 75 0 0 0 0 0 0 0 0 0 0 0 0 0 0 0 0 0 0 0 0 0 0 0 0 0 0 0 0 0 0 0 0 0 0 0 0 0 0 0 0 0 0 0 0 0 0 0 0 0 0 0 0 0 0 0 0 0 0 0 0 0 0 0 0 0 0 0 0 0 0 0 0 0 
0 0 0 0 0 0 0 0 0 0 0 0 0 0 0 0 0 0 0 0 0 0 0 0 0 0 0 0 0 0 0 0 0 0 0 0 0 0 0 0 0 0 0 0 0 0 0 0 0 0 0 0 0 0 0 0 0 0 0 0 0 0 0 0 0 0 0 0 0 0 0 0 0 0 0 0 0 0 0 0 0 0 0 0 0 0 0 0 0 0 0 0 65 255 255 255 154 171 184 190 182 175 185 195 185 196 192 174 181 185 174 182 186 195 197 187 185 183 179 183 175 175 187 179 179 184 183 173 169 173 170 166 177 172 168 178 161 83 46 56 74 152 155 125 131 109 97 115 139 124 127 140 127 123 124 120 115 108 99 106 116 112 117 117 110 106 103 105 108 113 102 100 110 105 109 111 112 103 102 94 110 111 110 114 105 111 122 115 107 90 79 93 101 97 103 109 105 95 102 105 105 92 84 94 107 138 0 0 223 163 35 3 3 0 14 53 78 41 34 59 61 79 148 140 127 136 85 103 145 109 81 109 98 83 87 102 97 81 81 95 102 85 90 133 105 88 117 93 70 84 99 90 66 61 64 75 99 101 84 73 73 84 90 64 63 93 115 118 98 88 93 88 94 99 89 85 71 77 81 87 100 91 90 96 106 101 0 0 0 0 0 0 0 0 0 0 0 0 0 0 0 0 0 0 0 0 0 0 0 0 0 0 0 0 0 0 0 0 0 0 0 0 0 0 0 0 0 0 0 0 0 0 0 0 0 0 0 0 0 0 0 0 0 0 0 0 0 0 0 0 0 0 0 0 0 0 0 0 0 
0 0 0 0 0 0 0 0 0 0 0 0 0 0 0 0 0 0 0 0 0 0 0 0 0 0 0 0 0 0 0 0 0 0 0 0 0 0 0 0 0 0 0 0 0 0 0 0 0 0 0 0 0 0 0 0 0 0 0 0 0 0 0 0 0 0 0 0 0 0 0 0 0 0 0 0 0 0 0 0 0 0 0 0 0 0 0 0 0 0 0 0 80 255 255 255 156 178 182 185 185 182 189 191 189 199 186 168 173 184 176 180 178 181 204 189 179 182 189 183 174 183 188 180 181 175 174 166 168 178 168 165 174 169 169 185 172 99 43 55 73 136 154 126 128 106 103 122 133 121 113 129 116 118 120 113 102 113 118 127 121 114 120 107 86 109 114 102 99 114 114 108 115 111 94 99 107 109 95 89 104 106 96 110 105 104 116 111 97 90 85 103 117 104 105 105 94 88 102 108 104 89 85 98 95 122 11 0 207 138 7 25 71 96 118 139 135 130 149 157 127 117 147 67 70 128 96 88 104 80 82 96 83 86 93 98 83 76 91 97 105 99 95 122 112 87 92 87 83 88 82 78 71 84 94 88 93 89 77 77 83 98 92 84 90 101 109 105 92 85 93 111 112 100 82 81 87 101 98 95 98 90 102 110 107 112 12 0 0 0 0 0 0 0 0 0 0 0 0 0 0 0 0 0 0 0 0 0 0 0 0 0 0 0 0 0 0 0 0 0 0 0 0 0 0 0 0 0 0 0 0 0 0 0 0 0 0 0 0 0 0 0 0 0 0 0 0 0 0 0 0 0 0 0 0 0 0 0 0 
0 0 0 0 0 0 0 0 0 0 0 0 0 0 0 0 0 0 0 0 0 0 0 0 0 0 0 0 0 0 0 0 0 0 0 0 0 0 0 0 0 0 0 0 0 0 0 0 0 0 0 0 0 0 0 0 0 0 0 0 0 0 0 0 0 0 0 0 0 0 0 0 0 0 0 0 0 0 0 0 0 0 0 0 0 0 0 0 0 0 0 0 89 255 255 255 151 183 187 187 185 178 181 185 188 194 185 173 183 184 162 157 175 176 197 186 177 185 189 177 181 193 189 177 177 169 172 173 177 184 171 164 162 172 181 191 178 120 49 59 73 115 146 130 134 113 106 115 109 105 97 115 103 91 99 103 101 118 120 120 118 108 109 97 84 115 118 117 122 116 111 106 107 106 97 96 107 104 102 102 106 104 88 102 103 96 108 102 88 93 93 102 117 107 95 92 86 92 108 105 96 88 85 100 85 109 31 19 240 167 46 96 131 141 134 131 115 119 127 114 82 83 155 135 77 114 100 86 90 76 86 101 83 97 111 92 78 83 112 102 108 114 102 103 90 67 66 78 99 93 84 87 97 97 94 88 86 71 62 76 86 106 99 87 90 91 86 85 81 80 95 117 105 84 87 93 94 99 101 103 105 102 117 103 94 113 58 0 0 0 0 0 0 0 0 0 0 0 0 0 0 0 0 0 0 0 0 0 0 0 0 0 0 0 0 0 0 0 0 0 0 0 0 0 0 0 0 0 0 0 0 0 0 0 0 0 0 0 0 0 0 0 0 0 0 0 0 0 0 0 0 0 0 0 0 0 0 0 0 
0 0 0 0 0 0 0 0 0 0 0 0 0 0 0 0 0 0 0 0 0 0 0 0 0 0 0 0 0 0 0 0 0 0 0 0 0 0 0 0 0 0 0 0 0 0 0 0 0 0 0 0 0 0 0 0 0 0 0 0 0 0 0 0 0 0 0 0 0 0 0 0 0 0 0 0 0 0 0 0 0 0 0 0 0 0 0 0 0 0 0 0 117 255 255 255 150 185 180 179 182 177 176 180 182 181 181 178 185 187 174 189 211 181 188 197 181 184 172 167 185 191 182 172 177 178 176 182 183 182 165 163 163 178 182 178 178 137 55 42 67 104 144 134 135 111 92 103 102 108 104 121 114 95 99 102 94 117 111 101 101 96 97 94 93 111 103 111 120 97 99 106 104 97 95 102 104 97 99 104 107 103 92 96 98 96 101 98 90 89 86 86 100 103 93 89 88 88 97 95 90 83 78 86 80 97 52 0 158 117 26 95 88 81 72 73 66 68 77 66 61 62 100 89 42 100 98 89 96 92 92 94 76 98 112 74 64 88 114 101 92 97 87 83 67 61 70 78 91 80 67 91 99 87 83 82 86 81 86 99 86 86 90 81 77 82 75 76 84 97 103 101 81 79 104 108 102 97 99 105 106 103 103 95 88 115 59 0 0 0 0 0 0 0 0 0 0 0 0 0 0 0 0 0 0 0 0 0 0 0 0 0 0 0 0 0 0 0 0 0 0 0 0 0 0 0 0 0 0 0 0 0 0 0 0 0 0 0 0 0 0 0 0 0 0 0 0 0 0 0 0 0 0 0 0 0 0 0 0 
0 0 0 0 0 0 0 0 0 0 0 0 0 0 0 0 0 0 0 0 0 0 0 0 0 0 0 0 0 0 0 0 0 0 0 0 0 0 0 0 0 0 0 0 0 0 0 0 0 0 0 0 0 0 0 0 0 0 0 0 0 0 0 0 0 0 0 0 0 0 0 0 0 0 0 0 0 0 0 0 0 0 0 0 0 0 0 0 0 0 0 0 137 255 255 249 168 191 179 173 182 184 183 181 183 180 187 184 180 190 190 181 208 186 175 207 186 177 168 173 188 183 173 171 182 187 173 176 182 172 162 168 167 176 170 155 165 148 64 25 55 95 135 127 124 103 76 99 112 122 116 121 118 103 108 111 100 110 101 84 99 99 103 105 100 101 93 94 94 77 89 102 95 87 83 94 95 92 90 93 88 98 97 98 95 93 95 90 85 80 75 73 81 91 90 91 90 87 90 88 81 78 74 77 86 99 57 0 94 98 17 87 79 80 85 88 82 81 87 84 93 87 94 110 68 77 90 88 98 99 95 94 79 96 102 69 75 95 103 93 80 77 77 76 71 79 89 86 81 77 76 97 103 88 77 83 93 89 96 96 85 84 83 79 89 102 97 94 98 100 95 87 85 92 110 105 96 97 101 105 101 101 101 93 90 122 30 0 0 0 0 0 0 0 0 0 0 0 0 0 0 0 0 0 0 0 0 0 0 0 0 0 0 0 0 0 0 0 0 0 0 0 0 0 0 0 0 0 0 0 0 0 0 0 0 0 0 0 0 0 0 0 0 0 0 0 0 0 0 0 0 0 0 0 0 0 0 0 0 
0 0 0 0 0 0 0 0 0 0 0 0 0 0 0 0 0 0 0 0 0 0 0 0 0 0 0 0 0 0 0 0 0 0 0 0 0 0 0 0 0 0 0 0 0 0 0 0 0 0 0 0 0 0 0 0 0 0 0 0 0 0 0 0 0 0 0 0 0 0 0 0 0 0 0 0 0 0 0 0 0 0 0 0 0 0 0 0 0 0 0 0 153 255 255 234 173 184 184 182 187 190 186 185 189 187 193 195 186 193 198 151 148 180 163 196 190 171 172 186 195 184 176 175 181 186 169 175 183 170 158 163 160 157 149 160 181 162 83 30 53 87 119 124 117 100 72 100 116 121 113 106 103 96 98 98 94 102 92 81 111 106 90 96 96 96 88 96 100 88 90 93 86 83 85 86 87 88 85 92 88 88 91 87 81 79 79 76 74 67 74 84 84 84 81 83 85 80 82 82 78 78 77 85 96 102 68 0 115 172 56 89 88 87 93 94 83 82 98 97 98 84 102 143 101 77 91 92 91 84 79 96 96 95 87 74 84 93 90 95 91 76 82 87 85 84 87 84 82 88 94 95 96 83 77 81 91 84 90 88 81 82 83 88 90 94 99 100 98 95 89 92 98 99 99 97 88 92 98 98 94 98 101 100 101 117 41 0 0 0 0 0 0 0 0 0 0 0 0 0 0 0 0 0 0 0 0 0 0 0 0 0 0 0 0 0 0 0 0 0 0 0 0 0 0 0 0 0 0 0 0 0 0 0 0 0 0 0 0 0 0 0 0 0 0 0 0 0 0 0 0 0 0 0 0 0 0 0 0 
0 0 0 0 0 0 0 0 0 0 0 0 0 0 0 0 0 0 0 0 0 0 0 0 0 0 0 0 0 0 0 0 0 0 0 0 0 0 0 0 0 0 0 0 0 0 0 0 0 0 0 0 0 0 0 0 0 0 0 0 0 0 0 0 0 0 0 0 0 0 0 0 0 0 0 0 0 0 0 0 0 0 0 0 0 0 0 0 0 0 0 0 175 255 255 215 172 183 190 188 185 190 186 188 187 185 192 190 180 185 198 166 143 201 176 180 200 173 183 193 193 190 191 182 178 182 172 178 180 163 158 154 146 147 160 186 201 169 90 23 37 75 113 125 112 107 90 98 111 110 91 84 95 100 94 92 88 91 94 93 104 102 83 94 87 89 91 96 105 95 94 97 97 94 87 82 87 94 85 85 89 85 82 76 77 74 73 73 71 68 84 96 88 89 88 78 70 75 79 78 82 90 88 97 97 87 74 0 102 167 53 91 98 95 96 88 82 84 90 91 95 73 86 133 98 76 94 90 86 85 84 100 100 87 87 86 87 85 79 86 84 78 91 94 88 82 81 87 86 90 89 78 71 71 72 81 83 69 62 65 69 78 81 91 86 83 94 94 90 88 89 95 101 99 99 100 89 92 96 95 96 98 95 98 101 109 44 0 0 0 0 0 0 0 0 0 0 0 0 0 0 0 0 0 0 0 0 0 0 0 0 0 0 0 0 0 0 0 0 0 0 0 0 0 0 0 0 0 0 0 0 0 0 0 0 0 0 0 0 0 0 0 0 0 0 0 0 0 0 0 0 0 0 0 0 0 0 0 0 
0 0 0 0 0 0 0 0 0 0 0 0 0 0 0 0 0 0 0 0 0 0 0 0 0 0 0 0 0 0 0 0 0 0 0 0 0 0 0 0 0 0 0 0 0 0 0 0 0 0 0 0 0 0 0 0 0 0 0 0 0 0 0 0 0 0 0 0 0 0 0 0 0 0 0 0 0 0 0 0 0 0 0 0 0 0 0 0 0 0 0 0 193 255 255 188 168 187 190 184 181 188 186 183 179 183 189 184 179 181 194 179 126 184 202 173 203 178 188 191 186 189 189 180 170 176 175 172 171 158 162 153 152 172 187 191 183 162 91 12 23 64 103 119 103 98 91 90 97 92 79 79 95 92 86 81 91 89 97 97 91 91 76 90 92 86 88 91 95 83 89 96 89 89 83 82 95 93 78 76 82 78 78 78 77 80 81 83 83 82 94 94 82 85 84 74 71 79 85 86 86 95 93 93 83 73 81 2 84 166 57 88 102 92 91 87 83 88 92 91 93 67 77 135 97 71 89 90 92 95 91 95 87 71 84 95 93 85 89 98 97 81 81 88 87 83 85 93 94 86 83 82 78 60 44 46 50 48 41 60 119 146 109 90 85 86 94 90 84 84 91 97 99 94 99 101 95 93 91 93 102 101 94 98 96 97 59 0 0 0 0 0 0 0 0 0 0 0 0 0 0 0 0 0 0 0 0 0 0 0 0 0 0 0 0 0 0 0 0 0 0 0 0 0 0 0 0 0 0 0 0 0 0 0 0 0 0 0 0 0 0 0 0 0 0 0 0 0 0 0 0 0 0 0 0 0 0 0 0 
0 0 0 0 0 0 0 0 0 0 0 0 0 0 0 0 0 0 0 0 0 0 0 0 0 0 0 0 0 0 0 0 0 0 0 0 0 0 0 0 0 0 0 0 0 0 0 0 0 0 0 0 0 0 0 0 0 0 0 0 0 0 0 0 0 0 0 0 0 0 0 0 0 0 0 0 0 0 0 0 0 0 0 0 0 0 0 0 0 0 0 0 202 255 255 186 172 194 185 177 180 188 187 181 180 187 189 188 190 188 189 185 123 155 222 172 187 188 184 185 179 185 186 177 164 173 181 167 165 157 157 155 155 176 185 175 172 172 103 19 24 56 85 103 92 88 77 74 94 95 84 87 99 84 83 84 91 89 93 87 78 84 76 81 95 89 92 88 87 90 86 81 76 79 82 84 88 80 74 81 85 80 76 75 69 73 76 77 84 88 91 85 73 71 70 70 82 91 87 77 85 88 83 73 65 67 84 8 79 169 65 92 97 87 82 82 78 85 92 95 93 78 99 156 102 66 86 89 95 95 87 86 86 80 88 93 90 83 88 92 95 84 79 83 84 85 89 95 92 78 82 120 151 137 131 168 203 235 255 255 233 197 103 60 84 90 94 90 89 92 97 98 94 91 94 94 86 92 92 96 99 94 92 93 94 96 68 0 0 0 0 0 0 0 0 0 0 0 0 0 0 0 0 0 0 0 0 0 0 0 0 0 0 0 0 0 0 0 0 0 0 0 0 0 0 0 0 0 0 0 0 0 0 0 0 0 0 0 0 0 0 0 0 0 0 0 0 0 0 0 0 0 0 0 0 0 0 0 0 
0 0 0 0 0 0 0 0 0 0 0 0 0 0 0 0 0 0 0 0 0 0 0 0 0 0 0 0 0 0 0 0 0 0 0 0 0 0 0 0 0 0 0 0 0 0 0 0 0 0 0 0 0 0 0 0 0 0 0 0 0 0 0 0 0 0 0 0 0 0 0 0 0 0 0 0 0 0 0 0 0 0 0 0 0 0 0 0 0 0 0 0 206 255 255 187 178 194 183 174 183 189 182 184 191 186 172 185 194 182 180 193 159 151 227 186 163 190 182 186 180 185 189 176 168 180 187 164 154 161 166 174 161 164 163 167 173 179 117 28 23 52 79 101 91 88 84 87 95 91 87 90 93 87 89 91 93 89 83 81 78 85 84 82 89 86 77 82 87 85 73 75 85 86 82 81 73 80 87 91 85 77 74 79 79 73 73 74 81 85 86 78 68 66 71 79 90 87 80 75 79 81 74 70 72 80 94 20 74 163 66 90 97 89 82 80 75 85 91 85 85 85 117 152 93 60 84 84 87 84 83 85 88 87 91 90 83 81 85 86 82 77 82 90 87 78 80 84 77 79 86 58 59 225 255 255 255 255 255 255 78 0 0 22 86 91 87 90 91 96 96 90 85 87 96 85 77 88 96 97 95 90 95 95 94 103 51 0 0 0 0 0 0 0 0 0 0 0 0 0 0 0 0 0 0 0 0 0 0 0 0 0 0 0 0 0 0 0 0 0 0 0 0 0 0 0 0 0 0 0 0 0 0 0 0 0 0 0 0 0 0 0 0 0 0 0 0 0 0 0 0 0 0 0 0 0 0 0 0 
0 0 0 0 0 0 0 0 0 0 0 0 0 0 0 0 0 0 0 0 0 0 0 0 0 0 0 0 0 0 0 0 0 0 0 0 0 0 0 0 0 0 0 0 0 0 0 0 0 0 0 0 0 0 0 0 0 0 0 0 0 0 0 0 0 0 0 0 0 0 0 0 0 0 0 0 0 0 0 0 0 0 0 0 0 0 0 0 0 0 0 0 201 255 255 183 175 189 184 180 187 187 177 184 189 178 161 177 190 172 177 197 189 170 228 203 147 182 189 186 184 180 188 174 169 180 184 172 162 174 181 180 177 173 177 178 170 174 123 25 11 42 73 99 98 94 86 89 86 75 81 83 82 87 83 78 75 77 80 88 88 95 87 80 81 84 79 79 88 76 67 82 96 81 69 75 76 82 86 78 73 76 80 85 90 87 86 87 91 88 81 73 73 77 81 88 87 82 80 81 80 76 73 80 77 82 93 19 67 155 68 83 88 80 77 82 85 90 96 89 83 85 122 137 78 56 81 85 82 79 83 88 86 86 87 78 77 81 86 85 82 83 87 89 85 77 77 79 68 84 77 0 0 147 255 255 255 255 255 230 0 0 0 94 86 83 80 89 87 87 82 77 81 90 94 85 78 88 92 88 85 87 95 94 88 103 33 0 0 0 0 0 0 0 0 0 0 0 0 0 0 0 0 0 0 0 0 0 0 0 0 0 0 0 0 0 0 0 0 0 0 0 0 0 0 0 0 0 0 0 0 0 0 0 0 0 0 0 0 0 0 0 0 0 0 0 0 0 0 0 0 0 0 0 0 0 0 0 0 
0 0 0 0 0 0 0 0 0 0 0 0 0 0 0 0 0 0 0 0 0 0 0 0 0 0 0 0 0 0 0 0 0 0 0 0 0 0 0 0 0 0 0 0 0 0 0 0 0 0 0 0 0 0 0 0 0 0 0 0 0 0 0 0 0 0 0 0 0 0 0 0 0 0 0 0 0 0 0 0 0 0 0 0 0 0 0 0 0 0 0 0 186 255 255 186 177 186 180 186 185 186 186 183 181 175 173 183 194 176 180 196 195 164 197 209 160 188 214 189 178 176 180 178 172 180 173 174 173 182 181 171 175 176 189 182 174 175 131 22 2 40 64 86 91 86 86 86 80 69 85 85 74 81 79 73 77 87 92 88 78 79 78 71 76 94 97 80 77 73 80 92 87 67 65 83 88 77 78 71 77 85 86 85 88 83 84 89 85 81 78 84 84 85 89 92 87 80 81 80 78 75 81 81 70 76 86 14 72 162 75 81 81 71 75 85 90 92 97 91 81 88 132 138 66 56 82 88 89 88 93 95 87 86 88 78 77 83 82 81 84 84 84 81 75 77 81 85 72 81 65 0 0 232 255 255 166 175 185 1 0 0 234 249 82 77 82 89 88 81 81 82 85 91 87 82 79 91 92 85 83 87 90 88 84 104 12 0 0 0 0 0 0 0 0 0 0 0 0 0 0 0 0 0 0 0 0 0 0 0 0 0 0 0 0 0 0 0 0 0 0 0 0 0 0 0 0 0 0 0 0 0 0 0 0 0 0 0 0 0 0 0 0 0 0 0 0 0 0 0 0 0 0 0 0 0 0 0 0 
0 0 0 0 0 0 0 0 0 0 0 0 0 0 0 0 0 0 0 0 0 0 0 0 0 0 0 0 0 0 0 0 0 0 0 0 0 0 0 0 0 0 0 0 0 0 0 0 0 0 0 0 0 0 0 0 0 0 0 0 0 0 0 0 0 0 0 0 0 0 0 0 0 0 0 0 0 0 0 0 0 0 0 0 0 0 0 0 0 0 0 0 176 255 255 192 176 187 178 189 184 182 192 185 179 186 186 193 197 189 186 188 190 146 141 194 172 184 212 178 173 184 183 184 178 183 167 167 168 162 173 175 167 170 173 162 172 177 132 26 2 37 57 81 88 89 92 88 76 77 90 90 74 81 78 72 84 99 93 76 69 75 79 79 84 96 91 68 72 83 85 83 78 74 81 91 88 77 81 84 86 89 82 78 81 82 80 84 80 78 82 88 84 78 83 81 76 74 78 75 74 80 81 76 73 84 75 0 73 167 73 82 80 80 82 87 87 89 86 82 77 86 130 125 55 54 82 87 87 89 90 92 85 85 84 80 79 87 81 82 84 83 82 81 79 80 78 78 78 105 88 0 0 255 255 255 135 165 189 0 0 0 255 255 74 69 81 84 86 82 85 88 88 89 88 84 87 91 92 88 89 87 86 88 91 106 0 0 0 0 0 0 0 0 0 0 0 0 0 0 0 0 0 0 0 0 0 0 0 0 0 0 0 0 0 0 0 0 0 0 0 0 0 0 0 0 0 0 0 0 0 0 0 0 0 0 0 0 0 0 0 0 0 0 0 0 0 0 0 0 0 0 0 0 0 0 0 0 0 
0 0 0 0 0 0 0 0 0 0 0 0 0 0 0 0 0 0 0 0 0 0 0 0 0 0 0 0 0 0 0 0 0 0 0 0 0 0 0 0 0 0 0 0 0 0 0 0 0 0 0 0 0 0 0 0 0 0 0 0 0 0 0 0 0 0 0 0 0 0 0 0 0 0 0 0 0 0 0 0 0 0 0 0 0 0 0 0 0 0 0 0 164 255 255 202 164 182 182 186 188 181 188 186 183 194 190 192 193 193 186 186 192 159 130 187 179 152 175 168 175 193 187 179 174 179 168 163 172 163 173 172 155 164 172 156 175 180 133 30 0 32 48 74 88 94 90 77 67 81 89 84 78 79 78 77 86 86 73 67 77 82 87 86 84 85 74 63 80 94 85 83 80 84 88 84 84 81 80 87 82 80 82 76 79 84 78 77 75 78 80 76 73 70 72 71 71 79 79 74 76 82 71 65 72 86 61 0 76 172 59 79 83 86 82 82 84 83 81 83 79 82 124 116 45 53 81 79 83 78 77 80 75 80 81 79 77 82 84 81 79 77 76 78 79 75 69 71 62 98 51 0 0 255 255 255 160 179 198 0 0 0 207 134 1 55 81 82 83 76 79 81 84 85 86 86 93 87 87 89 91 85 83 90 97 109 0 0 0 0 0 0 0 0 0 0 0 0 0 0 0 0 0 0 0 0 0 0 0 0 0 0 0 0 0 0 0 0 0 0 0 0 0 0 0 0 0 0 0 0 0 0 0 0 0 0 0 0 0 0 0 0 0 0 0 0 0 0 0 0 0 0 0 0 0 0 0 0 0 
0 0 0 0 0 0 0 0 0 0 0 0 0 0 0 0 0 0 0 0 0 0 0 0 0 0 0 0 0 0 0 0 0 0 0 0 0 0 0 0 0 0 0 0 0 0 0 0 0 0 0 0 0 0 0 0 0 0 0 0 0 0 0 0 0 0 0 0 0 0 0 0 0 0 0 0 0 0 0 0 0 0 0 0 0 0 0 0 0 0 0 0 135 255 255 210 141 168 184 185 188 184 185 189 185 190 187 187 185 183 185 187 194 182 149 188 200 153 170 186 191 190 181 174 171 176 165 157 182 179 171 165 165 169 177 163 177 186 147 40 0 32 47 73 85 85 82 70 74 86 85 84 84 81 82 83 88 82 73 77 86 86 83 83 82 78 73 73 86 91 83 84 85 81 81 77 82 79 75 81 76 76 83 77 80 85 74 70 72 73 74 75 78 75 71 72 78 86 83 78 78 74 66 69 73 82 65 0 99 175 49 82 86 78 74 74 83 82 83 89 80 79 128 117 44 54 82 80 84 80 80 79 76 77 76 71 76 79 79 76 79 77 74 75 77 70 65 79 1 0 0 0 0 255 255 251 153 176 189 0 0 0 42 0 0 106 90 80 84 80 79 77 81 83 81 80 85 79 80 85 86 85 85 86 94 93 0 0 0 0 0 0 0 0 0 0 0 0 0 0 0 0 0 0 0 0 0 0 0 0 0 0 0 0 0 0 0 0 0 0 0 0 0 0 0 0 0 0 0 0 0 0 0 0 0 0 0 0 0 0 0 0 0 0 0 0 0 0 0 0 0 0 0 0 0 0 0 0 0 
0 0 0 0 0 0 0 0 0 0 0 0 0 0 0 0 0 0 0 0 0 0 0 0 0 0 0 0 0 0 0 0 0 0 0 0 0 0 0 0 0 0 0 0 0 0 0 0 0 0 0 0 0 0 0 0 0 0 0 0 0 0 0 0 0 0 0 0 0 0 0 0 0 0 0 0 0 0 0 0 0 0 0 0 0 0 0 0 0 0 0 0 103 255 255 226 146 175 194 191 194 188 179 186 184 175 178 183 182 178 183 185 191 192 146 163 225 186 184 215 208 179 175 176 176 181 158 161 195 187 150 159 188 177 171 174 178 188 152 41 0 29 44 70 86 82 80 77 84 85 81 87 84 83 84 85 85 80 79 86 85 81 78 80 82 79 79 80 85 87 80 81 82 71 75 77 79 80 75 76 73 75 83 76 79 83 71 68 73 75 76 78 81 77 72 79 82 81 79 72 80 76 73 78 78 87 75 17 114 163 50 85 86 74 74 79 85 85 78 80 73 83 131 112 39 53 79 76 80 79 79 83 77 78 76 72 77 79 78 76 78 75 74 71 70 68 73 81 0 0 0 0 0 255 255 216 155 175 174 0 0 0 20 2 157 208 85 73 81 76 79 80 78 76 74 76 82 79 78 78 73 80 83 84 98 83 0 0 0 0 0 0 0 0 0 0 0 0 0 0 0 0 0 0 0 0 0 0 0 0 0 0 0 0 0 0 0 0 0 0 0 0 0 0 0 0 0 0 0 0 0 0 0 0 0 0 0 0 0 0 0 0 0 0 0 0 0 0 0 0 0 0 0 0 0 0 0 0 0 
0 0 0 0 0 0 0 0 0 0 0 0 0 0 0 0 0 0 0 0 0 0 0 0 0 0 0 0 0 0 0 0 0 0 0 0 0 0 0 0 0 0 0 0 0 0 0 0 0 0 0 0 0 0 0 0 0 0 0 0 0 0 0 0 0 0 0 0 0 0 0 0 0 0 0 0 0 0 0 0 0 0 0 0 0 0 0 0 0 0 0 0 97 255 255 253 166 199 208 192 193 186 178 185 189 181 182 187 186 181 182 184 188 194 150 137 226 200 174 214 202 166 174 179 170 176 161 169 197 176 148 172 204 169 158 185 183 187 147 33 0 14 38 67 85 81 82 81 79 77 76 83 80 77 80 79 80 79 79 83 82 77 77 82 82 76 76 79 79 81 76 76 78 71 75 87 80 76 77 76 75 75 79 77 77 78 70 68 75 78 81 79 75 76 77 80 80 82 76 71 77 77 75 82 79 93 59 6 107 151 58 88 82 74 77 85 82 84 78 75 74 89 129 99 36 56 79 79 79 76 76 78 75 80 80 74 80 79 76 73 78 73 72 71 68 66 84 57 0 0 0 0 143 255 255 191 163 177 154 0 0 0 41 75 245 241 77 67 79 74 80 78 74 75 73 75 80 77 74 78 76 82 80 81 100 58 0 0 0 0 0 0 0 0 0 0 0 0 0 0 0 0 0 0 0 0 0 0 0 0 0 0 0 0 0 0 0 0 0 0 0 0 0 0 0 0 0 0 0 0 0 0 0 0 0 0 0 0 0 0 0 0 0 0 0 0 0 0 0 0 0 0 0 0 0 0 0 0 0 
0 0 0 0 0 0 0 0 0 0 0 0 0 0 0 0 0 0 0 0 0 0 0 0 0 0 0 0 0 0 0 0 0 0 0 0 0 0 0 0 0 0 0 0 0 0 0 0 0 0 0 0 0 0 0 0 0 0 0 0 0 0 0 0 0 0 0 0 0 0 0 0 0 0 0 0 0 0 0 0 0 0 0 0 0 0 0 0 0 0 0 0 79 255 255 255 172 195 198 185 191 184 178 186 194 189 188 191 174 167 183 185 180 178 167 132 209 206 152 191 191 157 168 184 169 166 154 170 194 170 162 183 203 166 156 182 176 172 140 30 0 2 40 65 81 81 83 82 77 76 79 82 81 76 78 81 83 82 79 78 76 76 83 82 76 74 76 75 74 77 77 76 75 72 75 83 78 74 78 76 80 81 79 79 74 76 70 66 77 83 81 76 70 73 76 72 72 77 79 74 81 75 71 76 77 91 46 4 125 146 51 85 78 74 78 77 76 79 79 78 78 88 117 84 39 62 82 82 81 78 81 81 79 79 75 72 79 77 71 73 73 70 73 71 65 67 87 30 0 0 0 0 234 255 255 167 159 175 120 0 0 0 39 96 255 228 70 62 74 75 84 77 74 79 78 76 72 70 70 77 80 81 75 76 102 0 0 0 0 0 0 0 0 0 0 0 0 0 0 0 0 0 0 0 0 0 0 0 0 0 0 0 0 0 0 0 0 0 0 0 0 0 0 0 0 0 0 0 0 0 0 0 0 0 0 0 0 0 0 0 0 0 0 0 0 0 0 0 0 0 0 0 0 0 0 0 0 0 0 
0 0 0 0 0 0 0 0 0 0 0 0 0 0 0 0 0 0 0 0 0 0 0 0 0 0 0 0 0 0 0 0 0 0 0 0 0 0 0 0 0 0 0 0 0 0 0 0 0 0 0 0 0 0 0 0 0 0 0 0 0 0 0 0 0 0 0 0 0 0 0 0 0 0 0 0 0 0 0 0 0 0 0 0 0 0 0 0 0 0 0 0 43 255 255 255 171 186 188 182 190 190 180 181 184 183 187 188 170 168 186 193 182 175 188 154 186 229 165 173 183 159 172 195 173 164 160 175 194 176 157 161 179 166 170 184 173 167 143 26 0 2 40 66 80 80 79 78 75 76 81 78 83 81 76 79 82 83 76 75 75 79 84 76 73 75 79 79 76 77 81 79 73 72 78 76 74 72 76 75 81 85 81 76 72 76 74 71 79 80 77 73 71 71 71 70 71 77 80 69 74 75 73 74 74 83 52 35 147 129 45 87 78 74 76 72 75 79 80 79 75 84 103 78 43 63 79 77 71 73 78 80 77 75 69 67 72 69 66 72 73 67 69 62 57 63 85 9 0 0 0 2 255 255 255 146 152 172 56 0 0 0 34 121 255 200 63 65 70 75 79 73 73 77 76 72 67 72 80 82 79 74 79 82 101 0 0 0 0 0 0 0 0 0 0 0 0 0 0 0 0 0 0 0 0 0 0 0 0 0 0 0 0 0 0 0 0 0 0 0 0 0 0 0 0 0 0 0 0 0 0 0 0 0 0 0 0 0 0 0 0 0 0 0 0 0 0 0 0 0 0 0 0 0 0 0 0 0 0 
0 0 0 0 0 0 0 0 0 0 0 0 0 0 0 0 0 0 0 0 0 0 0 0 0 0 0 0 0 0 0 0 0 0 0 0 0 0 0 0 0 0 0 0 0 0 0 0 0 0 0 0 0 0 0 0 0 0 0 0 0 0 0 0 0 0 0 0 0 0 0 0 0 0 0 0 0 0 0 0 0 0 0 0 0 0 0 0 0 0 0 0 14 255 255 255 163 186 185 181 182 186 182 185 182 180 182 182 180 187 196 195 184 189 204 180 161 226 174 154 178 173 184 194 175 160 180 195 187 163 155 166 179 176 177 183 175 176 148 24 0 1 38 65 76 79 77 77 80 77 77 74 76 77 72 77 80 79 72 73 78 80 77 68 73 78 77 81 78 77 80 77 73 75 83 81 77 74 71 71 75 74 69 69 70 73 74 76 76 76 74 75 77 75 71 76 78 79 75 65 71 74 68 68 69 82 44 44 127 101 46 83 77 74 71 74 77 75 73 75 72 81 93 70 44 61 72 73 69 73 75 72 67 68 66 67 70 63 64 71 72 63 63 62 59 66 81 0 0 0 0 27 255 255 255 134 152 179 0 0 0 18 38 160 255 165 56 69 74 74 72 70 72 73 70 69 69 80 85 84 81 76 81 94 98 0 0 0 0 0 0 0 0 0 0 0 0 0 0 0 0 0 0 0 0 0 0 0 0 0 0 0 0 0 0 0 0 0 0 0 0 0 0 0 0 0 0 0 0 0 0 0 0 0 0 0 0 0 0 0 0 0 0 0 0 0 0 0 0 0 0 0 0 0 0 0 0 0 0 
0 0 0 0 0 0 0 0 0 0 0 0 0 0 0 0 0 0 0 0 0 0 0 0 0 0 0 0 0 0 0 0 0 0 0 0 0 0 0 0 0 0 0 0 0 0 0 0 0 0 0 0 0 0 0 0 0 0 0 0 0 0 0 0 0 0 0 0 0 0 0 0 0 0 0 0 0 0 0 0 0 0 0 0 0 0 0 0 0 0 0 0 2 255 255 255 155 189 188 183 176 179 187 185 183 184 182 183 189 191 192 189 191 192 188 181 134 184 186 151 183 200 192 178 172 167 194 186 153 159 178 188 188 184 171 177 175 177 141 15 0 0 35 66 75 75 80 81 82 80 81 74 75 80 75 79 82 79 72 72 76 79 68 68 75 75 78 84 76 72 78 75 74 77 79 78 73 73 74 75 79 71 64 66 70 76 78 72 69 69 70 71 76 73 71 78 77 75 76 66 72 77 71 68 71 88 46 51 117 84 57 80 72 72 70 74 73 73 75 73 70 80 85 62 47 70 74 73 64 69 72 69 67 70 69 64 67 69 69 72 69 60 62 66 60 70 78 0 0 0 0 72 255 255 255 138 160 186 0 0 0 37 68 218 255 127 52 68 70 69 69 78 79 72 68 67 71 79 78 76 75 69 76 95 69 0 0 0 0 0 0 0 0 0 0 0 0 0 0 0 0 0 0 0 0 0 0 0 0 0 0 0 0 0 0 0 0 0 0 0 0 0 0 0 0 0 0 0 0 0 0 0 0 0 0 0 0 0 0 0 0 0 0 0 0 0 0 0 0 0 0 0 0 0 0 0 0 0 0 
0 0 0 0 0 0 0 0 0 0 0 0 0 0 0 0 0 0 0 0 0 0 0 0 0 0 0 0 0 0 0 0 0 0 0 0 0 0 0 0 0 0 0 0 0 0 0 0 0 0 0 0 0 0 0 0 0 0 0 0 0 0 0 0 0 0 0 0 0 0 0 0 0 0 0 0 0 0 0 0 0 0 0 0 0 0 0 0 0 0 0 0 0 202 255 255 158 184 190 181 178 179 187 182 180 185 190 192 197 192 183 187 194 187 174 178 148 170 220 165 187 213 193 178 185 171 177 162 143 183 198 174 168 170 167 184 180 177 122 0 0 0 30 67 76 75 77 75 72 73 78 78 81 86 83 74 75 75 69 69 70 71 67 72 80 77 76 80 72 72 74 72 74 76 70 70 72 73 80 78 77 71 69 75 74 74 80 75 66 70 71 68 71 68 66 72 76 78 79 70 75 79 72 70 76 92 55 64 122 82 64 78 71 64 65 68 70 73 77 78 78 85 83 62 58 75 75 71 67 69 68 66 69 66 66 64 65 64 65 69 70 62 63 67 60 79 60 0 0 0 0 115 255 255 229 159 178 76 0 0 0 38 99 252 230 83 54 66 69 70 67 79 77 68 68 72 76 78 77 79 79 70 79 115 1 0 0 0 0 0 0 0 0 0 0 0 0 0 0 0 0 0 0 0 0 0 0 0 0 0 0 0 0 0 0 0 0 0 0 0 0 0 0 0 0 0 0 0 0 0 0 0 0 0 0 0 0 0 0 0 0 0 0 0 0 0 0 0 0 0 0 0 0 0 0 0 0 0 0 
0 0 0 0 0 0 0 0 0 0 0 0 0 0 0 0 0 0 0 0 0 0 0 0 0 0 0 0 0 0 0 0 0 0 0 0 0 0 0 0 0 0 0 0 0 0 0 0 0 0 0 0 0 0 0 0 0 0 0 0 0 0 0 0 0 0 0 0 0 0 0 0 0 0 0 0 0 0 0 0 0 0 0 0 0 0 0 0 0 0 0 0 0 141 255 255 173 177 189 181 182 181 186 187 189 194 193 189 191 190 178 171 180 184 177 182 178 154 204 166 168 202 186 168 174 162 155 165 170 207 184 164 171 178 183 193 184 178 116 0 0 0 32 68 71 69 70 70 71 75 78 78 79 82 77 66 74 78 70 68 66 68 68 72 74 72 73 74 71 71 74 71 73 73 69 73 78 73 73 71 68 69 68 73 75 74 76 69 63 75 78 75 74 68 68 73 77 77 73 66 77 83 72 67 74 88 57 64 109 64 54 64 65 63 66 68 70 73 66 72 78 77 68 57 64 76 71 67 65 71 70 69 70 61 64 66 61 59 62 66 68 61 62 61 54 84 30 0 0 0 0 81 255 255 0 0 0 0 0 0 0 38 126 246 169 56 65 68 72 69 73 83 75 67 78 82 81 81 74 79 76 78 90 110 0 0 0 0 0 0 0 0 0 0 0 0 0 0 0 0 0 0 0 0 0 0 0 0 0 0 0 0 0 0 0 0 0 0 0 0 0 0 0 0 0 0 0 0 0 0 0 0 0 0 0 0 0 0 0 0 0 0 0 0 0 0 0 0 0 0 0 0 0 0 0 0 0 0 0 
0 0 0 0 0 0 0 0 0 0 0 0 0 0 0 0 0 0 0 0 0 0 0 0 0 0 0 0 0 0 0 0 0 0 0 0 0 0 0 0 0 0 0 0 0 0 0 0 0 0 0 0 0 0 0 0 0 0 0 0 0 0 0 0 0 0 0 0 0 0 0 0 0 0 0 0 0 0 0 0 0 0 0 0 0 0 0 0 0 0 0 0 0 95 255 255 194 168 188 181 185 184 185 194 193 194 189 180 182 193 182 165 172 188 187 185 193 142 175 201 171 195 192 159 161 161 160 197 195 169 155 164 174 181 185 180 180 178 110 0 0 0 38 68 72 70 76 77 74 74 73 72 73 71 69 66 72 75 66 67 69 69 69 72 71 68 68 67 67 70 72 65 72 71 68 70 76 72 70 68 66 71 70 72 74 70 73 71 65 75 77 72 74 73 78 78 77 73 66 68 80 84 70 66 80 93 74 67 91 53 50 56 64 62 69 70 71 72 63 74 82 64 48 49 68 72 64 65 61 67 65 63 69 64 69 67 59 61 65 68 61 59 63 59 51 72 0 0 0 0 19 31 72 0 0 0 0 0 0 0 22 41 165 243 139 53 64 66 70 62 53 47 40 27 24 33 62 74 72 75 78 75 100 78 0 0 0 0 0 0 0 0 0 0 0 0 0 0 0 0 0 0 0 0 0 0 0 0 0 0 0 0 0 0 0 0 0 0 0 0 0 0 0 0 0 0 0 0 0 0 0 0 0 0 0 0 0 0 0 0 0 0 0 0 0 0 0 0 0 0 0 0 0 0 0 0 0 0 0 
0 0 0 0 0 0 0 0 0 0 0 0 0 0 0 0 0 0 0 0 0 0 0 0 0 0 0 0 0 0 0 0 0 0 0 0 0 0 0 0 0 0 0 0 0 0 0 0 0 0 0 0 0 0 0 0 0 0 0 0 0 0 0 0 0 0 0 0 0 0 0 0 0 0 0 0 0 0 0 0 0 0 0 0 0 0 0 0 0 0 0 0 0 43 255 255 229 159 184 186 193 187 183 186 188 189 182 174 174 177 168 171 185 203 193 182 191 136 164 254 185 184 201 167 161 173 153 175 169 146 166 186 165 169 173 169 181 172 95 0 0 3 51 73 74 75 80 77 73 70 69 67 67 69 71 71 74 71 65 64 67 71 71 70 70 66 73 76 73 67 64 62 68 74 66 70 71 72 70 71 71 69 68 70 73 70 69 69 68 75 73 68 70 74 76 74 72 80 78 83 82 78 74 74 87 108 88 55 70 61 63 70 73 71 70 69 66 68 73 84 76 47 41 58 74 63 55 63 66 69 65 64 67 61 66 60 56 62 65 69 63 63 59 54 62 61 0 0 0 21 25 17 0 0 0 0 0 0 0 14 20 46 170 205 73 22 43 33 2 0 0 0 0 0 0 0 0 69 74 74 82 82 113 0 0 0 0 0 0 0 0 0 0 0 0 0 0 0 0 0 0 0 0 0 0 0 0 0 0 0 0 0 0 0 0 0 0 0 0 0 0 0 0 0 0 0 0 0 0 0 0 0 0 0 0 0 0 0 0 0 0 0 0 0 0 0 0 0 0 0 0 0 0 0 0 0 0 0 0 
0 0 0 0 0 0 0 0 0 0 0 0 0 0 0 0 0 0 0 0 0 0 0 0 0 0 0 0 0 0 0 0 0 0 0 0 0 0 0 0 0 0 0 0 0 0 0 0 0 0 0 0 0 0 0 0 0 0 0 0 0 0 0 0 0 0 0 0 0 0 0 0 0 0 0 0 0 0 0 0 0 0 0 0 0 0 0 0 0 0 0 0 0 8 255 255 255 162 190 194 192 184 179 185 191 193 182 171 178 179 165 167 185 195 188 176 183 150 157 252 182 159 186 153 146 169 144 137 149 155 200 199 166 174 182 179 187 170 79 0 0 3 54 70 69 71 71 67 67 68 73 72 68 68 66 64 64 70 69 67 67 64 65 65 65 65 68 75 70 66 66 66 67 71 70 74 75 73 71 68 70 74 70 71 74 70 75 75 68 76 78 76 75 75 80 85 92 99 98 96 94 101 108 117 134 167 141 59 56 72 70 75 78 76 70 69 67 73 84 81 44 21 38 65 79 62 57 71 72 71 60 64 69 62 61 56 58 57 59 62 59 58 59 59 76 35 0 0 0 28 17 13 18 22 33 38 42 38 30 22 14 29 73 41 0 0 0 0 0 0 0 0 0 0 0 0 22 121 90 74 78 92 96 0 0 0 0 0 0 0 0 0 0 0 0 0 0 0 0 0 0 0 0 0 0 0 0 0 0 0 0 0 0 0 0 0 0 0 0 0 0 0 0 0 0 0 0 0 0 0 0 0 0 0 0 0 0 0 0 0 0 0 0 0 0 0 0 0 0 0 0 0 0 0 0 0 0 0 0 
0 0 0 0 0 0 0 0 0 0 0 0 0 0 0 0 0 0 0 0 0 0 0 0 0 0 0 0 0 0 0 0 0 0 0 0 0 0 0 0 0 0 0 0 0 0 0 0 0 0 0 0 0 0 0 0 0 0 0 0 0 0 0 0 0 0 0 0 0 0 0 0 0 0 0 0 0 0 0 0 0 0 0 0 0 0 0 0 0 0 0 0 0 0 213 255 255 164 190 196 188 184 180 189 191 193 184 176 181 191 179 170 172 162 172 180 182 173 169 209 159 126 163 150 147 177 187 175 200 198 191 171 174 180 185 182 191 164 51 0 0 6 50 59 62 64 63 62 62 61 65 68 63 62 56 61 59 61 62 58 63 61 59 63 64 64 63 65 61 59 68 74 74 77 77 77 82 80 74 71 74 80 76 79 85 84 87 93 97 104 103 103 110 122 139 153 168 174 180 192 214 247 255 255 255 255 255 166 116 82 65 71 69 70 72 68 67 76 84 75 22 5 51 83 86 70 70 74 69 67 59 64 71 60 62 59 60 57 61 60 50 40 28 8 0 0 0 0 0 24 13 9 11 19 16 11 16 9 0 0 4 14 10 0 0 0 0 0 0 0 0 0 0 0 0 21 148 213 125 81 83 113 31 0 0 0 0 0 0 0 0 0 0 0 0 0 0 0 0 0 0 0 0 0 0 0 0 0 0 0 0 0 0 0 0 0 0 0 0 0 0 0 0 0 0 0 0 0 0 0 0 0 0 0 0 0 0 0 0 0 0 0 0 0 0 0 0 0 0 0 0 0 0 0 0 0 0 0 0 
0 0 0 0 0 0 0 0 0 0 0 0 0 0 0 0 0 0 0 0 0 0 0 0 0 0 0 0 0 0 0 0 0 0 0 0 0 0 0 0 0 0 0 0 0 0 0 0 0 0 0 0 0 0 0 0 0 0 0 0 0 0 0 0 0 0 0 0 0 0 0 0 0 0 0 0 0 0 0 0 0 0 0 0 0 0 0 0 0 0 0 0 0 0 122 255 255 175 176 183 181 184 176 180 184 187 188 182 175 181 184 182 188 191 188 194 185 185 164 148 143 127 170 178 182 199 219 198 214 219 176 173 195 190 179 182 191 155 28 0 0 3 43 52 56 59 59 61 60 57 59 63 57 57 54 62 69 67 61 58 63 65 67 74 75 72 74 76 81 81 83 83 86 88 93 94 95 98 99 103 108 117 121 127 147 157 166 186 200 214 229 245 255 255 255 255 255 255 255 255 255 255 255 255 255 255 255 255 234 103 44 70 60 62 70 67 67 75 71 83 63 39 83 102 81 67 71 69 66 65 51 42 39 33 50 52 36 49 40 0 0 0 0 0 0 0 0 0 2 19 15 14 25 24 41 87 60 70 220 255 255 255 255 255 255 255 72 0 1 19 28 29 23 24 20 66 209 252 131 80 95 120 0 0 0 0 0 0 0 0 0 0 0 0 0 0 0 0 0 0 0 0 0 0 0 0 0 0 0 0 0 0 0 0 0 0 0 0 0 0 0 0 0 0 0 0 0 0 0 0 0 0 0 0 0 0 0 0 0 0 0 0 0 0 0 0 0 0 0 0 0 0 0 0 0 0 0 0 0 
0 0 0 0 0 0 0 0 0 0 0 0 0 0 0 0 0 0 0 0 0 0 0 0 0 0 0 0 0 0 0 0 0 0 0 0 0 0 0 0 0 0 0 0 0 0 0 0 0 0 0 0 0 0 0 0 0 0 0 0 0 0 0 0 0 0 0 0 0 0 0 0 0 0 0 0 0 0 0 0 0 0 0 0 0 0 0 0 0 0 0 0 0 0 48 255 255 208 169 184 183 183 176 176 184 189 194 180 174 191 191 183 201 214 210 209 184 182 170 157 218 211 186 203 196 186 199 176 172 179 162 188 209 173 152 178 189 147 16 0 0 0 42 54 57 62 63 64 63 64 72 73 69 74 75 79 82 77 76 78 83 86 86 89 96 99 99 104 112 116 117 129 131 141 153 168 176 183 198 215 236 255 255 255 255 255 255 255 255 255 255 255 255 255 255 255 255 255 255 255 255 255 255 255 255 255 237 235 246 68 0 68 69 65 70 63 64 73 64 65 70 54 82 96 73 62 61 63 58 43 0 0 0 0 0 0 0 0 0 0 0 0 0 0 0 0 0 78 255 147 73 255 255 204 255 255 255 255 255 255 255 255 255 255 255 255 0 0 52 37 29 29 29 23 22 111 248 236 109 79 112 48 0 0 0 0 0 0 0 0 0 0 0 0 0 0 0 0 0 0 0 0 0 0 0 0 0 0 0 0 0 0 0 0 0 0 0 0 0 0 0 0 0 0 0 0 0 0 0 0 0 0 0 0 0 0 0 0 0 0 0 0 0 0 0 0 0 0 0 0 0 0 0 0 0 0 0 0 0 
0 0 0 0 0 0 0 0 0 0 0 0 0 0 0 0 0 0 0 0 0 0 0 0 0 0 0 0 0 0 0 0 0 0 0 0 0 0 0 0 0 0 0 0 0 0 0 0 0 0 0 0 0 0 0 0 0 0 0 0 0 0 0 0 0 0 0 0 0 0 0 0 0 0 0 0 0 0 0 0 0 0 0 0 0 0 0 0 0 0 0 0 0 0 9 255 255 255 165 186 182 184 177 175 186 189 192 177 174 195 186 166 177 188 189 188 180 184 186 139 201 206 171 205 191 185 197 181 164 173 164 185 195 155 134 169 197 138 0 0 0 9 51 68 72 78 77 79 84 91 94 92 91 102 103 99 104 108 110 115 124 132 139 146 163 180 191 201 213 226 234 255 255 255 255 255 255 255 255 255 255 255 255 255 255 255 255 255 255 255 255 255 255 255 212 213 232 217 201 232 177 104 130 121 111 125 139 170 172 3 0 35 78 69 71 69 68 76 58 23 16 27 59 83 71 62 63 54 0 0 0 0 0 0 0 0 0 0 0 47 255 255 255 156 255 255 255 255 255 255 242 255 255 255 255 255 204 255 255 255 0 0 255 255 0 0 0 0 69 33 25 29 31 20 55 183 255 182 83 94 119 0 0 0 0 0 0 0 0 0 0 0 0 0 0 0 0 0 0 0 0 0 0 0 0 0 0 0 0 0 0 0 0 0 0 0 0 0 0 0 0 0 0 0 0 0 0 0 0 0 0 0 0 0 0 0 0 0 0 0 0 0 0 0 0 0 0 0 0 0 0 0 0 0 0 0 0 0 0 
0 0 0 0 0 0 0 0 0 0 0 0 0 0 0 0 0 0 0 0 0 0 0 0 0 0 0 0 0 0 0 0 0 0 0 0 0 0 0 0 0 0 0 0 0 0 0 0 0 0 0 0 0 0 0 0 0 0 0 0 0 0 0 0 0 0 0 0 0 0 0 0 0 0 0 0 0 0 0 0 0 0 0 0 0 0 0 0 0 0 0 0 0 0 0 201 255 255 159 178 178 180 183 179 180 187 193 186 182 193 188 176 194 196 183 178 176 183 201 135 137 188 157 179 180 186 177 177 170 173 188 198 179 159 162 194 219 123 0 0 0 39 81 94 95 104 109 112 121 131 137 140 147 155 164 172 182 191 194 201 221 246 255 255 255 255 255 255 255 255 255 255 255 255 255 255 255 255 255 255 255 255 255 246 216 239 253 241 196 139 144 174 143 88 82 138 184 134 70 88 108 100 130 106 98 114 112 139 121 16 0 0 80 70 70 70 73 77 41 0 26 77 81 76 67 64 63 10 0 0 0 0 0 0 0 0 0 0 99 255 255 255 255 255 255 255 255 255 255 41 192 255 255 255 255 255 0 255 255 0 0 0 255 0 0 0 0 9 53 26 25 32 27 23 117 254 248 128 85 122 10 0 0 0 0 0 0 0 0 0 0 0 0 0 0 0 0 0 0 0 0 0 0 0 0 0 0 0 0 0 0 0 0 0 0 0 0 0 0 0 0 0 0 0 0 0 0 0 0 0 0 0 0 0 0 0 0 0 0 0 0 0 0 0 0 0 0 0 0 0 0 0 0 0 0 0 0 0 0 
0 0 0 0 0 0 0 0 0 0 0 0 0 0 0 0 0 0 0 0 0 0 0 0 0 0 0 0 0 0 0 0 0 0 0 0 0 0 0 0 0 0 0 0 0 0 0 0 0 0 0 0 0 0 0 0 0 0 0 0 0 0 0 0 0 0 0 0 0 0 0 0 0 0 0 0 0 0 0 0 0 0 0 0 0 0 0 0 0 0 0 0 0 0 0 104 255 255 166 170 176 179 188 185 184 191 192 190 183 187 187 186 198 198 189 186 183 188 200 166 131 230 185 165 173 171 168 174 184 183 202 191 165 169 190 212 211 113 0 0 25 89 139 161 170 180 194 201 211 226 239 250 255 255 255 255 255 255 255 255 255 255 255 255 255 255 255 255 255 255 255 255 255 255 224 207 202 193 189 145 110 77 86 73 81 118 139 121 100 100 122 153 146 97 103 160 173 115 73 91 140 133 130 86 98 159 128 115 114 88 0 0 53 78 66 67 75 67 14 0 69 122 92 67 65 63 14 0 0 0 0 25 35 36 30 38 26 6 255 255 255 89 0 45 255 255 234 255 174 0 255 255 255 255 255 0 0 255 255 0 0 255 255 0 0 0 93 43 29 22 22 36 27 55 184 255 182 90 104 87 0 0 0 0 0 0 0 0 0 0 0 0 0 0 0 0 0 0 0 0 0 0 0 0 0 0 0 0 0 0 0 0 0 0 0 0 0 0 0 0 0 0 0 0 0 0 0 0 0 0 0 0 0 0 0 0 0 0 0 0 0 0 0 0 0 0 0 0 0 0 0 0 0 0 0 0 0 0 0 
0 0 0 0 0 0 0 0 0 0 0 0 0 0 0 0 0 0 0 0 0 0 0 0 0 0 0 0 0 0 0 0 0 0 0 0 0 0 0 0 0 0 0 0 0 0 0 0 0 0 0 0 0 0 0 0 0 0 0 0 0 0 0 0 0 0 0 0 0 0 0 0 0 0 0 0 0 0 0 0 0 0 0 0 0 0 0 0 0 0 0 0 0 0 0 34 255 255 209 166 179 183 189 187 184 193 187 186 182 181 183 178 177 183 185 184 186 189 189 180 120 208 211 164 191 190 200 193 206 188 184 179 170 175 184 184 183 119 1 2 78 158 234 255 255 255 255 255 255 255 255 255 255 255 255 255 255 225 220 223 232 219 203 198 181 155 158 178 168 154 163 113 100 120 43 37 90 87 62 19 41 41 60 77 68 95 106 71 55 87 119 137 148 130 115 140 142 131 132 148 168 157 148 127 109 177 180 151 186 197 72 0 2 84 67 70 75 45 0 5 104 115 73 63 72 47 0 0 0 0 44 36 30 29 29 34 5 95 255 255 255 0 0 255 255 255 255 238 0 0 255 255 199 219 0 0 255 255 0 0 0 255 255 0 0 51 24 11 10 10 31 40 55 144 255 241 124 91 117 0 0 0 0 0 0 0 0 0 0 0 0 0 0 0 0 0 0 0 0 0 0 0 0 0 0 0 0 0 0 0 0 0 0 0 0 0 0 0 0 0 0 0 0 0 0 0 0 0 0 0 0 0 0 0 0 0 0 0 0 0 0 0 0 0 0 0 0 0 0 0 0 0 0 0 0 0 0 0 0 
0 0 0 0 0 0 0 0 0 0 0 0 0 0 0 0 0 0 0 0 0 0 0 0 0 0 0 0 0 0 0 0 0 0 0 0 0 0 0 0 0 0 0 0 0 0 0 0 0 0 0 0 0 0 0 0 0 0 0 0 0 0 0 0 0 0 0 0 0 0 0 0 0 0 0 0 0 0 0 0 0 0 0 0 0 0 0 0 0 0 0 0 0 0 0 5 251 255 255 162 179 185 189 186 177 185 185 190 185 181 183 180 183 186 187 185 185 179 172 180 131 185 255 157 191 205 208 193 183 178 176 181 176 160 173 185 184 133 48 68 115 198 255 255 242 229 213 203 198 194 186 161 148 139 142 143 130 121 139 146 146 138 117 103 92 86 88 95 103 93 83 68 76 119 60 63 119 87 51 41 66 91 114 118 109 116 98 88 83 109 127 113 103 104 100 112 148 181 179 168 183 205 205 185 124 169 197 184 241 255 138 0 0 77 79 75 71 18 0 48 130 106 65 65 70 3 0 0 0 31 31 28 27 28 30 21 16 255 255 255 0 0 213 255 255 188 176 0 0 206 255 155 0 0 0 0 255 255 0 0 9 255 0 0 0 172 177 235 255 255 255 100 119 243 255 188 112 123 17 0 0 0 0 0 0 0 0 0 0 0 0 0 0 0 0 0 0 0 0 0 0 0 0 0 0 0 0 0 0 0 0 0 0 0 0 0 0 0 0 0 0 0 0 0 0 0 0 0 0 0 0 0 0 0 0 0 0 0 0 0 0 0 0 0 0 0 0 0 0 0 0 0 0 0 0 0 0 0 0 
0 0 0 0 0 0 0 0 0 0 0 0 0 0 0 0 0 0 0 0 0 0 0 0 0 0 0 0 0 0 0 0 0 0 0 0 0 0 0 0 0 0 0 0 0 0 0 0 0 0 0 0 0 0 0 0 0 0 0 0 0 0 0 0 0 0 0 0 0 0 0 0 0 0 0 0 0 0 0 0 0 0 0 0 0 0 0 0 0 0 0 0 0 0 0 0 148 255 255 162 176 182 187 185 176 179 183 188 185 179 186 181 186 188 191 189 182 181 174 181 167 158 229 136 167 194 185 182 168 177 180 184 175 159 171 193 192 151 84 142 146 150 225 168 113 106 102 105 108 107 104 87 97 107 108 107 106 106 108 112 112 115 103 94 104 111 98 74 89 106 95 105 125 136 94 88 130 101 96 124 146 181 172 146 156 150 104 106 126 146 147 132 115 103 86 85 134 163 139 131 183 223 217 189 146 175 232 219 236 250 173 0 0 43 90 82 50 0 4 99 130 85 57 69 47 0 0 0 39 38 31 33 33 36 29 13 169 255 255 255 0 0 255 255 0 0 0 0 0 46 0 0 0 0 0 0 148 0 0 0 255 255 49 255 255 255 255 255 255 255 255 35 151 255 218 126 130 51 0 0 0 0 0 0 0 0 0 0 0 0 0 0 0 0 0 0 0 0 0 0 0 0 0 0 0 0 0 0 0 0 0 0 0 0 0 0 0 0 0 0 0 0 0 0 0 0 0 0 0 0 0 0 0 0 0 0 0 0 0 0 0 0 0 0 0 0 0 0 0 0 0 0 0 0 0 0 0 0 0 
0 0 0 0 0 0 0 0 0 0 0 0 0 0 0 0 0 0 0 0 0 0 0 0 0 0 0 0 0 0 0 0 0 0 0 0 0 0 0 0 0 0 0 0 0 0 0 0 0 0 0 0 0 0 0 0 0 0 0 0 0 0 0 0 0 0 0 0 0 0 0 0 0 0 0 0 0 0 0 0 0 0 0 0 0 0 0 0 0 0 0 0 0 0 0 0 59 255 255 184 171 184 186 185 175 176 186 185 185 181 189 184 187 182 183 185 180 186 184 177 181 140 148 132 145 195 183 183 171 175 179 185 172 161 175 197 192 167 98 150 144 69 174 152 84 88 102 109 108 106 102 100 111 121 110 112 114 123 112 102 103 105 101 96 107 112 103 93 106 141 141 157 162 128 88 100 155 146 169 189 192 216 191 159 185 179 119 121 149 152 139 135 141 127 102 113 156 152 123 119 172 205 203 188 171 192 247 224 186 196 190 43 0 0 103 77 3 0 45 126 108 73 65 71 13 0 0 2 30 22 20 14 10 4 0 0 200 255 255 0 0 0 108 0 0 0 0 0 0 123 0 14 95 250 255 255 255 255 255 255 255 255 255 255 255 255 255 255 255 255 0 0 156 255 143 117 56 0 0 0 0 0 0 0 0 0 0 0 0 0 0 0 0 0 0 0 0 0 0 0 0 0 0 0 0 0 0 0 0 0 0 0 0 0 0 0 0 0 0 0 0 0 0 0 0 0 0 0 0 0 0 0 0 0 0 0 0 0 0 0 0 0 0 0 0 0 0 0 0 0 0 0 0 0 0 0 0 0 0 
0 0 0 0 0 0 0 0 0 0 0 0 0 0 0 0 0 0 0 0 0 0 0 0 0 0 0 0 0 0 0 0 0 0 0 0 0 0 0 0 0 0 0 0 0 0 0 0 0 0 0 0 0 0 0 0 0 0 0 0 0 0 0 0 0 0 0 0 0 0 0 0 0 0 0 0 0 0 0 0 0 0 0 0 0 0 0 0 0 0 0 0 0 0 0 0 10 255 255 248 159 177 177 182 177 179 190 180 184 182 183 177 175 181 185 186 179 187 186 172 184 146 115 179 166 203 197 187 164 178 188 186 176 159 173 194 190 177 112 117 140 36 113 158 89 107 131 125 110 107 107 103 107 120 114 118 118 118 123 125 136 122 115 116 118 121 129 134 135 173 172 171 173 136 108 124 175 170 174 191 196 207 186 154 168 167 123 131 163 179 159 141 151 147 120 145 205 170 129 153 180 177 140 126 127 169 198 192 172 180 188 89 0 0 91 48 0 0 105 132 90 77 79 62 0 0 0 0 0 0 6 15 41 75 113 181 255 255 41 0 0 165 255 185 249 255 255 255 255 255 255 255 255 255 255 255 255 255 255 255 130 13 0 0 0 0 132 255 0 0 0 0 250 196 128 43 0 0 0 0 0 0 0 0 0 0 0 0 0 0 0 0 0 0 0 0 0 0 0 0 0 0 0 0 0 0 0 0 0 0 0 0 0 0 0 0 0 0 0 0 0 0 0 0 0 0 0 0 0 0 0 0 0 0 0 0 0 0 0 0 0 0 0 0 0 0 0 0 0 0 0 0 0 0 0 0 0 0 0 
0 0 0 0 0 0 0 0 0 0 0 0 0 0 0 0 0 0 0 0 0 0 0 0 0 0 0 0 0 0 0 0 0 0 0 0 0 0 0 0 0 0 0 0 0 0 0 0 0 0 0 0 0 0 0 0 0 0 0 0 0 0 0 0 0 0 0 0 0 0 0 0 0 0 0 0 0 0 0 0 0 0 0 0 0 0 0 0 0 0 0 0 0 0 0 0 0 170 255 255 154 172 176 177 179 174 183 181 189 187 177 174 167 174 179 181 175 175 177 176 190 175 120 183 193 186 208 185 161 186 199 173 165 161 173 186 188 186 141 106 157 64 44 123 90 100 127 117 103 100 106 113 110 117 118 126 131 122 128 127 145 137 124 131 134 131 140 150 149 173 170 157 154 138 152 150 140 136 141 173 200 197 157 119 114 137 113 112 144 182 169 137 145 154 148 176 224 183 152 182 178 160 115 65 36 43 34 70 143 179 174 102 0 0 22 0 0 71 158 123 87 79 80 20 0 0 180 255 255 255 255 255 255 255 255 255 255 255 255 255 255 255 255 255 255 255 255 255 255 255 195 63 0 0 0 0 0 0 0 0 0 0 0 0 0 115 255 136 0 0 0 255 248 122 7 0 0 0 0 0 0 0 0 0 0 0 0 0 0 0 0 0 0 0 0 0 0 0 0 0 0 0 0 0 0 0 0 0 0 0 0 0 0 0 0 0 0 0 0 0 0 0 0 0 0 0 0 0 0 0 0 0 0 0 0 0 0 0 0 0 0 0 0 0 0 0 0 0 0 0 0 0 0 0 0 0 0 0 0 
0 0 0 0 0 0 0 0 0 0 0 0 0 0 0 0 0 0 0 0 0 0 0 0 0 0 0 0 0 0 0 0 0 0 0 0 0 0 0 0 0 0 0 0 0 0 0 0 0 0 0 0 0 0 0 0 0 0 0 0 0 0 0 0 0 0 0 0 0 0 0 0 0 0 0 0 0 0 0 0 0 0 0 0 0 0 0 0 0 0 0 0 0 0 0 0 0 68 255 255 171 168 182 179 180 178 177 184 186 183 170 181 182 177 178 181 181 177 177 176 179 188 128 122 173 178 204 171 157 177 181 148 155 176 175 174 191 193 168 111 154 106 19 111 126 102 124 119 106 111 120 125 120 109 119 120 129 121 126 127 122 116 111 139 145 130 129 147 158 157 151 134 138 131 168 164 114 132 156 155 169 134 100 110 118 129 86 73 121 148 136 104 106 99 101 123 145 134 131 150 155 111 76 78 134 188 195 231 255 177 146 116 46 0 0 0 19 155 161 99 90 81 66 0 13 255 255 255 255 255 255 255 255 255 255 255 255 255 255 250 69 0 178 255 255 255 5 0 0 0 0 0 0 0 0 0 0 68 145 231 255 255 255 255 255 255 255 0 0 0 255 255 71 0 0 0 0 0 0 0 0 0 0 0 0 0 0 0 0 0 0 0 0 0 0 0 0 0 0 0 0 0 0 0 0 0 0 0 0 0 0 0 0 0 0 0 0 0 0 0 0 0 0 0 0 0 0 0 0 0 0 0 0 0 0 0 0 0 0 0 0 0 0 0 0 0 0 0 0 0 0 0 0 0 0 0 0 0 0 
0 0 0 0 0 0 0 0 0 0 0 0 0 0 0 0 0 0 0 0 0 0 0 0 0 0 0 0 0 0 0 0 0 0 0 0 0 0 0 0 0 0 0 0 0 0 0 0 0 0 0 0 0 0 0 0 0 0 0 0 0 0 0 0 0 0 0 0 0 0 0 0 0 0 0 0 0 0 0 0 0 0 0 0 0 0 0 0 0 0 0 0 0 0 0 0 0 12 255 255 230 159 176 180 186 190 183 189 182 175 173 186 189 178 187 191 189 191 189 185 176 177 132 79 151 192 182 165 161 166 168 161 183 199 178 174 196 193 170 120 133 141 32 91 155 119 128 131 104 113 126 123 120 108 125 132 133 121 132 134 103 94 119 147 140 136 138 156 167 143 133 133 135 145 185 189 133 169 191 155 126 89 69 105 77 44 51 49 80 103 119 140 167 182 219 255 255 255 255 255 255 255 255 255 255 255 255 255 255 219 110 145 106 0 0 0 146 186 122 84 81 71 0 0 255 255 255 255 255 111 0 0 0 0 0 0 0 0 0 0 0 0 233 255 255 140 0 0 40 245 255 255 255 255 255 255 255 255 255 255 255 255 255 255 255 115 0 0 0 243 182 0 0 0 0 0 0 0 0 0 0 0 0 0 0 0 0 0 0 0 0 0 0 0 0 0 0 0 0 0 0 0 0 0 0 0 0 0 0 0 0 0 0 0 0 0 0 0 0 0 0 0 0 0 0 0 0 0 0 0 0 0 0 0 0 0 0 0 0 0 0 0 0 0 0 0 0 0 0 0 0 0 0 0 0 0 0 0 0 
0 0 0 0 0 0 0 0 0 0 0 0 0 0 0 0 0 0 0 0 0 0 0 0 0 0 0 0 0 0 0 0 0 0 0 0 0 0 0 0 0 0 0 0 0 0 0 0 0 0 0 0 0 0 0 0 0 0 0 0 0 0 0 0 0 0 0 0 0 0 0 0 0 0 0 0 0 0 0 0 0 0 0 0 0 0 0 0 0 0 0 0 0 0 0 0 0 0 190 255 255 152 167 176 183 188 184 186 193 196 199 196 188 173 182 190 188 181 176 174 168 171 165 92 124 183 171 188 192 186 187 195 205 191 174 174 191 194 179 137 110 154 59 59 157 136 130 132 98 101 124 111 114 121 132 139 132 123 117 131 101 94 140 159 145 144 154 154 149 119 118 127 97 104 116 104 58 70 97 98 101 118 125 149 144 159 250 255 255 255 255 255 255 255 255 255 255 255 255 255 255 255 255 255 255 255 255 255 255 117 18 178 170 32 0 46 217 160 103 90 76 0 0 255 255 255 0 0 0 0 0 0 0 73 125 0 0 0 0 0 193 255 255 255 33 0 0 59 255 255 255 255 210 164 125 92 83 94 87 129 232 255 255 255 0 0 0 0 108 0 0 0 0 0 0 0 0 0 0 0 0 0 0 0 0 0 0 0 0 0 0 0 0 0 0 0 0 0 0 0 0 0 0 0 0 0 0 0 0 0 0 0 0 0 0 0 0 0 0 0 0 0 0 0 0 0 0 0 0 0 0 0 0 0 0 0 0 0 0 0 0 0 0 0 0 0 0 0 0 0 0 0 0 0 0 0 0 0 0 
0 0 0 0 0 0 0 0 0 0 0 0 0 0 0 0 0 0 0 0 0 0 0 0 0 0 0 0 0 0 0 0 0 0 0 0 0 0 0 0 0 0 0 0 0 0 0 0 0 0 0 0 0 0 0 0 0 0 0 0 0 0 0 0 0 0 0 0 0 0 0 0 0 0 0 0 0 0 0 0 0 0 0 0 0 0 0 0 0 0 0 0 0 0 0 0 0 0 69 255 255 159 171 181 186 189 185 188 191 190 196 192 190 176 176 193 193 174 166 165 168 173 197 128 113 219 223 209 212 202 197 192 187 172 175 174 183 194 187 157 103 151 107 37 137 146 117 123 104 102 126 112 112 129 130 140 137 124 83 101 95 83 108 120 91 77 78 69 79 86 110 118 128 163 184 190 206 241 255 255 255 255 255 255 255 255 255 255 255 255 255 255 255 255 255 255 255 255 255 255 255 255 255 255 255 255 255 255 239 54 0 185 214 121 0 40 177 127 93 90 13 0 255 255 255 0 0 0 0 165 255 255 255 255 255 255 89 0 243 255 255 255 255 133 0 0 0 48 97 85 97 130 153 181 206 237 255 255 255 255 255 186 0 0 0 0 0 0 0 0 0 0 0 0 0 0 0 0 0 0 0 0 0 0 0 0 0 0 0 0 0 0 0 0 0 0 0 0 0 0 0 0 0 0 0 0 0 0 0 0 0 0 0 0 0 0 0 0 0 0 0 0 0 0 0 0 0 0 0 0 0 0 0 0 0 0 0 0 0 0 0 0 0 0 0 0 0 0 0 0 0 0 0 0 0 0 0 0 0 
0 0 0 0 0 0 0 0 0 0 0 0 0 0 0 0 0 0 0 0 0 0 0 0 0 0 0 0 0 0 0 0 0 0 0 0 0 0 0 0 0 0 0 0 0 0 0 0 0 0 0 0 0 0 0 0 0 0 0 0 0 0 0 0 0 0 0 0 0 0 0 0 0 0 0 0 0 0 0 0 0 0 0 0 0 0 0 0 0 0 0 0 0 0 0 0 0 0 9 255 255 211 175 182 188 190 191 187 177 171 185 183 181 176 175 196 198 179 176 180 185 182 187 151 98 217 236 185 207 200 186 172 175 184 181 168 169 186 188 173 114 138 148 34 107 160 118 118 102 79 86 87 84 97 80 87 99 98 71 92 124 136 160 197 215 214 212 230 255 255 255 255 255 255 255 255 255 255 255 255 255 255 255 255 255 255 255 255 255 255 255 255 255 255 255 255 255 236 226 233 227 239 255 255 246 236 251 254 240 133 0 124 233 155 8 0 105 135 65 0 57 255 255 255 1 0 0 255 255 255 255 255 255 255 231 0 0 98 255 255 255 255 105 0 34 245 255 255 255 253 232 209 168 123 67 0 0 0 0 0 0 0 0 0 0 0 0 0 0 0 0 0 0 0 0 0 0 0 0 0 0 0 0 0 0 0 0 0 0 0 0 0 0 0 0 0 0 0 0 0 0 0 0 0 0 0 0 0 0 0 0 0 0 0 0 0 0 0 0 0 0 0 0 0 0 0 0 0 0 0 0 0 0 0 0 0 0 0 0 0 0 0 0 0 0 0 0 0 0 0 0 0 0 0 0 0 0 0 0 
0 0 0 0 0 0 0 0 0 0 0 0 0 0 0 0 0 0 0 0 0 0 0 0 0 0 0 0 0 0 0 0 0 0 0 0 0 0 0 0 0 0 0 0 0 0 0 0 0 0 0 0 0 0 0 0 0 0 0 0 0 0 0 0 0 0 0 0 0 0 0 0 0 0 0 0 0 0 0 0 0 0 0 0 0 0 0 0 0 0 0 0 0 0 0 0 0 0 0 178 255 255 160 178 188 189 189 178 166 173 187 180 174 177 178 189 190 181 179 182 185 173 164 175 86 121 199 178 193 195 179 174 176 180 180 169 160 181 190 183 133 118 168 57 66 158 129 102 89 68 101 140 152 193 202 204 239 255 255 255 255 255 255 255 255 255 255 255 255 255 255 255 255 255 255 255 255 255 255 255 255 255 255 255 255 255 239 255 253 248 255 241 218 229 246 243 237 236 239 247 239 248 255 247 241 235 243 240 237 204 20 18 205 181 64 0 21 55 0 156 255 255 255 0 0 61 255 255 255 255 255 255 176 21 0 0 0 255 255 255 255 0 0 4 95 171 146 0 0 0 0 0 0 0 0 0 0 0 0 0 0 0 0 0 0 0 0 0 0 0 0 0 0 0 0 0 0 0 0 0 0 0 0 0 0 0 0 0 0 0 0 0 0 0 0 0 0 0 0 0 0 0 0 0 0 0 0 0 0 0 0 0 0 0 0 0 0 0 0 0 0 0 0 0 0 0 0 0 0 0 0 0 0 0 0 0 0 0 0 0 0 0 0 0 0 0 0 0 0 0 0 0 0 0 0 0 0 0 0 
0 0 0 0 0 0 0 0 0 0 0 0 0 0 0 0 0 0 0 0 0 0 0 0 0 0 0 0 0 0 0 0 0 0 0 0 0 0 0 0 0 0 0 0 0 0 0 0 0 0 0 0 0 0 0 0 0 0 0 0 0 0 0 0 0 0 0 0 0 0 0 0 0 0 0 0 0 0 0 0 0 0 0 0 0 0 0 0 0 0 0 0 0 0 0 0 0 0 0 68 255 255 156 175 192 197 194 183 161 167 175 173 172 184 189 189 181 174 171 171 178 182 176 192 127 98 214 214 201 201 180 174 165 171 179 171 168 181 182 176 152 107 162 103 39 127 139 182 255 255 255 255 255 255 255 255 255 255 255 255 255 255 255 255 255 255 255 255 255 255 255 255 255 255 255 255 255 255 247 229 215 241 236 240 251 241 225 247 239 240 253 250 237 245 255 251 249 247 250 253 247 251 255 238 232 239 241 239 235 244 104 0 158 185 112 0 0 97 255 255 255 255 21 0 255 255 255 255 255 153 39 0 0 0 0 0 255 255 216 0 0 0 0 0 0 0 0 0 0 0 0 0 0 0 0 0 0 0 0 0 0 0 0 0 0 0 0 0 0 0 0 0 0 0 0 0 0 0 0 0 0 0 0 0 0 0 0 0 0 0 0 0 0 0 0 0 0 0 0 0 0 0 0 0 0 0 0 0 0 0 0 0 0 0 0 0 0 0 0 0 0 0 0 0 0 0 0 0 0 0 0 0 0 0 0 0 0 0 0 0 0 0 0 0 0 0 0 0 0 0 0 0 0 0 0 0 0 0 0 
0 0 0 0 0 0 0 0 0 0 0 0 0 0 0 0 0 0 0 0 0 0 0 0 0 0 0 0 0 0 0 0 0 0 0 0 0 0 0 0 0 0 0 0 0 0 0 0 0 0 0 0 0 0 0 0 0 0 0 0 0 0 0 0 0 0 0 0 0 0 0 0 0 0 0 0 0 0 0 0 0 0 0 0 0 0 0 0 0 0 0 0 0 0 0 0 0 0 0 14 255 255 206 171 186 190 180 177 169 164 170 173 182 192 194 182 176 179 187 180 184 195 193 195 174 109 162 215 212 198 178 170 163 171 188 181 170 175 179 187 176 110 135 138 28 101 134 255 255 255 255 255 255 255 255 255 255 255 255 255 255 255 255 255 255 255 255 255 242 249 255 250 240 225 221 237 232 250 217 215 229 253 251 249 255 254 243 252 242 245 247 246 248 247 250 239 242 255 255 250 242 247 253 246 236 254 255 255 255 255 156 0 78 212 157 67 122 255 255 255 182 0 0 255 255 255 53 0 0 0 0 0 0 0 61 203 159 0 0 0 11 71 0 0 0 0 0 0 0 0 0 0 0 0 0 0 0 0 0 0 0 0 0 0 0 0 0 0 0 0 0 0 0 0 0 0 0 0 0 0 0 0 0 0 0 0 0 0 0 0 0 0 0 0 0 0 0 0 0 0 0 0 0 0 0 0 0 0 0 0 0 0 0 0 0 0 0 0 0 0 0 0 0 0 0 0 0 0 0 0 0 0 0 0 0 0 0 0 0 0 0 0 0 0 0 0 0 0 0 0 0 0 0 0 0 0 0 0 0 
0 0 0 0 0 0 0 0 0 0 0 0 0 0 0 0 0 0 0 0 0 0 0 0 0 0 0 0 0 0 0 0 0 0 0 0 0 0 0 0 0 0 0 0 0 0 0 0 0 0 0 0 0 0 0 0 0 0 0 0 0 0 0 0 0 0 0 0 0 0 0 0 0 0 0 0 0 0 0 0 0 0 0 0 0 0 0 0 0 0 0 0 0 0 0 0 0 0 0 1 175 255 255 149 177 180 169 173 175 173 183 191 185 188 187 172 178 195 193 178 178 181 188 182 174 141 174 248 224 177 174 165 164 180 195 185 173 170 187 175 157 118 110 168 51 74 134 224 255 255 255 255 255 255 246 254 246 255 255 255 219 206 220 235 243 245 245 248 246 237 253 250 233 232 239 254 241 254 238 226 255 243 238 234 255 252 235 236 251 249 233 231 246 243 251 248 240 247 255 255 254 255 255 255 247 255 255 255 253 255 201 0 7 212 181 149 168 255 250 0 0 0 210 255 30 0 0 0 0 0 0 94 223 255 255 255 188 217 255 255 255 157 0 0 0 0 0 0 0 0 0 0 0 0 0 0 0 0 0 0 0 0 0 0 0 0 0 0 0 0 0 0 0 0 0 0 0 0 0 0 0 0 0 0 0 0 0 0 0 0 0 0 0 0 0 0 0 0 0 0 0 0 0 0 0 0 0 0 0 0 0 0 0 0 0 0 0 0 0 0 0 0 0 0 0 0 0 0 0 0 0 0 0 0 0 0 0 0 0 0 0 0 0 0 0 0 0 0 0 0 0 0 0 0 0 0 0 0 0 
0 0 0 0 0 0 0 0 0 0 0 0 0 0 0 0 0 0 0 0 0 0 0 0 0 0 0 0 0 0 0 0 0 0 0 0 0 0 0 0 0 0 0 0 0 0 0 0 0 0 0 0 0 0 0 0 0 0 0 0 0 0 0 0 0 0 0 0 0 0 0 0 0 0 0 0 0 0 0 0 0 0 0 0 0 0 0 0 0 0 0 0 0 0 0 0 0 0 0 0 79 255 255 153 177 186 178 183 184 171 180 195 191 181 169 166 179 182 166 165 176 185 193 179 162 137 215 255 203 167 191 188 173 190 201 192 189 185 169 127 124 144 123 132 39 18 136 184 255 255 253 219 232 225 210 226 232 245 253 251 227 223 248 255 250 229 227 238 236 232 254 238 223 237 246 252 249 240 248 255 255 240 240 247 250 247 233 223 248 242 224 239 252 236 241 255 245 251 255 255 252 255 255 255 237 243 248 253 241 247 248 113 15 188 196 161 124 51 0 28 190 255 255 255 116 128 211 255 255 255 255 255 255 255 245 219 234 255 255 192 13 0 0 0 0 0 0 0 0 0 0 0 0 0 0 0 0 0 0 0 0 0 0 0 0 0 0 0 0 0 0 0 0 0 0 0 0 0 0 0 0 0 0 0 0 0 0 0 0 0 0 0 0 0 0 0 0 0 0 0 0 0 0 0 0 0 0 0 0 0 0 0 0 0 0 0 0 0 0 0 0 0 0 0 0 0 0 0 0 0 0 0 0 0 0 0 0 0 0 0 0 0 0 0 0 0 0 0 0 0 0 0 0 0 0 0 0 0 0 
0 0 0 0 0 0 0 0 0 0 0 0 0 0 0 0 0 0 0 0 0 0 0 0 0 0 0 0 0 0 0 0 0 0 0 0 0 0 0 0 0 0 0 0 0 0 0 0 0 0 0 0 0 0 0 0 0 0 0 0 0 0 0 0 0 0 0 0 0 0 0 0 0 0 0 0 0 0 0 0 0 0 0 0 0 0 0 0 0 0 0 0 0 0 0 0 0 0 0 0 21 255 255 211 175 189 174 172 173 171 179 184 189 185 184 186 184 174 173 190 192 185 187 174 158 185 159 147 133 189 205 185 178 197 211 193 181 177 163 131 116 179 162 111 42 0 121 154 255 255 255 209 227 235 219 224 246 255 243 239 236 247 255 249 225 223 236 250 236 239 251 242 233 245 249 255 255 249 255 255 255 242 249 255 246 248 248 241 249 250 242 255 255 255 255 255 239 251 255 255 248 251 249 241 244 254 255 255 245 253 255 191 11 96 225 177 171 210 255 255 255 255 255 255 255 246 252 242 222 201 193 200 179 156 143 160 196 227 180 2 0 0 0 0 0 0 0 0 0 0 0 0 0 0 0 0 0 0 0 0 0 0 0 0 0 0 0 0 0 0 0 0 0 0 0 0 0 0 0 0 0 0 0 0 0 0 0 0 0 0 0 0 0 0 0 0 0 0 0 0 0 0 0 0 0 0 0 0 0 0 0 0 0 0 0 0 0 0 0 0 0 0 0 0 0 0 0 0 0 0 0 0 0 0 0 0 0 0 0 0 0 0 0 0 0 0 0 0 0 0 0 0 0 0 0 0 0 0 0 
0 0 0 0 0 0 0 0 0 0 0 0 0 0 0 0 0 0 0 0 0 0 0 0 0 0 0 0 0 0 0 0 0 0 0 0 0 0 0 0 0 0 0 0 0 0 0 0 0 0 0 0 0 0 0 0 0 0 0 0 0 0 0 0 0 0 0 0 0 0 0 0 0 0 0 0 0 0 0 0 0 0 0 0 0 0 0 0 0 0 0 0 0 0 0 0 0 0 0 0 2 182 255 255 153 186 176 171 171 175 182 185 181 183 180 174 179 190 200 209 183 160 168 171 180 201 156 134 168 211 194 174 176 185 205 184 168 171 164 129 122 193 197 149 188 110 112 143 227 255 255 234 239 242 226 244 251 249 255 238 235 250 255 246 232 228 245 255 245 240 247 235 252 255 245 254 251 232 246 255 246 221 234 252 255 255 255 255 255 250 251 254 255 255 252 255 252 241 252 255 254 243 239 239 243 246 255 248 247 251 255 218 35 0 187 168 174 232 210 190 201 157 168 175 153 167 191 180 146 160 185 186 167 160 181 194 216 166 0 0 0 0 0 0 0 0 0 0 0 0 0 0 0 0 0 0 0 0 0 0 0 0 0 0 0 0 0 0 0 0 0 0 0 0 0 0 0 0 0 0 0 0 0 0 0 0 0 0 0 0 0 0 0 0 0 0 0 0 0 0 0 0 0 0 0 0 0 0 0 0 0 0 0 0 0 0 0 0 0 0 0 0 0 0 0 0 0 0 0 0 0 0 0 0 0 0 0 0 0 0 0 0 0 0 0 0 0 0 0 0 0 0 0 0 0 0 0 0 0 
0 0 0 0 0 0 0 0 0 0 0 0 0 0 0 0 0 0 0 0 0 0 0 0 0 0 0 0 0 0 0 0 0 0 0 0 0 0 0 0 0 0 0 0 0 0 0 0 0 0 0 0 0 0 0 0 0 0 0 0 0 0 0 0 0 0 0 0 0 0 0 0 0 0 0 0 0 0 0 0 0 0 0 0 0 0 0 0 0 0 0 0 0 0 0 0 0 0 0 0 0 77 255 255 156 183 178 171 185 184 189 185 169 178 174 157 178 197 197 194 181 182 195 193 192 199 156 151 235 195 170 191 193 177 189 184 178 178 163 139 147 235 247 133 197 144 39 123 138 255 255 255 255 255 235 238 250 221 237 234 235 244 242 242 243 240 249 254 239 235 244 243 255 247 245 247 238 224 237 251 248 228 235 251 255 255 255 255 244 232 237 239 251 255 240 238 254 253 249 253 247 233 240 248 243 234 232 242 253 255 247 238 128 0 117 171 148 208 179 142 204 185 180 180 158 188 205 188 172 183 176 168 169 185 206 194 124 0 0 0 0 0 0 0 0 0 0 0 0 0 0 0 0 0 0 0 0 0 0 0 0 0 0 0 0 0 0 0 0 0 0 0 0 0 0 0 0 0 0 0 0 0 0 0 0 0 0 0 0 0 0 0 0 0 0 0 0 0 0 0 0 0 0 0 0 0 0 0 0 0 0 0 0 0 0 0 0 0 0 0 0 0 0 0 0 0 0 0 0 0 0 0 0 0 0 0 0 0 0 0 0 0 0 0 0 0 0 0 0 0 0 0 0 0 0 0 0 0 0 
0 0 0 0 0 0 0 0 0 0 0 0 0 0 0 0 0 0 0 0 0 0 0 0 0 0 0 0 0 0 0 0 0 0 0 0 0 0 0 0 0 0 0 0 0 0 0 0 0 0 0 0 0 0 0 0 0 0 0 0 0 0 0 0 0 0 0 0 0 0 0 0 0 0 0 0 0 0 0 0 0 0 0 0 0 0 0 0 0 0 0 0 0 0 0 0 0 0 0 0 0 17 255 255 207 162 179 175 194 191 187 182 175 187 190 190 213 210 200 194 191 200 191 185 182 191 170 155 208 175 175 192 186 175 185 188 181 173 154 163 210 255 230 127 107 108 0 121 141 255 255 255 231 239 241 238 250 232 236 240 234 255 252 245 244 239 253 251 233 243 251 245 253 241 249 255 255 236 245 255 255 244 247 255 255 253 235 231 227 228 241 243 245 249 243 243 251 243 241 250 250 226 244 255 251 248 249 245 255 254 242 254 209 39 60 220 198 195 186 142 181 194 161 175 180 199 194 171 175 187 189 177 198 209 199 111 0 0 0 0 0 0 0 0 0 0 0 0 0 0 0 0 0 0 0 0 0 0 0 0 0 0 0 0 0 0 0 0 0 0 0 0 0 0 0 0 0 0 0 0 0 0 0 0 0 0 0 0 0 0 0 0 0 0 0 0 0 0 0 0 0 0 0 0 0 0 0 0 0 0 0 0 0 0 0 0 0 0 0 0 0 0 0 0 0 0 0 0 0 0 0 0 0 0 0 0 0 0 0 0 0 0 0 0 0 0 0 0 0 0 0 0 0 0 0 0 0 0 0 
0 0 0 0 0 0 0 0 0 0 0 0 0 0 0 0 0 0 0 0 0 0 0 0 0 0 0 0 0 0 0 0 0 0 0 0 0 0 0 0 0 0 0 0 0 0 0 0 0 0 0 0 0 0 0 0 0 0 0 0 0 0 0 0 0 0 0 0 0 0 0 0 0 0 0 0 0 0 0 0 0 0 0 0 0 0 0 0 0 0 0 0 0 0 0 0 0 0 0 0 0 3 185 255 255 149 183 187 196 188 182 177 167 187 206 203 199 197 197 191 182 185 174 169 186 190 186 190 251 221 174 202 198 182 183 194 187 174 164 184 208 204 198 157 93 150 109 131 163 247 255 255 243 232 239 246 249 229 239 255 254 250 250 250 244 230 239 249 245 250 254 252 244 244 244 255 252 235 242 255 255 244 241 248 254 250 240 238 243 246 251 255 255 251 253 250 249 242 232 239 245 249 255 255 249 251 255 251 255 248 240 254 243 92 9 205 226 161 197 171 151 184 172 167 168 176 179 173 170 189 202 196 217 227 131 0 0 0 0 0 0 0 0 0 0 0 0 0 0 0 0 0 0 0 0 0 0 0 0 0 0 0 0 0 0 0 0 0 0 0 0 0 0 0 0 0 0 0 0 0 0 0 0 0 0 0 0 0 0 0 0 0 0 0 0 0 0 0 0 0 0 0 0 0 0 0 0 0 0 0 0 0 0 0 0 0 0 0 0 0 0 0 0 0 0 0 0 0 0 0 0 0 0 0 0 0 0 0 0 0 0 0 0 0 0 0 0 0 0 0 0 0 0 0 0 0 0 0 0 
0 0 0 0 0 0 0 0 0 0 0 0 0 0 0 0 0 0 0 0 0 0 0 0 0 0 0 0 0 0 0 0 0 0 0 0 0 0 0 0 0 0 0 0 0 0 0 0 0 0 0 0 0 0 0 0 0 0 0 0 0 0 0 0 0 0 0 0 0 0 0 0 0 0 0 0 0 0 0 0 0 0 0 0 0 0 0 0 0 0 0 0 0 0 0 0 0 0 0 0 0 1 72 255 255 157 181 188 182 177 175 169 166 187 206 189 178 183 190 187 180 179 185 193 195 186 191 179 252 224 152 209 206 185 172 178 191 177 172 177 177 174 182 177 90 147 167 57 107 128 255 255 238 222 240 250 240 224 245 252 246 238 229 228 236 222 223 243 236 243 237 220 232 251 249 238 238 226 232 255 255 250 243 234 246 253 237 241 255 255 252 255 255 250 255 246 243 252 252 247 243 255 255 243 236 245 250 255 251 247 253 255 254 143 0 115 220 139 203 210 157 195 202 187 186 190 212 198 189 217 231 210 184 95 0 0 0 0 0 0 0 0 0 0 0 0 0 0 0 0 0 0 0 0 0 0 0 0 0 0 0 0 0 0 0 0 0 0 0 0 0 0 0 0 0 0 0 0 0 0 0 0 0 0 0 0 0 0 0 0 0 0 0 0 0 0 0 0 0 0 0 0 0 0 0 0 0 0 0 0 0 0 0 0 0 0 0 0 0 0 0 0 0 0 0 0 0 0 0 0 0 0 0 0 0 0 0 0 0 0 0 0 0 0 0 0 0 0 0 0 0 0 0 0 0 0 0 0 0 
0 0 0 0 0 0 0 0 0 0 0 0 0 0 0 0 0 0 0 0 0 0 0 0 0 0 0 0 0 0 0 0 0 0 0 0 0 0 0 0 0 0 0 0 0 0 0 0 0 0 0 0 0 0 0 0 0 0 0 0 0 0 0 0 0 0 0 0 0 0 0 0 0 0 0 0 0 0 0 0 0 0 0 0 0 0 0 0 0 0 0 0 0 0 0 0 0 0 0 0 0 0 15 255 255 202 167 186 189 185 176 172 175 202 217 184 159 177 195 185 181 182 187 192 178 170 186 157 229 230 130 193 194 180 174 181 193 173 169 175 163 161 179 187 104 115 166 1 29 93 255 255 255 215 237 236 237 235 241 240 237 237 237 236 251 243 240 255 245 238 245 220 230 250 241 233 249 248 244 255 255 254 246 242 244 255 245 234 248 255 243 255 252 246 255 255 236 243 255 255 249 255 255 226 229 254 255 255 243 242 255 255 247 205 14 23 213 160 189 226 167 192 220 193 192 184 169 131 118 124 113 30 0 0 0 0 0 0 0 0 0 0 0 0 0 0 0 0 0 0 0 0 0 0 0 0 0 0 0 0 0 0 0 0 0 0 0 0 0 0 0 0 0 0 0 0 0 0 0 0 0 0 0 0 0 0 0 0 0 0 0 0 0 0 0 0 0 0 0 0 0 0 0 0 0 0 0 0 0 0 0 0 0 0 0 0 0 0 0 0 0 0 0 0 0 0 0 0 0 0 0 0 0 0 0 0 0 0 0 0 0 0 0 0 0 0 0 0 0 0 0 0 0 0 0 0 0 0 0 
0 0 0 0 0 0 0 0 0 0 0 0 0 0 0 0 0 0 0 0 0 0 0 0 0 0 0 0 0 0 0 0 0 0 0 0 0 0 0 0 0 0 0 0 0 0 0 0 0 0 0 0 0 0 0 0 0 0 0 0 0 0 0 0 0 0 0 0 0 0 0 0 0 0 0 0 0 0 0 0 0 0 0 0 0 0 0 0 0 0 0 0 0 0 0 0 0 0 0 0 0 0 4 172 255 255 152 193 198 186 176 179 191 200 200 176 166 188 205 189 176 180 178 189 181 154 172 169 210 252 110 156 203 184 173 174 186 174 161 169 162 169 195 199 136 123 204 26 11 131 213 255 255 223 241 229 230 248 247 253 247 245 255 247 255 245 235 255 253 241 255 244 251 255 233 233 242 242 235 250 255 228 228 237 236 251 255 248 252 249 246 255 255 252 255 252 244 254 255 253 250 255 255 241 242 255 255 244 244 252 255 243 237 240 106 2 172 193 161 152 64 22 23 0 0 0 0 0 0 0 0 0 0 0 0 0 0 0 0 0 0 0 0 0 0 0 0 0 0 0 0 0 0 0 0 0 0 0 0 0 0 0 0 0 0 0 0 0 0 0 0 0 0 0 0 0 0 0 0 0 0 0 0 0 0 0 0 0 0 0 0 0 0 0 0 0 0 0 0 0 0 0 0 0 0 0 0 0 0 0 0 0 0 0 0 0 0 0 0 0 0 0 0 0 0 0 0 0 0 0 0 0 0 0 0 0 0 0 0 0 0 0 0 0 0 0 0 0 0 0 0 0 0 0 0 0 0 0 0 
0 0 0 0 0 0 0 0 0 0 0 0 0 0 0 0 0 0 0 0 0 0 0 0 0 0 0 0 0 0 0 0 0 0 0 0 0 0 0 0 0 0 0 0 0 0 0 0 0 0 0 0 0 0 0 0 0 0 0 0 0 0 0 0 0 0 0 0 0 0 0 0 0 0 0 0 0 0 0 0 0 0 0 0 0 0 0 0 0 0 0 0 0 0 0 0 0 0 0 0 0 0 1 69 255 255 152 186 193 179 174 187 201 190 181 181 183 197 206 198 182 185 187 198 188 149 169 204 218 255 152 129 218 179 165 165 191 188 178 181 163 164 201 206 169 124 211 121 34 155 146 255 255 243 239 255 248 255 253 243 240 241 250 244 242 240 235 249 245 236 252 248 241 255 252 255 255 243 234 242 253 236 229 245 244 247 255 247 250 255 255 253 255 246 235 229 246 255 255 255 255 242 245 251 250 255 251 237 253 255 255 246 253 255 180 18 90 207 165 39 0 0 0 0 0 0 0 0 0 0 0 0 0 0 0 0 0 0 0 0 0 0 0 0 0 0 0 0 0 0 0 0 0 0 0 0 0 0 0 0 0 0 0 0 0 0 0 0 0 0 0 0 0 0 0 0 0 0 0 0 0 0 0 0 0 0 0 0 0 0 0 0 0 0 0 0 0 0 0 0 0 0 0 0 0 0 0 0 0 0 0 0 0 0 0 0 0 0 0 0 0 0 0 0 0 0 0 0 0 0 0 0 0 0 0 0 0 0 0 0 0 0 0 0 0 0 0 0 0 0 0 0 0 0 0 0 0 0 0 
0 0 0 0 0 0 0 0 0 0 0 0 0 0 0 0 0 0 0 0 0 0 0 0 0 0 0 0 0 0 0 0 0 0 0 0 0 0 0 0 0 0 0 0 0 0 0 0 0 0 0 0 0 0 0 0 0 0 0 0 0 0 0 0 0 0 0 0 0 0 0 0 0 0 0 0 0 0 0 0 0 0 0 0 0 0 0 0 0 0 0 0 0 0 0 0 0 0 0 0 0 0 0 21 255 255 196 161 186 176 185 198 200 193 189 196 181 171 178 185 180 174 196 202 186 171 194 229 215 255 207 93 209 180 171 190 204 192 182 180 166 170 193 192 184 133 132 123 11 145 142 255 255 255 239 255 243 234 241 233 227 230 239 236 231 244 249 254 244 247 255 255 241 235 255 255 255 248 247 254 255 246 246 255 252 250 247 246 248 255 254 242 253 246 233 245 255 249 241 253 255 242 254 255 255 255 255 253 255 255 255 255 255 255 233 71 55 218 204 67 0 0 0 0 0 6 55 81 89 96 110 115 0 0 0 0 0 0 0 0 0 0 0 0 0 0 0 0 0 0 0 0 0 0 0 0 0 0 0 0 0 0 0 0 0 0 0 0 0 0 0 0 0 0 0 0 0 0 0 0 0 0 0 0 0 0 0 0 0 0 0 0 0 0 0 0 0 0 0 0 0 0 0 0 0 0 0 0 0 0 0 0 0 0 0 0 0 0 0 0 0 0 0 0 0 0 0 0 0 0 0 0 0 0 0 0 0 0 0 0 0 0 0 0 0 0 0 0 0 0 0 0 0 0 0 0 0 0 0 
0 0 0 0 0 0 0 0 0 0 0 0 0 0 0 0 0 0 0 0 0 0 0 0 0 0 0 0 0 0 0 0 0 0 0 0 0 0 0 0 0 0 0 0 0 0 0 0 0 0 0 0 0 0 0 0 0 0 0 0 0 0 0 0 0 0 0 0 0 0 0 0 0 0 0 0 0 0 0 0 0 0 0 0 0 0 0 0 0 0 0 0 0 0 0 0 0 0 0 0 0 0 0 6 170 255 255 137 188 185 199 200 191 197 198 193 174 161 171 182 185 169 182 192 182 183 196 207 186 212 204 72 180 209 193 198 189 190 179 153 150 169 186 185 190 153 86 123 34 84 129 198 255 255 236 246 230 209 241 246 240 250 254 244 233 245 248 242 241 250 255 247 241 242 252 255 224 228 248 255 255 244 255 254 253 255 255 255 249 255 251 247 255 249 231 249 255 242 244 254 255 250 255 255 255 255 255 245 252 255 253 251 230 215 184 29 0 172 230 148 0 0 103 129 115 131 132 110 108 115 88 0 0 0 0 0 0 0 0 0 0 0 0 0 0 0 0 0 0 0 0 0 0 0 0 0 0 0 0 0 0 0 0 0 0 0 0 0 0 0 0 0 0 0 0 0 0 0 0 0 0 0 0 0 0 0 0 0 0 0 0 0 0 0 0 0 0 0 0 0 0 0 0 0 0 0 0 0 0 0 0 0 0 0 0 0 0 0 0 0 0 0 0 0 0 0 0 0 0 0 0 0 0 0 0 0 0 0 0 0 0 0 0 0 0 0 0 0 0 0 0 0 0 0 0 0 0 0 0 
0 0 0 0 0 0 0 0 0 0 0 0 0 0 0 0 0 0 0 0 0 0 0 0 0 0 0 0 0 0 0 0 0 0 0 0 0 0 0 0 0 0 0 0 0 0 0 0 0 0 0 0 0 0 0 0 0 0 0 0 0 0 0 0 0 0 0 0 0 0 0 0 0 0 0 0 0 0 0 0 0 0 0 0 0 0 0 0 0 0 0 0 0 0 0 0 0 0 0 0 0 0 0 1 71 255 255 140 186 187 189 190 180 190 190 183 176 181 203 202 202 184 179 186 181 185 174 176 180 161 212 121 143 230 193 184 177 193 185 154 160 187 181 180 197 171 87 124 132 52 124 161 255 255 237 236 238 224 255 255 243 254 255 255 252 240 235 233 235 253 249 215 225 247 249 253 232 219 239 244 245 246 255 255 254 255 255 255 247 255 255 255 255 255 248 250 255 255 255 255 246 225 219 217 191 176 175 149 103 106 97 74 0 0 0 0 0 122 214 181 34 0 34 114 101 104 100 94 109 89 0 0 0 0 0 0 0 0 0 0 0 0 0 0 0 0 0 0 0 0 0 0 0 0 0 0 0 0 0 0 0 0 0 0 0 0 0 0 0 0 0 0 0 0 0 0 0 0 0 0 0 0 0 0 0 0 0 0 0 0 0 0 0 0 0 0 0 0 0 0 0 0 0 0 0 0 0 0 0 0 0 0 0 0 0 0 0 0 0 0 0 0 0 0 0 0 0 0 0 0 0 0 0 0 0 0 0 0 0 0 0 0 0 0 0 0 0 0 0 0 0 0 0 0 0 0 0 0 0 
0 0 0 0 0 0 0 0 0 0 0 0 0 0 0 0 0 0 0 0 0 0 0 0 0 0 0 0 0 0 0 0 0 0 0 0 0 0 0 0 0 0 0 0 0 0 0 0 0 0 0 0 0 0 0 0 0 0 0 0 0 0 0 0 0 0 0 0 0 0 0 0 0 0 0 0 0 0 0 0 0 0 0 0 0 0 0 0 0 0 0 0 0 0 0 0 0 0 0 0 0 0 0 0 25 255 255 206 179 191 180 188 178 180 186 185 181 186 209 208 199 187 180 189 183 188 167 172 197 180 229 208 120 214 189 177 179 185 179 164 177 204 185 170 191 183 132 124 127 22 103 135 255 255 255 240 238 243 255 255 237 244 240 243 254 242 242 248 242 251 253 232 238 254 247 255 255 233 253 255 252 245 253 255 255 255 255 247 255 255 255 253 246 240 235 232 209 188 168 113 79 23 0 1 0 0 0 0 0 0 0 0 0 0 0 0 86 175 218 211 99 0 0 119 121 99 101 111 72 0 0 0 0 0 0 0 0 0 0 0 0 0 0 0 0 0 0 0 0 0 0 0 0 0 0 0 0 0 0 0 0 0 0 0 0 0 0 0 0 0 0 0 0 0 0 0 0 0 0 0 0 0 0 0 0 0 0 0 0 0 0 0 0 0 0 0 0 0 0 0 0 0 0 0 0 0 0 0 0 0 0 0 0 0 0 0 0 0 0 0 0 0 0 0 0 0 0 0 0 0 0 0 0 0 0 0 0 0 0 0 0 0 0 0 0 0 0 0 0 0 0 0 0 0 0 0 0 0 0 
0 0 0 0 0 0 0 0 0 0 0 0 0 0 0 0 0 0 0 0 0 0 0 0 0 0 0 0 0 0 0 0 0 0 0 0 0 0 0 0 0 0 0 0 0 0 0 0 0 0 0 0 0 0 0 0 0 0 0 0 0 0 0 0 0 0 0 0 0 0 0 0 0 0 0 0 0 0 0 0 0 0 0 0 0 0 0 0 0 0 0 0 0 0 0 0 0 0 0 0 0 0 0 0 7 187 255 255 162 192 182 195 189 185 191 195 185 186 199 189 181 185 184 184 189 189 172 173 203 186 190 219 114 179 211 191 188 181 176 171 175 187 180 162 185 202 167 149 149 48 57 127 225 255 255 253 241 249 244 243 245 244 240 233 241 238 245 252 255 255 255 255 255 255 255 255 255 255 255 255 255 232 246 255 240 203 132 114 138 124 89 68 49 8 3 8 0 0 0 0 0 0 0 0 0 0 0 27 0 0 18 40 68 89 138 223 255 206 197 224 146 0 0 95 125 101 111 53 0 0 0 0 0 0 0 0 0 0 0 0 0 0 0 0 0 0 0 0 0 0 0 0 0 0 0 0 0 0 0 0 0 0 0 0 0 0 0 0 0 0 0 0 0 0 0 0 0 0 0 0 0 0 0 0 0 0 0 0 0 0 0 0 0 0 0 0 0 0 0 0 0 0 0 0 0 0 0 0 0 0 0 0 0 0 0 0 0 0 0 0 0 0 0 0 0 0 0 0 0 0 0 0 0 0 0 0 0 0 0 0 0 0 0 0 0 0 0 0 0 0 0 0 0 0 0 0 0 0 0 
0 0 0 0 0 0 0 0 0 0 0 0 0 0 0 0 0 0 0 0 0 0 0 0 0 0 0 0 0 0 0 0 0 0 0 0 0 0 0 0 0 0 0 0 0 0 0 0 0 0 0 0 0 0 0 0 0 0 0 0 0 0 0 0 0 0 0 0 0 0 0 0 0 0 0 0 0 0 0 0 0 0 0 0 0 0 0 0 0 0 0 0 0 0 0 0 0 0 0 0 0 0 0 0 1 91 255 255 157 173 180 193 195 190 195 202 190 192 193 167 173 181 181 176 182 189 181 177 198 185 137 183 153 149 225 195 184 177 177 173 170 170 173 166 184 209 182 131 162 119 51 125 180 255 255 238 237 249 243 237 255 255 255 255 255 255 255 255 255 255 255 255 239 253 228 133 155 178 145 104 63 46 49 52 0 0 0 0 0 0 0 0 0 0 0 0 0 0 0 0 9 15 25 140 131 147 203 211 194 178 223 255 225 200 177 215 232 178 166 203 165 11 0 44 122 102 59 0 0 0 0 0 0 0 0 0 0 0 0 0 0 0 0 0 0 0 0 0 0 0 0 0 0 0 0 0 0 0 0 0 0 0 0 0 0 0 0 0 0 0 0 0 0 0 0 0 0 0 0 0 0 0 0 0 0 0 0 0 0 0 0 0 0 0 0 0 0 0 0 0 0 0 0 0 0 0 0 0 0 0 0 0 0 0 0 0 0 0 0 0 0 0 0 0 0 0 0 0 0 0 0 0 0 0 0 0 0 0 0 0 0 0 0 0 0 0 0 0 0 0 0 0 0 0 0 0 0 0 0 
0 0 0 0 0 0 0 0 0 0 0 0 0 0 0 0 0 0 0 0 0 0 0 0 0 0 0 0 0 0 0 0 0 0 0 0 0 0 0 0 0 0 0 0 0 0 0 0 0 0 0 0 0 0 0 0 0 0 0 0 0 0 0 0 0 0 0 0 0 0 0 0 0 0 0 0 0 0 0 0 0 0 0 0 0 0 0 0 0 0 0 0 0 0 0 0 0 0 0 0 0 0 0 0 0 35 255 255 213 160 187 189 193 188 188 191 184 183 181 166 182 183 165 176 176 181 183 175 190 192 147 170 197 136 211 194 174 176 175 164 173 178 180 170 175 196 192 128 116 128 12 102 158 255 255 255 251 255 249 241 222 195 203 233 241 234 207 165 139 118 90 80 21 0 0 0 0 0 0 0 0 0 0 0 0 0 0 0 0 0 0 43 3 8 120 148 130 147 145 147 193 187 151 201 215 197 159 188 180 150 178 212 141 126 159 192 229 199 161 184 186 79 0 0 113 64 0 0 0 0 0 0 0 0 0 0 0 0 0 0 0 0 0 0 0 0 0 0 0 0 0 0 0 0 0 0 0 0 0 0 0 0 0 0 0 0 0 0 0 0 0 0 0 0 0 0 0 0 0 0 0 0 0 0 0 0 0 0 0 0 0 0 0 0 0 0 0 0 0 0 0 0 0 0 0 0 0 0 0 0 0 0 0 0 0 0 0 0 0 0 0 0 0 0 0 0 0 0 0 0 0 0 0 0 0 0 0 0 0 0 0 0 0 0 0 0 0 0 0 0 0 0 0 0 0 0 0 0 0 
0 0 0 0 0 0 0 0 0 0 0 0 0 0 0 0 0 0 0 0 0 0 0 0 0 0 0 0 0 0 0 0 0 0 0 0 0 0 0 0 0 0 0 0 0 0 0 0 0 0 0 0 0 0 0 0 0 0 0 0 0 0 0 0 0 0 0 0 0 0 0 0 0 0 0 0 0 0 0 0 0 0 0 0 0 0 0 0 0 0 0 0 0 0 0 0 0 0 0 0 0 0 0 0 0 9 203 255 255 156 194 197 191 179 180 184 183 181 187 190 198 199 169 188 182 176 193 179 169 184 183 155 173 150 189 205 174 180 173 162 171 182 180 178 171 190 199 164 82 136 36 71 191 214 255 255 182 187 115 51 0 0 0 1 0 0 0 0 0 0 0 0 0 0 0 0 0 0 0 0 0 66 40 45 80 106 137 166 226 236 228 255 229 225 251 184 154 200 179 153 165 168 97 140 215 170 142 200 208 179 175 138 89 121 210 224 239 228 177 180 200 135 0 0 61 0 0 0 0 0 0 0 0 0 0 0 0 0 0 0 0 0 0 0 0 0 0 0 0 0 0 0 0 0 0 0 0 0 0 0 0 0 0 0 0 0 0 0 0 0 0 0 0 0 0 0 0 0 0 0 0 0 0 0 0 0 0 0 0 0 0 0 0 0 0 0 0 0 0 0 0 0 0 0 0 0 0 0 0 0 0 0 0 0 0 0 0 0 0 0 0 0 0 0 0 0 0 0 0 0 0 0 0 0 0 0 0 0 0 0 0 0 0 0 0 0 0 0 0 0 0 0 0 0 0 0 0 0 0 
0 0 0 0 0 0 0 0 0 0 0 0 0 0 0 0 0 0 0 0 0 0 0 0 0 0 0 0 0 0 0 0 0 0 0 0 0 0 0 0 0 0 0 0 0 0 0 0 0 0 0 0 0 0 0 0 0 0 0 0 0 0 0 0 0 0 0 0 0 0 0 0 0 0 0 0 0 0 0 0 0 0 0 0 0 0 0 0 0 0 0 0 0 0 0 0 0 0 0 0 0 0 0 0 0 1 98 255 255 159 181 197 188 175 182 187 188 186 191 196 192 191 182 186 184 166 188 185 170 190 190 129 124 177 183 203 180 187 182 179 181 184 185 188 176 196 207 189 97 136 126 38 204 168 153 78 0 0 0 0 0 0 0 0 0 0 0 0 0 0 0 0 0 0 17 74 184 199 162 172 237 255 188 184 233 222 196 174 189 179 106 136 184 162 123 105 112 144 162 137 164 193 136 141 201 135 133 205 210 159 138 97 113 178 222 212 197 199 163 157 196 170 32 0 0 0 0 0 0 0 0 0 0 0 0 0 0 0 0 0 0 0 0 0 0 0 0 0 0 0 0 0 0 0 0 0 0 0 0 0 0 0 0 0 0 0 0 0 0 0 0 0 0 0 0 0 0 0 0 0 0 0 0 0 0 0 0 0 0 0 0 0 0 0 0 0 0 0 0 0 0 0 0 0 0 0 0 0 0 0 0 0 0 0 0 0 0 0 0 0 0 0 0 0 0 0 0 0 0 0 0 0 0 0 0 0 0 0 0 0 0 0 0 0 0 0 0 0 0 0 0 0 0 0 0 0 0 0 0 
0 0 0 0 0 0 0 0 0 0 0 0 0 0 0 0 0 0 0 0 0 0 0 0 0 0 0 0 0 0 0 0 0 0 0 0 0 0 0 0 0 0 0 0 0 0 0 0 0 0 0 0 0 0 0 0 0 0 0 0 0 0 0 0 0 0 0 0 0 0 0 0 0 0 0 0 0 0 0 0 0 0 0 0 0 0 0 0 0 0 0 0 0 0 0 0 0 0 0 0 0 0 0 0 0 0 45 255 255 210 161 194 192 186 191 190 186 186 185 180 172 183 182 173 188 170 179 188 187 199 184 132 134 233 214 183 190 190 191 190 189 194 199 189 182 203 208 196 128 103 167 32 167 181 94 61 0 0 0 0 0 96 145 140 79 77 68 81 147 161 179 187 183 192 185 227 225 164 165 192 208 178 102 161 225 161 127 147 155 111 69 123 183 147 108 169 206 171 161 116 124 160 137 128 161 102 131 230 221 166 132 127 167 248 247 199 164 164 148 156 207 209 97 2 0 0 0 0 0 0 0 0 0 0 0 0 0 0 0 0 0 0 0 0 0 0 0 0 0 0 0 0 0 0 0 0 0 0 0 0 0 0 0 0 0 0 0 0 0 0 0 0 0 0 0 0 0 0 0 0 0 0 0 0 0 0 0 0 0 0 0 0 0 0 0 0 0 0 0 0 0 0 0 0 0 0 0 0 0 0 0 0 0 0 0 0 0 0 0 0 0 0 0 0 0 0 0 0 0 0 0 0 0 0 0 0 0 0 0 0 0 0 0 0 0 0 0 0 0 0 0 0 0 0 0 0 0 0 0 
0 0 0 0 0 0 0 0 0 0 0 0 0 0 0 0 0 0 0 0 0 0 0 0 0 0 0 0 0 0 0 0 0 0 0 0 0 0 0 0 0 0 0 0 0 0 0 0 0 0 0 0 0 0 0 0 0 0 0 0 0 0 0 0 0 0 0 0 0 0 0 0 0 0 0 0 0 0 0 0 0 0 0 0 0 0 0 0 0 0 0 0 0 0 0 0 0 0 0 0 0 0 0 0 0 0 15 220 255 255 147 191 196 192 189 186 185 185 185 178 164 173 179 174 190 185 177 198 185 176 173 152 160 247 219 167 202 189 187 181 177 184 178 177 172 177 184 181 153 89 159 67 101 211 123 166 159 113 117 140 199 205 186 182 174 163 146 148 168 149 151 173 158 148 150 187 156 117 150 174 180 118 66 165 233 154 91 153 171 114 120 170 171 130 142 199 213 172 179 165 117 140 123 147 198 178 197 255 227 200 165 192 223 242 206 152 154 159 172 197 209 212 137 61 0 0 0 0 0 0 0 0 0 0 0 0 0 0 0 0 0 0 0 0 0 0 0 0 0 0 0 0 0 0 0 0 0 0 0 0 0 0 0 0 0 0 0 0 0 0 0 0 0 0 0 0 0 0 0 0 0 0 0 0 0 0 0 0 0 0 0 0 0 0 0 0 0 0 0 0 0 0 0 0 0 0 0 0 0 0 0 0 0 0 0 0 0 0 0 0 0 0 0 0 0 0 0 0 0 0 0 0 0 0 0 0 0 0 0 0 0 0 0 0 0 0 0 0 0 0 0 0 0 0 0 0 0 0 0 
0 0 0 0 0 0 0 0 0 0 0 0 0 0 0 0 0 0 0 0 0 0 0 0 0 0 0 0 0 0 0 0 0 0 0 0 0 0 0 0 0 0 0 0 0 0 0 0 0 0 0 0 0 0 0 0 0 0 0 0 0 0 0 0 0 0 0 0 0 0 0 0 0 0 0 0 0 0 0 0 0 0 0 0 0 0 0 0 0 0 0 0 0 0 0 0 0 0 0 0 0 0 0 0 0 0 2 97 255 255 144 167 189 190 180 177 181 189 192 188 173 177 193 190 197 187 167 178 172 166 180 165 136 164 176 155 207 188 176 166 165 178 171 177 172 150 168 180 177 103 134 120 43 198 132 143 171 151 168 166 141 125 140 135 131 121 125 126 140 139 136 173 183 144 129 150 128 110 157 151 144 121 97 182 204 145 117 153 153 128 151 188 149 125 154 188 214 181 168 186 136 155 184 199 250 246 228 226 205 170 134 181 222 192 150 105 129 168 188 210 181 152 123 68 0 0 0 0 0 0 0 0 0 0 0 0 0 0 0 0 0 0 0 0 0 0 0 0 0 0 0 0 0 0 0 0 0 0 0 0 0 0 0 0 0 0 0 0 0 0 0 0 0 0 0 0 0 0 0 0 0 0 0 0 0 0 0 0 0 0 0 0 0 0 0 0 0 0 0 0 0 0 0 0 0 0 0 0 0 0 0 0 0 0 0 0 0 0 0 0 0 0 0 0 0 0 0 0 0 0 0 0 0 0 0 0 0 0 0 0 0 0 0 0 0 0 0 0 0 0 0 0 0 0 0 0 0 0 0 
0 0 0 0 0 0 0 0 0 0 0 0 0 0 0 0 0 0 0 0 0 0 0 0 0 0 0 0 0 0 0 0 0 0 0 0 0 0 0 0 0 0 0 0 0 0 0 0 0 0 0 0 0 0 0 0 0 0 0 0 0 0 0 0 0 0 0 0 0 0 0 0 0 0 0 0 0 0 0 0 0 0 0 0 0 0 0 0 0 0 0 0 0 0 0 0 0 0 0 0 0 0 0 0 0 0 0 38 255 255 202 156 193 192 181 174 183 196 193 190 180 188 206 199 190 173 158 162 169 176 199 186 134 132 196 183 203 187 174 165 164 188 186 190 180 158 186 198 195 138 110 155 40 158 167 121 152 129 144 139 119 130 163 152 138 142 136 135 150 167 175 201 214 163 109 127 150 124 166 122 122 156 152 220 211 137 108 114 131 132 158 160 141 175 205 229 235 196 153 185 177 175 226 231 248 214 170 173 212 160 132 170 194 169 138 123 137 187 185 168 152 129 136 100 0 0 0 0 0 0 0 0 0 0 0 0 0 0 0 0 0 0 0 0 0 0 0 0 0 0 0 0 0 0 0 0 0 0 0 0 0 0 0 0 0 0 0 0 0 0 0 0 0 0 0 0 0 0 0 0 0 0 0 0 0 0 0 0 0 0 0 0 0 0 0 0 0 0 0 0 0 0 0 0 0 0 0 0 0 0 0 0 0 0 0 0 0 0 0 0 0 0 0 0 0 0 0 0 0 0 0 0 0 0 0 0 0 0 0 0 0 0 0 0 0 0 0 0 0 0 0 0 0 0 0 0 0 0 0 
0 0 0 0 0 0 0 0 0 0 0 0 0 0 0 0 0 0 0 0 0 0 0 0 0 0 0 0 0 0 0 0 0 0 0 0 0 0 0 0 0 0 0 0 0 0 0 0 0 0 0 0 0 0 0 0 0 0 0 0 0 0 0 0 0 0 0 0 0 0 0 0 0 0 0 0 0 0 0 0 0 0 0 0 0 0 0 0 0 0 0 0 0 0 0 0 0 0 0 0 0 0 0 0 0 0 0 10 179 255 255 145 200 201 188 180 189 200 187 181 187 189 196 190 173 163 153 171 191 197 197 193 159 155 255 238 179 178 178 179 187 194 183 182 176 162 176 191 195 167 96 153 68 99 202 127 166 153 153 150 139 151 167 163 151 157 165 152 136 176 199 184 174 142 109 138 196 171 187 156 134 158 128 176 184 149 87 89 157 155 143 141 162 194 212 229 215 160 118 172 238 210 228 230 209 182 163 171 214 210 186 177 170 165 137 125 137 169 174 158 163 161 174 153 79 0 0 0 0 0 0 0 4 20 43 55 79 118 154 181 215 248 255 171 40 0 0 0 0 0 0 0 0 0 0 0 0 0 0 0 0 0 0 0 0 0 0 0 0 0 0 0 0 0 0 0 0 0 0 0 0 0 0 0 0 0 0 0 0 0 0 0 0 0 0 0 0 0 0 0 0 0 0 0 0 0 0 0 0 0 0 0 0 0 0 0 0 0 0 0 0 0 0 0 0 0 0 0 0 0 0 0 0 0 0 0 0 0 0 0 0 0 0 0 0 0 0 0 0 0 0 0 0 0 0 0 0 0 0 
0 0 0 0 0 0 0 0 0 0 0 0 0 0 0 0 0 0 0 0 0 0 0 0 0 0 0 0 0 0 0 0 0 0 0 0 0 0 0 0 0 0 0 0 0 0 0 0 0 0 0 0 0 0 0 0 0 0 0 0 0 0 0 0 0 0 0 0 0 0 0 0 0 0 0 0 0 0 0 0 0 0 0 0 0 0 0 0 0 0 0 0 0 0 0 0 0 0 0 0 0 0 0 0 0 0 0 1 99 255 255 137 176 190 185 188 194 195 181 186 200 188 189 196 184 185 183 178 199 199 176 170 171 143 184 194 143 184 191 192 192 185 177 181 180 170 170 183 193 190 104 128 110 42 185 129 143 148 137 157 152 139 134 150 152 131 162 182 147 150 163 108 109 140 146 155 142 153 185 180 117 120 116 141 152 181 166 164 219 177 158 184 194 181 174 201 208 157 136 165 219 184 192 213 174 169 163 152 151 160 160 146 123 124 128 139 155 168 178 190 214 212 191 169 115 0 0 34 138 179 232 255 255 255 255 255 255 255 255 255 255 255 255 255 159 0 0 0 0 0 0 0 0 0 0 0 0 0 0 0 0 0 0 0 0 0 0 0 0 0 0 0 0 0 0 0 0 0 0 0 0 0 0 0 0 0 0 0 0 0 0 0 0 0 0 0 0 0 0 0 0 0 0 0 0 0 0 0 0 0 0 0 0 0 0 0 0 0 0 0 0 0 0 0 0 0 0 0 0 0 0 0 0 0 0 0 0 0 0 0 0 0 0 0 0 0 0 0 0 0 0 0 0 0 0 0 0 0 0 
0 0 0 0 0 0 0 0 0 0 0 0 0 0 0 0 0 0 0 0 0 0 0 0 0 0 0 0 0 0 0 0 0 0 0 0 0 0 0 0 0 0 0 0 0 0 0 0 0 0 0 0 0 0 0 0 0 0 0 0 0 0 0 0 0 0 0 0 0 0 0 0 0 0 0 0 0 0 0 0 0 0 0 0 0 0 0 0 0 0 0 0 0 0 0 0 0 0 0 0 0 0 0 0 0 0 0 0 47 255 255 198 154 187 186 193 189 182 179 190 201 185 186 209 195 191 184 166 175 167 157 169 192 147 116 172 165 201 212 193 185 178 182 196 186 167 167 191 203 204 137 99 142 40 154 164 119 141 128 163 151 112 95 122 137 129 141 153 128 134 139 79 106 176 175 153 101 138 190 152 85 91 145 196 205 215 225 201 240 190 142 186 187 158 210 229 184 133 129 138 142 150 168 181 147 148 163 133 124 138 149 149 128 138 153 138 118 113 109 122 117 96 66 46 40 0 12 255 255 255 255 255 255 255 255 255 255 255 255 255 255 255 255 255 164 0 0 0 0 0 0 0 0 0 0 0 0 0 0 0 0 0 0 0 0 0 0 0 0 0 0 0 0 0 0 0 0 0 0 0 0 0 0 0 0 0 0 0 0 0 0 0 0 0 0 0 0 0 0 0 0 0 0 0 0 0 0 0 0 0 0 0 0 0 0 0 0 0 0 0 0 0 0 0 0 0 0 0 0 0 0 0 0 0 0 0 0 0 0 0 0 0 0 0 0 0 0 0 0 0 0 0 0 0 0 0 0 0 0 
0 0 0 0 0 0 0 0 0 0 0 0 0 0 0 0 0 0 0 0 0 0 0 0 0 0 0 0 0 0 0 0 0 0 0 0 0 0 0 0 0 0 0 0 0 0 0 0 0 0 0 0 0 0 0 0 0 0 0 0 0 0 0 0 0 0 0 0 0 0 0 0 0 0 0 0 0 0 0 0 0 0 0 0 0 0 0 0 0 0 0 0 0 0 0 0 0 0 0 0 0 0 0 0 0 0 0 0 12 207 255 255 143 192 193 190 179 180 191 193 189 187 193 207 191 186 179 161 174 184 179 199 210 180 134 178 206 200 215 190 186 180 177 182 179 171 164 179 197 202 163 98 176 109 149 222 126 150 155 166 157 110 98 127 153 140 134 141 106 97 140 147 148 167 134 121 108 171 234 143 73 106 185 221 243 247 228 183 204 190 139 145 186 201 229 213 149 142 138 155 164 185 201 181 148 161 188 153 131 127 98 83 47 45 77 36 3 0 21 40 26 0 0 0 15 45 153 255 255 255 255 255 255 255 255 214 195 210 207 234 240 234 244 246 154 0 0 0 0 0 0 0 0 0 0 0 0 0 0 0 0 0 0 0 0 0 0 0 0 0 0 0 0 0 0 0 0 0 0 0 0 0 0 0 0 0 0 0 0 0 0 0 0 0 0 0 0 0 0 0 0 0 0 0 0 0 0 0 0 0 0 0 0 0 0 0 0 0 0 0 0 0 0 0 0 0 0 0 0 0 0 0 0 0 0 0 0 0 0 0 0 0 0 0 0 0 0 0 0 0 0 0 0 0 0 0 0 0 0 
0 0 0 0 0 0 0 0 0 0 0 0 0 0 0 0 0 0 0 0 0 0 0 0 0 0 0 0 0 0 0 0 0 0 0 0 0 0 0 0 0 0 0 0 0 0 0 0 0 0 0 0 0 0 0 0 0 0 0 0 0 0 0 0 0 0 0 0 0 0 0 0 0 0 0 0 0 0 0 0 0 0 0 0 0 0 0 0 0 0 0 0 0 0 0 0 0 0 0 0 0 0 0 0 0 0 0 0 1 106 255 255 145 170 193 185 181 186 195 192 189 195 197 200 193 187 192 179 189 211 209 204 190 182 143 110 159 186 200 181 185 183 171 179 179 169 168 177 184 191 179 120 216 213 120 221 121 129 167 159 141 112 125 145 177 168 140 130 110 89 139 184 154 150 152 152 134 173 225 160 113 157 224 204 225 228 195 178 158 156 174 208 250 234 198 186 124 148 169 167 164 141 116 65 33 48 55 23 0 4 8 26 23 18 57 47 54 98 124 124 116 106 124 139 147 174 182 171 179 194 182 169 178 194 188 179 200 213 204 212 224 247 255 255 255 0 0 0 0 0 0 0 0 0 0 0 0 0 0 0 0 0 0 0 0 0 0 0 0 0 0 0 0 0 0 0 0 0 0 0 0 0 0 0 0 0 0 0 0 0 0 0 0 0 0 0 0 0 0 0 0 0 0 0 0 0 0 0 0 0 0 0 0 0 0 0 0 0 0 0 0 0 0 0 0 0 0 0 0 0 0 0 0 0 0 0 0 0 0 0 0 0 0 0 0 0 0 0 0 0 0 0 0 0 0 0 0 0 0 
0 0 0 0 0 0 0 0 0 0 0 0 0 0 0 0 0 0 0 0 0 0 0 0 0 0 0 0 0 0 0 0 0 0 0 0 0 0 0 0 0 0 0 0 0 0 0 0 0 0 0 0 0 0 0 0 0 0 0 0 0 0 0 0 0 0 0 0 0 0 0 0 0 0 0 0 0 0 0 0 0 0 0 0 0 0 0 0 0 0 0 0 0 0 0 0 0 0 0 0 0 0 0 0 0 0 0 0 0 49 255 255 212 153 190 184 190 194 189 186 191 199 199 197 189 183 187 185 196 203 186 166 167 185 151 78 138 224 196 183 182 173 163 177 196 178 159 167 186 195 192 154 200 255 67 112 112 111 158 154 138 120 125 132 163 180 133 115 120 101 149 181 128 116 161 182 206 224 236 185 189 214 255 224 222 218 165 165 123 84 94 138 190 167 94 85 31 17 28 0 5 0 0 0 0 0 0 0 7 51 99 123 140 154 184 210 211 228 225 195 202 203 194 212 208 202 204 175 201 255 212 163 171 188 208 208 246 255 238 189 160 143 178 243 242 73 0 0 0 0 0 0 0 0 0 0 0 0 0 0 0 0 0 0 0 0 0 0 0 0 0 0 0 0 0 0 0 0 0 0 0 0 0 0 0 0 0 0 0 0 0 0 0 0 0 0 0 0 0 0 0 0 0 0 0 0 0 0 0 0 0 0 0 0 0 0 0 0 0 0 0 0 0 0 0 0 0 0 0 0 0 0 0 0 0 0 0 0 0 0 0 0 0 0 0 0 0 0 0 0 0 0 0 0 0 0 0 0 0 
0 0 0 0 0 0 0 0 0 0 0 0 0 0 0 0 0 0 0 0 0 0 0 0 0 0 0 0 0 0 0 0 0 0 0 0 0 0 0 0 0 0 0 0 0 0 0 0 0 0 0 0 0 0 0 0 0 0 0 0 0 0 0 0 0 0 0 0 0 0 0 0 0 0 0 0 0 0 0 0 0 0 0 0 0 0 0 0 0 0 0 0 0 0 0 0 0 0 0 0 0 0 0 0 0 0 0 0 0 13 226 255 255 140 179 184 196 201 177 169 192 196 189 190 188 182 184 181 178 171 159 149 168 194 182 110 137 233 214 205 188 164 165 185 204 188 172 181 183 191 196 177 146 233 62 12 153 135 150 146 140 137 127 110 122 149 114 121 150 153 173 175 135 121 158 203 239 237 220 169 153 160 165 138 104 88 25 5 0 0 0 8 0 0 0 0 0 0 32 20 43 64 96 132 142 189 215 225 211 240 255 253 248 255 243 244 223 207 207 196 221 245 221 206 213 170 205 250 246 255 213 164 228 213 183 155 132 184 178 157 180 180 153 157 216 128 0 0 0 0 0 0 0 0 0 0 0 0 0 0 0 0 0 0 0 0 0 0 0 0 0 0 0 0 0 0 0 0 0 0 0 0 0 0 0 0 0 0 0 0 0 0 0 0 0 0 0 0 0 0 0 0 0 0 0 0 0 0 0 0 0 0 0 0 0 0 0 0 0 0 0 0 0 0 0 0 0 0 0 0 0 0 0 0 0 0 0 0 0 0 0 0 0 0 0 0 0 0 0 0 0 0 0 0 0 0 0 0 0 
0 0 0 0 0 0 0 0 0 0 0 0 0 0 0 0 0 0 0 0 0 0 0 0 0 0 0 0 0 0 0 0 0 0 0 0 0 0 0 0 0 0 0 0 0 0 0 0 0 0 0 0 0 0 0 0 0 0 0 0 0 0 0 0 0 0 0 0 0 0 0 0 0 0 0 0 0 0 0 0 0 0 0 0 0 0 0 0 0 0 0 0 0 0 0 0 0 0 0 0 0 0 0 0 0 0 0 0 0 1 112 255 255 132 150 190 203 190 169 170 199 191 177 188 192 189 185 185 184 161 147 167 188 204 200 130 81 185 244 209 186 164 171 192 192 179 170 184 183 190 190 188 143 183 136 0 177 187 133 134 148 148 126 118 121 135 128 129 129 145 176 163 149 158 143 156 127 57 33 35 8 3 0 0 0 0 0 0 0 0 47 87 56 9 21 41 48 116 206 232 236 242 250 249 240 255 255 255 255 255 255 238 239 255 255 221 184 178 181 160 165 172 166 141 158 140 157 229 195 200 147 125 214 228 186 152 111 142 137 122 184 196 133 158 255 216 0 0 0 0 0 0 0 0 0 0 0 0 0 0 0 0 0 0 0 0 0 0 0 0 0 0 0 0 0 0 0 0 0 0 0 0 0 0 0 0 0 0 0 0 0 0 0 0 0 0 0 0 0 0 0 0 0 0 0 0 0 0 0 0 0 0 0 0 0 0 0 0 0 0 0 0 0 0 0 0 0 0 0 0 0 0 0 0 0 0 0 0 0 0 0 0 0 0 0 0 0 0 0 0 0 0 0 0 0 0 0 0 0 
0 0 0 0 0 0 0 0 0 0 0 0 0 0 0 0 0 0 0 0 0 0 0 0 0 0 0 0 0 0 0 0 0 0 0 0 0 0 0 0 0 0 0 0 0 0 0 0 0 0 0 0 0 0 0 0 0 0 0 0 0 0 0 0 0 0 0 0 0 0 0 0 0 0 0 0 0 0 0 0 0 0 0 0 0 0 0 0 0 0 0 0 0 0 0 0 0 0 0 0 0 0 0 0 0 0 0 0 0 0 49 255 255 193 156 206 203 183 169 181 204 195 186 199 197 186 182 184 190 174 165 193 204 201 200 157 59 131 251 211 176 164 173 184 174 175 165 169 182 186 188 189 162 121 152 0 119 209 93 123 176 170 139 126 122 130 142 143 126 129 148 136 143 149 112 68 5 0 0 0 0 14 37 38 65 96 88 135 186 199 215 227 227 200 196 210 195 229 255 242 192 205 217 220 224 249 246 231 236 248 223 144 150 224 212 168 152 150 167 152 124 129 145 136 177 208 190 229 153 171 163 123 144 152 130 127 144 171 173 138 178 157 87 151 255 255 66 0 0 0 0 0 0 0 0 0 0 0 0 0 0 0 0 0 0 0 0 0 0 0 0 0 0 0 0 0 0 0 0 0 0 0 0 0 0 0 0 0 0 0 0 0 0 0 0 0 0 0 0 0 0 0 0 0 0 0 0 0 0 0 0 0 0 0 0 0 0 0 0 0 0 0 0 0 0 0 0 0 0 0 0 0 0 0 0 0 0 0 0 0 0 0 0 0 0 0 0 0 0 0 0 0 0 0 0 0 0 0 0 
0 0 0 0 0 0 0 0 0 0 0 0 0 0 0 0 0 0 0 0 0 0 0 0 0 0 0 0 0 0 0 0 0 0 0 0 0 0 0 0 0 0 0 0 0 0 0 0 0 0 0 0 0 0 0 0 0 0 0 0 0 0 0 0 0 0 0 0 0 0 0 0 0 0 0 0 0 0 0 0 0 0 0 0 0 0 0 0 0 0 0 0 0 0 0 0 0 0 0 0 0 0 0 0 0 0 0 0 0 0 11 224 255 255 160 205 194 184 183 186 190 195 193 192 188 175 176 174 179 175 182 207 212 200 207 172 72 77 227 232 169 172 187 186 175 184 188 171 179 185 187 193 185 87 111 42 49 213 95 104 178 159 133 132 116 128 147 153 143 134 162 213 227 249 248 118 43 71 132 150 161 173 201 222 211 187 161 217 255 255 255 240 221 217 217 250 246 237 255 222 142 159 178 147 197 237 195 158 158 163 179 134 169 221 180 133 153 132 158 191 152 136 167 156 197 241 197 214 204 185 194 164 186 179 152 89 122 179 159 110 104 116 93 164 251 255 150 0 0 0 0 0 0 0 0 0 0 0 0 0 0 0 0 0 0 0 0 0 0 0 0 0 0 0 0 0 0 0 0 0 0 0 0 0 0 0 0 0 0 0 0 0 0 0 0 0 0 0 0 0 0 0 0 0 0 0 0 0 0 0 0 0 0 0 0 0 0 0 0 0 0 0 0 0 0 0 0 0 0 0 0 0 0 0 0 0 0 0 0 0 0 0 0 0 0 0 0 0 0 0 0 0 0 0 0 0 0 0 0 
0 0 0 0 0 0 0 0 0 0 0 0 0 0 0 0 0 0 0 0 0 0 0 0 0 0 0 0 0 0 0 0 0 0 0 0 0 0 0 0 0 0 0 0 0 0 0 0 0 0 0 0 0 0 0 0 0 0 0 0 0 0 0 0 0 0 0 0 0 0 0 0 0 0 0 0 0 0 0 0 0 0 0 0 0 0 0 0 0 0 0 0 0 0 0 0 0 0 0 0 0 0 0 0 0 0 0 0 0 0 0 112 255 255 158 172 191 187 185 188 187 198 189 177 177 175 180 179 175 192 182 191 201 193 198 176 124 133 255 255 192 183 185 174 172 190 187 172 177 175 175 191 192 114 106 140 53 211 149 109 164 130 110 132 131 153 167 161 151 138 222 255 255 255 255 188 22 133 219 224 219 214 215 248 217 171 184 255 255 229 184 185 177 197 201 194 209 199 208 198 168 185 188 126 183 219 168 153 176 186 195 171 183 238 212 150 160 162 174 193 165 142 171 153 164 222 175 155 189 182 202 175 179 205 208 134 161 217 158 107 123 166 181 208 226 239 206 0 0 0 0 0 0 0 0 0 0 0 0 0 0 0 0 0 0 0 0 0 0 0 0 0 0 0 0 0 0 0 0 0 0 0 0 0 0 0 0 0 0 0 0 0 0 0 0 0 0 0 0 0 0 0 0 0 0 0 0 0 0 0 0 0 0 0 0 0 0 0 0 0 0 0 0 0 0 0 0 0 0 0 0 0 0 0 0 0 0 0 0 0 0 0 0 0 0 0 0 0 0 0 0 0 0 0 0 0 0 0 0 
0 0 0 0 0 0 0 0 0 0 0 0 0 0 0 0 0 0 0 0 0 0 0 0 0 0 0 0 0 0 0 0 0 0 0 0 0 0 0 0 0 0 0 0 0 0 0 0 0 0 0 0 0 0 0 0 0 0 0 0 0 0 0 0 0 0 0 0 0 0 0 0 0 0 0 0 0 0 0 0 0 0 0 0 0 0 0 0 0 0 0 0 0 0 0 0 0 0 0 0 0 0 0 0 0 0 0 0 0 0 0 50 255 255 203 154 191 186 182 183 186 191 185 171 178 185 199 190 184 201 182 168 178 182 177 178 180 216 255 255 206 179 169 159 164 187 181 173 178 179 185 196 196 145 97 155 67 170 211 108 153 151 134 153 155 171 178 171 185 237 255 255 255 93 195 122 0 128 244 220 181 182 177 211 170 138 200 255 255 131 82 131 165 184 182 139 155 173 198 222 173 147 148 142 216 244 181 154 162 200 200 187 161 176 181 155 164 188 210 207 201 186 187 206 207 240 226 181 165 175 198 180 165 186 185 132 155 207 173 158 172 232 255 179 163 188 205 88 0 0 0 0 0 0 0 0 0 0 0 0 0 0 0 0 0 0 0 0 0 0 0 0 0 0 0 0 0 0 0 0 0 0 0 0 0 0 0 0 0 0 0 0 0 0 0 0 0 0 0 0 0 0 0 0 0 0 0 0 0 0 0 0 0 0 0 0 0 0 0 0 0 0 0 0 0 0 0 0 0 0 0 0 0 0 0 0 0 0 0 0 0 0 0 0 0 0 0 0 0 0 0 0 0 0 0 0 0 0 0 
0 0 0 0 0 0 0 0 0 0 0 0 0 0 0 0 0 0 0 0 0 0 0 0 0 0 0 0 0 0 0 0 0 0 0 0 0 0 0 0 0 0 0 0 0 0 0 0 0 0 0 0 0 0 0 0 0 0 0 0 0 0 0 0 0 0 0 0 0 0 0 0 0 0 0 0 0 0 0 0 0 0 0 0 0 0 0 0 0 0 0 0 0 0 0 0 0 0 0 0 0 0 0 0 0 0 0 0 0 0 0 10 243 255 255 136 182 186 175 185 194 180 171 166 180 193 192 173 186 196 182 160 181 189 177 190 194 147 125 156 169 169 163 171 165 183 180 163 178 176 178 197 201 171 105 147 108 122 225 112 132 160 147 166 177 164 146 171 255 255 255 255 168 24 124 180 0 79 235 195 154 173 161 148 145 159 233 226 149 58 91 161 174 182 192 178 170 173 186 227 172 93 109 170 207 229 160 132 128 184 203 190 128 78 118 179 204 217 201 200 209 170 118 187 234 229 225 201 188 189 189 180 153 122 148 142 138 180 164 161 143 178 235 150 97 164 214 170 0 0 0 0 0 0 0 0 0 0 0 0 0 0 0 0 0 0 0 0 0 0 0 0 0 0 0 0 0 0 0 0 0 0 0 0 0 0 0 0 0 0 0 0 0 0 0 0 0 0 0 0 0 0 0 0 0 0 0 0 0 0 0 0 0 0 0 0 0 0 0 0 0 0 0 0 0 0 0 0 0 0 0 0 0 0 0 0 0 0 0 0 0 0 0 0 0 0 0 0 0 0 0 0 0 0 0 0 0 0 0 
0 0 0 0 0 0 0 0 0 0 0 0 0 0 0 0 0 0 0 0 0 0 0 0 0 0 0 0 0 0 0 0 0 0 0 0 0 0 0 0 0 0 0 0 0 0 0 0 0 0 0 0 0 0 0 0 0 0 0 0 0 0 0 0 0 0 0 0 0 0 0 0 0 0 0 0 0 0 0 0 0 0 0 0 0 0 0 0 0 0 0 0 0 0 0 0 0 0 0 0 0 0 0 0 0 0 0 0 0 0 0 0 125 255 255 143 177 189 176 181 197 177 167 181 196 195 176 176 181 192 184 166 186 204 192 198 201 112 3 83 208 198 176 184 178 179 169 153 177 181 175 191 206 189 128 156 164 86 206 152 125 167 149 148 158 130 155 255 255 255 255 174 132 65 86 249 11 18 232 193 146 182 172 126 142 183 220 152 99 132 189 199 180 166 152 162 157 111 130 190 150 105 178 240 207 158 94 119 170 216 204 149 114 105 164 234 254 239 173 183 208 168 128 178 216 186 157 155 134 162 156 134 126 86 145 188 198 212 141 145 173 180 226 159 106 245 255 255 42 0 0 0 0 0 0 0 0 0 0 0 0 0 0 0 0 0 0 0 0 0 0 0 0 0 0 0 0 0 0 0 0 0 0 0 0 0 0 0 0 0 0 0 0 0 0 0 0 0 0 0 0 0 0 0 0 0 0 0 0 0 0 0 0 0 0 0 0 0 0 0 0 0 0 0 0 0 0 0 0 0 0 0 0 0 0 0 0 0 0 0 0 0 0 0 0 0 0 0 0 0 0 0 0 0 0 0 0 0 0 
0 0 0 0 0 0 0 0 0 0 0 0 0 0 0 0 0 0 0 0 0 0 0 0 0 0 0 0 0 0 0 0 0 0 0 0 0 0 0 0 0 0 0 0 0 0 0 0 0 0 0 0 0 0 0 0 0 0 0 0 0 0 0 0 0 0 0 0 0 0 0 0 0 0 0 0 0 0 0 0 0 0 0 0 0 0 0 0 0 0 0 0 0 0 0 0 0 0 0 0 0 0 0 0 0 0 0 0 0 0 0 0 40 255 255 207 173 199 183 185 194 185 191 201 201 196 189 202 192 181 182 170 185 209 190 194 194 151 93 178 255 215 176 179 180 182 187 178 195 205 190 194 209 201 155 149 203 90 149 188 128 154 136 127 134 147 255 255 255 255 172 136 158 124 58 217 94 0 227 221 146 165 171 131 142 176 174 103 98 213 213 149 127 137 126 129 118 73 124 147 130 140 199 224 187 175 155 186 237 228 244 221 207 219 255 255 255 197 137 169 217 199 181 198 202 192 163 174 162 151 170 160 190 165 180 212 233 240 132 118 205 207 180 148 135 250 255 246 107 0 0 0 0 0 0 0 0 0 0 0 0 0 0 0 0 0 0 0 0 0 0 0 0 0 0 0 0 0 0 0 0 0 0 0 0 0 0 0 0 0 0 0 0 0 0 0 0 0 0 0 0 0 0 0 0 0 0 0 0 0 0 0 0 0 0 0 0 0 0 0 0 0 0 0 0 0 0 0 0 0 0 0 0 0 0 0 0 0 0 0 0 0 0 0 0 0 0 0 0 0 0 0 0 0 0 0 0 0 0 
0 0 0 0 0 0 0 0 0 0 0 0 0 0 0 0 0 0 0 0 0 0 0 0 0 0 0 0 0 0 0 0 0 0 0 0 0 0 0 0 0 0 0 0 0 0 0 0 0 0 0 0 0 0 0 0 0 0 0 0 0 0 0 0 0 0 0 0 0 0 0 0 0 0 0 0 0 0 0 0 0 0 0 0 0 0 0 0 0 0 0 0 0 0 0 0 0 0 0 0 0 0 0 0 0 0 0 0 0 0 0 0 4 132 255 255 154 182 186 186 178 185 194 186 185 196 196 199 185 179 187 173 184 198 185 184 187 184 169 192 248 204 155 174 178 174 191 197 193 192 179 180 201 206 182 130 195 125 67 169 103 106 104 102 180 255 255 255 255 157 133 138 149 141 48 137 193 0 181 255 191 182 198 144 149 175 175 145 158 233 203 111 95 139 177 183 161 109 143 148 170 189 190 185 180 207 197 226 255 216 240 255 255 234 216 239 186 97 96 150 202 170 153 171 172 196 175 173 186 160 194 223 232 216 200 217 224 197 137 152 216 168 110 134 169 226 254 216 150 0 0 0 0 0 0 0 0 0 0 0 0 0 0 0 0 0 0 0 0 0 0 0 0 0 0 0 0 0 0 0 0 0 0 0 0 0 0 0 0 0 0 0 0 0 0 0 0 0 0 0 0 0 0 0 0 0 0 0 0 0 0 0 0 0 0 0 0 0 0 0 0 0 0 0 0 0 0 0 0 0 0 0 0 0 0 0 0 0 0 0 0 0 0 0 0 0 0 0 0 0 0 0 0 0 0 0 0 0 0 
0 0 0 0 0 0 0 0 0 0 0 0 0 0 0 0 0 0 0 0 0 0 0 0 0 0 0 0 0 0 0 0 0 0 0 0 0 0 0 0 0 0 0 0 0 0 0 0 0 0 0 0 0 0 0 0 0 0 0 0 0 0 0 0 0 0 0 0 0 0 0 0 0 0 0 0 0 0 0 0 0 0 0 0 0 0 0 0 0 0 0 0 0 0 0 0 0 0 0 0 0 0 0 0 0 0 0 0 0 0 0 0 0 64 255 255 171 162 188 186 183 190 190 178 177 196 190 185 182 190 200 187 182 194 194 187 189 184 179 196 220 207 173 184 172 156 169 164 152 165 174 178 205 212 194 128 150 176 18 105 93 53 75 175 255 255 255 255 161 120 134 147 158 169 98 83 244 32 89 255 220 200 221 166 169 193 201 214 210 228 204 143 154 211 239 223 200 172 173 180 222 236 198 188 205 201 175 194 224 201 201 192 180 144 118 132 118 50 107 172 180 160 160 145 117 136 150 133 142 150 208 217 182 172 185 199 209 147 119 146 173 132 133 171 204 194 197 233 213 34 0 0 0 0 0 0 0 0 0 0 0 0 0 0 0 0 0 0 0 0 0 0 0 0 0 0 0 0 0 0 0 0 0 0 0 0 0 0 0 0 0 0 0 0 0 0 0 0 0 0 0 0 0 0 0 0 0 0 0 0 0 0 0 0 0 0 0 0 0 0 0 0 0 0 0 0 0 0 0 0 0 0 0 0 0 0 0 0 0 0 0 0 0 0 0 0 0 0 0 0 0 0 0 0 0 0 0 0 0 
0 0 0 0 0 0 0 0 0 0 0 0 0 0 0 0 0 0 0 0 0 0 0 0 0 0 0 0 0 0 0 0 0 0 0 0 0 0 0 0 0 0 0 0 0 0 0 0 0 0 0 0 0 0 0 0 0 0 0 0 0 0 0 0 0 0 0 0 0 0 0 0 0 0 0 0 0 0 0 0 0 0 0 0 0 0 0 0 0 0 0 0 0 0 0 0 0 0 0 0 0 0 0 0 0 0 0 0 0 0 0 0 0 31 255 255 255 154 194 192 190 199 201 192 181 191 192 186 188 192 194 176 177 200 202 184 176 180 168 195 208 188 196 193 165 152 177 178 180 190 191 191 203 209 196 161 128 221 94 28 68 53 185 255 255 255 245 149 144 139 144 176 184 189 143 56 210 129 5 255 243 156 162 147 170 194 208 218 199 189 183 179 195 222 193 164 149 135 141 181 239 255 224 232 192 174 176 189 190 169 188 159 133 122 107 133 165 124 171 213 171 179 206 195 162 169 164 111 144 194 255 213 145 186 209 186 206 176 160 106 72 124 210 238 225 177 156 203 200 64 0 0 0 0 0 0 0 0 0 0 0 0 0 0 0 0 0 0 0 0 0 0 0 0 0 0 0 0 0 0 0 0 0 0 0 0 0 0 0 0 0 0 0 0 0 0 0 0 0 0 0 0 0 0 0 0 0 0 0 0 0 0 0 0 0 0 0 0 0 0 0 0 0 0 0 0 0 0 0 0 0 0 0 0 0 0 0 0 0 0 0 0 0 0 0 0 0 0 0 0 0 0 0 0 0 0 0 0 0 
0 0 0 0 0 0 0 0 0 0 0 0 0 0 0 0 0 0 0 0 0 0 0 0 0 0 0 0 0 0 0 0 0 0 0 0 0 0 0 0 0 0 0 0 0 0 0 0 0 0 0 0 0 0 0 0 0 0 0 0 0 0 0 0 0 0 0 0 0 0 0 0 0 0 0 0 0 0 0 0 0 0 0 0 0 0 0 0 0 0 0 0 0 0 0 0 0 0 0 0 0 0 0 0 0 0 0 0 0 0 0 0 0 7 255 255 255 148 186 191 177 180 195 194 182 190 197 188 188 184 185 169 166 195 197 175 172 187 172 180 186 149 186 204 179 180 196 193 192 207 200 193 191 201 201 195 151 188 167 20 120 251 255 255 255 221 136 138 161 162 161 192 183 163 145 60 136 201 0 225 255 128 117 130 148 169 171 165 162 150 153 163 166 151 126 108 102 94 123 183 234 240 207 216 183 150 167 213 194 162 208 195 194 207 163 165 197 167 179 213 160 187 218 212 201 227 218 160 178 249 254 180 142 207 189 141 178 202 191 115 60 152 227 203 168 157 156 188 207 123 0 0 0 0 0 0 0 0 0 0 0 0 0 0 0 0 0 0 0 0 0 0 0 0 0 0 0 0 0 0 0 0 0 0 0 0 0 0 0 0 0 0 0 0 0 0 0 0 0 0 0 0 0 0 0 0 0 0 0 0 0 0 0 0 0 0 0 0 0 0 0 0 0 0 0 0 0 0 0 0 0 0 0 0 0 0 0 0 0 0 0 0 0 0 0 0 0 0 0 0 0 0 0 0 0 0 0 0 0 
0 0 0 0 0 0 0 0 0 0 0 0 0 0 0 0 0 0 0 0 0 0 0 0 0 0 0 0 0 0 0 0 0 0 0 0 0 0 0 0 0 0 0 0 0 0 0 0 0 0 0 0 0 0 0 0 0 0 0 0 0 0 0 0 0 0 0 0 0 0 0 0 0 0 0 0 0 0 0 0 0 0 0 0 0 0 0 0 0 0 0 0 0 0 0 0 0 0 0 0 0 0 0 0 0 0 0 0 0 0 0 0 0 0 162 255 255 156 169 191 179 181 194 191 180 192 196 186 191 186 188 183 179 201 197 176 180 197 181 159 190 167 173 198 183 180 172 163 156 181 175 176 185 202 206 196 163 139 171 143 255 255 255 255 206 140 154 159 173 184 179 190 184 171 181 118 84 211 28 113 255 162 113 144 136 156 166 135 147 143 126 141 134 111 138 145 142 161 167 200 237 212 166 161 183 182 172 193 177 166 216 213 185 214 175 127 184 200 184 203 157 192 215 171 167 186 180 194 205 204 131 103 123 169 138 117 168 172 138 112 132 178 191 164 129 148 194 193 210 187 46 0 0 0 0 0 0 0 0 0 0 0 0 0 0 0 0 0 0 0 0 0 0 0 0 0 0 0 0 0 0 0 0 0 0 0 0 0 0 0 0 0 0 0 0 0 0 0 0 0 0 0 0 0 0 0 0 0 0 0 0 0 0 0 0 0 0 0 0 0 0 0 0 0 0 0 0 0 0 0 0 0 0 0 0 0 0 0 0 0 0 0 0 0 0 0 0 0 0 0 0 0 0 0 0 0 0 0 0 
0 0 0 0 0 0 0 0 0 0 0 0 0 0 0 0 0 0 0 0 0 0 0 0 0 0 0 0 0 0 0 0 0 0 0 0 0 0 0 0 0 0 0 0 0 0 0 0 0 0 0 0 0 0 0 0 0 0 0 0 0 0 0 0 0 0 0 0 0 0 0 0 0 0 0 0 0 0 0 0 0 0 0 0 0 0 0 0 0 0 0 0 0 0 0 0 0 0 0 0 0 0 0 0 0 0 0 0 0 0 0 0 0 0 66 255 255 189 137 189 187 197 204 194 176 181 193 184 191 190 189 186 183 195 197 181 186 195 176 147 160 153 141 179 184 168 156 159 172 184 173 169 183 200 209 187 157 146 203 255 255 255 255 192 134 163 172 161 178 187 173 179 195 204 206 152 61 184 124 31 255 226 93 126 128 140 154 144 176 175 118 135 147 118 151 148 141 210 205 181 207 169 121 160 176 176 172 144 146 175 232 212 130 123 112 81 161 213 207 212 148 151 184 146 171 181 144 168 181 152 92 112 178 193 164 167 195 209 169 135 176 171 170 252 223 185 225 175 189 218 138 0 0 0 0 0 0 0 0 0 0 0 0 0 0 0 0 0 0 0 0 0 0 0 0 0 0 0 0 0 0 0 0 0 0 0 0 0 0 0 0 0 0 0 0 0 0 0 0 0 0 0 0 0 0 0 0 0 0 0 0 0 0 0 0 0 0 0 0 0 0 0 0 0 0 0 0 0 0 0 0 0 0 0 0 0 0 0 0 0 0 0 0 0 0 0 0 0 0 0 0 0 0 0 0 0 0 0 0 
0 0 0 0 0 0 0 0 0 0 0 0 0 0 0 0 0 0 0 0 0 0 0 0 0 0 0 0 0 0 0 0 0 0 0 0 0 0 0 0 0 0 0 0 0 0 0 0 0 0 0 0 0 0 0 0 0 0 0 0 0 0 0 0 0 0 0 0 0 0 0 0 0 0 0 0 0 0 0 0 0 0 0 0 0 0 0 0 0 0 0 0 0 0 0 0 0 0 0 0 0 0 0 0 0 0 0 0 0 0 0 0 0 0 12 255 255 255 125 183 192 197 193 183 179 181 199 193 191 187 180 176 170 174 177 167 164 166 166 149 84 60 101 166 179 170 169 183 200 194 197 182 185 198 205 190 178 189 238 255 255 226 155 145 159 171 171 165 183 183 165 169 183 192 182 159 68 131 207 14 235 255 70 113 144 157 151 147 163 160 124 152 195 148 125 119 109 169 191 156 189 157 115 158 170 150 156 134 178 217 253 195 132 144 162 171 199 210 212 237 169 142 194 177 176 209 187 165 164 180 196 203 255 255 215 232 251 239 202 162 187 186 177 255 255 182 199 176 194 228 175 20 0 0 0 0 0 0 0 0 0 0 0 0 0 0 0 0 0 0 0 0 0 0 0 0 0 0 0 0 0 0 0 0 0 0 0 0 0 0 0 0 0 0 0 0 0 0 0 0 0 0 0 0 0 0 0 0 0 0 0 0 0 0 0 0 0 0 0 0 0 0 0 0 0 0 0 0 0 0 0 0 0 0 0 0 0 0 0 0 0 0 0 0 0 0 0 0 0 0 0 0 0 0 0 0 0 0 0 
0 0 0 0 0 0 0 0 0 0 0 0 0 0 0 0 0 0 0 0 0 0 0 0 0 0 0 0 0 0 0 0 0 0 0 0 0 0 0 0 0 0 0 0 0 0 0 0 0 0 0 0 0 0 0 0 0 0 0 0 0 0 0 0 0 0 0 0 0 0 0 0 0 0 0 0 0 0 0 0 0 0 0 0 0 0 0 0 0 0 0 0 0 0 0 0 0 0 0 0 0 0 0 0 0 0 0 0 0 0 0 0 0 0 0 153 255 255 150 182 202 192 186 181 186 182 188 191 181 174 172 168 173 179 173 167 160 156 164 155 90 83 182 209 189 189 184 177 184 180 203 195 180 196 203 198 197 213 222 230 211 162 128 156 177 167 169 169 172 182 175 171 165 167 181 179 106 75 219 50 113 255 109 118 166 178 178 173 165 118 101 164 218 160 135 173 167 158 159 157 205 189 151 171 184 171 162 132 148 212 230 187 159 197 239 242 231 231 231 222 183 177 213 200 200 247 255 218 191 214 255 255 245 225 188 212 233 190 167 153 204 217 163 174 195 156 152 155 161 208 214 172 0 0 0 0 0 0 0 0 0 0 0 0 0 0 0 0 0 0 0 0 0 0 0 0 0 0 0 0 0 0 0 0 0 0 0 0 0 0 0 0 0 0 0 0 0 0 0 0 0 0 0 0 0 0 0 0 0 0 0 0 0 0 0 0 0 0 0 0 0 0 0 0 0 0 0 0 0 0 0 0 0 0 0 0 0 0 0 0 0 0 0 0 0 0 0 0 0 0 0 0 0 0 0 0 0 0 0 
0 0 0 0 0 0 0 0 0 0 0 0 0 0 0 0 0 0 0 0 0 0 0 0 0 0 0 0 0 0 0 0 0 0 0 0 0 0 0 0 0 0 0 0 0 0 0 0 0 0 0 0 0 0 0 0 0 0 0 0 0 0 0 0 0 0 0 0 0 0 0 0 0 0 0 0 0 0 0 0 0 0 0 0 0 0 0 0 0 0 0 0 0 0 0 0 0 0 0 0 0 0 0 0 0 0 0 0 0 0 0 0 0 0 0 63 255 255 199 162 185 181 191 187 186 175 160 171 172 170 169 171 179 189 191 187 171 164 176 176 143 180 255 236 211 206 179 164 175 183 190 189 173 195 213 203 196 195 187 185 188 178 151 164 194 165 167 177 156 164 173 157 154 166 191 203 160 58 175 128 41 255 209 120 153 159 188 197 187 155 128 163 181 153 155 178 170 151 155 161 177 170 172 198 206 191 160 127 135 178 189 192 185 174 186 201 194 202 215 180 158 151 188 203 211 243 255 248 155 188 251 189 168 181 183 160 147 137 154 163 195 183 127 110 113 139 154 139 115 158 210 211 0 0 0 0 0 0 0 0 0 0 0 0 0 0 0 0 0 0 0 0 0 0 0 0 0 0 0 0 0 0 0 0 0 0 0 0 0 0 0 0 0 0 0 0 0 0 0 0 0 0 0 0 0 0 0 0 0 0 0 0 0 0 0 0 0 0 0 0 0 0 0 0 0 0 0 0 0 0 0 0 0 0 0 0 0 0 0 0 0 0 0 0 0 0 0 0 0 0 0 0 0 0 0 0 0 0 0 
0 0 0 0 0 0 0 0 0 0 0 0 0 0 0 0 0 0 0 0 0 0 0 0 0 0 0 0 0 0 0 0 0 0 0 0 0 0 0 0 0 0 0 0 0 0 0 0 0 0 0 0 0 0 0 0 0 0 0 0 0 0 0 0 0 0 0 0 0 0 0 0 0 0 0 0 0 0 0 0 0 0 0 0 0 0 0 0 0 0 0 0 0 0 0 0 0 0 0 0 0 0 0 0 0 0 0 0 0 0 0 0 0 0 0 11 255 255 255 134 162 177 184 176 179 187 177 181 185 176 170 175 183 194 188 177 167 166 185 203 177 199 248 221 204 201 176 179 190 203 185 178 186 208 217 203 186 188 175 166 183 182 160 174 188 163 164 191 177 164 175 167 173 195 215 224 182 64 106 180 8 241 255 96 119 156 193 180 149 168 168 170 156 146 177 160 109 139 191 180 149 162 186 195 183 175 150 150 196 214 190 184 205 190 164 193 197 176 191 181 188 125 112 206 226 228 206 191 113 159 251 142 104 176 217 156 123 157 175 167 171 157 124 134 136 178 182 154 140 124 113 99 0 0 0 0 0 0 0 0 0 0 0 0 0 0 0 0 0 0 0 0 0 0 0 0 0 0 0 0 0 0 0 0 0 0 0 0 0 0 0 0 0 0 0 0 0 0 0 0 0 0 0 0 0 0 0 0 0 0 0 0 0 0 0 0 0 0 0 0 0 0 0 0 0 0 0 0 0 0 0 0 0 0 0 0 0 0 0 0 0 0 0 0 0 0 0 0 0 0 0 0 0 0 0 0 0 0 0 
0 0 0 0 0 0 0 0 0 0 0 0 0 0 0 0 0 0 0 0 0 0 0 0 0 0 0 0 0 0 0 0 0 0 0 0 0 0 0 0 0 0 0 0 0 0 0 0 0 0 0 0 0 0 0 0 0 0 0 0 0 0 0 0 0 0 0 0 0 0 0 0 0 0 0 0 0 0 0 0 0 0 0 0 0 0 0 0 0 0 0 0 0 0 0 0 0 0 0 0 0 0 0 0 0 0 0 0 0 0 0 0 0 0 0 0 144 255 255 134 155 182 171 169 185 199 193 205 210 182 177 192 198 194 179 164 164 176 196 210 184 179 225 197 180 187 180 182 178 184 197 197 214 217 210 196 178 197 180 166 198 194 160 177 184 178 172 181 177 152 176 193 188 201 222 219 191 98 51 187 50 126 255 114 105 160 176 135 102 135 153 161 155 169 190 158 131 176 213 206 205 237 201 153 141 179 173 202 229 210 174 138 191 216 172 206 215 154 165 176 165 110 81 188 208 191 143 154 145 149 218 132 90 178 205 183 129 156 149 148 174 170 145 176 218 246 235 188 163 140 121 135 149 0 0 0 0 0 0 0 0 0 0 0 0 0 0 0 0 0 0 0 0 0 0 0 0 0 0 0 0 0 0 0 0 0 0 0 0 0 0 0 0 0 0 0 0 0 0 0 0 0 0 0 0 0 0 0 0 0 0 0 0 0 0 0 0 0 0 0 0 0 0 0 0 0 0 0 0 0 0 0 0 0 0 0 0 0 0 0 0 0 0 0 0 0 0 0 0 0 0 0 0 0 0 0 0 0 0 
0 0 0 0 0 0 0 0 0 0 0 0 0 0 0 0 0 0 0 0 0 0 0 0 0 0 0 0 0 0 0 0 0 0 0 0 0 0 0 0 0 0 0 0 0 0 0 0 0 0 0 0 0 0 0 0 0 0 0 0 0 0 0 0 0 0 0 0 0 0 0 0 0 0 0 0 0 0 0 0 0 0 0 0 0 0 0 0 0 0 0 0 0 0 0 0 0 0 0 0 0 0 0 0 0 0 0 0 0 0 0 0 0 0 0 0 50 255 255 167 140 167 152 180 199 196 184 191 190 185 197 210 203 185 170 173 184 191 195 196 185 186 221 167 137 192 189 161 161 182 209 216 207 201 198 181 170 179 172 172 206 181 164 184 170 170 167 166 175 144 161 188 174 179 187 198 191 133 37 166 147 61 255 161 97 158 160 120 106 128 141 156 174 197 169 138 143 154 185 190 209 255 215 146 134 193 216 227 225 192 136 99 184 240 153 136 176 138 155 168 106 98 147 199 167 145 161 194 219 127 143 161 158 207 201 237 170 111 140 180 189 169 146 192 243 196 170 175 137 126 201 255 255 18 0 0 0 0 0 0 0 0 0 0 0 0 0 0 0 0 0 0 0 0 0 0 0 0 0 0 0 0 0 0 0 0 0 0 0 0 0 0 0 0 0 0 0 0 0 0 0 0 0 0 0 0 0 0 0 0 0 0 0 0 0 0 0 0 0 0 0 0 0 0 0 0 0 0 0 0 0 0 0 0 0 0 0 0 0 0 0 0 0 0 0 0 0 0 0 0 0 0 0 0 0 0 0 0 0 
0 0 0 0 0 0 0 0 0 0 0 0 0 0 0 0 0 0 0 0 0 0 0 0 0 0 0 0 0 0 0 0 0 0 0 0 0 0 0 0 0 0 0 0 0 0 0 0 0 0 0 0 0 0 0 0 0 0 0 0 0 0 0 0 0 0 0 0 0 0 0 0 0 0 0 0 0 0 0 0 0 0 0 0 0 0 0 0 0 0 0 0 0 0 0 0 0 0 0 0 0 0 0 0 0 0 0 0 0 0 0 0 0 0 0 0 7 255 255 253 119 149 159 196 204 187 184 175 166 184 196 193 180 167 171 183 197 205 201 192 193 185 187 150 126 185 185 155 177 208 216 215 185 171 185 180 165 145 154 179 200 163 182 201 159 177 176 161 178 166 159 169 163 181 183 196 197 154 56 102 188 18 204 213 88 131 160 153 147 164 180 178 176 179 149 142 141 98 138 201 166 167 198 169 147 164 205 194 179 147 123 139 240 255 164 112 129 135 181 203 142 121 187 208 169 187 225 236 231 114 98 191 210 208 193 227 198 107 187 254 208 173 180 196 187 123 97 133 149 116 172 252 246 106 0 0 0 0 0 0 0 0 0 0 0 0 0 0 0 0 0 0 0 0 0 0 0 0 0 0 0 0 0 0 0 0 0 0 0 0 0 0 0 0 0 0 0 0 0 0 0 0 0 0 0 0 0 0 0 0 0 0 0 0 0 0 0 0 0 0 0 0 0 0 0 0 0 0 0 0 0 0 0 0 0 0 0 0 0 0 0 0 0 0 0 0 0 0 0 0 0 0 0 0 0 0 0 0 0 
0 0 0 0 0 0 0 0 0 0 0 0 0 0 0 0 0 0 0 0 0 0 0 0 0 0 0 0 0 0 0 0 0 0 0 0 0 0 0 0 0 0 0 0 0 0 0 0 0 0 0 0 0 0 0 0 0 0 0 0 0 0 0 0 0 0 0 0 0 0 0 0 0 0 0 0 0 0 0 0 0 0 0 0 0 0 0 0 0 0 0 0 0 0 0 0 0 0 0 0 0 0 0 0 0 0 0 0 0 0 0 0 0 0 0 0 0 163 255 255 117 156 201 214 196 168 172 165 168 190 190 179 175 163 174 190 195 199 188 174 193 188 160 153 146 185 192 168 192 221 219 204 181 148 154 180 181 163 178 213 196 162 183 180 161 179 189 176 180 169 168 175 182 194 196 198 201 173 102 53 188 63 117 255 104 106 156 192 178 162 172 153 151 181 172 119 131 126 140 174 114 65 164 176 160 166 151 130 128 141 156 194 255 255 193 157 160 189 206 189 148 129 192 210 150 189 242 185 126 94 108 175 163 157 176 186 187 123 184 238 193 177 179 157 137 137 144 163 201 160 141 205 185 127 0 0 0 0 0 0 0 0 0 0 0 0 0 0 0 0 0 0 0 0 0 0 0 0 0 0 0 0 0 0 0 0 0 0 0 0 0 0 0 0 0 0 0 0 0 0 0 0 0 0 0 0 0 0 0 0 0 0 0 0 0 0 0 0 0 0 0 0 0 0 0 0 0 0 0 0 0 0 0 0 0 0 0 0 0 0 0 0 0 0 0 0 0 0 0 0 0 0 0 0 0 0 0 0 0 
0 0 0 0 0 0 0 0 0 0 0 0 0 0 0 0 0 0 0 0 0 0 0 0 0 0 0 0 0 0 0 0 0 0 0 0 0 0 0 0 0 0 0 0 0 0 0 0 0 0 0 0 0 0 0 0 0 0 0 0 0 0 0 0 0 0 0 0 0 0 0 0 0 0 0 0 0 0 0 0 0 0 0 0 0 0 0 0 0 0 0 0 0 0 0 0 0 0 0 0 0 0 0 0 0 0 0 0 0 0 0 0 0 0 0 0 0 50 255 255 148 145 201 200 186 171 179 188 197 207 204 187 187 179 185 190 191 184 164 164 186 185 150 153 137 156 210 204 203 217 212 196 182 147 150 182 191 172 197 235 194 172 171 158 164 166 181 180 172 180 192 191 192 198 192 196 201 169 134 44 153 160 51 249 169 111 144 167 135 118 133 124 132 213 187 82 130 183 168 141 103 101 179 181 137 175 150 123 149 170 190 188 189 185 171 185 197 204 190 168 154 170 232 234 149 117 174 148 91 99 118 181 177 167 177 164 174 151 163 200 155 137 132 154 168 178 158 165 226 163 112 163 134 133 0 0 0 0 0 0 0 0 0 0 0 0 0 0 0 0 0 0 0 0 0 0 0 0 0 0 0 0 0 0 0 0 0 0 0 0 0 0 0 0 0 0 0 0 0 0 0 0 0 0 0 0 0 0 0 0 0 0 0 0 0 0 0 0 0 0 0 0 0 0 0 0 0 0 0 0 0 0 0 0 0 0 0 0 0 0 0 0 0 0 0 0 0 0 0 0 0 0 0 0 0 0 0 0 0 
0 0 0 0 0 0 0 0 0 0 0 0 0 0 0 0 0 0 0 0 0 0 0 0 0 0 0 0 0 0 0 0 0 0 0 0 0 0 0 0 0 0 0 0 0 0 0 0 0 0 0 0 0 0 0 0 0 0 0 0 0 0 0 0 0 0 0 0 0 0 0 0 0 0 0 0 0 0 0 0 0 0 0 0 0 0 0 0 0 0 0 0 0 0 0 0 0 0 0 0 0 0 0 0 0 0 0 0 0 0 0 0 0 0 0 0 0 5 255 255 241 139 193 189 191 190 195 205 198 193 202 191 183 185 191 191 184 177 163 173 189 184 147 156 162 153 202 202 190 208 199 186 172 166 188 212 209 179 184 206 176 167 179 176 182 186 200 188 158 174 179 168 166 178 182 183 182 168 159 80 88 201 31 174 231 132 131 133 110 109 143 153 151 201 155 68 154 219 141 121 155 194 222 220 109 99 135 164 187 174 184 168 150 158 145 168 181 149 142 181 206 196 225 195 137 116 130 149 167 165 148 172 191 172 160 156 175 187 162 195 172 137 114 152 178 135 111 141 172 122 101 146 155 198 121 0 0 0 0 0 0 0 0 0 0 0 0 0 0 0 0 0 0 0 0 0 0 0 0 0 0 0 0 0 0 0 0 0 0 0 0 0 0 0 0 0 0 0 0 0 0 0 0 0 0 0 0 0 0 0 0 0 0 0 0 0 0 0 0 0 0 0 0 0 0 0 0 0 0 0 0 0 0 0 0 0 0 0 0 0 0 0 0 0 0 0 0 0 0 0 0 0 0 0 0 0 0 0 0 
0 0 0 0 0 0 0 0 0 0 0 0 0 0 0 0 0 0 0 0 0 0 0 0 0 0 0 0 0 0 0 0 0 0 0 0 0 0 0 0 0 0 0 0 0 0 0 0 0 0 0 0 0 0 0 0 0 0 0 0 0 0 0 0 0 0 0 0 0 0 0 0 0 0 0 0 0 0 0 0 0 0 0 0 0 0 0 0 0 0 0 0 0 0 0 0 0 0 0 0 0 0 0 0 0 0 0 0 0 0 0 0 0 0 0 0 0 0 173 255 255 155 189 200 189 182 185 172 173 179 184 181 171 179 185 178 171 191 196 196 195 185 155 154 194 184 213 208 185 199 188 179 175 179 201 206 202 193 181 188 164 162 178 164 173 186 183 169 156 168 163 162 174 178 192 199 189 181 193 139 53 192 87 95 255 131 104 119 143 166 169 162 162 151 157 115 151 209 138 134 166 212 223 200 121 102 152 173 179 184 193 181 187 198 170 197 205 157 143 195 235 183 171 169 137 153 165 205 200 190 181 155 117 122 157 203 215 210 148 161 174 189 198 177 167 104 99 169 160 137 144 163 224 255 216 0 0 0 0 0 0 0 0 0 0 0 0 0 0 0 0 0 0 0 0 0 0 0 0 0 0 0 0 0 0 0 0 0 0 0 0 0 0 0 0 0 0 0 0 0 0 0 0 0 0 0 0 0 0 0 0 0 0 0 0 0 0 0 0 0 0 0 0 0 0 0 0 0 0 0 0 0 0 0 0 0 0 0 0 0 0 0 0 0 0 0 0 0 0 0 0 0 0 0 0 0 0 0 0 
0 0 0 0 0 0 0 0 0 0 0 0 0 0 0 0 0 0 0 0 0 0 0 0 0 0 0 0 0 0 0 0 0 0 0 0 0 0 0 0 0 0 0 0 0 0 0 0 0 0 0 0 0 0 0 0 0 0 0 0 0 0 0 0 0 0 0 0 0 0 0 0 0 0 0 0 0 0 0 0 0 0 0 0 0 0 0 0 0 0 0 0 0 0 0 0 0 0 0 0 0 0 0 0 0 0 0 0 0 0 0 0 0 0 0 0 0 0 68 255 255 186 157 193 179 176 175 171 193 202 189 188 176 178 182 170 171 188 194 183 178 171 156 146 186 173 197 219 200 204 188 179 166 166 188 174 174 179 152 151 174 188 167 148 182 192 162 162 175 183 183 191 206 207 215 221 198 198 204 164 39 136 167 38 240 162 83 114 157 178 178 157 146 148 165 170 168 192 157 132 167 197 202 181 104 150 252 207 155 207 219 181 170 174 201 250 247 194 139 153 171 146 153 186 131 172 210 244 233 202 180 151 136 174 233 230 220 206 114 140 202 213 234 226 229 215 232 255 230 196 196 225 255 255 199 3 0 0 0 0 0 0 0 0 0 0 0 0 0 0 0 0 0 0 0 0 0 0 0 0 0 0 0 0 0 0 0 0 0 0 0 0 0 0 0 0 0 0 0 0 0 0 0 0 0 0 0 0 0 0 0 0 0 0 0 0 0 0 0 0 0 0 0 0 0 0 0 0 0 0 0 0 0 0 0 0 0 0 0 0 0 0 0 0 0 0 0 0 0 0 0 0 0 0 0 0 0 0 0 
0 0 0 0 0 0 0 0 0 0 0 0 0 0 0 0 0 0 0 0 0 0 0 0 0 0 0 0 0 0 0 0 0 0 0 0 0 0 0 0 0 0 0 0 0 0 0 0 0 0 0 0 0 0 0 0 0 0 0 0 0 0 0 0 0 0 0 0 0 0 0 0 0 0 0 0 0 0 0 0 0 0 0 0 0 0 0 0 0 0 0 0 0 0 0 0 0 0 0 0 0 0 0 0 0 0 0 0 0 0 0 0 0 0 0 0 0 0 12 255 255 254 137 182 183 188 193 185 200 207 188 188 180 177 182 173 178 177 167 161 167 161 157 158 155 160 176 220 205 197 181 170 171 160 188 182 187 175 135 149 192 199 172 177 199 193 180 200 197 173 193 200 198 182 189 205 183 179 188 168 56 66 194 34 149 208 105 133 178 177 168 159 166 180 192 196 181 190 175 118 158 219 205 144 115 205 255 212 162 207 208 153 161 160 180 213 218 218 154 90 143 205 175 164 119 170 229 180 167 171 169 111 183 240 252 197 185 222 167 202 254 234 224 194 233 255 255 255 217 125 101 133 188 117 43 0 0 0 0 0 0 0 0 0 0 0 0 0 0 0 0 0 0 0 0 0 0 0 0 0 0 0 0 0 0 0 0 0 0 0 0 0 0 0 0 0 0 0 0 0 0 0 0 0 0 0 0 0 0 0 0 0 0 0 0 0 0 0 0 0 0 0 0 0 0 0 0 0 0 0 0 0 0 0 0 0 0 0 0 0 0 0 0 0 0 0 0 0 0 0 0 0 0 0 0 0 0 0 0 
0 0 0 0 0 0 0 0 0 0 0 0 0 0 0 0 0 0 0 0 0 0 0 0 0 0 0 0 0 0 0 0 0 0 0 0 0 0 0 0 0 0 0 0 0 0 0 0 0 0 0 0 0 0 0 0 0 0 0 0 0 0 0 0 0 0 0 0 0 0 0 0 0 0 0 0 0 0 0 0 0 0 0 0 0 0 0 0 0 0 0 0 0 0 0 0 0 0 0 0 0 0 0 0 0 0 0 0 0 0 0 0 0 0 0 0 0 0 0 156 255 255 151 180 187 189 186 180 194 191 180 175 170 177 175 171 180 180 173 180 181 174 190 203 141 106 162 225 212 178 167 186 189 187 216 196 174 178 169 181 199 195 177 185 187 173 177 196 187 169 191 201 183 183 189 186 174 174 177 170 91 29 171 98 89 248 144 160 212 187 140 140 152 168 198 183 180 169 128 117 160 213 172 133 147 192 228 146 115 187 235 173 184 192 203 197 201 240 194 135 204 255 247 177 204 238 236 127 124 131 155 135 156 246 254 219 208 247 219 242 255 202 147 83 79 92 63 26 0 0 0 0 0 0 0 0 0 0 0 0 0 0 0 0 0 0 0 0 0 0 0 0 0 0 0 0 0 0 0 0 0 0 0 0 0 0 0 0 0 0 0 0 0 0 0 0 0 0 0 0 0 0 0 0 0 0 0 0 0 0 0 0 0 0 0 0 0 0 0 0 0 0 0 0 0 0 0 0 0 0 0 0 0 0 0 0 0 0 0 0 0 0 0 0 0 0 0 0 0 0 0 0 0 0 0 0 0 0 0 
0 0 0 0 0 0 0 0 0 0 0 0 0 0 0 0 0 0 0 0 0 0 0 0 0 0 0 0 0 0 0 0 0 0 0 0 0 0 0 0 0 0 0 0 0 0 0 0 0 0 0 0 0 0 0 0 0 0 0 0 0 0 0 0 0 0 0 0 0 0 0 0 0 0 0 0 0 0 0 0 0 0 0 0 0 0 0 0 0 0 0 0 0 0 0 0 0 0 0 0 0 0 0 0 0 0 0 0 0 0 0 0 0 0 0 0 0 0 0 61 255 255 176 168 181 173 167 169 191 199 185 181 190 181 174 171 176 188 190 195 192 186 200 220 167 77 147 227 210 160 160 196 200 192 204 181 162 181 188 193 193 203 188 172 154 148 173 193 180 166 174 182 177 186 186 181 168 157 167 179 136 37 137 167 47 215 179 143 174 142 116 147 148 130 149 137 145 149 99 128 168 162 137 157 199 177 174 114 129 207 249 217 185 226 255 255 255 255 215 202 255 255 251 165 211 221 191 121 144 184 192 222 194 237 208 141 132 116 41 3 0 0 0 0 0 0 0 0 0 0 0 0 0 0 0 0 0 0 0 0 0 0 0 0 0 0 0 0 0 0 0 0 0 0 0 0 0 0 0 0 0 0 0 0 0 0 0 0 0 0 0 0 0 0 0 0 0 0 0 0 0 0 0 0 0 0 0 0 0 0 0 0 0 0 0 0 0 0 0 0 0 0 0 0 0 0 0 0 0 0 0 0 0 0 0 0 0 0 0 0 0 0 0 0 0 0 0 0 0 0 0 0 0 0 0 0 0 0 0 
0 0 0 0 0 0 0 0 0 0 0 0 0 0 0 0 0 0 0 0 0 0 0 0 0 0 0 0 0 0 0 0 0 0 0 0 0 0 0 0 0 0 0 0 0 0 0 0 0 0 0 0 0 0 0 0 0 0 0 0 0 0 0 0 0 0 0 0 0 0 0 0 0 0 0 0 0 0 0 0 0 0 0 0 0 0 0 0 0 0 0 0 0 0 0 0 0 0 0 0 0 0 0 0 0 0 0 0 0 0 0 0 0 0 0 0 0 0 0 10 255 255 249 160 180 164 171 187 191 191 174 184 206 183 176 181 191 201 192 189 189 183 190 214 197 59 77 239 224 177 170 199 190 160 173 171 164 210 208 174 170 196 190 170 156 155 195 211 198 175 154 169 195 175 146 152 164 158 168 183 170 74 69 125 3 117 203 138 138 118 118 148 169 164 174 162 149 152 152 195 202 159 196 219 191 158 175 223 255 255 255 255 255 255 255 255 255 255 217 219 252 240 196 125 89 97 64 44 50 73 62 41 0 0 0 0 0 0 0 0 0 0 0 0 0 0 0 0 0 22 69 96 97 105 92 0 0 0 0 0 0 0 0 0 0 0 0 0 0 0 0 0 0 0 0 0 0 0 0 0 0 0 0 0 0 0 0 0 0 0 0 0 0 0 0 0 0 0 0 0 0 0 0 0 0 0 0 0 0 0 0 0 0 0 0 0 0 0 0 0 0 0 0 0 0 0 0 0 0 0 0 0 0 0 0 0 0 0 0 0 0 0 0 0 0 0 0 0 0 0 0 0 0 0 0 0 0 0 0 
0 0 0 0 0 0 0 0 0 0 0 0 0 0 0 0 0 0 0 0 0 0 0 0 0 0 0 0 0 0 0 0 0 0 0 0 0 0 0 0 0 0 0 0 0 0 0 0 0 0 0 0 0 0 0 0 0 0 0 0 0 0 0 0 0 0 0 0 0 0 0 0 0 0 0 0 0 0 0 0 0 0 0 0 0 0 0 0 0 0 0 0 0 0 0 0 0 0 0 0 0 0 0 0 0 0 0 0 0 0 0 0 0 0 0 0 0 0 0 0 159 255 255 158 164 152 181 207 190 177 167 182 200 173 169 189 192 208 194 180 186 189 191 206 203 103 74 255 255 181 185 207 198 168 167 165 153 205 199 169 171 187 183 160 164 182 210 208 182 143 136 181 213 171 149 182 187 174 180 193 178 107 38 91 25 72 201 144 143 159 173 167 179 216 244 219 194 209 206 198 222 205 255 255 203 157 223 255 255 255 255 255 255 255 242 195 133 73 44 20 0 0 0 0 0 0 0 0 0 0 0 0 0 0 0 0 0 0 0 0 8 38 64 92 119 136 153 165 169 171 157 152 157 113 0 0 0 0 0 0 0 0 0 0 0 0 0 0 0 0 0 0 0 0 0 0 0 0 0 0 0 0 0 0 0 0 0 0 0 0 0 0 0 0 0 0 0 0 0 0 0 0 0 0 0 0 0 0 0 0 0 0 0 0 0 0 0 0 0 0 0 0 0 0 0 0 0 0 0 0 0 0 0 0 0 0 0 0 0 0 0 0 0 0 0 0 0 0 0 0 0 0 0 0 0 0 0 0 0 
0 0 0 0 0 0 0 0 0 0 0 0 0 0 0 0 0 0 0 0 0 0 0 0 0 0 0 0 0 0 0 0 0 0 0 0 0 0 0 0 0 0 0 0 0 0 0 0 0 0 0 0 0 0 0 0 0 0 0 0 0 0 0 0 0 0 0 0 0 0 0 0 0 0 0 0 0 0 0 0 0 0 0 0 0 0 0 0 0 0 0 0 0 0 0 0 0 0 0 0 0 0 0 0 0 0 0 0 0 0 0 0 0 0 0 0 0 0 0 0 50 255 255 177 149 169 196 205 183 168 176 199 198 177 171 186 192 204 193 177 191 203 194 187 184 155 108 222 255 186 175 186 199 191 172 171 183 199 188 165 182 187 194 175 163 182 209 199 173 158 173 207 205 153 154 193 193 183 188 198 192 144 32 93 161 150 230 174 127 168 203 202 225 255 255 255 187 233 233 202 236 255 255 255 175 143 206 234 186 104 73 55 0 0 0 0 0 0 0 0 0 0 0 0 0 0 0 0 0 0 0 0 17 41 79 105 120 150 169 174 174 170 166 160 159 155 149 141 126 123 119 109 39 0 0 0 0 0 0 0 0 0 0 0 0 0 0 0 0 0 0 0 0 0 0 0 0 0 0 0 0 0 0 0 0 0 0 0 0 0 0 0 0 0 0 0 0 0 0 0 0 0 0 0 0 0 0 0 0 0 0 0 0 0 0 0 0 0 0 0 0 0 0 0 0 0 0 0 0 0 0 0 0 0 0 0 0 0 0 0 0 0 0 0 0 0 0 0 0 0 0 0 0 0 0 0 0 0 0 
0 0 0 0 0 0 0 0 0 0 0 0 0 0 0 0 0 0 0 0 0 0 0 0 0 0 0 0 0 0 0 0 0 0 0 0 0 0 0 0 0 0 0 0 0 0 0 0 0 0 0 0 0 0 0 0 0 0 0 0 0 0 0 0 0 0 0 0 0 0 0 0 0 0 0 0 0 0 0 0 0 0 0 0 0 0 0 0 0 0 0 0 0 0 0 0 0 0 0 0 0 0 0 0 0 0 0 0 0 0 0 0 0 0 0 0 0 0 0 0 5 255 255 238 136 170 198 198 184 179 186 211 198 182 179 177 175 186 177 151 176 202 178 162 179 186 120 140 255 210 170 184 200 176 155 176 212 198 185 172 173 162 185 196 172 166 185 185 170 181 195 193 172 155 166 198 190 174 183 194 197 155 42 36 169 167 229 243 162 167 210 230 255 255 255 186 144 195 192 134 156 128 52 1 0 0 0 0 0 0 0 0 0 0 0 0 0 0 0 0 0 0 0 34 49 70 98 115 129 138 153 158 150 154 160 159 155 150 140 127 115 108 104 98 100 99 95 91 87 99 100 0 0 0 0 0 0 0 0 0 0 0 0 0 0 0 0 0 0 0 0 0 0 0 0 0 0 0 0 0 0 0 0 0 0 0 0 0 0 0 0 0 0 0 0 0 0 0 0 0 0 0 0 0 0 0 0 0 0 0 0 0 0 0 0 0 0 0 0 0 0 0 0 0 0 0 0 0 0 0 0 0 0 0 0 0 0 0 0 0 0 0 0 0 0 0 0 0 0 0 0 0 0 0 0 0 0 0 0 
0 0 0 0 0 0 0 0 0 0 0 0 0 0 0 0 0 0 0 0 0 0 0 0 0 0 0 0 0 0 0 0 0 0 0 0 0 0 0 0 0 0 0 0 0 0 0 0 0 0 0 0 0 0 0 0 0 0 0 0 0 0 0 0 0 0 0 0 0 0 0 0 0 0 0 0 0 0 0 0 0 0 0 0 0 0 0 0 0 0 0 0 0 0 0 0 0 0 0 0 0 0 0 0 0 0 0 0 0 0 0 0 0 0 0 0 0 0 0 0 0 154 255 255 141 168 189 180 180 184 179 190 195 185 182 177 180 186 163 133 159 181 154 155 192 191 132 113 224 232 182 193 201 167 150 181 207 182 170 190 173 166 190 186 160 155 185 186 156 167 184 170 153 167 173 182 181 178 196 204 196 165 69 32 167 125 63 121 104 117 119 81 73 86 28 0 0 0 0 0 0 0 0 0 0 0 0 0 0 0 0 0 0 0 17 52 82 103 121 144 153 154 160 169 174 164 156 147 148 144 126 112 105 105 108 107 100 93 89 90 92 92 98 98 100 106 106 101 101 90 0 0 0 0 0 0 0 0 0 0 0 0 0 0 0 0 0 0 0 0 0 0 0 0 0 0 0 0 0 0 0 0 0 0 0 0 0 0 0 0 0 0 0 0 0 0 0 0 0 0 0 0 0 0 0 0 0 0 0 0 0 0 0 0 0 0 0 0 0 0 0 0 0 0 0 0 0 0 0 0 0 0 0 0 0 0 0 0 0 0 0 0 0 0 0 0 0 0 0 0 0 0 0 0 0 0 0 0 0 
0 0 0 0 0 0 0 0 0 0 0 0 0 0 0 0 0 0 0 0 0 0 0 0 0 0 0 0 0 0 0 0 0 0 0 0 0 0 0 0 0 0 0 0 0 0 0 0 0 0 0 0 0 0 0 0 0 0 0 0 0 0 0 0 0 0 0 0 0 0 0 0 0 0 0 0 0 0 0 0 0 0 0 0 0 0 0 0 0 0 0 0 0 0 0 0 0 0 0 0 0 0 0 0 0 0 0 0 0 0 0 0 0 0 0 0 0 0 0 0 0 46 255 255 160 164 199 184 169 171 156 165 194 180 177 180 188 202 180 154 169 183 169 167 187 184 165 130 191 227 202 193 180 171 164 198 205 194 170 172 173 186 194 187 164 149 170 182 162 169 192 170 158 171 161 149 160 185 210 217 194 164 78 49 205 180 0 0 0 0 0 0 0 0 0 0 0 0 0 0 0 0 0 0 0 0 13 59 89 129 155 158 159 176 184 174 167 158 149 142 130 119 117 115 112 98 87 91 96 92 81 76 83 93 101 96 97 97 93 97 94 94 105 105 105 105 105 104 80 0 0 0 0 0 0 0 0 0 0 0 0 0 0 0 0 0 0 0 0 0 0 0 0 0 0 0 0 0 0 0 0 0 0 0 0 0 0 0 0 0 0 0 0 0 0 0 0 0 0 0 0 0 0 0 0 0 0 0 0 0 0 0 0 0 0 0 0 0 0 0 0 0 0 0 0 0 0 0 0 0 0 0 0 0 0 0 0 0 0 0 0 0 0 0 0 0 0 0 0 0 0 0 0 0 0 0 0 0 0 
0 0 0 0 0 0 0 0 0 0 0 0 0 0 0 0 0 0 0 0 0 0 0 0 0 0 0 0 0 0 0 0 0 0 0 0 0 0 0 0 0 0 0 0 0 0 0 0 0 0 0 0 0 0 0 0 0 0 0 0 0 0 0 0 0 0 0 0 0 0 0 0 0 0 0 0 0 0 0 0 0 0 0 0 0 0 0 0 0 0 0 0 0 0 0 0 0 0 0 0 0 0 0 0 0 0 0 0 0 0 0 0 0 0 0 0 0 0 0 0 0 5 255 255 219 150 179 167 164 172 170 187 205 194 184 183 177 185 179 170 195 213 200 184 187 182 187 167 171 232 227 191 180 192 178 185 192 189 177 164 176 183 179 184 157 143 154 174 168 169 200 179 156 171 173 178 203 219 222 210 175 132 60 3 107 65 0 0 0 0 0 0 0 0 0 0 0 0 10 63 107 129 95 50 65 119 157 184 167 160 156 125 107 116 114 96 93 93 90 87 85 86 93 95 91 82 78 88 86 81 79 84 102 103 99 103 114 110 99 95 98 103 113 111 106 108 92 43 0 0 0 0 0 0 0 0 0 0 0 0 0 0 0 0 0 0 0 0 0 0 0 0 0 0 0 0 0 0 0 0 0 0 0 0 0 0 0 0 0 0 0 0 0 0 0 0 0 0 0 0 0 0 0 0 0 0 0 0 0 0 0 0 0 0 0 0 0 0 0 0 0 0 0 0 0 0 0 0 0 0 0 0 0 0 0 0 0 0 0 0 0 0 0 0 0 0 0 0 0 0 0 0 0 0 0 0 0 0 0 
0 0 0 0 0 0 0 0 0 0 0 0 0 0 0 0 0 0 0 0 0 0 0 0 0 0 0 0 0 0 0 0 0 0 0 0 0 0 0 0 0 0 0 0 0 0 0 0 0 0 0 0 0 0 0 0 0 0 0 0 0 0 0 0 0 0 0 0 0 0 0 0 0 0 0 0 0 0 0 0 0 0 0 0 0 0 0 0 0 0 0 0 0 0 0 0 0 0 0 0 0 0 0 0 0 0 0 0 0 0 0 0 0 0 0 0 0 0 0 0 0 0 153 255 255 144 150 144 162 187 195 211 217 204 193 191 174 174 175 168 197 213 189 181 187 194 200 187 152 207 226 195 178 192 196 196 195 183 185 166 167 181 181 179 170 152 144 175 185 157 174 172 160 179 188 209 233 234 224 198 148 40 0 0 0 0 0 0 62 46 80 87 104 155 164 132 115 123 137 144 150 135 94 78 140 189 177 157 117 101 85 68 76 87 80 74 84 84 82 84 86 85 88 88 86 87 84 90 89 81 86 93 84 78 65 44 16 25 72 104 112 113 113 104 103 96 5 0 0 0 0 0 0 0 0 0 0 0 0 0 0 0 0 0 0 0 0 0 0 0 0 0 0 0 0 0 0 0 0 0 0 0 0 0 0 0 0 0 0 0 0 0 0 0 0 0 0 0 0 0 0 0 0 0 0 0 0 0 0 0 0 0 0 0 0 0 0 0 0 0 0 0 0 0 0 0 0 0 0 0 0 0 0 0 0 0 0 0 0 0 0 0 0 0 0 0 0 0 0 0 0 0 0 0 0 0 0 0 0 
0 0 0 0 0 0 0 0 0 0 0 0 0 0 0 0 0 0 0 0 0 0 0 0 0 0 0 0 0 0 0 0 0 0 0 0 0 0 0 0 0 0 0 0 0 0 0 0 0 0 0 0 0 0 0 0 0 0 0 0 0 0 0 0 0 0 0 0 0 0 0 0 0 0 0 0 0 0 0 0 0 0 0 0 0 0 0 0 0 0 0 0 0 0 0 0 0 0 0 0 0 0 0 0 0 0 0 0 0 0 0 0 0 0 0 0 0 0 0 0 0 0 44 255 255 146 118 157 196 207 201 207 206 193 186 180 178 172 173 181 190 182 167 182 179 185 190 194 117 128 222 194 163 174 175 175 175 177 176 160 154 181 190 180 182 170 152 168 190 158 154 177 170 185 197 211 216 214 193 101 0 0 0 0 0 0 0 76 88 97 152 164 144 139 135 123 121 114 105 91 89 80 72 103 162 152 122 94 83 75 65 74 86 89 78 81 87 81 81 79 79 83 85 83 79 69 63 63 58 39 31 12 0 0 0 0 0 0 78 136 106 105 106 102 89 0 0 0 0 0 0 0 0 0 0 0 0 0 0 0 0 0 0 0 0 0 0 0 0 0 0 0 0 0 0 0 0 0 0 0 0 0 0 0 0 0 0 0 0 0 0 0 0 0 0 0 0 0 0 0 0 0 0 0 0 0 0 0 0 0 0 0 0 0 0 0 0 0 0 0 0 0 0 0 0 0 0 0 0 0 0 0 0 0 0 0 0 0 0 0 0 0 0 0 0 0 0 0 0 0 0 0 0 0 0 0 0 0 0 
0 0 0 0 0 0 0 0 0 0 0 0 0 0 0 0 0 0 0 0 0 0 0 0 0 0 0 0 0 0 0 0 0 0 0 0 0 0 0 0 0 0 0 0 0 0 0 0 0 0 0 0 0 0 0 0 0 0 0 0 0 0 0 0 0 0 0 0 0 0 0 0 0 0 0 0 0 0 0 0 0 0 0 0 0 0 0 0 0 0 0 0 0 0 0 0 0 0 0 0 0 0 0 0 0 0 0 0 0 0 0 0 0 0 0 0 0 0 0 0 0 0 5 255 255 193 96 182 212 199 191 195 187 163 156 168 179 168 171 182 187 175 175 191 175 186 190 185 103 83 214 183 152 185 180 163 153 159 180 183 174 181 170 169 170 150 144 177 213 176 169 202 199 193 199 202 198 196 112 0 0 0 0 0 53 142 170 151 141 131 117 114 107 95 81 75 78 72 63 66 81 81 76 98 97 78 72 70 71 72 76 88 96 90 84 83 81 79 70 50 53 64 53 40 26 1 0 0 0 0 0 0 0 0 0 0 0 77 239 183 91 99 105 94 0 0 0 0 0 0 0 0 0 0 0 0 0 0 0 0 0 0 0 0 0 0 0 0 0 0 0 0 0 0 0 0 0 0 0 0 0 0 0 0 0 0 0 0 0 0 0 0 0 0 0 0 0 0 0 0 0 0 0 0 0 0 0 0 0 0 0 0 0 0 0 0 0 0 0 0 0 0 0 0 0 0 0 0 0 0 0 0 0 0 0 0 0 0 0 0 0 0 0 0 0 0 0 0 0 0 0 0 0 0 0 0 0 0 0 
0 0 0 0 0 0 0 0 0 0 0 0 0 0 0 0 0 0 0 0 0 0 0 0 0 0 0 0 0 0 0 0 0 0 0 0 0 0 0 0 0 0 0 0 0 0 0 0 0 0 0 0 0 0 0 0 0 0 0 0 0 0 0 0 0 0 0 0 0 0 0 0 0 0 0 0 0 0 0 0 0 0 0 0 0 0 0 0 0 0 0 0 0 0 0 0 0 0 0 0 0 0 0 0 0 0 0 0 0 0 0 0 0 0 0 0 0 0 0 0 0 0 0 164 255 255 119 195 204 182 184 195 176 148 146 169 185 178 171 185 188 175 171 174 180 193 190 181 134 143 240 204 165 195 181 165 168 167 191 194 178 167 156 168 167 145 155 184 196 174 180 210 210 189 191 192 189 144 0 0 0 0 22 118 152 129 108 101 99 90 79 76 76 72 64 63 75 84 78 83 87 82 65 66 57 50 56 57 61 72 79 77 76 69 58 51 54 52 29 0 4 10 0 0 0 0 0 0 0 0 0 0 0 0 23 68 177 255 255 168 94 111 100 0 0 0 0 0 0 0 0 0 0 0 0 0 0 0 0 0 0 0 0 0 0 0 0 0 0 0 0 0 0 0 0 0 0 0 0 0 0 0 0 0 0 0 0 0 0 0 0 0 0 0 0 0 0 0 0 0 0 0 0 0 0 0 0 0 0 0 0 0 0 0 0 0 0 0 0 0 0 0 0 0 0 0 0 0 0 0 0 0 0 0 0 0 0 0 0 0 0 0 0 0 0 0 0 0 0 0 0 0 0 0 0 0 0 0 0 
0 0 0 0 0 0 0 0 0 0 0 0 0 0 0 0 0 0 0 0 0 0 0 0 0 0 0 0 0 0 0 0 0 0 0 0 0 0 0 0 0 0 0 0 0 0 0 0 0 0 0 0 0 0 0 0 0 0 0 0 0 0 0 0 0 0 0 0 0 0 0 0 0 0 0 0 0 0 0 0 0 0 0 0 0 0 0 0 0 0 0 0 0 0 0 0 0 0 0 0 0 0 0 0 0 0 0 0 0 0 0 0 0 0 0 0 0 0 0 0 0 0 0 52 255 255 168 183 193 183 189 198 176 151 176 199 196 182 170 190 191 181 169 165 193 187 185 193 171 225 255 219 183 184 164 162 185 178 181 172 140 147 162 174 156 152 174 168 165 162 179 208 200 175 175 179 138 15 0 0 0 131 183 156 100 78 81 83 76 78 93 97 89 83 80 68 68 66 46 33 34 31 30 34 40 48 51 46 49 52 52 40 34 19 5 9 27 19 0 0 10 15 1 0 4 14 15 10 12 7 0 27 19 48 180 255 255 255 199 115 114 88 0 0 0 0 0 0 0 0 0 0 0 0 0 0 0 0 0 0 0 0 0 0 0 0 0 0 0 0 0 0 0 0 0 0 0 0 0 0 0 0 0 0 0 0 0 0 0 0 0 0 0 0 0 0 0 0 0 0 0 0 0 0 0 0 0 0 0 0 0 0 0 0 0 0 0 0 0 0 0 0 0 0 0 0 0 0 0 0 0 0 0 0 0 0 0 0 0 0 0 0 0 0 0 0 0 0 0 0 0 0 0 0 0 0 0 0 0 
0 0 0 0 0 0 0 0 0 0 0 0 0 0 0 0 0 0 0 0 0 0 0 0 0 0 0 0 0 0 0 0 0 0 0 0 0 0 0 0 0 0 0 0 0 0 0 0 0 0 0 0 0 0 0 0 0 0 0 0 0 0 0 0 0 0 0 0 0 0 0 0 0 0 0 0 0 0 0 0 0 0 0 0 0 0 0 0 0 0 0 0 0 0 0 0 0 0 0 0 0 0 0 0 0 0 0 0 0 0 0 0 0 0 0 0 0 0 0 0 0 0 0 6 255 255 245 149 179 189 192 194 180 163 188 207 190 177 180 193 185 180 186 191 205 193 198 197 168 210 244 159 165 163 159 164 179 181 183 178 149 159 168 174 169 170 184 151 151 179 209 220 195 163 148 118 9 0 0 0 88 202 178 102 67 80 78 81 72 66 64 38 0 0 0 0 0 0 0 0 0 0 6 25 34 41 42 44 47 39 35 30 24 22 24 29 45 40 31 44 54 59 45 23 40 54 38 26 22 19 0 15 61 168 255 255 239 169 100 113 76 0 0 0 0 0 0 0 0 0 0 0 0 0 0 0 0 0 0 0 0 0 0 0 0 0 0 0 0 0 0 0 0 0 0 0 0 0 0 0 0 0 0 0 0 0 0 0 0 0 0 0 0 0 0 0 0 0 0 0 0 0 0 0 0 0 0 0 0 0 0 0 0 0 0 0 0 0 0 0 0 0 0 0 0 0 0 0 0 0 0 0 0 0 0 0 0 0 0 0 0 0 0 0 0 0 0 0 0 0 0 0 0 0 0 0 0 0 0 
0 0 0 0 0 0 0 0 0 0 0 0 0 0 0 0 0 0 0 0 0 0 0 0 0 0 0 0 0 0 0 0 0 0 0 0 0 0 0 0 0 0 0 0 0 0 0 0 0 0 0 0 0 0 0 0 0 0 0 0 0 0 0 0 0 0 0 0 0 0 0 0 0 0 0 0 0 0 0 0 0 0 0 0 0 0 0 0 0 0 0 0 0 0 0 0 0 0 0 0 0 0 0 0 0 0 0 0 0 0 0 0 0 0 0 0 0 0 0 0 0 0 0 0 181 255 255 143 166 186 195 207 194 175 181 186 166 172 187 181 170 176 191 181 186 202 184 158 151 160 172 122 154 177 181 189 176 176 185 177 168 173 152 166 193 189 182 153 167 218 235 215 187 157 91 0 0 0 0 52 136 139 106 77 83 92 80 9 0 0 0 0 0 0 0 0 0 0 0 0 0 0 25 32 34 50 59 54 57 62 58 55 55 56 67 67 71 75 70 76 62 54 47 35 49 55 21 17 15 4 0 75 207 255 255 179 110 93 100 59 0 0 0 0 0 0 0 0 0 0 0 0 0 0 0 0 0 0 0 0 0 0 0 0 0 0 0 0 0 0 0 0 0 0 0 0 0 0 0 0 0 0 0 0 0 0 0 0 0 0 0 0 0 0 0 0 0 0 0 0 0 0 0 0 0 0 0 0 0 0 0 0 0 0 0 0 0 0 0 0 0 0 0 0 0 0 0 0 0 0 0 0 0 0 0 0 0 0 0 0 0 0 0 0 0 0 0 0 0 0 0 0 0 0 0 0 0 0 0 
0 0 0 0 0 0 0 0 0 0 0 0 0 0 0 0 0 0 0 0 0 0 0 0 0 0 0 0 0 0 0 0 0 0 0 0 0 0 0 0 0 0 0 0 0 0 0 0 0 0 0 0 0 0 0 0 0 0 0 0 0 0 0 0 0 0 0 0 0 0 0 0 0 0 0 0 0 0 0 0 0 0 0 0 0 0 0 0 0 0 0 0 0 0 0 0 0 0 0 0 0 0 0 0 0 0 0 0 0 0 0 0 0 0 0 0 0 0 0 0 0 0 0 0 61 255 255 157 152 185 198 200 183 169 180 187 173 177 163 147 156 188 190 159 169 194 155 143 182 169 125 136 162 199 190 203 187 174 176 168 169 162 139 162 194 167 152 163 202 239 228 191 161 99 0 0 0 0 49 135 108 80 78 80 91 85 0 0 0 0 0 0 0 0 0 0 0 0 0 0 6 22 29 30 35 56 65 59 57 68 71 72 73 70 79 72 66 75 62 56 47 31 36 43 47 46 17 11 8 10 80 217 255 255 159 91 93 106 44 0 0 0 0 0 0 0 0 0 0 0 0 0 0 0 0 0 0 0 0 0 0 0 0 0 0 0 0 0 0 0 0 0 0 0 0 0 0 0 0 0 0 0 0 0 0 0 0 0 0 0 0 0 0 0 0 0 0 0 0 0 0 0 0 0 0 0 0 0 0 0 0 0 0 0 0 0 0 0 0 0 0 0 0 0 0 0 0 0 0 0 0 0 0 0 0 0 0 0 0 0 0 0 0 0 0 0 0 0 0 0 0 0 0 0 0 0 0 0 0 
0 0 0 0 0 0 0 0 0 0 0 0 0 0 0 0 0 0 0 0 0 0 0 0 0 0 0 0 0 0 0 0 0 0 0 0 0 0 0 0 0 0 0 0 0 0 0 0 0 0 0 0 0 0 0 0 0 0 0 0 0 0 0 0 0 0 0 0 0 0 0 0 0 0 0 0 0 0 0 0 0 0 0 0 0 0 0 0 0 0 0 0 0 0 0 0 0 0 0 0 0 0 0 0 0 0 0 0 0 0 0 0 0 0 0 0 0 0 0 0 0 0 0 0 7 255 255 213 135 174 191 190 182 159 170 194 195 197 171 161 180 189 182 177 182 183 158 173 212 175 79 102 165 191 174 181 184 172 175 175 172 167 168 185 199 148 132 171 200 208 194 146 70 0 0 0 0 70 137 116 82 78 77 79 76 0 0 0 0 0 0 0 8 11 12 13 13 19 29 31 27 26 21 21 26 34 40 44 42 55 58 60 67 69 67 60 53 53 46 40 38 23 30 43 28 18 0 0 43 129 243 255 243 134 96 106 103 20 0 0 0 0 0 0 0 0 0 0 0 0 0 0 0 0 0 0 0 0 0 0 0 0 0 0 0 0 0 0 0 0 0 0 0 0 0 0 0 0 0 0 0 0 0 0 0 0 0 0 0 0 0 0 0 0 0 0 0 0 0 0 0 0 0 0 0 0 0 0 0 0 0 0 0 0 0 0 0 0 0 0 0 0 0 0 0 0 0 0 0 0 0 0 0 0 0 0 0 0 0 0 0 0 0 0 0 0 0 0 0 0 0 0 0 0 0 0 0 0 0 
0 0 0 0 0 0 0 0 0 0 0 0 0 0 0 0 0 0 0 0 0 0 0 0 0 0 0 0 0 0 0 0 0 0 0 0 0 0 0 0 0 0 0 0 0 0 0 0 0 0 0 0 0 0 0 0 0 0 0 0 0 0 0 0 0 0 0 0 0 0 0 0 0 0 0 0 0 0 0 0 0 0 0 0 0 0 0 0 0 0 0 0 0 0 0 0 0 0 0 0 0 0 0 0 0 0 0 0 0 0 0 0 0 0 0 0 0 0 0 0 0 0 0 0 0 168 255 255 134 164 192 215 206 178 179 185 173 164 175 189 202 192 184 179 167 163 168 183 190 177 84 44 180 213 179 173 183 172 163 163 167 175 180 188 176 133 136 187 202 199 161 71 0 0 0 0 87 138 111 87 81 80 78 70 0 0 0 0 0 17 28 31 28 22 18 13 8 12 20 26 25 24 23 20 15 8 21 26 28 39 43 45 51 51 51 47 38 40 50 48 39 21 11 22 10 0 0 35 167 255 255 220 124 93 113 96 0 0 0 0 0 0 0 0 0 0 0 0 0 0 0 0 0 0 0 0 0 0 0 0 0 0 0 0 0 0 0 0 0 0 0 0 0 0 0 0 0 0 0 0 0 0 0 0 0 0 0 0 0 0 0 0 0 0 0 0 0 0 0 0 0 0 0 0 0 0 0 0 0 0 0 0 0 0 0 0 0 0 0 0 0 0 0 0 0 0 0 0 0 0 0 0 0 0 0 0 0 0 0 0 0 0 0 0 0 0 0 0 0 0 0 0 0 0 0 0 0 0 0 
0 0 0 0 0 0 0 0 0 0 0 0 0 0 0 0 0 0 0 0 0 0 0 0 0 0 0 0 0 0 0 0 0 0 0 0 0 0 0 0 0 0 0 0 0 0 0 0 0 0 0 0 0 0 0 0 0 0 0 0 0 0 0 0 0 0 0 0 0 0 0 0 0 0 0 0 0 0 0 0 0 0 0 0 0 0 0 0 0 0 0 0 0 0 0 0 0 0 0 0 0 0 0 0 0 0 0 0 0 0 0 0 0 0 0 0 0 0 0 0 0 0 0 0 0 50 255 255 157 165 225 226 189 170 177 181 170 166 178 181 177 182 192 174 151 145 171 187 177 174 140 43 169 241 169 157 171 162 157 157 161 164 149 147 152 147 172 206 214 181 84 0 0 0 0 101 139 105 83 81 79 92 59 0 0 0 0 0 13 24 24 23 20 17 16 12 10 12 15 21 26 24 25 24 17 9 16 15 6 14 23 30 31 31 29 29 30 30 37 37 27 14 5 6 0 0 34 175 255 255 189 106 90 113 95 0 0 0 0 0 0 0 0 0 0 0 0 0 0 0 0 0 0 0 0 0 0 0 0 0 0 0 0 0 0 0 0 0 0 0 0 0 0 0 0 0 0 0 0 0 0 0 0 0 0 0 0 0 0 0 0 0 0 0 0 0 0 0 0 0 0 0 0 0 0 0 0 0 0 0 0 0 0 0 0 0 0 0 0 0 0 0 0 0 0 0 0 0 0 0 0 0 0 0 0 0 0 0 0 0 0 0 0 0 0 0 0 0 0 0 0 0 0 0 0 0 0 0 0 
0 0 0 0 0 0 0 0 0 0 0 0 0 0 0 0 0 0 0 0 0 0 0 0 0 0 0 0 0 0 0 0 0 0 0 0 0 0 0 0 0 0 0 0 0 0 0 0 0 0 0 0 0 0 0 0 0 0 0 0 0 0 0 0 0 0 0 0 0 0 0 0 0 0 0 0 0 0 0 0 0 0 0 0 0 0 0 0 0 0 0 0 0 0 0 0 0 0 0 0 0 0 0 0 0 0 0 0 0 0 0 0 0 0 0 0 0 0 0 0 0 0 0 0 0 5 255 255 223 163 204 180 162 161 174 180 186 207 204 177 166 186 182 161 166 171 194 202 183 169 162 81 139 255 172 155 180 164 152 168 176 180 164 158 177 195 210 215 191 82 0 0 0 0 91 128 101 82 77 73 83 63 0 0 0 0 0 1 22 23 25 23 19 17 17 17 14 16 17 20 27 27 27 27 22 20 18 9 0 6 9 5 6 12 9 10 8 8 14 12 5 4 0 0 0 60 181 255 255 176 114 101 108 55 0 0 0 0 0 0 0 0 0 0 0 0 0 0 0 0 0 0 0 0 0 0 0 0 0 0 0 0 0 0 0 0 0 0 0 0 0 0 0 0 0 0 0 0 0 0 0 0 0 0 0 0 0 0 0 0 0 0 0 0 0 0 0 0 0 0 0 0 0 0 0 0 0 0 0 0 0 0 0 0 0 0 0 0 0 0 0 0 0 0 0 0 0 0 0 0 0 0 0 0 0 0 0 0 0 0 0 0 0 0 0 0 0 0 0 0 0 0 0 0 0 0 0 0 0 
0 0 0 0 0 0 0 0 0 0 0 0 0 0 0 0 0 0 0 0 0 0 0 0 0 0 0 0 0 0 0 0 0 0 0 0 0 0 0 0 0 0 0 0 0 0 0 0 0 0 0 0 0 0 0 0 0 0 0 0 0 0 0 0 0 0 0 0 0 0 0 0 0 0 0 0 0 0 0 0 0 0 0 0 0 0 0 0 0 0 0 0 0 0 0 0 0 0 0 0 0 0 0 0 0 0 0 0 0 0 0 0 0 0 0 0 0 0 0 0 0 0 0 0 0 0 158 255 255 132 147 157 173 181 175 191 190 189 182 170 168 181 185 170 175 185 204 198 175 159 174 142 121 255 220 180 195 170 155 173 195 200 184 179 202 211 199 159 52 0 0 0 0 80 102 97 86 81 73 75 41 0 0 0 0 0 0 17 22 24 22 20 19 20 18 17 12 14 16 19 28 28 25 26 23 22 23 20 10 7 7 0 0 0 0 1 2 1 3 3 0 0 0 0 85 221 255 255 188 109 112 119 47 0 0 0 0 0 0 0 0 0 0 0 0 0 0 0 0 0 0 0 0 0 0 0 0 0 0 0 0 0 0 0 0 0 0 0 0 0 0 0 0 0 0 0 0 0 0 0 0 0 0 0 0 0 0 0 0 0 0 0 0 0 0 0 0 0 0 0 0 0 0 0 0 0 0 0 0 0 0 0 0 0 0 0 0 0 0 0 0 0 0 0 0 0 0 0 0 0 0 0 0 0 0 0 0 0 0 0 0 0 0 0 0 0 0 0 0 0 0 0 0 0 0 0 0 0 0 
0 0 0 0 0 0 0 0 0 0 0 0 0 0 0 0 0 0 0 0 0 0 0 0 0 0 0 0 0 0 0 0 0 0 0 0 0 0 0 0 0 0 0 0 0 0 0 0 0 0 0 0 0 0 0 0 0 0 0 0 0 0 0 0 0 0 0 0 0 0 0 0 0 0 0 0 0 0 0 0 0 0 0 0 0 0 0 0 0 0 0 0 0 0 0 0 0 0 0 0 0 0 0 0 0 0 0 0 0 0 0 0 0 0 0 0 0 0 0 0 0 0 0 0 0 0 49 255 255 131 125 192 202 173 179 199 187 165 161 162 167 170 178 181 177 182 187 182 176 176 201 181 115 194 233 171 182 154 156 181 194 187 167 175 190 173 111 0 0 0 0 15 106 109 90 91 82 83 88 19 0 0 0 0 0 1 19 20 24 23 23 22 21 22 20 17 15 12 14 14 24 25 23 27 25 24 27 29 19 12 12 8 0 2 8 7 2 1 7 6 0 0 8 100 247 255 255 162 100 104 108 27 0 0 0 0 0 0 0 0 0 0 0 0 0 0 0 0 0 0 0 0 0 0 0 0 0 0 0 0 0 0 0 0 0 0 0 0 0 0 0 0 0 0 0 0 0 0 0 0 0 0 0 0 0 0 0 0 0 0 0 0 0 0 0 0 0 0 0 0 0 0 0 0 0 0 0 0 0 0 0 0 0 0 0 0 0 0 0 0 0 0 0 0 0 0 0 0 0 0 0 0 0 0 0 0 0 0 0 0 0 0 0 0 0 0 0 0 0 0 0 0 0 0 0 0 0 0 0 
0 0 0 0 0 0 0 0 0 0 0 0 0 0 0 0 0 0 0 0 0 0 0 0 0 0 0 0 0 0 0 0 0 0 0 0 0 0 0 0 0 0 0 0 0 0 0 0 0 0 0 0 0 0 0 0 0 0 0 0 0 0 0 0 0 0 0 0 0 0 0 0 0 0 0 0 0 0 0 0 0 0 0 0 0 0 0 0 0 0 0 0 0 0 0 0 0 0 0 0 0 0 0 0 0 0 0 0 0 0 0 0 0 0 0 0 0 0 0 0 0 0 0 0 0 0 7 255 255 212 146 228 213 164 180 191 175 162 167 175 170 164 175 182 169 165 178 184 172 184 191 174 90 142 252 207 191 162 156 175 185 184 183 205 165 36 0 0 0 0 54 121 107 87 84 75 80 81 0 0 0 0 0 0 1 18 23 25 28 26 21 21 21 20 18 16 16 15 15 18 24 25 26 26 25 23 28 27 21 19 25 21 14 11 15 10 0 0 8 6 2 32 139 255 255 255 141 87 98 97 0 0 0 0 0 0 0 0 0 0 0 0 0 0 0 0 0 0 0 0 0 0 0 0 0 0 0 0 0 0 0 0 0 0 0 0 0 0 0 0 0 0 0 0 0 0 0 0 0 0 0 0 0 0 0 0 0 0 0 0 0 0 0 0 0 0 0 0 0 0 0 0 0 0 0 0 0 0 0 0 0 0 0 0 0 0 0 0 0 0 0 0 0 0 0 0 0 0 0 0 0 0 0 0 0 0 0 0 0 0 0 0 0 0 0 0 0 0 0 0 0 0 0 0 0 0 0 0 0 
0 0 0 0 0 0 0 0 0 0 0 0 0 0 0 0 0 0 0 0 0 0 0 0 0 0 0 0 0 0 0 0 0 0 0 0 0 0 0 0 0 0 0 0 0 0 0 0 0 0 0 0 0 0 0 0 0 0 0 0 0 0 0 0 0 0 0 0 0 0 0 0 0 0 0 0 0 0 0 0 0 0 0 0 0 0 0 0 0 0 0 0 0 0 0 0 0 0 0 0 0 0 0 0 0 0 0 0 0 0 0 0 0 0 0 0 0 0 0 0 0 0 0 0 0 0 0 163 255 255 168 193 173 163 179 181 177 181 182 187 182 173 177 172 172 162 167 186 172 168 174 158 120 121 211 200 160 162 161 189 210 210 206 158 24 0 0 0 0 74 135 105 82 85 79 84 73 0 0 0 0 0 0 11 21 23 25 25 26 24 20 21 22 19 18 15 14 16 15 19 19 23 25 23 25 23 27 28 23 24 28 26 25 21 20 18 8 11 17 17 58 173 255 255 237 126 89 101 105 0 0 0 0 0 0 0 0 0 0 0 0 0 0 0 0 0 0 0 0 0 0 0 0 0 0 0 0 0 0 0 0 0 0 0 0 0 0 0 0 0 0 0 0 0 0 0 0 0 0 0 0 0 0 0 0 0 0 0 0 0 0 0 0 0 0 0 0 0 0 0 0 0 0 0 0 0 0 0 0 0 0 0 0 0 0 0 0 0 0 0 0 0 0 0 0 0 0 0 0 0 0 0 0 0 0 0 0 0 0 0 0 0 0 0 0 0 0 0 0 0 0 0 0 0 0 0 0 0 0 
0 0 0 0 0 0 0 0 0 0 0 0 0 0 0 0 0 0 0 0 0 0 0 0 0 0 0 0 0 0 0 0 0 0 0 0 0 0 0 0 0 0 0 0 0 0 0 0 0 0 0 0 0 0 0 0 0 0 0 0 0 0 0 0 0 0 0 0 0 0 0 0 0 0 0 0 0 0 0 0 0 0 0 0 0 0 0 0 0 0 0 0 0 0 0 0 0 0 0 0 0 0 0 0 0 0 0 0 0 0 0 0 0 0 0 0 0 0 0 0 0 0 0 0 0 0 0 70 255 255 170 153 168 176 183 195 188 174 174 166 175 178 170 179 186 174 165 169 166 167 184 164 172 126 136 181 127 151 183 215 209 190 148 34 0 0 0 30 98 124 97 77 83 77 86 64 0 0 0 0 0 9 20 24 26 24 22 21 22 23 21 23 25 19 17 17 15 17 17 16 16 21 26 23 24 27 27 33 28 27 26 26 25 21 19 24 19 22 39 94 204 255 255 217 111 92 110 91 0 0 0 0 0 0 0 0 0 0 0 0 0 0 0 0 0 0 0 0 0 0 0 0 0 0 0 0 0 0 0 0 0 0 0 0 0 0 0 0 0 0 0 0 0 0 0 0 0 0 0 0 0 0 0 0 0 0 0 0 0 0 0 0 0 0 0 0 0 0 0 0 0 0 0 0 0 0 0 0 0 0 0 0 0 0 0 0 0 0 0 0 0 0 0 0 0 0 0 0 0 0 0 0 0 0 0 0 0 0 0 0 0 0 0 0 0 0 0 0 0 0 0 0 0 0 0 0 0 0 0 
0 0 0 0 0 0 0 0 0 0 0 0 0 0 0 0 0 0 0 0 0 0 0 0 0 0 0 0 0 0 0 0 0 0 0 0 0 0 0 0 0 0 0 0 0 0 0 0 0 0 0 0 0 0 0 0 0 0 0 0 0 0 0 0 0 0 0 0 0 0 0 0 0 0 0 0 0 0 0 0 0 0 0 0 0 0 0 0 0 0 0 0 0 0 0 0 0 0 0 0 0 0 0 0 0 0 0 0 0 0 0 0 0 0 0 0 0 0 0 0 0 0 0 0 0 0 0 16 255 255 219 124 192 206 184 193 184 165 173 171 165 168 168 188 182 166 158 163 175 167 178 169 180 158 116 217 215 205 215 202 182 126 24 0 0 0 42 98 108 91 75 81 76 77 38 0 0 0 0 0 25 24 26 27 25 23 24 22 23 25 23 24 24 21 17 18 18 17 17 17 16 20 25 23 24 25 26 29 30 25 24 26 26 22 21 23 26 49 129 247 255 255 197 105 92 114 71 0 0 0 0 0 0 0 0 0 0 0 0 0 0 0 0 0 0 0 0 0 0 0 0 0 0 0 0 0 0 0 0 0 0 0 0 0 0 0 0 0 0 0 0 0 0 0 0 0 0 0 0 0 0 0 0 0 0 0 0 0 0 0 0 0 0 0 0 0 0 0 0 0 0 0 0 0 0 0 0 0 0 0 0 0 0 0 0 0 0 0 0 0 0 0 0 0 0 0 0 0 0 0 0 0 0 0 0 0 0 0 0 0 0 0 0 0 0 0 0 0 0 0 0 0 0 0 0 0 0 0 0 
0 0 0 0 0 0 0 0 0 0 0 0 0 0 0 0 0 0 0 0 0 0 0 0 0 0 0 0 0 0 0 0 0 0 0 0 0 0 0 0 0 0 0 0 0 0 0 0 0 0 0 0 0 0 0 0 0 0 0 0 0 0 0 0 0 0 0 0 0 0 0 0 0 0 0 0 0 0 0 0 0 0 0 0 0 0 0 0 0 0 0 0 0 0 0 0 0 0 0 0 0 0 0 0 0 0 0 0 0 0 0 0 0 0 0 0 0 0 0 0 0 0 0 0 0 0 0 3 165 255 255 135 181 185 171 177 178 167 176 179 166 172 189 205 194 166 144 157 185 168 163 163 176 160 90 209 255 218 202 163 112 12 0 0 0 20 93 95 82 82 80 77 83 23 0 0 0 0 7 31 25 22 23 25 22 22 24 25 28 28 24 23 24 19 18 19 19 16 16 15 14 16 19 21 22 24 25 26 25 20 22 26 29 26 24 31 69 158 255 255 255 175 103 105 104 47 0 0 0 0 0 0 0 0 0 0 0 0 0 0 0 0 0 0 0 0 0 0 0 0 0 0 0 0 0 0 0 0 0 0 0 0 0 0 0 0 0 0 0 0 0 0 0 0 0 0 0 0 0 0 0 0 0 0 0 0 0 0 0 0 0 0 0 0 0 0 0 0 0 0 0 0 0 0 0 0 0 0 0 0 0 0 0 0 0 0 0 0 0 0 0 0 0 0 0 0 0 0 0 0 0 0 0 0 0 0 0 0 0 0 0 0 0 0 0 0 0 0 0 0 0 0 0 0 0 0 0 0 0 
0 0 0 0 0 0 0 0 0 0 0 0 0 0 0 0 0 0 0 0 0 0 0 0 0 0 0 0 0 0 0 0 0 0 0 0 0 0 0 0 0 0 0 0 0 0 0 0 0 0 0 0 0 0 0 0 0 0 0 0 0 0 0 0 0 0 0 0 0 0 0 0 0 0 0 0 0 0 0 0 0 0 0 0 0 0 0 0 0 0 0 0 0 0 0 0 0 0 0 0 0 0 0 0 0 0 0 0 0 0 0 0 0 0 0 0 0 0 0 0 0 0 0 0 0 0 0 1 69 255 255 178 173 172 164 171 178 171 167 169 164 177 211 201 170 147 158 166 183 170 163 180 191 155 0 87 254 197 153 113 13 0 0 0 24 110 110 86 82 86 87 68 0 0 0 0 0 18 29 24 22 20 22 25 25 22 24 26 28 27 24 25 23 18 17 22 20 16 19 18 13 16 19 22 26 24 26 28 23 25 26 29 29 25 32 74 178 255 255 255 147 84 94 95 0 0 0 0 0 0 0 0 0 0 0 0 0 0 0 0 0 0 0 0 0 0 0 0 0 0 0 0 0 0 0 0 0 0 0 0 0 0 0 0 0 0 0 0 0 0 0 0 0 0 0 0 0 0 0 0 0 0 0 0 0 0 0 0 0 0 0 0 0 0 0 0 0 0 0 0 0 0 0 0 0 0 0 0 0 0 0 0 0 0 0 0 0 0 0 0 0 0 0 0 0 0 0 0 0 0 0 0 0 0 0 0 0 0 0 0 0 0 0 0 0 0 0 0 0 0 0 0 0 0 0 0 0 0 0 
0 0 0 0 0 0 0 0 0 0 0 0 0 0 0 0 0 0 0 0 0 0 0 0 0 0 0 0 0 0 0 0 0 0 0 0 0 0 0 0 0 0 0 0 0 0 0 0 0 0 0 0 0 0 0 0 0 0 0 0 0 0 0 0 0 0 0 0 0 0 0 0 0 0 0 0 0 0 0 0 0 0 0 0 0 0 0 0 0 0 0 0 0 0 0 0 0 0 0 0 0 0 0 0 0 0 0 0 0 0 0 0 0 0 0 0 0 0 0 0 0 0 0 0 0 0 0 0 18 255 255 232 145 172 182 168 167 194 187 188 198 200 181 154 147 143 167 194 199 187 184 197 204 192 33 48 255 194 81 0 0 0 0 36 119 121 85 75 85 91 81 0 0 0 0 0 22 26 20 19 19 18 22 26 23 20 24 28 24 23 22 20 23 20 22 25 19 17 23 20 13 16 20 22 25 23 24 26 24 26 29 27 26 37 88 202 255 255 238 122 82 97 96 0 0 0 0 0 0 0 0 0 0 0 0 0 0 0 0 0 0 0 0 0 0 0 0 0 0 0 0 0 0 0 0 0 0 0 0 0 0 0 0 0 0 0 0 0 0 0 0 0 0 0 0 0 0 0 0 0 0 0 0 0 0 0 0 0 0 0 0 0 0 0 0 0 0 0 0 0 0 0 0 0 0 0 0 0 0 0 0 0 0 0 0 0 0 0 0 0 0 0 0 0 0 0 0 0 0 0 0 0 0 0 0 0 0 0 0 0 0 0 0 0 0 0 0 0 0 0 0 0 0 0 0 0 0 0 0 
0 0 0 0 0 0 0 0 0 0 0 0 0 0 0 0 0 0 0 0 0 0 0 0 0 0 0 0 0 0 0 0 0 0 0 0 0 0 0 0 0 0 0 0 0 0 0 0 0 0 0 0 0 0 0 0 0 0 0 0 0 0 0 0 0 0 0 0 0 0 0 0 0 0 0 0 0 0 0 0 0 0 0 0 0 0 0 0 0 0 0 0 0 0 0 0 0 0 0 0 0 0 0 0 0 0 0 0 0 0 0 0 0 0 0 0 0 0 0 0 0 0 0 0 0 0 0 0 5 176 255 255 153 182 198 192 177 180 179 185 179 171 155 145 169 175 187 191 170 178 191 205 218 202 107 109 255 167 0 0 0 0 52 124 119 90 77 80 96 84 0 0 0 0 0 24 24 19 18 19 21 21 23 28 23 21 25 25 22 24 23 20 23 22 20 20 17 17 22 17 5 7 16 21 25 25 22 27 27 26 27 25 41 104 222 255 255 218 103 73 103 109 0 0 0 0 0 0 0 0 0 0 0 0 0 0 0 0 0 0 0 0 0 0 0 0 0 0 0 0 0 0 0 0 0 0 0 0 0 0 0 0 0 0 0 0 0 0 0 0 0 0 0 0 0 0 0 0 0 0 0 0 0 0 0 0 0 0 0 0 0 0 0 0 0 0 0 0 0 0 0 0 0 0 0 0 0 0 0 0 0 0 0 0 0 0 0 0 0 0 0 0 0 0 0 0 0 0 0 0 0 0 0 0 0 0 0 0 0 0 0 0 0 0 0 0 0 0 0 0 0 0 0 0 0 0 0 0 0 
0 0 0 0 0 0 0 0 0 0 0 0 0 0 0 0 0 0 0 0 0 0 0 0 0 0 0 0 0 0 0 0 0 0 0 0 0 0 0 0 0 0 0 0 0 0 0 0 0 0 0 0 0 0 0 0 0 0 0 0 0 0 0 0 0 0 0 0 0 0 0 0 0 0 0 0 0 0 0 0 0 0 0 0 0 0 0 0 0 0 0 0 0 0 0 0 0 0 0 0 0 0 0 0 0 0 0 0 0 0 0 0 0 0 0 0 0 0 0 0 0 0 0 0 0 0 0 0 1 63 255 255 184 169 173 173 168 158 158 172 151 137 150 164 181 186 169 163 169 179 202 218 199 169 137 105 151 35 0 0 0 55 104 91 76 84 83 93 80 0 0 0 0 0 28 25 21 20 21 22 25 23 23 25 23 24 27 25 24 25 23 24 25 23 21 22 20 17 19 18 9 6 16 24 24 24 26 29 24 20 27 51 120 239 255 255 189 88 75 101 85 0 0 0 0 0 0 0 0 0 0 0 0 0 0 0 0 0 0 0 0 0 0 0 0 0 0 0 0 0 0 0 0 0 0 0 0 0 0 0 0 0 0 0 0 0 0 0 0 0 0 0 0 0 0 0 0 0 0 0 0 0 0 0 0 0 0 0 0 0 0 0 0 0 0 0 0 0 0 0 0 0 0 0 0 0 0 0 0 0 0 0 0 0 0 0 0 0 0 0 0 0 0 0 0 0 0 0 0 0 0 0 0 0 0 0 0 0 0 0 0 0 0 0 0 0 0 0 0 0 0 0 0 0 0 0 0 0 0 
0 0 0 0 0 0 0 0 0 0 0 0 0 0 0 0 0 0 0 0 0 0 0 0 0 0 0 0 0 0 0 0 0 0 0 0 0 0 0 0 0 0 0 0 0 0 0 0 0 0 0 0 0 0 0 0 0 0 0 0 0 0 0 0 0 0 0 0 0 0 0 0 0 0 0 0 0 0 0 0 0 0 0 0 0 0 0 0 0 0 0 0 0 0 0 0 0 0 0 0 0 0 0 0 0 0 0 0 0 0 0 0 0 0 0 0 0 0 0 0 0 0 0 0 0 0 0 0 0 17 255 255 230 144 154 158 160 158 175 181 148 145 176 197 192 177 158 168 194 222 232 205 160 141 133 50 0 0 0 0 82 115 92 76 84 90 94 66 0 0 0 0 0 27 21 21 20 19 20 22 25 22 22 23 22 23 22 24 24 23 21 22 24 21 21 22 23 20 17 12 10 11 23 27 27 26 27 28 20 23 61 154 255 255 255 171 78 85 113 68 0 0 0 0 0 0 0 0 0 0 0 0 0 0 0 0 0 0 0 0 0 0 0 0 0 0 0 0 0 0 0 0 0 0 0 0 0 0 0 0 0 0 0 0 0 0 0 0 0 0 0 0 0 0 0 0 0 0 0 0 0 0 0 0 0 0 0 0 0 0 0 0 0 0 0 0 0 0 0 0 0 0 0 0 0 0 0 0 0 0 0 0 0 0 0 0 0 0 0 0 0 0 0 0 0 0 0 0 0 0 0 0 0 0 0 0 0 0 0 0 0 0 0 0 0 0 0 0 0 0 0 0 0 0 0 0 0 0 0 
0 0 0 0 0 0 0 0 0 0 0 0 0 0 0 0 0 0 0 0 0 0 0 0 0 0 0 0 0 0 0 0 0 0 0 0 0 0 0 0 0 0 0 0 0 0 0 0 0 0 0 0 0 0 0 0 0 0 0 0 0 0 0 0 0 0 0 0 0 0 0 0 0 0 0 0 0 0 0 0 0 0 0 0 0 0 0 0 0 0 0 0 0 0 0 0 0 0 0 0 0 0 0 0 0 0 0 0 0 0 0 0 0 0 0 0 0 0 0 0 0 0 0 0 0 0 0 0 0 6 175 255 255 156 160 172 186 178 187 176 146 154 172 179 179 156 149 183 230 233 207 164 131 110 51 0 0 0 0 92 112 88 82 93 97 106 55 0 0 0 0 2 33 22 18 18 18 22 24 23 24 22 22 21 25 26 24 22 22 21 21 23 24 21 20 21 19 20 13 6 12 16 18 25 27 26 23 23 27 68 172 255 255 255 144 73 81 110 54 0 0 0 0 0 0 0 0 0 0 0 0 0 0 0 0 0 0 0 0 0 0 0 0 0 0 0 0 0 0 0 0 0 0 0 0 0 0 0 0 0 0 0 0 0 0 0 0 0 0 0 0 0 0 0 0 0 0 0 0 0 0 0 0 0 0 0 0 0 0 0 0 0 0 0 0 0 0 0 0 0 0 0 0 0 0 0 0 0 0 0 0 0 0 0 0 0 0 0 0 0 0 0 0 0 0 0 0 0 0 0 0 0 0 0 0 0 0 0 0 0 0 0 0 0 0 0 0 0 0 0 0 0 0 0 0 0 0 0 0 
0 0 0 0 0 0 0 0 0 0 0 0 0 0 0 0 0 0 0 0 0 0 0 0 0 0 0 0 0 0 0 0 0 0 0 0 0 0 0 0 0 0 0 0 0 0 0 0 0 0 0 0 0 0 0 0 0 0 0 0 0 0 0 0 0 0 0 0 0 0 0 0 0 0 0 0 0 0 0 0 0 0 0 0 0 0 0 0 0 0 0 0 0 0 0 0 0 0 0 0 0 0 0 0 0 0 0 0 0 0 0 0 0 0 0 0 0 0 0 0 0 0 0 0 0 0 0 0 0 1 72 255 255 167 160 183 172 154 154 146 146 164 154 144 150 150 170 239 245 199 162 135 105 33 0 0 0 11 99 105 86 85 92 101 103 42 0 0 0 0 8 32 22 19 20 23 24 26 28 25 24 24 23 22 22 25 23 22 23 21 23 25 24 20 20 24 19 15 9 7 22 28 15 20 25 22 20 32 82 192 255 255 244 118 68 85 87 17 0 0 0 0 0 0 0 0 0 0 0 0 0 0 0 0 0 0 0 0 0 0 0 0 0 0 0 0 0 0 0 0 0 0 0 0 0 0 0 0 0 0 0 0 0 0 0 0 0 0 0 0 0 0 0 0 0 0 0 0 0 0 0 0 0 0 0 0 0 0 0 0 0 0 0 0 0 0 0 0 0 0 0 0 0 0 0 0 0 0 0 0 0 0 0 0 0 0 0 0 0 0 0 0 0 0 0 0 0 0 0 0 0 0 0 0 0 0 0 0 0 0 0 0 0 0 0 0 0 0 0 0 0 0 0 0 0 0 0 0 0 
0 0 0 0 0 0 0 0 0 0 0 0 0 0 0 0 0 0 0 0 0 0 0 0 0 0 0 0 0 0 0 0 0 0 0 0 0 0 0 0 0 0 0 0 0 0 0 0 0 0 0 0 0 0 0 0 0 0 0 0 0 0 0 0 0 0 0 0 0 0 0 0 0 0 0 0 0 0 0 0 0 0 0 0 0 0 0 0 0 0 0 0 0 0 0 0 0 0 0 0 0 0 0 0 0 0 0 0 0 0 0 0 0 0 0 0 0 0 0 0 0 0 0 0 0 0 0 0 0 0 24 255 255 229 144 173 160 149 152 150 151 156 162 174 191 199 224 255 213 163 130 93 0 0 0 0 14 108 111 84 90 91 94 98 20 0 0 0 0 16 27 20 18 22 21 25 27 26 24 20 21 22 22 21 21 24 24 22 21 21 22 23 20 17 20 25 21 12 9 15 30 27 16 17 24 21 37 101 219 255 255 232 116 70 83 96 0 0 0 0 0 0 0 0 0 0 0 0 0 0 0 0 0 0 0 0 0 0 0 0 0 0 0 0 0 0 0 0 0 0 0 0 0 0 0 0 0 0 0 0 0 0 0 0 0 0 0 0 0 0 0 0 0 0 0 0 0 0 0 0 0 0 0 0 0 0 0 0 0 0 0 0 0 0 0 0 0 0 0 0 0 0 0 0 0 0 0 0 0 0 0 0 0 0 0 0 0 0 0 0 0 0 0 0 0 0 0 0 0 0 0 0 0 0 0 0 0 0 0 0 0 0 0 0 0 0 0 0 0 0 0 0 0 0 0 0 0 0 0 
0 0 0 0 0 0 0 0 0 0 0 0 0 0 0 0 0 0 0 0 0 0 0 0 0 0 0 0 0 0 0 0 0 0 0 0 0 0 0 0 0 0 0 0 0 0 0 0 0 0 0 0 0 0 0 0 0 0 0 0 0 0 0 0 0 0 0 0 0 0 0 0 0 0 0 0 0 0 0 0 0 0 0 0 0 0 0 0 0 0 0 0 0 0 0 0 0 0 0 0 0 0 0 0 0 0 0 0 0 0 0 0 0 0 0 0 0 0 0 0 0 0 0 0 0 0 0 0 0 0 7 168 255 255 152 164 164 167 161 160 160 169 182 197 206 221 244 214 168 136 80 0 0 0 0 35 114 111 85 81 89 95 95 7 0 0 0 0 27 29 23 24 22 24 23 22 23 20 24 24 21 22 26 25 22 24 25 24 21 21 21 20 22 23 22 23 20 16 17 27 31 20 16 15 22 42 119 247 255 255 202 96 75 85 67 0 0 0 0 0 0 0 0 0 0 0 0 0 0 0 0 0 0 0 0 0 0 0 0 0 0 0 0 0 0 0 0 0 0 0 0 0 0 0 0 0 0 0 0 0 0 0 0 0 0 0 0 0 0 0 0 0 0 0 0 0 0 0 0 0 0 0 0 0 0 0 0 0 0 0 0 0 0 0 0 0 0 0 0 0 0 0 0 0 0 0 0 0 0 0 0 0 0 0 0 0 0 0 0 0 0 0 0 0 0 0 0 0 0 0 0 0 0 0 0 0 0 0 0 0 0 0 0 0 0 0 0 0 0 0 0 0 0 0 0 0 0 0 0 
0 0 0 0 0 0 0 0 0 0 0 0 0 0 0 0 0 0 0 0 0 0 0 0 0 0 0 0 0 0 0 0 0 0 0 0 0 0 0 0 0 0 0 0 0 0 0 0 0 0 0 0 0 0 0 0 0 0 0 0 0 0 0 0 0 0 0 0 0 0 0 0 0 0 0 0 0 0 0 0 0 0 0 0 0 0 0 0 0 0 0 0 0 0 0 0 0 0 0 0 0 0 0 0 0 0 0 0 0 0 0 0 0 0 0 0 0 0 0 0 0 0 0 0 0 0 0 0 0 0 1 74 255 255 158 137 157 154 138 143 157 175 176 166 176 212 226 179 131 75 0 0 0 0 61 125 112 82 76 78 94 94 3 0 0 0 0 39 36 27 30 32 32 31 32 30 33 32 34 37 32 32 37 36 33 36 37 36 35 33 31 32 33 33 27 27 25 19 27 35 38 36 41 46 68 155 255 255 255 165 66 67 78 47 0 0 0 0 0 0 0 0 0 0 0 0 0 0 0 0 0 0 0 0 0 0 0 0 0 0 0 0 0 0 0 0 0 0 0 0 0 0 0 0 0 0 0 0 0 0 0 0 0 0 0 0 0 0 0 0 0 0 0 0 0 0 0 0 0 0 0 0 0 0 0 0 0 0 0 0 0 0 0 0 0 0 0 0 0 0 0 0 0 0 0 0 0 0 0 0 0 0 0 0 0 0 0 0 0 0 0 0 0 0 0 0 0 0 0 0 0 0 0 0 0 0 0 0 0 0 0 0 0 0 0 0 0 0 0 0 0 0 0 0 0 0 0 0 0 
0 0 0 0 0 0 0 0 0 0 0 0 0 0 0 0 0 0 0 0 0 0 0 0 0 0 0 0 0 0 0 0 0 0 0 0 0 0 0 0 0 0 0 0 0 0 0 0 0 0 0 0 0 0 0 0 0 0 0 0 0 0 0 0 0 0 0 0 0 0 0 0 0 0 0 0 0 0 0 0 0 0 0 0 0 0 0 0 0 0 0 0 0 0 0 0 0 0 0 0 0 0 0 0 0 0 0 0 0 0 0 0 0 0 0 0 0 0 0 0 0 0 0 0 0 0 0 0 0 0 0 28 255 255 206 124 159 149 141 145 166 201 185 171 194 212 196 129 43 0 0 0 0 85 132 101 82 78 75 102 95 0 0 0 0 0 45 42 34 34 34 34 37 40 42 41 44 46 43 41 38 39 44 41 38 40 41 42 42 41 43 45 48 49 56 62 63 68 90 105 124 153 171 189 217 255 255 255 142 54 61 87 40 0 0 0 0 0 0 0 0 0 0 0 0 0 0 0 0 0 0 0 0 0 0 0 0 0 0 0 0 0 0 0 0 0 0 0 0 0 0 0 0 0 0 0 0 0 0 0 0 0 0 0 0 0 0 0 0 0 0 0 0 0 0 0 0 0 0 0 0 0 0 0 0 0 0 0 0 0 0 0 0 0 0 0 0 0 0 0 0 0 0 0 0 0 0 0 0 0 0 0 0 0 0 0 0 0 0 0 0 0 0 0 0 0 0 0 0 0 0 0 0 0 0 0 0 0 0 0 0 0 0 0 0 0 0 0 0 0 0 0 0 0 0 0 0 0 0 
0 0 0 0 0 0 0 0 0 0 0 0 0 0 0 0 0 0 0 0 0 0 0 0 0 0 0 0 0 0 0 0 0 0 0 0 0 0 0 0 0 0 0 0 0 0 0 0 0 0 0 0 0 0 0 0 0 0 0 0 0 0 0 0 0 0 0 0 0 0 0 0 0 0 0 0 0 0 0 0 0 0 0 0 0 0 0 0 0 0 0 0 0 0 0 0 0 0 0 0 0 0 0 0 0 0 0 0 0 0 0 0 0 0 0 0 0 0 0 0 0 0 0 0 0 0 0 0 0 0 0 8 177 255 255 125 139 147 163 173 186 212 188 181 206 205 159 39 0 0 0 0 102 143 103 78 86 87 102 92 0 0 0 0 0 36 31 32 31 30 30 32 32 33 30 32 31 30 26 25 27 27 32 34 35 44 51 60 71 82 94 116 132 148 172 187 196 217 243 255 255 255 255 255 255 255 229 119 56 60 64 0 0 0 0 0 0 0 0 0 0 0 0 0 0 0 0 0 0 0 0 0 0 0 0 0 0 0 0 0 0 0 0 0 0 0 0 0 0 0 0 0 0 0 0 0 0 0 0 0 0 0 0 0 0 0 0 0 0 0 0 0 0 0 0 0 0 0 0 0 0 0 0 0 0 0 0 0 0 0 0 0 0 0 0 0 0 0 0 0 0 0 0 0 0 0 0 0 0 0 0 0 0 0 0 0 0 0 0 0 0 0 0 0 0 0 0 0 0 0 0 0 0 0 0 0 0 0 0 0 0 0 0 0 0 0 0 0 0 0 0 0 0 0 0 0 0 0 0 
0 0 0 0 0 0 0 0 0 0 0 0 0 0 0 0 0 0 0 0 0 0 0 0 0 0 0 0 0 0 0 0 0 0 0 0 0 0 0 0 0 0 0 0 0 0 0 0 0 0 0 0 0 0 0 0 0 0 0 0 0 0 0 0 0 0 0 0 0 0 0 0 0 0 0 0 0 0 0 0 0 0 0 0 0 0 0 0 0 0 0 0 0 0 0 0 0 0 0 0 0 0 0 0 0 0 0 0 0 0 0 0 0 0 0 0 0 0 0 0 0 0 0 0 0 0 0 0 0 0 0 1 90 255 255 134 109 140 155 174 197 199 165 169 189 114 3 0 0 0 0 113 143 99 81 80 89 112 76 0 0 0 0 3 38 27 26 27 24 20 19 21 28 35 37 33 37 37 42 56 70 82 94 111 128 151 170 186 210 225 237 252 255 255 255 255 255 255 255 254 237 224 195 171 147 112 91 59 65 58 0 0 0 0 0 0 0 0 0 0 0 0 0 0 0 0 0 0 0 0 0 0 0 0 0 0 0 0 0 0 0 0 0 0 0 0 0 0 0 0 0 0 0 0 0 0 0 0 0 0 0 0 0 0 0 0 0 0 0 0 0 0 0 0 0 0 0 0 0 0 0 0 0 0 0 0 0 0 0 0 0 0 0 0 0 0 0 0 0 0 0 0 0 0 0 0 0 0 0 0 0 0 0 0 0 0 0 0 0 0 0 0 0 0 0 0 0 0 0 0 0 0 0 0 0 0 0 0 0 0 0 0 0 0 0 0 0 0 0 0 0 0 0 0 0 0 0 0 0 
0 0 0 0 0 0 0 0 0 0 0 0 0 0 0 0 0 0 0 0 0 0 0 0 0 0 0 0 0 0 0 0 0 0 0 0 0 0 0 0 0 0 0 0 0 0 0 0 0 0 0 0 0 0 0 0 0 0 0 0 0 0 0 0 0 0 0 0 0 0 0 0 0 0 0 0 0 0 0 0 0 0 0 0 0 0 0 0 0 0 0 0 0 0 0 0 0 0 0 0 0 0 0 0 0 0 0 0 0 0 0 0 0 0 0 0 0 0 0 0 0 0 0 0 0 0 0 0 0 0 0 0 35 255 255 182 111 162 166 185 205 193 175 189 165 0 0 0 0 16 128 137 100 84 83 79 92 51 0 0 0 0 9 36 25 25 32 35 37 43 51 60 74 97 118 123 140 157 173 198 219 233 244 255 255 255 255 255 255 255 254 242 223 206 195 177 156 144 125 102 89 79 71 64 56 65 75 63 40 0 0 0 0 0 0 0 0 0 0 0 0 0 0 0 0 0 0 0 0 0 0 0 0 0 0 0 0 0 0 0 0 0 0 0 0 0 0 0 0 0 0 0 0 0 0 0 0 0 0 0 0 0 0 0 0 0 0 0 0 0 0 0 0 0 0 0 0 0 0 0 0 0 0 0 0 0 0 0 0 0 0 0 0 0 0 0 0 0 0 0 0 0 0 0 0 0 0 0 0 0 0 0 0 0 0 0 0 0 0 0 0 0 0 0 0 0 0 0 0 0 0 0 0 0 0 0 0 0 0 0 0 0 0 0 0 0 0 0 0 0 0 0 0 0 0 0 0 0 0 
0 0 0 0 0 0 0 0 0 0 0 0 0 0 0 0 0 0 0 0 0 0 0 0 0 0 0 0 0 0 0 0 0 0 0 0 0 0 0 0 0 0 0 0 0 0 0 0 0 0 0 0 0 0 0 0 0 0 0 0 0 0 0 0 0 0 0 0 0 0 0 0 0 0 0 0 0 0 0 0 0 0 0 0 0 0 0 0 0 0 0 0 0 0 0 0 0 0 0 0 0 0 0 0 0 0 0 0 0 0 0 0 0 0 0 0 0 0 0 0 0 0 0 0 0 0 0 0 0 0 0 0 9 171 255 255 131 194 204 220 211 187 180 138 24 0 0 0 77 114 119 91 89 92 82 90 44 0 0 0 0 48 71 74 81 91 109 125 145 166 184 198 217 231 245 247 254 255 255 255 255 255 244 231 223 207 188 172 155 140 120 109 97 96 94 87 81 74 66 59 62 71 82 77 75 67 34 0 0 0 0 0 0 0 0 0 0 0 0 0 0 0 0 0 0 0 0 0 0 0 0 0 0 0 0 0 0 0 0 0 0 0 0 0 0 0 0 0 0 0 0 0 0 0 0 0 0 0 0 0 0 0 0 0 0 0 0 0 0 0 0 0 0 0 0 0 0 0 0 0 0 0 0 0 0 0 0 0 0 0 0 0 0 0 0 0 0 0 0 0 0 0 0 0 0 0 0 0 0 0 0 0 0 0 0 0 0 0 0 0 0 0 0 0 0 0 0 0 0 0 0 0 0 0 0 0 0 0 0 0 0 0 0 0 0 0 0 0 0 0 0 0 0 0 0 0 0 0 0 
0 0 0 0 0 0 0 0 0 0 0 0 0 0 0 0 0 0 0 0 0 0 0 0 0 0 0 0 0 0 0 0 0 0 0 0 0 0 0 0 0 0 0 0 0 0 0 0 0 0 0 0 0 0 0 0 0 0 0 0 0 0 0 0 0 0 0 0 0 0 0 0 0 0 0 0 0 0 0 0 0 0 0 0 0 0 0 0 0 0 0 0 0 0 0 0 0 0 0 0 0 0 0 0 0 0 0 0 0 0 0 0 0 0 0 0 0 0 0 0 0 0 0 0 0 0 0 0 0 0 0 0 1 92 255 255 177 184 199 210 192 170 112 0 0 0 0 90 123 83 82 87 94 89 93 93 12 0 0 88 177 186 194 205 218 233 248 255 255 255 255 255 255 249 236 213 199 188 169 155 150 138 114 104 102 99 97 95 87 83 80 80 81 86 85 79 62 52 42 18 0 0 0 0 0 0 0 0 0 0 0 0 0 0 0 0 0 0 0 0 0 0 0 0 0 0 0 0 0 0 0 0 0 0 0 0 0 0 0 0 0 0 0 0 0 0 0 0 0 0 0 0 0 0 0 0 0 0 0 0 0 0 0 0 0 0 0 0 0 0 0 0 0 0 0 0 0 0 0 0 0 0 0 0 0 0 0 0 0 0 0 0 0 0 0 0 0 0 0 0 0 0 0 0 0 0 0 0 0 0 0 0 0 0 0 0 0 0 0 0 0 0 0 0 0 0 0 0 0 0 0 0 0 0 0 0 0 0 0 0 0 0 0 0 0 0 0 0 0 0 0 0 0 0 0 0 0 0 0 
0 0 0 0 0 0 0 0 0 0 0 0 0 0 0 0 0 0 0 0 0 0 0 0 0 0 0 0 0 0 0 0 0 0 0 0 0 0 0 0 0 0 0 0 0 0 0 0 0 0 0 0 0 0 0 0 0 0 0 0 0 0 0 0 0 0 0 0 0 0 0 0 0 0 0 0 0 0 0 0 0 0 0 0 0 0 0 0 0 0 0 0 0 0 0 0 0 0 0 0 0 0 0 0 0 0 0 0 0 0 0 0 0 0 0 0 0 0 0 0 0 0 0 0 0 0 0 0 0 0 0 0 0 45 255 255 237 159 171 181 157 85 0 0 0 0 54 105 86 72 87 87 90 97 109 84 27 53 195 255 255 252 253 248 248 246 237 229 210 182 158 145 129 117 110 98 92 94 93 100 102 95 85 89 91 90 88 79 62 43 33 13 0 0 0 0 0 0 0 0 0 0 0 0 0 0 0 0 0 0 0 0 0 0 0 0 0 0 0 0 0 0 0 0 0 0 0 0 0 0 0 0 0 0 0 0 0 0 0 0 0 0 0 0 0 0 0 0 0 0 0 0 0 0 0 0 0 0 0 0 0 0 0 0 0 0 0 0 0 0 0 0 0 0 0 0 0 0 0 0 0 0 0 0 0 0 0 0 0 0 0 0 0 0 0 0 0 0 0 0 0 0 0 0 0 0 0 0 0 0 0 0 0 0 0 0 0 0 0 0 0 0 0 0 0 0 0 0 0 0 0 0 0 0 0 0 0 0 0 0 0 0 0 0 0 0 0 0 0 0 0 0 0 0 0 0 0 0 0 
0 0 0 0 0 0 0 0 0 0 0 0 0 0 0 0 0 0 0 0 0 0 0 0 0 0 0 0 0 0 0 0 0 0 0 0 0 0 0 0 0 0 0 0 0 0 0 0 0 0 0 0 0 0 0 0 0 0 0 0 0 0 0 0 0 0 0 0 0 0 0 0 0 0 0 0 0 0 0 0 0 0 0 0 0 0 0 0 0 0 0 0 0 0 0 0 0 0 0 0 0 0 0 0 0 0 0 0 0 0 0 0 0 0 0 0 0 0 0 0 0 0 0 0 0 0 0 0 0 0 0 0 0 13 186 255 255 160 176 150 58 0 0 0 0 76 123 100 80 91 95 88 93 101 97 77 65 128 190 179 159 150 150 145 139 131 109 100 89 77 80 85 79 76 92 103 100 97 94 89 76 54 26 0 0 0 0 0 0 0 0 0 0 0 0 0 0 0 0 0 0 0 0 0 0 0 0 0 0 0 0 0 0 0 0 0 0 0 0 0 0 0 0 0 0 0 0 0 0 0 0 0 0 0 0 0 0 0 0 0 0 0 0 0 0 0 0 0 0 0 0 0 0 0 0 0 0 0 0 0 0 0 0 0 0 0 0 0 0 0 0 0 0 0 0 0 0 0 0 0 0 0 0 0 0 0 0 0 0 0 0 0 0 0 0 0 0 0 0 0 0 0 0 0 0 0 0 0 0 0 0 0 0 0 0 0 0 0 0 0 0 0 0 0 0 0 0 0 0 0 0 0 0 0 0 0 0 0 0 0 0 0 0 0 0 0 0 0 0 0 0 0 0 0 0 0 0 0 0 
0 0 0 0 0 0 0 0 0 0 0 0 0 0 0 0 0 0 0 0 0 0 0 0 0 0 0 0 0 0 0 0 0 0 0 0 0 0 0 0 0 0 0 0 0 0 0 0 0 0 0 0 0 0 0 0 0 0 0 0 0 0 0 0 0 0 0 0 0 0 0 0 0 0 0 0 0 0 0 0 0 0 0 0 0 0 0 0 0 0 0 0 0 0 0 0 0 0 0 0 0 0 0 0 0 0 0 0 0 0 0 0 0 0 0 0 0 0 0 0 0 0 0 0 0 0 0 0 0 0 0 0 0 1 88 255 255 183 131 42 0 0 0 0 97 124 92 76 89 89 82 86 93 87 82 69 77 105 100 80 74 76 79 86 90 85 75 72 71 77 87 84 74 59 32 0 0 0 0 0 0 0 0 0 0 0 0 0 0 0 0 0 0 0 0 0 0 0 0 0 0 0 0 0 0 0 0 0 0 0 0 0 0 0 0 0 0 0 0 0 0 0 0 0 0 0 0 0 0 0 0 0 0 0 0 0 0 0 0 0 0 0 0 0 0 0 0 0 0 0 0 0 0 0 0 0 0 0 0 0 0 0 0 0 0 0 0 0 0 0 0 0 0 0 0 0 0 0 0 0 0 0 0 0 0 0 0 0 0 0 0 0 0 0 0 0 0 0 0 0 0 0 0 0 0 0 0 0 0 0 0 0 0 0 0 0 0 0 0 0 0 0 0 0 0 0 0 0 0 0 0 0 0 0 0 0 0 0 0 0 0 0 0 0 0 0 0 0 0 0 0 0 0 0 0 0 0 0 0 
0 0 0 0 0 0 0 0 0 0 0 0 0 0 0 0 0 0 0 0 0 0 0 0 0 0 0 0 0 0 0 0 0 0 0 0 0 0 0 0 0 0 0 0 0 0 0 0 0 0 0 0 0 0 0 0 0 0 0 0 0 0 0 0 0 0 0 0 0 0 0 0 0 0 0 0 0 0 0 0 0 0 0 0 0 0 0 0 0 0 0 0 0 0 0 0 0 0 0 0 0 0 0 0 0 0 0 0 0 0 0 0 0 0 0 0 0 0 0 0 0 0 0 0 0 0 0 0 0 0 0 0 0 0 43 255 255 186 1 0 0 0 17 107 119 83 66 77 76 69 69 79 84 80 76 77 83 84 72 68 74 74 77 70 60 45 10 0 0 0 0 0 0 0 0 0 0 0 0 0 0 0 0 0 0 0 0 0 0 0 0 0 0 0 0 0 0 0 0 0 0 0 0 0 0 0 0 0 0 0 0 0 0 0 0 0 0 0 0 0 0 0 0 0 0 0 0 0 0 0 0 0 0 0 0 0 0 0 0 0 0 0 0 0 0 0 0 0 0 0 0 0 0 0 0 0 0 0 0 0 0 0 0 0 0 0 0 0 0 0 0 0 0 0 0 0 0 0 0 0 0 0 0 0 0 0 0 0 0 0 0 0 0 0 0 0 0 0 0 0 0 0 0 0 0 0 0 0 0 0 0 0 0 0 0 0 0 0 0 0 0 0 0 0 0 0 0 0 0 0 0 0 0 0 0 0 0 0 0 0 0 0 0 0 0 0 0 0 0 0 0 0 0 0 0 0 0 0 0 
0 0 0 0 0 0 0 0 0 0 0 0 0 0 0 0 0 0 0 0 0 0 0 0 0 0 0 0 0 0 0 0 0 0 0 0 0 0 0 0 0 0 0 0 0 0 0 0 0 0 0 0 0 0 0 0 0 0 0 0 0 0 0 0 0 0 0 0 0 0 0 0 0 0 0 0 0 0 0 0 0 0 0 0 0 0 0 0 0 0 0 0 0 0 0 0 0 0 0 0 0 0 0 0 0 0 0 0 0 0 0 0 0 0 0 0 0 0 0 0 0 0 0 0 0 0 0 0 0 0 0 0 0 0 12 202 255 136 0 0 0 44 114 109 75 69 73 75 75 78 78 80 74 54 37 16 16 19 0 0 0 0 0 0 0 0 0 0 0 0 0 0 0 0 0 0 0 0 0 0 0 0 0 0 0 0 0 0 0 0 0 0 0 0 0 0 0 0 0 0 0 0 0 0 0 0 0 0 0 0 0 0 0 0 0 0 0 0 0 0 0 0 0 0 0 0 0 0 0 0 0 0 0 0 0 0 0 0 0 0 0 0 0 0 0 0 0 0 0 0 0 0 0 0 0 0 0 0 0 0 0 0 0 0 0 0 0 0 0 0 0 0 0 0 0 0 0 0 0 0 0 0 0 0 0 0 0 0 0 0 0 0 0 0 0 0 0 0 0 0 0 0 0 0 0 0 0 0 0 0 0 0 0 0 0 0 0 0 0 0 0 0 0 0 0 0 0 0 0 0 0 0 0 0 0 0 0 0 0 0 0 0 0 0 0 0 0 0 0 0 0 0 0 0 0 0 0 0 0 
0 0 0 0 0 0 0 0 0 0 0 0 0 0 0 0 0 0 0 0 0 0 0 0 0 0 0 0 0 0 0 0 0 0 0 0 0 0 0 0 0 0 0 0 0 0 0 0 0 0 0 0 0 0 0 0 0 0 0 0 0 0 0 0 0 0 0 0 0 0 0 0 0 0 0 0 0 0 0 0 0 0 0 0 0 0 0 0 0 0 0 0 0 0 0 0 0 0 0 0 0 0 0 0 0 0 0 0 0 0 0 0 0 0 0 0 0 0 0 0 0 0 0 0 0 0 0 0 0 0 0 0 0 0 1 107 255 115 0 0 56 129 97 64 68 76 59 47 52 15 0 0 0 0 0 0 0 0 0 0 0 0 0 0 0 0 0 0 0 0 0 0 0 0 0 0 0 0 0 0 0 0 0 0 0 0 0 0 0 0 0 0 0 0 0 0 0 0 0 0 0 0 0 0 0 0 0 0 0 0 0 0 0 0 0 0 0 0 0 0 0 0 0 0 0 0 0 0 0 0 0 0 0 0 0 0 0 0 0 0 0 0 0 0 0 0 0 0 0 0 0 0 0 0 0 0 0 0 0 0 0 0 0 0 0 0 0 0 0 0 0 0 0 0 0 0 0 0 0 0 0 0 0 0 0 0 0 0 0 0 0 0 0 0 0 0 0 0 0 0 0 0 0 0 0 0 0 0 0 0 0 0 0 0 0 0 0 0 0 0 0 0 0 0 0 0 0 0 0 0 0 0 0 0 0 0 0 0 0 0 0 0 0 0 0 0 0 0 0 0 0 0 0 0 0 0 0 0 0 
0 0 0 0 0 0 0 0 0 0 0 0 0 0 0 0 0 0 0 0 0 0 0 0 0 0 0 0 0 0 0 0 0 0 0 0 0 0 0 0 0 0 0 0 0 0 0 0 0 0 0 0 0 0 0 0 0 0 0 0 0 0 0 0 0 0 0 0 0 0 0 0 0 0 0 0 0 0 0 0 0 0 0 0 0 0 0 0 0 0 0 0 0 0 0 0 0 0 0 0 0 0 0 0 0 0 0 0 0 0 0 0 0 0 0 0 0 0 0 0 0 0 0 0 0 0 0 0 0 0 0 0 0 0 0 35 167 132 0 9 90 33 0 0 0 0 0 0 0 0 0 0 0 0 0 0 0 0 0 0 0 0 0 0 0 0 0 0 0 0 0 0 0 0 0 0 0 0 0 0 0 0 0 0 0 0 0 0 0 0 0 0 0 0 0 0 0 0 0 0 0 0 0 0 0 0 0 0 0 0 0 0 0 0 0 0 0 0 0 0 0 0 0 0 0 0 0 0 0 0 0 0 0 0 0 0 0 0 0 0 0 0 0 0 0 0 0 0 0 0 0 0 0 0 0 0 0 0 0 0 0 0 0 0 0 0 0 0 0 0 0 0 0 0 0 0 0 0 0 0 0 0 0 0 0 0 0 0 0 0 0 0 0 0 0 0 0 0 0 0 0 0 0 0 0 0 0 0 0 0 0 0 0 0 0 0 0 0 0 0 0 0 0 0 0 0 0 0 0 0 0 0 0 0 0 0 0 0 0 0 0 0 0 0 0 0 0 0 0 0 0 0 0 0 0 0 0 0 0 
0 0 0 0 0 0 0 0 0 0 0 0 0 0 0 0 0 0 0 0 0 0 0 0 0 0 0 0 0 0 0 0 0 0 0 0 0 0 0 0 0 0 0 0 0 0 0 0 0 0 0 0 0 0 0 0 0 0 0 0 0 0 0 0 0 0 0 0 0 0 0 0 0 0 0 0 0 0 0 0 0 0 0 0 0 0 0 0 0 0 0 0 0 0 0 0 0 0 0 0 0 0 0 0 0 0 0 0 0 0 0 0 0 0 0 0 0 0 0 0 0 0 0 0 0 0 0 0 0 0 0 0 0 0 0 4 26 0 0 0 0 0 0 0 0 0 0 0 0 0 0 0 0 0 0 0 0 0 0 0 0 0 0 0 0 0 0 0 0 0 0 0 0 0 0 0 0 0 0 0 0 0 0 0 0 0 0 0 0 0 0 0 0 0 0 0 0 0 0 0 0 0 0 0 0 0 0 0 0 0 0 0 0 0 0 0 0 0 0 0 0 0 0 0 0 0 0 0 0 0 0 0 0 0 0 0 0 0 0 0 0 0 0 0 0 0 0 0 0 0 0 0 0 0 0 0 0 0 0 0 0 0 0 0 0 0 0 0 0 0 0 0 0 0 0 0 0 0 0 0 0 0 0 0 0 0 0 0 0 0 0 0 0 0 0 0 0 0 0 0 0 0 0 0 0 0 0 0 0 0 0 0 0 0 0 0 0 0 0 0 0 0 0 0 0 0 0 0 0 0 0 0 0 0 0 0 0 0 0 0 0 0 0 0 0 0 0 0 0 0 0 0 0 0 0 0 0 0 0 
