P2
150 155
255
255 255 255 255 255 255 255 255 255 255 255 255 255 255 255 255 255 255 255 255 255 255 255 255 255 255 255 255 255 255 255 255 255 255 255 255 255 255 255 255 255 255 255 255 255 255 255 255 255 255 255 255 255 255 255 255 255 255 255 255 255 255 255 255 255 255 255 255 255 255 255 255 255 255 255 255 255 255 255 255 255 255 255 255 255 255 255 255 255 255 255 255 255 255 255 255 255 255 255 255 255 255 255 255 255 255 255 255 255 255 255 255 255 255 255 255 255 255 255 255 255 255 255 255 255 255 255 255 255 255 255 255 255 255 255 255 255 255 255 255 255 255 255 255 255 255 255 255 255 255 
255 255 255 255 255 255 255 255 255 255 255 255 255 255 255 255 255 255 255 255 255 255 255 255 255 255 255 255 255 255 255 255 255 255 255 255 255 255 255 255 255 255 255 255 255 255 255 255 255 255 255 255 255 255 255 255 255 255 255 255 255 255 255 255 255 255 255 255 255 255 255 255 255 255 255 255 255 255 255 255 255 255 255 255 255 255 255 255 255 255 255 255 255 255 255 255 255 255 255 255 255 255 255 255 255 255 255 255 255 255 255 255 255 255 255 255 255 255 255 255 255 255 255 255 255 255 255 255 255 255 255 255 255 255 255 255 255 255 255 255 255 255 255 255 255 255 255 255 255 255 
255 255 255 255 255 255 255 255 255 255 255 255 255 255 255 255 255 255 255 255 255 255 255 255 255 255 255 255 255 255 255 255 255 255 255 255 255 255 255 255 255 255 255 255 255 255 255 255 255 255 255 255 255 255 255 255 255 255 255 255 255 255 255 255 255 255 255 255 255 255 255 255 255 255 255 255 255 255 255 255 255 255 255 255 255 255 255 255 255 255 255 255 255 255 255 255 255 255 255 255 255 255 255 255 255 255 255 255 255 255 255 255 255 255 255 255 255 255 255 255 255 255 255 255 255 255 255 255 255 255 255 255 255 255 255 255 255 255 255 255 255 255 255 255 255 255 255 255 255 255 
255 255 255 255 255 255 255 255 255 255 255 255 255 255 255 255 255 255 255 255 255 255 255 255 255 255 255 255 255 255 255 255 255 255 255 255 255 255 255 255 255 255 255 255 255 255 255 255 255 255 255 255 255 255 255 255 255 255 255 255 255 255 255 255 255 255 255 255 255 255 255 255 255 255 255 255 255 255 255 255 255 255 255 255 255 255 255 255 255 255 255 255 255 255 255 255 255 255 255 255 255 255 255 255 255 255 255 255 255 255 255 255 255 255 255 255 255 255 255 255 255 255 255 255 255 255 255 255 255 255 255 255 255 255 255 255 255 255 255 255 255 255 255 255 255 255 255 255 255 255 
255 255 255 255 255 255 255 255 255 255 255 255 255 255 255 255 255 255 255 255 255 255 255 255 255 255 255 255 255 255 255 255 255 255 255 255 255 255 255 255 255 255 255 255 255 255 255 255 255 255 255 255 255 255 255 255 255 255 255 255 255 255 255 255 255 255 255 255 255 255 255 255 255 255 255 255 255 255 255 255 255 255 255 255 255 255 255 255 255 255 255 255 255 255 255 255 255 255 255 255 255 255 255 255 255 255 255 255 255 255 255 255 255 255 255 255 255 255 255 255 255 255 255 255 255 255 255 255 255 255 255 255 255 255 255 255 255 255 255 255 255 255 255 255 255 255 255 255 255 255 
255 255 255 255 255 255 255 255 255 255 255 255 255 255 255 255 255 255 255 255 255 255 255 255 255 255 255 255 255 255 255 255 255 255 255 255 255 255 255 255 255 255 255 255 255 255 255 254 254 253 253 253 253 253 253 253 253 253 253 253 253 253 253 253 253 253 253 253 253 253 253 253 253 253 253 253 253 253 253 253 253 253 253 253 253 253 253 253 253 253 253 253 253 253 253 253 253 253 253 253 253 254 254 255 255 255 255 255 255 255 255 255 255 255 255 255 255 255 255 255 255 255 255 255 255 255 255 255 255 255 255 255 255 255 255 255 255 255 255 255 255 255 255 255 255 255 255 255 255 255 
255 255 255 255 255 255 255 255 255 255 255 255 255 255 255 255 255 255 255 255 255 255 255 255 255 255 255 255 255 255 255 255 255 255 255 255 255 255 255 255 255 255 255 255 255 254 253 251 250 248 248 248 248 248 248 248 248 248 248 248 248 248 248 248 248 248 248 248 248 248 248 248 248 248 248 248 248 248 248 248 248 248 248 248 248 248 248 248 248 248 248 248 248 248 248 248 248 248 248 248 248 250 251 253 254 255 255 255 255 255 255 255 255 255 255 255 255 255 255 255 255 255 255 255 255 255 255 255 255 255 255 255 255 255 255 255 255 255 255 255 255 255 255 255 255 255 255 255 255 255 
255 255 255 255 255 255 255 255 255 255 255 255 255 255 255 255 255 255 255 255 255 255 255 255 255 255 255 255 255 255 255 255 255 255 255 255 255 255 255 255 255 255 255 255 253 251 247 248 246 242 240 240 239 239 239 239 239 239 239 239 239 239 239 239 239 239 239 239 239 239 239 239 239 239 239 239 239 239 239 239 239 239 239 239 239 239 239 239 239 239 239 239 239 239 239 239 239 239 240 240 242 246 246 247 251 253 255 255 255 255 255 255 255 255 255 255 255 255 255 255 255 255 255 255 255 255 255 255 255 255 255 255 255 255 255 255 255 255 255 255 255 255 255 255 255 255 255 255 255 255 
255 255 255 255 255 255 255 255 255 255 255 255 255 255 255 255 255 255 255 255 255 255 255 255 255 255 255 255 255 255 255 255 255 255 255 255 255 255 255 255 255 255 254 253 250 244 246 190 117 113 112 112 112 112 112 112 112 112 112 112 112 112 112 112 112 112 112 112 112 112 112 112 112 112 112 112 112 112 112 112 112 112 112 112 112 112 112 112 112 112 112 112 112 112 112 112 112 112 112 112 113 124 213 243 244 250 253 254 255 255 255 255 255 255 255 255 255 255 255 255 255 255 255 255 255 255 255 255 255 255 255 255 255 255 255 255 255 255 255 255 255 255 255 255 255 255 255 255 255 255 
255 255 255 255 255 255 255 255 255 255 255 255 255 255 255 255 255 255 255 255 255 255 255 255 255 255 255 255 255 255 255 255 255 255 255 255 255 255 255 255 255 254 253 250 243 242 184 59 44 44 45 45 45 45 45 45 45 45 45 45 45 45 45 45 45 45 45 45 45 45 45 45 45 45 45 45 45 45 45 45 45 45 45 45 45 45 45 45 45 45 45 45 45 45 45 45 45 45 45 45 44 45 84 208 238 243 250 253 254 255 255 255 255 255 255 255 255 255 255 255 255 255 255 255 255 255 255 255 255 255 255 255 255 255 255 255 255 255 255 255 255 255 255 255 255 255 255 255 255 255 
255 255 255 255 255 255 255 255 255 255 255 255 255 255 255 255 255 255 255 255 255 255 255 255 255 255 255 255 255 255 255 255 255 255 255 255 255 255 255 255 254 253 249 243 240 182 61 44 45 46 46 47 48 48 48 48 48 48 48 48 48 48 48 48 48 48 48 48 48 48 48 48 48 48 48 48 48 48 48 48 48 48 48 48 48 48 48 48 48 48 48 48 48 48 48 48 48 48 47 46 46 45 46 83 205 237 243 249 253 254 255 255 255 255 255 255 255 255 255 255 255 255 255 255 255 255 255 255 255 255 255 255 255 255 255 255 255 255 255 255 255 255 255 255 255 255 255 255 255 255 
255 255 255 255 255 255 255 255 255 255 255 255 255 255 255 255 255 255 255 255 255 255 255 255 255 255 255 255 255 255 255 255 255 255 255 255 255 255 255 254 253 249 243 239 180 61 46 46 48 39 36 37 38 38 38 38 38 38 38 38 38 38 38 38 38 38 38 38 38 38 38 38 38 38 38 38 38 38 38 38 38 38 38 38 38 38 38 38 38 38 38 38 38 38 38 38 38 38 37 35 41 49 46 46 83 203 236 243 249 253 254 255 255 255 255 255 255 255 255 255 255 255 255 255 255 255 255 255 255 255 255 255 255 255 255 255 255 255 255 255 255 255 255 255 255 255 255 255 255 255 
255 255 255 255 255 255 255 255 255 255 255 255 255 255 255 255 255 255 255 255 255 255 255 255 255 255 255 255 255 255 255 255 255 255 255 255 255 255 254 253 249 242 239 180 61 46 46 47 37 122 168 164 164 164 164 164 164 164 164 164 164 164 164 164 164 164 164 164 164 164 164 164 164 164 164 164 164 164 164 164 164 164 164 164 164 164 164 164 164 164 164 164 164 164 164 164 164 164 165 166 96 36 49 46 46 83 202 236 242 249 253 254 255 255 255 255 255 255 255 255 255 255 255 255 255 255 255 255 255 255 255 255 255 255 255 255 255 255 255 255 255 255 255 255 255 255 255 255 255 255 
255 255 255 255 255 255 255 255 255 255 255 255 255 255 255 255 255 255 255 255 255 255 255 255 255 255 255 255 255 255 255 255 255 255 255 255 255 254 253 249 242 238 179 61 46 46 48 35 132 238 245 242 242 242 242 242 242 242 242 242 242 242 242 242 242 242 242 242 242 242 242 242 242 242 242 242 242 242 242 242 242 242 242 242 242 242 242 242 242 242 242 242 242 242 242 242 242 242 242 246 223 97 37 49 46 46 83 202 235 242 249 253 254 255 255 255 255 255 255 255 255 255 255 255 255 255 255 255 255 255 255 255 255 255 255 255 255 255 255 255 255 255 255 255 255 255 255 255 255 255 
255 255 255 255 255 255 255 255 255 255 255 255 255 255 255 255 255 255 255 255 255 255 255 255 255 255 255 255 255 255 255 255 255 255 255 255 254 253 249 242 238 179 61 46 46 48 35 131 237 236 233 233 233 233 233 233 233 233 233 233 233 233 233 233 233 233 233 233 233 233 233 233 233 233 233 233 233 233 233 233 233 233 233 233 233 233 233 233 233 233 233 233 233 233 233 233 233 233 233 233 239 222 96 37 49 46 47 83 202 235 242 249 253 254 255 255 255 255 255 255 255 255 255 255 255 255 255 255 255 255 255 255 255 255 255 255 255 255 255 255 255 255 255 255 255 255 255 255 255 255 
255 255 255 255 255 255 255 255 255 255 255 255 255 255 255 255 255 255 255 255 255 255 255 255 255 255 255 255 255 255 255 255 255 255 255 254 253 249 242 238 180 62 47 47 49 37 131 235 235 231 231 231 231 231 231 231 231 231 231 231 231 231 231 231 231 231 231 231 231 231 231 231 231 231 231 231 231 231 231 231 231 231 231 231 231 231 231 231 231 231 231 231 231 231 231 231 231 231 231 231 231 237 220 96 38 50 47 47 84 202 235 242 249 253 254 255 255 255 255 255 255 255 255 255 255 255 255 255 255 255 255 255 255 255 255 255 255 255 255 255 255 255 255 255 255 255 255 255 255 255 
255 255 255 255 255 255 255 255 255 255 255 255 255 255 255 255 255 255 255 255 255 255 255 255 255 255 255 255 255 255 255 255 255 255 254 253 249 242 238 180 63 47 48 50 37 131 234 233 231 231 231 231 231 231 231 231 231 231 231 231 231 231 231 231 231 231 231 231 231 231 231 231 231 231 231 231 231 231 231 231 231 231 231 231 231 231 231 231 231 231 231 231 231 231 231 231 231 231 231 231 231 230 237 219 97 38 50 48 48 83 202 235 242 249 253 254 255 255 255 255 255 255 255 255 255 255 255 255 255 255 255 255 255 255 255 255 255 255 255 255 255 255 255 255 255 255 255 255 255 255 
255 255 255 255 255 255 255 255 255 255 255 255 255 255 255 255 255 255 255 255 255 255 255 255 255 255 255 255 255 255 255 255 254 254 253 249 242 238 181 63 47 48 50 37 130 233 233 229 229 229 229 229 229 229 229 229 229 229 229 229 229 229 229 229 229 229 229 229 229 229 229 229 229 229 229 229 229 229 229 229 229 229 229 229 229 229 229 229 229 229 229 229 229 229 229 229 229 229 229 229 229 229 229 235 219 96 38 50 48 48 84 202 235 242 249 253 254 254 255 255 255 255 255 255 255 255 255 255 255 255 255 255 255 255 255 255 255 255 255 255 255 255 255 255 255 255 255 255 255 255 
255 255 255 255 255 255 255 255 255 255 255 255 255 255 255 255 255 255 255 255 255 255 255 255 255 255 255 255 255 255 255 254 254 253 249 242 238 181 63 48 48 50 37 129 231 231 228 228 228 228 228 228 228 228 228 228 228 228 228 228 228 228 228 228 228 228 228 228 228 228 228 228 228 228 228 228 228 228 228 228 228 228 228 228 228 228 228 228 228 228 228 228 228 228 228 228 228 228 228 228 228 228 228 228 234 217 94 38 51 48 48 84 202 235 242 249 253 254 254 255 255 255 255 255 255 255 255 255 255 255 255 255 255 255 255 255 255 255 255 255 255 255 255 255 255 255 255 255 255 255 
255 255 255 255 255 255 255 255 255 255 255 255 255 255 255 255 255 255 255 255 255 255 255 255 255 255 255 255 255 255 254 254 253 249 242 238 181 63 48 49 50 38 128 229 229 226 227 227 227 227 227 227 227 227 227 227 227 227 227 227 227 227 227 227 227 227 227 227 227 227 227 227 227 227 227 227 227 227 227 227 227 227 227 227 227 227 227 227 227 227 227 227 227 227 227 227 227 227 227 227 227 227 227 227 226 232 215 94 40 51 49 50 86 202 235 242 249 253 254 254 255 255 255 255 255 255 255 255 255 255 255 255 255 255 255 255 255 255 255 255 255 255 255 255 255 255 255 255 255 255 
255 255 255 255 255 255 255 255 255 255 255 255 255 255 255 255 255 255 255 255 255 255 255 255 255 255 255 255 255 254 254 253 249 242 238 181 64 50 49 51 38 128 228 228 225 225 225 225 225 225 225 225 225 225 225 225 225 225 225 225 225 225 225 225 225 225 225 225 225 225 225 225 225 225 225 225 225 225 225 225 225 225 225 225 225 225 225 225 225 225 225 225 225 225 225 225 225 225 225 225 225 225 225 225 225 225 231 215 94 41 51 49 50 86 203 235 242 249 253 254 254 255 255 255 255 255 255 255 255 255 255 255 255 255 255 255 255 255 255 255 255 255 255 255 255 255 255 255 255 255 
255 255 255 255 255 255 255 255 255 255 255 255 255 255 255 255 255 255 255 255 255 255 255 255 255 255 255 255 254 254 253 249 242 238 181 65 50 49 51 40 127 228 227 224 224 224 224 224 224 224 224 224 224 224 224 224 224 224 224 224 224 224 224 224 224 224 224 224 224 224 224 224 224 224 224 224 224 224 224 224 224 224 224 224 224 224 224 224 224 224 224 224 224 224 224 224 224 224 224 224 224 224 224 224 224 224 224 230 213 94 40 51 49 50 86 203 235 242 249 253 254 254 255 255 255 255 255 255 255 255 255 255 255 255 255 255 255 255 255 255 255 255 255 255 255 255 255 255 255 255 
255 255 255 255 255 255 255 255 255 255 255 255 255 255 255 255 255 255 255 255 255 255 255 255 255 255 255 254 253 253 249 242 238 182 64 50 49 51 40 126 224 224 221 221 221 221 221 221 221 221 221 221 221 221 221 221 221 221 221 221 221 221 221 221 221 221 221 221 221 221 221 221 221 221 221 221 221 221 221 221 221 221 221 221 221 221 221 221 221 221 221 221 221 221 221 221 221 221 221 221 221 221 221 221 221 221 221 221 228 211 94 42 51 49 50 87 203 235 242 249 253 253 254 255 255 255 255 255 255 255 255 255 255 255 255 255 255 255 255 255 255 255 255 255 255 255 255 255 255 255 
255 255 255 255 255 255 255 255 255 255 255 255 255 255 255 255 255 255 255 255 255 255 255 255 255 255 254 253 253 249 242 238 182 65 50 50 51 40 125 223 223 219 220 220 220 220 220 220 220 220 220 220 220 220 220 220 220 220 220 220 220 220 220 220 220 220 220 220 220 220 220 220 220 220 220 220 220 220 220 220 220 220 220 220 220 220 220 220 220 220 220 220 220 220 220 220 220 220 220 220 220 220 220 220 220 220 220 220 219 225 209 93 42 52 50 51 87 203 235 242 249 253 253 254 255 255 255 255 255 255 255 255 255 255 255 255 255 255 255 255 255 255 255 255 255 255 255 255 255 255 
255 255 255 255 255 255 255 255 255 255 255 255 255 255 255 255 255 255 255 255 255 255 255 255 255 254 253 253 249 242 238 182 65 51 50 52 40 124 221 220 217 217 217 217 217 217 217 217 217 217 217 217 217 217 217 217 217 217 217 217 217 217 217 217 217 217 217 217 217 217 217 217 217 217 217 217 217 217 217 217 217 217 217 217 217 217 217 217 217 217 217 217 217 217 217 217 217 217 217 217 217 217 217 217 217 217 217 217 217 217 224 207 92 44 52 50 52 87 204 235 242 249 253 253 254 255 255 255 255 255 255 255 255 255 255 255 255 255 255 255 255 255 255 255 255 255 255 255 255 255 
255 255 255 255 255 255 255 255 255 255 255 255 255 255 255 255 255 255 255 255 255 255 255 255 254 253 253 249 242 238 183 66 51 50 52 42 123 219 218 215 215 215 215 215 215 215 215 215 215 215 215 215 215 215 215 215 215 215 215 215 215 215 215 215 215 215 215 215 215 215 215 215 215 215 215 215 215 215 215 215 215 215 215 215 215 215 215 215 215 215 215 215 215 215 215 215 215 215 215 215 215 215 215 215 215 215 215 215 215 215 214 220 205 91 44 53 50 52 87 204 235 242 249 253 253 254 255 255 255 255 255 255 255 255 255 255 255 255 255 255 255 255 255 255 255 255 255 255 255 255 
255 255 255 255 255 255 255 255 255 255 255 255 255 255 255 255 255 255 255 255 255 255 255 254 253 253 249 242 239 183 66 52 50 52 42 122 216 216 213 213 213 213 213 213 213 213 213 213 213 213 213 213 213 213 213 213 213 213 213 213 213 213 213 213 213 213 213 213 213 213 213 213 213 213 213 213 213 213 213 213 213 213 213 213 213 213 213 213 213 213 213 213 213 213 213 213 213 213 213 213 213 213 213 213 213 213 213 213 213 213 213 213 219 203 91 44 53 50 52 88 204 235 242 249 253 253 254 255 255 255 255 255 255 255 255 255 255 255 255 255 255 255 255 255 255 255 255 255 255 255 
255 255 255 255 255 255 255 255 255 255 255 255 255 255 255 255 255 255 255 255 255 255 254 253 253 249 242 239 183 67 52 52 52 42 120 214 214 211 210 210 210 210 210 210 210 210 210 210 210 210 210 210 210 210 210 210 210 210 210 210 210 210 210 210 210 210 210 210 210 210 210 210 210 210 210 210 210 210 210 210 210 210 210 210 210 210 210 210 210 210 210 210 210 210 210 210 210 210 210 210 210 210 210 210 210 210 210 210 210 210 210 210 211 217 200 90 44 53 50 52 88 204 235 242 249 253 253 254 255 255 255 255 255 255 255 255 255 255 255 255 255 255 255 255 255 255 255 255 255 255 
255 255 255 255 255 255 255 255 255 255 255 255 255 255 255 255 255 255 255 255 255 254 253 253 249 242 239 183 67 53 52 53 44 120 211 212 209 209 209 209 209 209 209 209 209 209 209 209 209 209 209 209 209 209 209 209 209 209 209 209 209 209 209 209 209 209 209 209 209 209 209 208 208 208 207 207 207 207 207 208 208 209 209 209 209 209 209 209 209 209 209 209 209 209 209 209 209 209 209 209 209 209 209 209 209 209 209 209 209 209 209 209 209 209 214 198 90 45 55 52 53 90 204 235 242 249 253 253 254 255 255 255 255 255 255 255 255 255 255 255 255 255 255 255 255 255 255 255 255 255 
255 255 255 255 255 255 255 255 255 255 255 255 255 255 255 255 255 255 255 255 255 254 253 249 242 239 183 69 53 52 53 44 119 209 209 207 206 206 206 206 206 206 206 206 206 206 206 206 206 206 206 206 206 206 206 206 206 206 206 206 206 206 206 206 206 206 206 206 206 206 205 205 204 201 199 198 198 199 201 203 204 205 206 206 206 206 206 206 206 206 206 206 206 206 206 206 206 206 206 206 206 206 206 206 206 206 206 206 206 206 206 206 206 206 206 212 196 90 45 55 52 54 90 205 235 242 249 253 254 255 255 255 255 255 255 255 255 255 255 255 255 255 255 255 255 255 255 255 255 255 
255 255 255 255 255 255 255 255 255 255 255 255 255 255 255 255 255 255 255 255 254 253 249 242 238 183 69 53 52 53 44 118 206 207 204 203 203 203 203 203 203 203 203 203 203 203 203 203 203 203 203 203 203 203 203 203 203 203 203 203 203 203 203 203 203 203 203 203 203 203 203 200 197 193 186 180 178 182 190 196 199 202 203 203 203 203 203 203 203 203 203 203 203 203 203 203 203 203 203 203 203 203 203 203 203 203 203 203 203 203 203 203 203 203 203 204 209 193 89 47 55 52 54 90 205 235 242 249 253 254 255 255 255 255 255 255 255 255 255 255 255 255 255 255 255 255 255 255 255 255 
255 255 255 255 255 255 255 255 255 255 255 255 255 255 255 255 255 255 255 254 253 249 242 238 183 69 54 52 53 45 116 204 205 202 201 201 202 202 202 202 202 202 202 202 202 202 202 202 202 202 202 202 202 202 202 202 202 202 202 202 202 202 202 202 202 202 202 202 202 201 199 195 188 175 186 210 214 197 174 184 193 197 200 201 202 202 202 202 202 202 202 202 202 202 202 202 202 202 202 202 202 202 202 202 202 202 202 202 202 202 202 202 202 202 201 201 202 208 192 89 47 55 53 54 90 204 235 242 249 253 254 255 255 255 255 255 255 255 255 255 255 255 255 255 255 255 255 255 255 255 
255 255 255 255 255 255 255 255 255 255 255 255 255 255 255 255 255 255 254 253 249 242 238 183 70 54 53 55 45 115 202 202 199 198 198 198 198 198 198 198 198 198 198 198 198 198 198 198 198 198 198 198 198 198 198 198 198 198 198 198 198 198 198 198 198 198 198 198 197 197 194 187 171 186 247 255 255 255 210 168 183 191 197 197 198 198 198 198 198 198 198 198 198 198 198 198 198 198 198 198 198 198 198 198 198 198 198 198 198 198 198 198 198 198 198 198 198 199 205 189 89 48 55 53 55 91 205 235 242 249 253 254 255 255 255 255 255 255 255 255 255 255 255 255 255 255 255 255 255 255 
255 255 255 255 255 255 255 255 255 255 255 255 255 255 255 255 255 254 253 249 242 238 183 71 55 54 55 47 115 199 200 197 197 197 197 197 197 197 197 197 197 197 197 197 197 197 197 197 197 197 197 197 197 197 197 197 197 197 197 197 196 196 196 196 196 196 196 196 196 194 189 175 184 247 255 253 253 253 255 208 170 185 192 195 196 196 196 196 196 196 196 196 197 197 197 197 197 197 197 197 197 197 197 197 197 197 197 197 197 197 197 197 197 197 197 197 197 197 197 202 188 89 48 56 54 55 91 205 235 242 249 253 254 255 255 255 255 255 255 255 255 255 255 255 255 255 255 255 255 255 
255 255 255 255 255 255 255 255 255 255 255 255 255 255 255 255 254 253 249 242 238 184 71 55 54 56 47 114 197 198 194 194 194 194 194 194 194 194 194 194 194 194 194 194 194 194 194 194 194 194 194 194 194 194 194 194 194 194 194 193 193 192 192 191 190 191 191 192 192 190 182 166 224 255 253 253 253 253 254 249 175 175 188 192 192 191 191 190 191 191 192 192 193 193 194 194 194 194 194 194 194 194 194 194 194 194 194 194 194 194 194 194 194 194 194 194 194 194 194 194 200 185 87 48 56 54 55 92 205 235 242 249 253 254 255 255 255 255 255 255 255 255 255 255 255 255 255 255 255 255 
255 255 255 255 255 255 255 255 255 255 255 255 255 255 255 254 253 249 242 238 185 71 55 54 56 47 112 195 196 192 190 191 191 191 191 191 191 191 191 191 191 191 191 191 191 191 191 191 191 191 191 191 191 191 191 191 191 191 190 190 189 188 185 183 182 182 184 186 188 185 176 167 240 255 253 253 253 253 253 255 189 167 183 187 187 185 183 182 182 184 187 189 190 190 191 191 191 191 191 191 191 191 191 191 191 191 191 191 191 191 191 191 191 191 191 191 191 191 191 190 191 198 182 85 48 56 54 55 92 205 235 242 249 253 254 255 255 255 255 255 255 255 255 255 255 255 255 255 255 255 
255 255 255 255 255 255 255 255 255 255 255 255 255 255 254 253 249 242 238 184 71 55 54 56 47 111 192 193 190 189 189 189 189 189 189 189 189 189 189 189 189 189 189 189 189 189 189 189 189 189 189 189 189 189 189 189 189 189 188 187 184 180 172 165 164 165 168 176 181 180 169 171 250 254 253 253 253 253 253 255 201 160 178 181 179 171 165 164 164 169 178 182 186 188 188 189 189 189 189 189 189 189 189 189 189 189 189 189 189 189 189 189 189 189 189 189 189 189 189 189 189 190 195 180 85 50 56 54 55 92 205 235 242 249 253 254 255 255 255 255 255 255 255 255 255 255 255 255 255 255 
255 255 255 255 255 255 255 255 255 255 255 255 255 254 253 249 243 238 185 72 57 55 57 50 110 190 190 187 186 186 186 186 186 186 186 186 186 186 186 186 186 186 186 186 186 186 186 186 186 186 186 186 186 186 186 186 186 186 185 182 176 164 168 216 231 230 202 160 170 173 163 171 251 254 253 253 253 253 253 255 203 156 172 173 161 182 225 231 226 186 159 174 181 184 185 186 186 186 186 186 186 186 186 186 186 186 186 186 186 186 186 186 186 186 186 186 186 186 186 186 186 186 187 192 178 86 51 57 55 57 93 206 235 243 249 253 254 255 255 255 255 255 255 255 255 255 255 255 255 255 
255 255 255 255 255 255 255 255 255 255 255 255 254 253 249 242 238 186 72 57 55 57 50 109 186 188 184 184 184 184 184 184 184 184 184 184 184 184 184 184 184 184 184 184 184 184 184 184 184 184 184 184 184 184 184 184 184 183 182 177 165 164 232 255 255 255 255 207 157 165 159 169 251 254 253 253 253 253 253 255 200 152 165 159 179 247 255 255 255 250 185 159 174 180 183 184 184 184 184 184 184 184 184 184 184 184 184 184 184 184 184 184 184 184 184 184 184 184 184 184 184 184 184 184 190 176 85 51 58 55 57 93 206 235 242 249 253 254 255 255 255 255 255 255 255 255 255 255 255 255 
255 255 255 255 255 255 255 255 255 255 255 254 253 249 242 238 185 73 57 55 57 50 107 185 185 181 182 182 183 183 183 183 183 183 183 183 183 183 183 183 183 183 183 183 183 183 183 183 183 183 183 183 183 183 183 183 183 181 178 170 158 226 255 253 253 253 253 255 193 151 153 166 251 254 253 253 253 253 253 255 199 147 156 165 246 255 253 253 253 255 250 171 163 175 180 182 183 183 183 183 183 183 183 183 183 183 183 183 183 183 183 183 183 183 183 183 183 183 183 183 183 183 182 182 181 187 174 85 51 58 55 58 94 206 235 242 249 253 254 255 255 255 255 255 255 255 255 255 255 255 
255 255 255 255 255 255 255 255 255 255 254 253 249 242 238 186 73 57 55 57 50 107 182 182 179 180 180 180 180 180 180 180 180 180 180 180 180 180 180 180 180 180 180 180 180 180 180 180 180 180 180 180 180 180 180 180 180 178 174 162 170 252 254 253 253 253 253 255 228 146 147 163 251 254 253 253 253 253 253 255 198 143 145 192 255 253 253 253 253 253 255 202 153 172 177 180 180 180 180 180 180 180 180 180 180 180 180 180 180 180 180 180 180 180 180 180 180 180 180 180 180 180 180 180 180 179 185 172 84 51 58 55 58 94 206 235 242 249 253 254 255 255 255 255 255 255 255 255 255 255 
255 255 255 255 255 255 255 255 255 254 253 249 242 238 186 74 58 56 58 51 106 180 180 177 177 177 177 177 177 177 177 177 177 177 177 177 177 177 177 177 177 177 177 177 177 177 177 177 177 177 177 177 177 177 177 177 177 175 171 154 188 255 253 253 253 253 253 255 244 153 141 161 251 254 253 253 253 253 253 255 197 138 140 212 255 253 253 253 253 253 255 223 152 167 175 177 177 177 177 177 177 177 177 177 177 177 177 177 177 177 177 177 177 177 177 177 177 177 177 177 177 177 177 177 177 177 177 183 169 84 52 58 56 59 95 206 235 242 249 253 254 255 255 255 255 255 255 255 255 255 
255 255 255 255 255 255 255 254 254 253 249 242 239 186 74 59 57 58 51 105 177 177 174 174 174 174 174 174 174 174 174 174 174 174 174 174 174 174 174 174 174 174 174 174 174 174 174 174 174 174 174 174 174 174 174 174 174 172 167 149 196 255 253 253 253 253 253 254 249 158 136 158 251 254 253 253 253 253 253 255 195 134 139 221 255 253 252 252 252 252 255 231 151 163 171 173 174 174 174 174 174 174 174 174 174 174 174 174 174 174 174 174 174 174 174 174 174 174 174 174 174 174 174 174 174 174 174 174 180 166 84 52 59 57 59 95 207 235 242 249 253 254 254 255 255 255 255 255 255 255 
255 255 255 255 255 255 255 254 253 249 242 239 187 74 59 57 58 51 104 175 175 172 172 172 172 172 172 172 172 172 172 172 172 172 172 172 172 172 172 172 172 172 172 172 172 172 172 172 172 172 172 172 172 172 172 172 172 170 164 146 193 255 253 253 253 253 253 254 247 155 133 157 250 253 252 252 252 252 252 255 193 132 136 219 255 252 252 252 252 252 255 237 150 160 168 171 172 172 172 172 172 172 172 172 172 172 172 172 172 172 172 172 172 172 172 172 172 172 172 172 172 172 172 172 172 172 172 172 172 177 163 83 52 59 57 59 95 207 236 242 249 253 254 255 255 255 255 255 255 255 
255 255 255 255 255 255 254 253 250 243 239 188 74 59 57 58 52 103 172 173 170 170 170 170 170 170 170 170 170 170 170 170 170 170 170 170 170 170 170 170 170 170 170 170 170 170 170 170 170 170 170 170 170 170 170 170 170 168 163 145 193 255 252 252 252 252 252 253 247 153 130 155 250 253 252 252 252 251 251 255 193 129 133 218 255 251 251 251 251 251 254 235 148 158 166 169 170 170 170 170 170 170 170 170 170 170 170 170 170 170 170 170 170 170 170 170 170 170 170 170 170 170 170 170 170 170 170 170 170 170 175 162 83 54 59 57 59 95 207 236 243 250 253 254 255 255 255 255 255 255 
255 255 255 255 255 254 253 251 245 238 190 75 59 57 58 52 102 169 170 167 167 166 167 167 167 167 167 167 167 167 167 167 167 167 167 167 167 167 167 167 167 167 167 167 167 167 167 167 167 167 167 167 167 166 167 167 166 165 160 142 191 255 251 251 251 251 251 253 246 151 128 153 249 253 251 251 251 251 251 255 192 127 130 217 255 251 251 251 251 251 254 235 145 156 163 166 167 167 167 167 167 167 167 167 167 167 167 167 167 167 167 167 167 167 167 167 167 167 167 167 167 167 167 167 167 167 167 167 166 167 167 172 159 81 54 59 57 60 96 207 237 245 251 253 254 255 255 255 255 255 
255 255 255 255 254 254 253 248 240 224 89 61 58 60 53 102 167 168 165 165 165 165 165 165 165 165 165 165 165 165 165 165 165 165 165 165 165 165 165 165 165 165 165 165 165 165 165 165 165 165 165 165 165 164 165 165 165 163 158 140 189 255 251 251 251 251 251 253 246 150 126 152 248 252 250 250 250 250 250 255 191 126 129 216 255 250 250 250 250 250 253 235 144 153 161 164 165 165 165 165 165 165 165 165 165 165 165 165 165 165 165 165 165 165 165 165 165 165 165 165 165 165 165 165 165 165 165 165 165 165 165 165 170 158 81 54 60 58 61 125 230 240 248 253 254 254 255 255 255 255 
255 255 255 255 254 253 252 246 234 209 76 60 59 56 100 165 165 163 163 163 163 163 163 163 163 163 163 163 163 163 163 163 163 163 163 163 163 163 163 163 163 163 163 163 163 163 163 163 163 162 162 160 159 159 159 160 161 161 155 138 188 255 250 250 250 250 250 252 245 148 125 151 248 252 250 250 250 250 250 255 190 124 128 215 254 249 249 249 249 249 253 234 141 151 159 162 163 163 163 163 163 163 163 163 163 163 163 163 163 163 163 163 163 163 163 163 163 163 163 163 163 163 163 163 163 163 163 163 163 163 163 163 163 167 155 81 58 59 60 108 217 233 246 252 253 254 255 255 255 255 
255 255 255 254 254 253 250 243 229 201 77 60 58 59 146 165 161 160 159 159 159 159 159 159 159 159 159 159 159 159 159 159 159 159 159 159 159 159 159 159 159 159 159 159 159 159 159 159 159 157 155 153 149 147 149 153 156 156 153 136 187 254 250 250 249 249 249 251 244 147 124 150 247 251 249 249 249 249 249 254 189 123 127 215 254 249 249 249 249 249 252 232 140 148 156 159 160 159 159 159 159 159 159 159 159 159 159 159 159 159 159 159 159 159 159 159 159 159 159 159 159 159 159 159 159 159 159 159 159 159 159 159 160 161 168 122 54 60 61 106 208 228 243 250 253 254 254 255 255 255 
255 255 255 254 253 253 248 240 224 195 74 60 59 60 142 162 158 157 157 157 157 157 157 157 157 157 157 157 157 157 157 157 157 157 157 157 157 157 157 157 157 157 157 157 157 157 157 156 155 152 148 138 144 149 142 139 148 151 149 134 186 254 249 249 249 249 249 251 244 146 122 148 247 250 248 248 248 248 248 254 188 121 124 214 254 248 248 248 248 248 252 232 139 147 155 157 158 157 157 157 157 157 157 157 157 157 157 157 157 157 157 157 157 157 157 157 157 157 157 157 157 157 157 157 157 157 157 157 157 157 157 157 157 158 164 120 55 59 61 102 201 223 240 248 253 253 254 255 255 255 
255 255 254 254 253 251 248 238 221 189 75 61 61 61 139 159 155 154 154 154 154 154 154 154 154 154 154 154 154 154 154 154 154 154 154 154 154 154 154 154 154 154 154 154 154 155 155 153 151 145 131 183 236 241 235 177 131 144 145 131 186 254 248 248 248 248 248 250 244 145 121 147 247 250 248 248 248 248 248 254 187 120 124 214 254 248 248 248 248 248 251 232 137 146 153 156 156 156 156 155 155 155 155 154 154 154 154 154 154 154 154 154 154 154 154 154 154 154 154 154 154 154 154 154 154 154 154 154 154 154 154 154 154 155 161 118 57 61 62 100 196 220 238 248 251 253 254 254 255 255 
255 255 254 253 253 250 246 235 217 186 75 61 61 62 137 157 152 151 151 151 151 151 151 151 151 151 151 151 151 151 151 151 151 151 151 151 151 151 151 151 151 151 152 152 152 152 152 150 146 132 184 252 252 251 253 251 177 131 141 128 184 254 248 248 248 248 248 250 243 144 120 147 246 250 248 248 248 248 248 254 186 119 123 213 253 248 248 248 248 248 251 231 136 144 151 155 155 154 154 154 153 153 152 152 152 151 151 151 151 151 151 151 151 151 151 151 151 151 151 151 151 151 151 151 151 151 151 151 151 151 151 151 151 152 158 117 58 61 63 98 192 217 235 246 250 253 253 254 255 255 
255 255 254 253 252 249 244 232 214 182 74 61 61 62 135 154 150 150 150 150 150 150 150 150 150 150 150 150 150 150 150 150 150 150 150 150 150 150 150 150 150 150 150 150 151 151 150 148 135 160 251 250 248 248 248 251 247 151 131 125 183 254 248 248 248 248 248 249 243 143 118 145 246 249 248 248 248 247 247 254 185 118 122 212 252 247 247 247 247 247 251 230 134 143 150 152 152 152 152 152 152 151 151 151 150 150 150 150 150 150 150 150 150 150 150 150 150 150 150 150 150 150 150 150 150 150 150 150 150 150 150 150 150 150 156 116 59 61 63 98 188 213 232 244 249 252 253 254 255 255 
255 255 254 253 251 248 243 231 211 179 73 62 61 62 133 151 148 148 148 148 148 148 148 148 148 148 148 148 148 148 148 148 148 148 148 148 148 148 148 148 148 149 149 149 150 150 148 143 125 195 254 248 248 248 248 248 254 184 122 121 181 254 248 248 248 247 247 248 242 142 117 143 245 248 247 247 247 247 247 254 185 116 120 211 252 247 246 246 246 246 251 230 133 141 149 151 151 150 150 150 150 150 150 150 149 149 149 148 148 148 148 148 148 148 148 148 148 148 148 148 148 148 148 148 148 148 148 148 148 148 148 148 148 148 153 113 59 61 63 96 184 210 231 243 248 251 253 254 255 255 
255 254 254 253 251 248 241 229 209 176 73 62 62 62 132 149 146 146 146 146 146 146 146 146 146 146 146 146 146 146 146 146 146 146 146 146 146 146 146 147 147 147 148 148 148 147 146 139 125 216 252 247 247 247 247 247 253 206 121 118 180 253 247 247 247 247 247 248 241 141 116 143 244 248 246 246 246 246 246 253 184 114 118 210 252 246 246 246 246 246 250 229 132 139 147 150 150 150 149 149 149 149 148 148 148 148 147 147 147 146 146 146 146 146 146 146 146 146 146 146 146 146 146 146 146 146 146 146 146 146 146 146 146 146 150 112 59 62 63 95 182 208 229 241 248 251 253 254 254 255 
255 254 254 253 251 247 240 227 207 174 73 63 62 62 130 147 143 143 144 144 144 144 144 144 144 144 144 144 144 144 144 144 144 144 144 144 144 144 144 145 145 146 146 147 147 146 143 135 129 224 251 246 246 246 246 246 251 218 120 116 179 252 246 246 246 246 246 248 241 140 114 143 244 248 246 246 246 246 246 253 183 113 117 210 251 246 246 246 246 245 249 229 130 138 146 148 148 148 148 147 147 147 147 147 147 146 146 145 145 144 144 144 144 144 144 144 144 144 144 144 144 144 144 144 144 144 144 144 144 144 144 144 143 143 149 111 59 62 65 94 180 206 227 240 247 251 253 254 254 255 
255 254 254 253 250 247 239 227 206 173 73 63 63 63 127 144 141 141 141 141 141 141 141 141 141 141 141 141 141 141 141 141 141 141 141 141 142 142 143 143 144 144 144 144 144 144 142 133 127 223 250 246 246 246 246 246 252 217 118 115 178 252 246 246 246 246 246 248 241 139 113 141 244 247 245 245 245 245 245 252 182 111 116 210 251 245 245 245 245 245 249 228 129 137 144 146 147 146 146 146 145 145 144 144 144 144 144 144 143 143 142 142 141 141 141 141 141 141 141 141 141 141 141 141 141 141 141 141 141 141 141 141 141 141 146 110 59 63 65 94 178 204 227 239 247 250 253 254 254 255 
255 254 254 253 250 246 238 225 204 172 74 63 63 63 126 142 139 139 139 139 139 139 139 139 139 139 139 139 139 139 139 139 140 140 140 140 140 140 141 141 142 143 143 143 143 143 140 132 125 223 250 246 245 245 245 245 251 216 116 113 178 252 245 245 245 245 245 247 240 138 111 140 243 246 245 245 245 245 245 252 181 110 115 209 250 244 244 244 244 244 248 228 127 134 142 145 145 145 144 144 144 144 143 143 143 143 143 142 141 141 140 140 140 140 140 140 139 139 139 139 139 139 139 139 139 139 139 139 139 139 139 139 139 139 143 109 59 63 65 94 177 203 225 238 246 250 253 254 254 255 
255 254 254 253 250 246 238 225 204 171 74 63 63 63 124 139 136 136 137 137 137 137 137 137 137 137 137 137 137 137 137 137 137 137 137 138 138 139 140 140 140 140 140 140 141 140 138 131 123 222 249 245 245 245 245 245 251 216 115 111 177 251 244 244 244 244 244 246 239 137 109 139 242 246 244 244 244 244 244 252 181 109 114 208 250 244 244 244 244 244 248 228 126 133 140 143 144 144 143 143 142 141 141 141 140 140 140 140 140 140 139 138 138 137 137 137 137 137 137 137 137 137 137 137 137 137 137 137 137 137 137 137 136 136 140 107 60 63 66 94 176 203 225 238 246 250 253 254 254 255 
255 254 254 253 250 246 238 225 203 171 75 65 64 64 122 137 134 134 134 134 134 134 134 134 134 134 134 134 134 135 135 135 135 136 136 136 136 137 138 138 139 139 139 139 139 139 137 129 122 221 248 244 244 244 244 244 250 215 114 110 176 251 244 244 244 244 244 246 239 135 109 138 242 246 244 243 243 243 243 251 180 108 112 207 249 243 243 243 243 243 247 227 125 131 139 141 141 141 141 141 140 140 139 139 139 139 139 139 138 138 137 136 136 136 136 135 135 135 135 134 134 134 134 134 134 134 134 134 134 134 134 134 134 134 138 106 62 64 66 94 176 203 225 238 246 250 253 254 254 255 
255 254 254 253 250 246 238 225 203 171 75 65 64 64 120 134 132 131 132 132 132 132 132 132 132 132 132 132 132 132 133 133 133 134 135 135 136 136 136 136 136 136 137 137 138 138 135 128 121 220 248 244 244 244 244 244 250 215 112 109 175 250 243 243 243 243 243 245 239 134 108 137 242 245 243 243 243 243 243 251 179 107 111 207 248 243 243 243 243 243 246 226 123 131 137 139 139 139 139 139 139 139 139 138 137 137 136 136 136 136 136 136 135 135 134 133 133 133 132 132 132 132 132 132 132 132 132 132 132 132 132 132 131 132 135 105 62 64 67 94 176 203 225 238 246 250 253 254 254 255 
255 254 254 253 250 246 238 225 203 171 75 65 64 64 118 132 129 129 129 129 129 129 129 129 129 129 130 130 131 131 131 132 132 132 133 133 134 135 135 135 135 135 136 136 136 136 134 127 119 220 247 243 243 243 243 243 249 214 110 108 174 250 243 243 243 243 243 244 238 133 106 136 241 244 243 243 243 243 243 250 178 105 109 206 248 243 243 243 243 243 246 225 122 129 135 138 138 138 138 138 138 137 136 136 136 136 135 135 135 135 135 134 133 133 132 132 131 131 131 131 130 130 129 129 129 129 129 129 129 129 129 129 129 129 133 103 62 64 67 94 176 203 225 238 246 250 253 254 254 255 
255 254 254 253 250 246 238 225 203 170 75 66 64 64 115 129 127 127 127 127 127 127 127 127 127 127 127 128 129 129 129 130 131 131 131 131 132 132 132 132 133 134 134 134 135 134 132 125 118 219 247 243 243 243 243 243 248 213 109 106 174 249 243 243 243 243 243 244 238 132 105 134 241 244 243 243 243 243 243 250 177 104 108 205 247 242 242 242 242 242 246 225 120 127 134 136 136 136 136 136 135 135 135 135 134 134 134 133 132 132 132 132 131 131 131 131 129 129 129 129 128 127 127 127 127 127 127 127 127 127 127 127 127 127 130 102 62 64 67 94 176 203 225 238 246 250 253 254 254 255 
255 254 254 253 250 246 238 225 203 170 76 67 65 65 113 127 124 124 124 124 124 124 124 125 125 126 127 127 127 127 127 128 129 129 130 131 131 131 131 131 131 131 132 133 133 133 130 123 117 219 247 243 243 243 243 243 248 213 108 105 173 249 242 242 242 242 242 243 237 131 103 133 240 243 242 242 242 242 242 249 177 102 107 205 247 242 242 242 242 242 245 225 120 126 132 134 135 135 134 134 134 133 133 133 132 132 131 131 131 131 131 131 131 130 129 128 128 127 127 127 127 127 126 125 125 124 124 124 124 124 124 124 124 124 128 100 63 65 68 94 175 203 225 238 246 250 253 254 254 255 
255 254 254 253 250 246 238 225 203 170 76 67 66 65 112 124 122 122 122 122 122 122 123 123 123 124 124 125 126 126 126 126 127 127 128 128 129 129 129 130 130 130 130 131 131 131 129 121 115 218 246 242 242 242 242 242 247 212 106 103 171 248 242 242 242 242 242 243 237 130 102 132 239 243 242 242 241 241 241 249 176 101 105 204 247 241 241 241 241 241 245 224 119 125 131 133 133 133 133 132 131 131 131 129 129 129 129 129 129 129 129 129 128 128 127 127 126 126 126 126 125 124 124 123 123 123 122 122 122 122 122 122 122 122 126 99 64 66 68 94 175 203 225 238 246 250 253 254 254 255 
255 254 254 253 250 246 238 225 203 170 76 67 66 65 110 123 119 118 119 119 119 120 121 122 123 123 123 123 123 124 125 125 126 126 126 126 126 127 127 128 128 129 130 130 130 129 128 121 113 217 246 242 242 242 242 242 247 212 106 103 171 247 241 241 241 241 241 243 236 129 100 131 239 243 241 241 241 241 241 249 175 100 104 204 247 240 240 240 240 240 244 223 117 123 129 132 132 131 130 130 129 127 125 124 124 125 126 127 127 127 126 126 126 126 126 126 125 125 124 123 123 123 123 123 122 121 120 119 119 119 119 119 118 119 124 97 64 66 68 94 175 203 225 238 246 250 253 254 254 255 
255 254 254 253 250 246 238 225 203 170 77 67 66 67 108 120 117 118 118 118 118 118 119 119 121 121 122 122 122 123 123 123 124 124 125 126 126 126 126 126 126 127 127 128 129 128 126 119 112 216 246 241 241 241 241 241 247 211 104 101 170 247 241 241 241 241 241 242 235 128 100 130 238 242 240 240 240 240 240 248 174 98 103 203 246 240 240 240 240 240 243 223 116 121 127 130 130 129 128 125 123 115 108 110 108 110 119 123 125 125 126 126 126 125 124 124 123 123 123 122 122 122 121 121 119 119 118 118 118 118 118 118 118 117 121 97 64 66 68 94 175 203 225 238 246 250 253 254 254 255 
255 254 254 253 250 246 238 225 203 170 77 67 66 67 107 117 115 115 115 115 115 116 117 118 118 119 119 119 119 121 121 122 122 123 123 123 123 124 124 125 125 126 126 126 126 126 124 117 110 215 245 240 240 240 240 240 246 210 103 99 169 247 240 240 240 240 240 242 235 126 98 129 238 242 240 240 240 240 240 248 174 97 102 203 245 239 239 239 239 239 243 222 114 121 126 128 128 127 124 120 107 126 183 207 198 147 108 116 121 123 123 123 123 123 123 122 122 121 121 119 119 119 119 118 118 117 116 115 115 115 115 115 115 115 118 95 64 66 69 94 175 203 225 238 246 250 253 254 254 255 
255 254 254 253 250 246 238 225 203 170 77 68 66 67 106 115 113 113 114 114 114 115 115 116 117 118 118 118 119 119 119 119 121 122 122 122 122 123 123 123 124 124 125 125 126 125 123 116 110 215 245 240 240 240 240 240 246 209 102 98 168 247 240 239 239 239 239 241 234 125 97 128 237 241 239 239 239 239 239 247 173 96 101 201 245 239 239 239 239 239 242 222 112 119 125 126 126 124 119 105 141 229 247 245 246 244 167 104 117 121 122 122 122 122 122 121 119 119 119 119 118 118 118 117 116 115 115 114 114 114 114 113 113 113 116 94 65 67 70 94 175 203 225 238 246 250 253 254 254 255 
255 254 254 253 250 246 238 225 203 170 77 68 66 67 104 113 111 112 112 112 113 114 114 114 115 116 116 116 117 117 118 118 118 119 119 121 121 121 121 122 122 122 123 123 124 124 121 114 109 214 244 239 239 239 239 239 245 209 101 96 168 246 239 239 239 239 239 241 233 124 96 128 237 241 239 239 239 238 238 247 172 94 100 202 244 238 238 238 238 238 242 221 111 117 123 124 123 120 106 132 232 244 238 238 238 242 231 121 110 117 119 121 121 119 119 118 118 118 117 117 116 116 116 115 114 114 114 113 112 112 112 111 111 111 113 94 65 68 70 94 175 203 225 238 246 250 253 254 254 255 
255 254 254 253 250 246 238 225 203 170 77 69 66 67 101 111 110 110 110 110 111 112 112 113 114 114 114 114 115 115 116 116 117 118 118 118 118 118 118 119 119 121 121 122 122 121 120 112 107 214 244 239 239 239 239 239 245 209 99 95 167 246 238 238 238 238 238 241 233 123 94 126 236 240 238 238 238 238 238 246 170 91 99 210 243 238 238 238 238 238 242 220 110 115 121 122 119 111 107 214 244 238 238 238 238 238 245 158 100 115 117 118 118 118 118 117 116 116 115 115 114 114 114 114 113 112 112 111 110 110 110 110 109 109 111 92 65 68 70 94 175 203 225 238 246 250 253 254 254 255 
255 254 254 253 250 246 238 225 203 170 77 69 67 67 99 109 108 109 109 109 110 110 110 111 112 113 113 113 114 114 114 115 115 116 116 117 117 117 118 118 118 118 119 119 121 120 118 112 106 214 243 238 238 238 238 238 244 208 97 94 167 245 238 238 238 238 238 241 232 120 89 123 236 240 238 238 238 238 238 246 169 86 101 220 241 238 238 238 238 238 241 219 108 114 120 120 115 98 167 245 238 237 237 237 237 237 246 165 97 113 116 117 117 116 116 115 115 114 114 114 113 113 113 112 111 110 110 110 109 109 109 108 107 107 109 90 66 68 70 95 175 203 225 238 246 250 253 254 254 255 
255 254 254 253 250 246 238 225 203 170 79 70 68 68 98 108 107 108 108 109 109 110 110 110 111 112 112 112 113 114 114 114 115 115 116 116 117 117 117 117 118 118 118 119 119 119 117 111 105 214 243 238 238 238 238 238 243 208 97 94 166 245 238 238 238 238 238 240 233 114 75 116 236 239 238 238 238 238 238 244 193 71 118 235 238 237 237 237 237 237 241 219 108 113 118 117 108 113 225 240 237 237 237 237 237 237 245 163 97 113 116 117 116 116 115 114 114 114 114 113 112 112 112 111 110 110 110 109 109 108 108 107 107 106 108 89 67 68 71 96 175 203 225 238 246 250 253 254 254 255 
255 254 254 253 250 246 238 225 203 170 79 70 69 69 98 107 106 107 107 108 109 109 110 110 110 111 112 112 112 113 114 114 114 114 115 116 116 117 117 117 117 118 118 118 118 118 117 111 105 213 242 238 238 238 238 238 243 207 97 93 165 245 238 238 237 237 237 237 241 183 125 183 241 238 237 237 237 237 237 238 233 148 189 242 237 237 237 237 237 237 241 219 107 112 117 114 98 164 244 236 236 236 236 236 236 236 242 156 97 113 116 116 116 115 114 114 114 113 113 112 112 112 111 110 110 110 109 108 108 107 107 106 106 105 107 89 68 69 71 96 175 203 225 238 246 250 253 254 254 255 
255 254 254 253 250 246 238 225 203 170 79 70 69 69 97 105 105 105 106 106 107 108 109 109 109 110 111 111 111 112 112 113 113 113 114 115 115 116 116 116 116 117 117 117 118 117 116 110 104 213 242 237 237 237 237 237 242 207 96 93 165 244 237 237 237 237 237 237 237 242 242 242 237 237 237 237 237 237 236 236 238 242 240 236 236 236 236 236 236 236 240 219 107 111 114 110 105 214 241 236 236 236 236 236 236 237 238 140 99 112 115 115 115 114 113 113 113 112 112 111 111 111 110 109 109 109 108 107 106 106 105 105 105 104 106 89 68 69 71 96 175 203 225 238 246 250 253 254 254 255 
255 254 254 253 250 246 238 225 203 170 79 70 69 69 96 105 104 105 105 106 107 107 108 109 109 109 110 111 111 111 112 112 113 113 113 114 115 115 116 116 116 116 117 117 117 117 116 110 104 212 242 237 237 237 237 237 242 206 96 92 164 243 236 236 236 236 236 236 236 236 237 236 236 236 236 236 236 236 236 236 236 236 236 236 236 236 236 236 236 236 240 219 107 111 113 100 142 239 236 235 235 235 235 235 235 237 233 121 102 112 114 115 114 113 113 113 112 112 111 111 111 110 109 109 109 108 107 107 106 105 105 104 104 103 105 89 68 69 71 96 175 203 225 238 246 250 253 254 254 255 
255 254 254 253 250 246 238 225 203 170 79 70 69 69 95 103 103 104 104 104 105 106 107 108 109 109 109 110 110 110 111 111 112 113 113 113 113 114 114 115 116 116 116 117 117 117 115 108 104 212 241 236 236 236 236 236 242 206 94 90 164 243 236 236 236 236 236 236 236 236 236 236 236 236 236 236 236 236 236 236 236 235 235 235 235 235 235 235 235 235 239 218 106 109 110 97 188 242 235 235 235 235 235 235 235 240 214 103 107 113 114 113 113 113 113 112 111 111 110 110 110 109 109 109 108 107 106 105 104 104 104 103 103 102 103 88 68 69 71 96 175 203 225 238 246 250 253 254 254 255 
255 254 254 253 250 246 238 225 203 170 79 70 69 70 95 103 103 103 104 104 105 105 106 107 108 109 109 109 110 110 110 111 111 112 113 113 113 114 114 115 115 116 116 117 117 116 114 108 104 211 241 236 236 236 236 236 242 203 89 87 160 243 236 235 235 235 235 235 235 235 235 235 235 235 235 235 235 235 235 235 235 235 235 235 235 235 235 235 235 235 238 218 105 107 106 111 223 238 234 234 234 234 234 234 234 241 163 95 110 113 113 113 113 113 112 111 111 110 110 110 109 109 109 108 107 106 105 105 104 104 103 103 102 101 102 87 68 69 71 96 175 203 225 238 246 250 253 254 254 255 
255 254 254 253 250 246 238 225 203 170 79 70 69 70 94 102 101 102 103 103 103 104 105 106 107 107 108 109 109 109 110 110 110 111 112 113 113 113 113 113 114 115 115 116 117 116 114 107 103 211 240 235 235 235 235 235 240 208 85 73 171 242 235 235 235 235 235 235 235 235 235 235 235 235 235 235 235 234 234 234 234 234 234 234 234 234 234 234 234 234 238 217 105 106 97 143 239 234 234 234 234 234 234 234 239 208 98 104 111 112 113 113 112 112 111 110 110 110 109 109 109 108 107 107 106 105 104 103 103 103 102 102 101 101 101 87 68 69 71 96 175 203 225 238 246 250 253 254 254 255 
255 254 254 253 250 246 238 225 203 170 79 71 69 70 93 101 101 101 102 103 103 103 104 105 106 107 107 108 109 109 109 110 110 111 111 111 112 113 113 113 114 114 114 115 116 116 114 107 103 210 240 235 235 235 235 235 235 235 191 177 227 236 234 234 234 234 234 234 234 234 234 234 234 234 234 234 234 234 234 234 234 234 234 234 234 234 234 234 234 234 237 216 103 104 93 179 241 233 233 233 233 233 233 233 241 160 90 108 111 112 113 112 111 111 111 110 110 109 109 109 108 107 107 106 105 104 103 103 103 102 102 101 101 100 100 87 68 69 71 96 175 203 225 238 246 250 253 254 254 255 
255 254 254 253 250 246 238 225 203 170 79 71 69 70 92 99 100 101 102 102 103 103 103 104 105 105 106 107 108 109 109 109 110 110 111 111 112 112 113 113 113 113 114 115 115 115 113 107 102 210 239 234 234 234 234 234 234 234 241 242 236 233 234 234 234 234 234 234 234 234 234 234 234 233 233 233 233 233 233 233 233 233 233 233 233 233 233 233 233 233 237 216 102 100 99 208 238 233 233 233 233 233 233 234 235 129 96 109 111 112 112 111 111 111 110 110 109 109 109 108 107 106 105 105 104 103 103 103 102 102 101 100 99 99 98 86 69 69 71 96 175 203 225 238 246 250 253 254 254 255 
255 254 254 253 250 246 238 225 203 170 79 71 69 72 91 98 99 100 101 102 102 102 103 103 104 104 105 106 107 108 108 109 109 109 110 111 111 112 112 112 113 113 113 113 114 114 112 106 102 209 239 234 234 234 234 233 233 233 233 233 233 233 233 233 233 233 233 233 233 233 233 233 233 233 233 233 233 233 233 233 233 233 233 233 233 233 233 232 232 232 236 215 101 95 113 226 235 232 232 232 232 232 232 236 221 107 101 109 111 112 112 111 111 110 109 109 109 108 108 107 106 105 104 104 103 103 102 102 102 101 100 99 97 98 97 85 69 69 71 96 175 203 225 238 246 250 253 254 254 255 
255 254 254 253 250 246 238 225 203 170 79 70 70 72 90 97 98 99 100 101 102 102 102 103 103 104 104 105 106 107 107 108 109 109 109 110 111 111 112 112 113 113 113 113 113 114 112 106 101 209 238 233 233 233 233 233 233 233 233 233 233 233 233 233 233 233 233 233 233 232 232 232 232 232 232 232 232 232 232 232 232 232 232 232 232 232 232 232 232 232 236 214 98 88 134 236 233 232 232 232 232 232 232 237 203 95 105 109 111 112 111 111 110 109 109 109 108 107 107 106 105 104 104 103 103 102 102 102 101 100 99 98 96 97 96 85 69 70 71 96 175 203 225 238 246 250 253 254 254 255 
255 254 254 253 250 246 238 225 203 170 79 70 70 72 89 96 96 97 99 100 100 101 101 102 103 103 104 104 105 105 105 107 108 108 108 109 110 110 111 111 112 112 112 113 113 114 112 105 101 208 237 232 232 232 232 232 232 232 232 232 232 232 232 232 232 232 232 232 232 232 232 232 232 232 232 232 232 232 232 232 232 232 232 232 232 232 232 232 232 232 236 213 92 76 159 240 232 232 232 232 232 232 232 239 182 90 106 110 111 111 110 109 109 108 108 108 107 105 105 105 104 104 103 103 102 101 101 100 100 99 98 97 96 95 94 84 70 69 71 96 175 203 225 238 246 250 253 254 254 255 
255 254 254 253 250 246 238 225 203 170 79 71 70 72 88 94 95 96 97 98 99 100 101 101 101 102 103 104 104 105 105 105 107 107 108 108 108 109 110 110 111 111 112 112 112 113 111 105 101 208 237 232 232 232 232 232 232 232 232 232 232 232 232 232 232 232 232 232 232 232 232 232 232 232 232 232 232 232 232 232 232 232 232 232 232 232 232 232 232 232 236 213 92 108 211 236 232 232 232 232 232 232 232 239 159 90 107 109 110 110 109 108 108 108 107 107 105 105 105 104 104 103 102 101 101 101 100 99 98 97 97 96 95 94 93 83 70 69 71 96 175 203 225 238 246 250 253 254 254 255 
255 254 254 253 250 246 238 225 203 170 79 70 69 72 87 93 94 95 96 97 98 99 100 101 101 101 102 103 104 104 105 105 107 107 108 108 108 108 109 109 110 111 111 112 112 112 111 105 99 208 237 232 232 232 232 232 232 232 232 232 232 232 232 232 232 232 232 232 232 232 232 232 232 232 232 232 232 232 232 232 232 232 232 232 232 231 231 231 231 231 232 228 209 225 235 231 231 231 231 231 231 231 232 235 139 92 107 109 109 109 108 108 108 108 107 107 105 105 104 104 103 102 101 101 101 100 99 98 97 96 96 95 94 93 92 82 70 69 70 95 175 203 225 238 246 250 253 254 254 255 
255 254 254 253 250 246 238 225 203 170 78 70 69 72 86 92 94 95 95 96 97 98 99 99 100 101 101 102 102 103 104 105 105 105 107 108 108 108 109 109 109 110 111 111 112 111 110 104 99 208 237 232 232 232 232 232 232 232 232 232 232 232 232 232 232 232 232 231 231 231 231 231 231 231 231 231 231 231 231 231 231 231 231 231 231 231 231 231 231 231 231 232 235 233 231 231 231 231 231 230 230 230 232 228 120 96 106 108 109 109 108 108 108 107 105 105 105 104 103 102 102 101 101 100 99 99 98 97 96 95 95 94 94 92 91 82 70 69 70 95 175 203 225 238 246 250 253 254 254 255 
255 254 254 253 250 246 238 225 203 170 78 70 69 72 84 91 92 94 95 96 97 97 97 98 99 100 101 101 101 102 103 104 104 105 105 107 108 108 108 108 109 110 110 111 111 111 110 104 99 207 236 231 231 231 231 231 231 231 231 231 231 231 231 231 231 231 231 231 231 231 231 231 231 231 231 231 231 231 231 231 231 230 230 230 230 230 230 230 230 230 230 230 230 230 230 230 230 230 230 230 230 230 232 219 105 99 107 109 108 108 108 108 107 105 105 104 104 103 102 101 101 101 100 99 98 97 97 97 96 95 94 94 92 91 90 81 70 69 70 95 175 203 225 238 246 250 253 254 254 255 
255 254 254 253 250 246 238 225 203 170 78 70 69 72 84 90 91 93 94 95 96 96 96 97 99 100 100 100 100 101 102 103 103 104 104 105 107 107 107 107 108 109 110 110 111 110 109 104 98 206 236 231 231 231 231 231 231 231 231 231 231 231 231 230 230 230 230 230 230 230 230 230 230 230 230 230 230 230 230 230 230 230 230 230 230 230 230 230 230 230 230 230 230 230 230 230 230 230 230 230 230 229 234 204 95 101 107 108 107 107 107 105 105 104 104 103 103 102 101 100 100 100 100 99 97 96 96 96 95 94 93 93 91 90 89 81 72 69 70 95 175 203 225 238 246 250 253 254 254 255 
255 254 254 253 250 246 238 225 203 170 78 70 69 73 83 88 90 92 93 93 94 95 96 96 97 99 99 100 100 101 102 102 103 103 104 104 105 105 107 107 107 108 108 109 110 110 108 101 98 206 235 230 230 230 230 230 230 230 230 230 230 230 230 230 230 230 230 230 230 230 230 230 230 230 230 230 230 230 230 230 230 230 229 229 229 229 229 229 229 229 229 229 229 229 229 229 229 229 229 229 229 229 236 188 88 102 106 107 107 107 105 104 104 104 103 103 102 102 101 100 100 99 99 97 96 96 95 94 93 93 92 91 90 88 87 79 72 69 70 95 175 203 225 238 246 250 253 254 254 255 
255 254 254 253 250 246 238 225 203 170 78 70 69 73 83 87 89 91 92 93 93 94 95 96 96 97 99 99 100 100 101 102 102 103 104 104 105 105 107 107 107 108 108 109 109 110 108 101 98 205 235 230 230 230 230 230 230 230 230 230 230 230 230 230 229 229 229 229 229 229 229 229 229 229 229 229 229 229 229 229 229 229 229 229 229 229 229 229 229 229 229 229 229 229 229 229 229 228 228 228 228 228 236 170 88 102 107 107 107 107 105 104 104 104 103 102 102 101 100 100 99 99 97 96 96 95 94 93 93 92 91 90 89 87 86 79 72 69 70 95 175 203 225 238 246 250 253 254 254 255 
255 254 254 253 250 246 238 225 203 170 78 70 70 73 81 85 87 89 90 91 93 93 94 95 96 96 96 97 99 100 100 100 101 102 103 103 104 104 105 105 107 107 107 108 109 109 107 101 97 205 234 229 229 229 229 229 229 229 229 229 229 229 229 229 229 229 229 229 229 229 229 229 229 229 229 229 229 229 229 228 228 228 228 228 228 228 228 228 228 228 228 228 228 228 228 228 228 228 228 228 228 228 236 150 88 103 106 106 105 105 104 104 103 103 102 101 100 100 100 99 97 96 96 96 95 94 93 93 91 90 89 89 88 86 84 78 72 69 71 95 175 203 225 238 246 250 253 254 254 255 
255 254 254 253 250 246 238 225 203 170 78 70 70 73 79 85 87 89 90 91 91 92 93 93 94 95 96 96 97 99 99 100 100 101 101 102 103 103 104 104 105 107 107 107 108 108 107 100 96 204 234 229 229 229 229 229 229 229 229 229 228 228 228 228 228 228 228 228 228 228 228 228 228 228 228 228 228 228 228 228 228 228 228 228 228 228 228 228 228 228 228 228 228 228 228 228 228 228 227 227 227 228 231 132 90 102 104 105 104 104 103 103 102 101 101 100 100 99 99 97 96 96 95 94 93 93 92 91 91 90 89 89 87 85 83 77 72 70 71 95 175 203 225 238 246 250 253 254 254 255 
255 254 254 253 250 246 238 225 203 170 78 70 70 73 78 83 86 88 89 89 90 91 92 93 94 95 95 96 96 97 99 99 100 100 101 102 102 103 103 104 105 105 106 107 107 108 106 100 96 204 233 228 228 228 228 228 228 228 228 228 228 228 228 228 228 228 228 228 228 228 228 228 228 228 228 228 228 228 228 228 227 227 227 227 227 227 227 227 227 227 227 227 227 227 227 227 227 227 227 227 227 229 225 114 93 103 104 105 104 103 103 102 102 101 100 100 99 99 97 96 96 95 95 94 93 92 91 90 89 88 88 88 86 84 81 77 72 70 71 95 175 203 225 238 246 250 253 254 254 255 
255 254 254 253 250 246 238 225 203 170 78 70 70 73 77 82 84 86 88 88 89 90 91 92 93 94 95 95 95 96 97 99 99 99 100 101 102 102 103 103 104 105 105 106 107 107 106 100 95 204 233 228 228 228 228 228 228 228 228 228 228 228 227 227 227 227 227 227 227 227 227 227 227 227 227 227 227 227 227 227 227 227 227 227 227 227 227 227 227 227 227 227 227 227 227 227 227 227 227 227 227 229 212 101 96 102 104 104 103 103 102 102 101 100 99 99 99 97 96 95 95 95 94 93 92 91 90 89 88 88 86 85 84 83 80 76 72 70 70 95 175 203 225 238 246 250 253 254 254 255 
255 254 254 253 250 246 238 225 203 170 78 70 70 73 77 82 85 86 88 88 89 90 91 92 93 94 95 95 95 97 97 99 99 100 101 102 102 102 103 103 104 105 106 106 108 108 106 100 96 203 232 227 227 227 227 227 227 227 227 227 227 227 227 227 227 227 227 227 227 227 227 227 227 227 227 227 227 227 227 227 227 227 227 227 227 227 227 227 227 227 227 227 227 227 227 227 227 227 227 227 227 232 198 91 99 103 105 105 104 103 102 102 102 100 99 99 99 97 97 95 95 95 94 93 92 91 90 89 88 88 88 86 85 83 80 76 72 70 70 95 175 203 225 238 246 250 253 254 254 255 
255 254 254 253 250 246 238 225 203 170 78 70 70 73 78 81 85 87 88 89 90 91 92 93 94 95 95 95 96 97 99 99 100 101 101 102 103 103 103 104 105 106 107 107 108 109 107 101 97 203 232 227 227 227 227 227 227 227 227 227 227 227 227 227 227 227 227 227 227 227 227 227 227 227 227 227 227 227 227 227 227 227 227 227 227 227 227 227 227 227 227 227 227 227 227 227 226 226 226 226 226 233 180 87 101 104 106 105 104 103 103 102 102 101 101 100 99 99 97 96 95 95 95 94 93 92 91 90 89 88 88 86 85 83 81 76 73 70 70 95 175 203 225 238 246 250 253 254 254 255 
255 254 254 253 250 246 238 225 203 170 78 70 70 73 77 81 86 88 89 90 90 91 92 93 94 95 95 96 97 99 99 99 100 101 102 102 103 104 104 105 106 107 107 108 109 109 107 101 97 202 231 227 227 227 227 227 227 227 227 227 227 227 227 227 227 227 227 227 227 227 227 227 227 227 227 227 227 227 226 226 226 226 226 226 226 226 226 226 226 226 226 226 226 226 226 226 226 226 226 226 226 233 158 88 102 106 107 106 105 104 104 103 102 102 101 100 99 99 99 97 96 95 95 94 93 92 91 90 90 89 88 87 85 83 80 76 72 69 70 96 176 203 225 238 246 250 253 254 254 255 
255 254 254 253 250 246 238 225 203 171 78 70 69 72 76 80 83 87 89 90 91 92 93 94 95 95 96 96 97 99 99 100 101 102 102 103 103 104 105 105 106 107 108 109 110 109 108 102 97 202 231 227 227 227 227 227 227 227 227 226 226 226 226 226 226 226 226 226 226 226 226 226 226 226 226 226 226 226 226 226 226 226 226 226 226 226 226 226 226 226 226 226 226 226 226 226 226 226 225 225 226 231 137 90 105 107 107 106 106 105 104 103 103 102 102 101 100 99 99 97 96 96 95 95 94 93 92 91 90 89 88 87 85 82 78 75 71 69 70 96 177 203 225 238 246 250 253 254 254 255 
255 254 254 253 250 246 238 225 204 173 75 69 69 71 75 78 82 86 88 90 92 92 93 94 95 95 96 97 99 99 100 100 102 102 103 103 104 104 105 107 107 108 109 110 110 110 109 102 98 202 230 226 226 226 226 226 226 226 226 226 226 226 226 226 226 226 226 226 226 226 226 226 226 226 226 226 226 226 226 225 225 225 225 225 225 225 225 225 225 225 225 225 225 225 225 225 225 225 225 225 227 222 115 97 106 108 108 107 106 106 104 104 103 103 102 102 100 100 99 99 97 96 95 95 94 93 92 91 91 90 88 87 83 81 78 73 70 68 70 95 180 204 226 238 246 250 253 254 254 255 
255 254 254 253 250 246 238 227 206 180 102 71 68 70 74 78 81 84 87 90 92 93 94 95 95 95 96 97 99 99 100 101 102 102 103 103 104 105 106 107 108 109 109 110 110 110 110 105 96 196 231 226 226 226 226 226 226 226 226 226 226 226 226 226 226 226 226 225 225 225 225 225 225 225 225 225 225 225 225 225 225 225 225 225 225 225 225 225 225 225 225 225 225 225 225 225 225 225 225 225 229 206 98 101 107 108 108 108 107 106 105 104 103 103 102 102 101 100 99 99 97 96 95 95 95 94 93 92 91 90 87 85 82 80 76 72 69 69 72 126 183 207 227 238 246 250 253 254 254 255 
255 254 254 253 250 246 239 228 209 184 156 92 70 69 72 76 78 82 85 88 91 93 94 95 95 96 97 99 99 100 101 102 102 103 103 104 105 106 107 107 109 109 110 110 111 111 110 107 92 187 231 225 225 225 225 225 225 225 225 225 225 225 225 225 225 225 225 225 225 225 225 225 225 225 225 225 225 225 225 225 225 225 225 225 225 225 225 225 225 225 225 225 224 224 224 224 224 224 224 224 231 177 90 105 108 109 109 108 107 107 106 105 104 103 103 102 102 101 100 99 99 97 96 95 95 94 93 92 90 88 86 84 82 78 74 70 70 71 110 163 186 211 228 239 246 250 253 254 254 255 
255 254 254 253 250 247 239 230 214 192 167 141 86 71 70 73 77 81 84 86 90 92 94 95 96 97 97 99 99 100 101 102 103 103 104 105 106 107 107 108 109 110 110 110 111 112 112 107 92 174 231 225 225 225 225 225 225 225 225 225 225 225 225 225 225 225 225 225 225 225 225 225 225 225 224 224 224 224 224 224 224 224 224 224 224 224 224 224 224 224 224 224 224 224 224 224 224 224 224 224 229 138 95 107 109 110 110 109 108 107 107 105 105 104 103 103 102 101 100 99 99 97 97 96 95 95 94 92 89 87 85 83 80 75 70 70 69 101 148 170 196 215 230 240 247 250 253 254 254 255 
255 254 254 253 250 247 240 232 219 201 178 154 130 83 71 70 74 80 83 85 87 91 93 95 96 97 99 99 100 101 102 102 103 103 104 105 106 107 108 109 110 110 110 111 112 113 112 109 94 153 230 224 225 225 225 225 224 224 224 224 224 224 224 224 224 224 224 224 224 224 224 224 224 224 224 224 224 224 224 224 224 224 224 224 224 224 224 224 224 224 224 224 224 224 223 223 223 223 223 227 206 102 104 108 110 110 110 109 109 108 107 106 105 104 103 103 102 102 101 100 99 99 97 96 95 94 93 91 88 86 84 81 76 71 69 69 98 139 158 182 203 220 232 241 247 250 253 254 254 255 
255 254 254 253 250 248 242 233 222 208 189 167 145 123 82 71 71 75 80 83 86 89 92 94 96 97 99 99 100 101 102 103 103 104 105 106 107 108 108 109 110 110 111 112 113 113 112 110 99 131 226 225 224 224 224 224 224 224 224 224 224 224 224 224 224 224 224 224 224 224 224 224 224 224 224 224 223 223 223 223 223 223 223 223 223 223 223 223 223 223 223 223 223 223 223 223 223 223 223 230 153 92 108 111 111 111 110 110 109 108 107 107 106 105 104 103 103 102 101 100 99 99 97 97 96 94 92 90 87 85 82 76 71 69 69 95 132 150 173 193 209 223 233 242 248 251 253 254 254 255 
255 254 254 253 251 248 243 235 226 214 199 181 160 140 121 81 71 71 76 81 85 88 90 92 95 98 99 100 101 102 102 103 104 104 105 106 107 108 109 110 110 111 111 112 113 113 113 112 105 108 212 226 224 224 224 224 224 223 223 223 223 223 223 223 223 223 223 223 223 223 223 223 223 223 223 223 223 223 223 223 223 223 223 223 223 223 223 223 223 223 223 223 223 223 223 223 223 222 228 204 102 104 110 112 112 111 111 110 110 109 108 107 106 105 104 104 103 102 102 101 100 99 99 97 96 93 91 89 86 83 77 71 70 69 93 128 144 164 185 202 215 227 236 243 248 251 253 254 254 255 
255 255 254 253 251 248 244 238 229 218 206 191 174 154 136 117 80 70 71 75 81 86 89 91 93 96 99 100 101 102 103 103 104 105 106 107 108 109 109 110 110 111 112 113 114 114 114 113 110 96 183 229 223 223 223 223 223 223 223 223 223 223 223 223 223 223 223 223 223 223 223 223 223 223 223 223 223 223 223 223 223 223 222 222 222 222 222 222 222 222 222 222 222 222 222 222 222 224 225 135 97 110 112 113 113 112 111 110 110 109 109 107 107 106 105 104 103 103 102 101 100 99 98 96 94 92 90 86 83 78 71 69 69 93 125 141 160 178 194 208 220 230 238 244 248 252 253 254 255 255 
255 255 254 253 252 249 245 239 232 223 212 200 185 170 152 134 116 79 70 70 75 83 88 90 92 95 97 100 101 102 103 104 105 106 106 107 108 109 110 110 111 112 113 113 114 114 115 115 112 98 141 228 223 223 223 223 223 223 223 223 223 223 223 223 222 222 222 222 222 222 222 222 222 222 222 222 222 222 222 222 222 222 222 222 222 222 222 222 222 222 222 222 222 222 222 222 222 230 167 94 108 112 113 113 113 113 112 111 110 110 109 108 107 106 106 105 104 103 102 102 101 100 98 95 93 92 88 84 76 71 69 68 91 124 139 157 174 189 203 214 225 233 240 246 249 252 253 254 255 255 
255 255 254 253 253 250 247 242 235 227 218 207 195 182 167 150 132 116 79 70 71 75 83 88 91 93 96 99 101 102 103 104 105 106 107 108 109 110 110 110 111 112 113 114 114 115 116 115 114 108 104 203 227 222 222 222 222 222 222 222 222 222 222 222 222 222 222 222 222 222 222 222 222 222 222 222 222 222 222 222 222 222 222 222 222 222 222 222 222 222 221 221 221 221 221 221 229 185 99 106 112 114 115 114 114 113 112 111 110 110 109 109 108 107 106 105 104 103 103 102 101 99 97 94 93 90 85 78 71 69 69 91 124 137 155 172 186 198 209 220 229 237 243 248 250 253 253 254 255 255 
255 255 254 254 253 251 248 244 239 232 224 214 203 192 180 165 148 132 115 79 70 71 75 83 89 92 94 97 100 102 103 104 105 106 107 108 109 110 110 111 112 113 114 114 114 115 116 116 115 112 99 145 228 223 222 222 222 222 222 222 222 222 222 222 222 222 222 222 222 222 222 221 221 221 221 221 221 221 221 221 221 221 221 221 221 221 221 221 221 221 221 221 221 221 222 229 190 105 104 113 115 115 115 114 114 114 113 112 111 110 110 109 108 107 106 105 104 103 103 102 100 98 96 93 91 86 79 72 69 68 91 123 137 154 170 184 196 207 216 226 233 240 245 249 252 253 254 254 255 255 
255 255 255 254 253 253 250 247 243 237 229 221 212 202 191 179 164 148 132 116 79 70 70 76 83 89 93 97 99 101 103 105 106 107 108 109 110 110 111 111 112 113 114 114 115 116 117 117 117 115 111 99 184 229 221 221 221 221 221 221 221 221 221 221 221 221 221 221 221 221 221 221 221 221 221 221 221 221 221 221 221 221 221 221 221 221 221 221 221 221 221 221 221 224 227 178 104 105 113 115 116 116 116 115 114 114 113 112 111 111 110 109 109 108 107 106 105 104 103 101 99 97 94 93 88 80 72 69 69 91 123 137 154 170 183 195 204 215 223 231 238 243 248 250 253 253 254 255 255 255 
255 255 255 254 254 253 252 249 246 241 235 227 220 210 201 190 179 164 148 132 115 78 70 69 76 83 91 96 98 100 102 104 106 107 108 109 110 110 111 112 113 114 114 115 116 116 117 118 118 117 115 108 111 201 229 221 221 221 221 221 221 221 221 221 221 221 221 221 221 221 221 221 221 221 221 221 221 221 221 221 221 221 221 221 221 221 221 221 221 221 221 222 227 215 153 101 108 115 117 117 117 117 116 115 115 114 114 113 112 111 110 110 109 108 107 106 105 104 102 100 98 96 93 88 81 73 69 69 90 123 137 154 170 183 194 204 214 222 230 237 243 247 249 252 253 254 254 255 255 255 
255 255 255 255 254 253 253 251 248 245 240 234 227 219 210 200 190 179 164 147 132 115 78 70 69 76 84 92 97 100 102 103 106 107 109 110 110 111 111 112 113 114 114 115 116 117 117 118 120 119 119 116 105 116 194 229 224 221 221 221 221 221 221 221 221 221 221 221 222 224 226 226 226 225 222 221 221 221 221 221 221 221 221 221 221 221 221 221 221 223 227 220 180 121 100 112 117 118 119 118 118 117 117 116 115 114 114 113 112 111 110 110 110 109 108 107 105 103 101 99 98 95 89 81 73 69 69 90 123 137 154 169 182 194 203 213 221 230 236 242 246 248 251 253 253 254 255 255 255 255 
255 255 255 255 254 254 253 253 250 248 244 239 233 227 219 209 200 189 178 164 148 132 115 78 70 69 76 84 93 98 101 103 106 107 109 110 110 111 112 113 114 114 115 116 117 117 118 118 120 120 120 120 116 107 106 162 212 227 226 223 222 222 222 223 224 226 227 224 218 206 195 189 189 200 216 225 226 226 223 222 222 222 222 222 223 224 226 226 223 207 173 129 102 108 116 118 120 120 120 120 118 118 117 116 116 115 114 114 113 112 111 110 110 109 108 106 104 102 100 98 95 90 81 73 69 68 90 123 137 154 169 182 194 203 213 221 229 236 241 245 248 251 253 253 254 254 255 255 255 255 
255 255 255 255 255 254 254 253 253 250 248 244 239 233 227 219 209 200 189 178 164 148 132 115 79 70 69 76 86 94 99 103 105 106 108 109 110 111 112 113 114 114 115 116 117 117 118 120 121 121 121 122 121 118 113 103 119 157 190 206 216 217 217 213 201 187 166 146 128 118 111 108 109 113 127 150 174 195 205 213 216 216 216 216 210 201 189 166 139 115 104 110 117 120 121 122 122 122 121 121 120 118 117 117 116 115 114 114 113 112 111 110 110 109 108 106 104 101 99 97 91 81 73 69 68 90 123 137 154 169 182 193 203 213 221 229 236 241 245 248 251 253 253 254 254 255 255 255 255 255 
255 255 255 255 255 255 254 254 253 252 250 248 243 239 233 227 219 209 200 190 178 164 148 132 115 79 70 69 76 86 95 101 104 106 108 109 110 112 112 113 114 114 115 116 117 118 118 120 121 121 122 123 123 122 121 119 113 106 107 117 124 125 126 123 115 109 109 112 118 121 123 125 125 123 118 113 110 112 120 125 127 127 126 126 122 115 108 107 110 117 120 122 123 123 123 124 123 122 121 121 120 118 118 117 116 115 114 114 113 112 111 110 110 109 107 105 103 101 98 91 82 73 69 68 90 123 137 154 169 182 194 203 213 221 229 236 241 245 248 251 253 253 254 254 255 255 255 255 255 255 
255 255 255 255 255 255 255 254 254 253 252 250 248 243 239 233 227 219 209 200 190 178 164 147 132 115 79 70 70 76 86 95 103 106 108 109 110 112 113 114 114 115 116 117 117 118 120 121 121 122 123 124 124 124 124 124 123 122 121 119 118 118 119 120 122 125 127 128 129 131 131 132 131 131 130 129 127 126 123 122 121 120 120 119 120 121 123 123 124 125 125 126 125 125 124 124 124 123 122 121 121 120 118 117 117 116 115 114 114 113 112 111 109 108 106 105 103 100 92 82 73 70 68 90 123 137 153 169 182 194 203 213 221 229 235 241 245 248 251 253 253 254 254 255 255 255 255 255 255 255 
255 255 255 255 255 255 255 254 254 254 253 252 250 248 243 238 233 227 219 209 200 190 178 164 148 132 115 79 70 70 76 87 96 103 107 110 111 112 113 114 114 115 116 117 117 118 120 121 121 122 123 124 125 125 126 126 126 126 126 127 127 128 128 129 130 131 132 132 133 134 135 135 135 134 134 134 133 133 132 131 131 130 130 129 129 129 129 128 128 128 127 127 127 126 125 125 124 123 122 121 121 120 118 117 117 116 115 114 114 113 112 111 109 108 106 103 101 93 82 73 70 68 90 123 137 154 169 182 194 203 213 221 229 235 240 245 248 251 253 253 254 254 255 255 255 255 255 255 255 255 
255 255 255 255 255 255 255 255 254 254 254 253 252 250 248 243 238 233 227 219 209 200 190 178 164 148 132 115 77 70 70 76 86 97 104 109 111 112 112 113 114 115 116 117 118 118 120 121 121 122 123 124 125 125 126 127 127 128 128 129 130 131 131 132 132 133 134 135 135 135 136 136 136 136 136 136 136 135 135 135 134 134 133 132 132 131 131 130 129 129 128 128 127 126 125 125 124 123 122 121 121 120 118 118 117 116 115 114 114 113 112 110 109 107 105 101 95 84 74 70 68 89 123 137 154 169 182 194 203 213 221 229 236 240 245 248 251 253 253 254 254 255 255 255 255 255 255 255 255 255 
255 255 255 255 255 255 255 255 255 254 254 254 253 252 250 248 243 239 233 227 219 209 200 189 178 164 148 132 115 78 70 70 76 86 97 105 110 112 113 113 115 116 117 117 118 120 121 121 122 123 124 125 125 126 127 128 128 129 130 131 131 132 132 133 134 135 135 136 136 136 137 137 137 137 137 137 137 137 136 136 136 135 135 134 133 132 132 131 131 130 129 128 128 127 126 125 125 124 123 122 121 121 120 118 117 117 116 115 114 113 111 110 108 106 102 95 86 76 70 69 89 123 137 154 169 182 194 203 213 221 229 235 241 245 248 251 253 253 254 254 255 255 255 255 255 255 255 255 255 255 
255 255 255 255 255 255 255 255 255 255 254 254 254 253 252 250 248 243 239 233 227 219 209 200 189 178 164 147 132 115 78 70 70 76 86 98 106 112 113 114 115 116 117 117 118 120 121 121 122 123 124 125 125 126 127 128 128 129 130 131 132 132 133 134 134 135 136 136 136 137 137 137 138 138 138 138 137 137 137 136 136 136 135 134 134 132 132 132 131 130 129 128 128 127 126 125 125 124 123 122 121 121 120 118 117 117 116 115 114 112 110 109 108 103 97 86 76 71 68 89 123 137 153 169 182 193 203 213 221 229 236 241 245 248 251 253 253 254 254 255 255 255 255 255 255 255 255 255 255 255 
255 255 255 255 255 255 255 255 255 255 255 254 254 254 253 252 250 248 244 239 233 227 218 209 200 190 178 164 148 132 115 78 70 70 76 86 99 108 113 115 116 116 116 118 118 120 121 121 122 123 124 125 125 126 127 128 129 129 130 131 132 132 133 134 135 136 136 137 137 138 138 139 139 139 139 139 139 138 138 137 137 136 136 135 134 133 132 132 131 130 129 129 128 127 126 125 125 124 123 122 121 121 120 118 118 117 116 115 113 112 110 109 104 97 86 76 70 69 89 123 137 154 169 182 194 203 213 221 229 236 241 245 248 251 253 253 254 254 255 255 255 255 255 255 255 255 255 255 255 255 
255 255 255 255 255 255 255 255 255 255 255 255 254 254 254 253 252 250 248 244 239 233 227 219 209 200 190 178 164 148 132 115 78 70 70 76 87 99 109 114 117 117 117 118 118 120 121 121 122 123 125 125 126 127 128 128 129 130 131 132 132 133 134 134 135 136 136 137 138 138 139 139 139 139 139 139 139 139 138 138 137 136 136 135 134 133 132 132 132 131 130 129 128 128 127 126 125 125 123 122 121 121 120 118 118 117 116 115 113 112 110 105 98 87 76 70 69 90 123 137 154 169 182 194 203 213 221 229 236 241 245 248 251 253 253 254 254 254 255 255 255 255 255 255 255 255 255 255 255 255 
255 255 255 255 255 255 255 255 255 255 255 255 255 254 254 254 253 252 250 248 243 239 233 227 219 209 200 190 178 164 147 132 114 78 71 71 77 87 100 109 116 119 120 120 120 121 121 122 123 124 125 125 126 127 128 128 129 130 131 132 132 133 134 135 136 136 137 137 139 139 139 140 140 140 140 140 140 139 139 139 137 137 136 136 135 134 133 132 132 131 130 129 128 128 127 126 125 125 124 123 122 121 121 120 118 117 115 114 113 111 106 98 87 77 70 69 89 123 137 154 169 182 194 203 213 221 229 235 241 245 248 251 253 253 254 254 255 255 255 255 255 255 255 255 255 255 255 255 255 255 
255 255 255 255 255 255 255 255 255 255 255 255 255 255 254 254 254 253 252 250 248 243 239 233 227 219 209 200 189 178 164 147 132 114 78 71 71 77 88 100 111 117 120 121 121 121 121 122 123 124 125 125 126 127 128 128 129 130 131 132 132 133 134 135 136 136 137 138 139 139 140 140 141 141 141 141 140 140 139 139 138 137 136 136 135 134 133 132 132 131 130 129 128 128 127 126 125 125 124 123 122 121 121 120 117 116 115 114 112 107 99 87 77 70 69 90 123 137 153 169 182 194 203 213 221 229 236 241 245 248 251 253 253 254 254 255 255 255 255 255 255 255 255 255 255 255 255 255 255 255 
255 255 255 255 255 255 255 255 255 255 255 255 255 255 255 254 254 254 253 252 250 248 244 239 233 227 219 209 200 190 178 164 148 132 115 79 70 71 77 88 100 111 118 121 123 122 122 122 123 124 125 125 126 127 128 129 129 130 131 132 133 134 135 135 136 136 137 138 139 139 140 141 141 142 142 141 141 140 139 139 138 137 136 136 135 134 133 133 132 131 130 129 129 128 127 126 125 125 124 123 122 121 121 120 117 116 115 113 109 99 87 77 70 70 90 123 137 154 169 182 194 203 213 221 229 235 241 245 248 251 253 253 254 254 255 255 255 255 255 255 255 255 255 255 255 255 255 255 255 255 
255 255 255 255 255 255 255 255 255 255 255 255 255 255 255 255 254 254 254 253 252 250 248 244 239 233 227 218 209 200 189 178 164 148 132 114 79 70 70 77 87 100 111 119 123 124 123 123 123 124 125 125 126 127 128 129 130 131 132 132 133 134 135 136 136 137 138 139 139 140 141 141 142 142 142 142 141 141 140 139 139 138 137 136 136 135 133 133 132 132 131 130 129 128 127 126 125 125 124 123 122 121 120 119 117 116 114 109 100 89 77 71 69 90 123 137 154 169 182 193 203 213 221 229 235 241 245 248 251 253 253 254 254 255 255 255 255 255 255 255 255 255 255 255 255 255 255 255 255 255 
255 255 255 255 255 255 255 255 255 255 255 255 255 255 255 255 255 254 254 254 253 252 250 248 243 239 233 227 219 209 200 189 178 164 147 132 114 78 70 70 76 87 99 112 120 125 126 125 125 125 125 125 126 127 128 129 130 131 132 132 133 134 135 136 136 137 138 139 139 140 141 142 142 143 143 142 142 141 140 139 139 138 137 136 136 135 134 133 132 132 131 130 129 128 127 126 125 125 124 123 122 120 120 119 117 115 109 100 89 78 71 68 89 123 137 154 169 182 193 203 213 221 229 235 241 245 248 251 253 253 254 254 255 255 255 255 255 255 255 255 255 255 255 255 255 255 255 255 255 255 
255 255 255 255 255 255 255 255 255 255 255 255 255 255 255 255 255 255 254 254 254 253 252 250 248 243 238 233 227 218 209 200 190 178 164 147 131 114 78 69 69 75 86 99 112 121 126 127 126 126 125 125 126 127 128 129 130 131 132 132 133 134 135 136 136 137 138 139 139 140 141 142 142 143 143 142 141 141 140 139 139 138 137 136 136 135 134 133 132 132 131 130 129 128 127 126 125 125 124 123 122 121 120 120 116 110 100 89 78 71 68 89 123 136 153 169 182 194 203 213 221 229 235 241 245 248 251 253 253 254 254 255 255 255 255 255 255 255 255 255 255 255 255 255 255 255 255 255 255 255 
255 255 255 255 255 255 255 255 255 255 255 255 255 255 255 255 255 255 255 254 254 254 253 252 250 248 243 238 233 227 219 209 200 190 178 164 148 132 114 78 70 69 76 86 100 113 122 127 129 127 126 126 127 127 128 129 130 131 132 132 133 135 136 136 136 137 138 139 140 140 141 142 143 143 143 143 142 141 140 139 139 138 137 136 136 135 134 133 132 132 131 130 129 128 127 126 125 125 125 123 122 121 120 117 111 101 89 78 71 68 90 123 136 154 169 182 194 203 213 221 229 235 240 245 248 251 253 253 254 254 255 255 255 255 255 255 255 255 255 255 255 255 255 255 255 255 255 255 255 255 
255 255 255 255 255 255 255 255 255 255 255 255 255 255 255 255 255 255 255 255 254 254 254 253 252 250 248 243 238 233 227 218 209 200 190 178 164 148 132 114 78 70 69 76 87 100 113 124 128 129 129 129 129 130 131 132 133 133 134 135 136 137 138 138 139 140 140 141 142 143 144 145 145 145 145 145 144 144 143 142 141 140 140 139 138 138 137 136 135 134 133 133 132 131 130 129 128 127 126 125 123 120 117 112 102 90 79 71 68 89 123 137 154 168 182 194 203 213 221 229 235 240 245 248 251 253 253 254 254 255 255 255 255 255 255 255 255 255 255 255 255 255 255 255 255 255 255 255 255 255 
255 255 255 255 255 255 255 255 255 255 255 255 255 255 255 255 255 255 255 255 255 254 254 254 253 252 250 248 243 239 233 227 218 209 200 189 178 164 147 132 114 78 70 69 76 87 100 114 124 129 131 132 132 133 134 135 136 137 138 139 139 140 140 142 142 143 144 145 146 147 147 147 147 148 148 147 147 147 147 146 145 144 143 142 142 140 140 139 139 138 137 136 135 134 133 132 132 130 128 126 124 118 112 102 90 79 71 68 89 122 137 153 169 182 193 203 213 221 229 236 241 245 248 251 253 253 254 254 255 255 255 255 255 255 255 255 255 255 255 255 255 255 255 255 255 255 255 255 255 255 
255 255 255 255 255 255 255 255 255 255 255 255 255 255 255 255 255 255 255 255 255 255 254 254 254 253 252 250 248 243 239 233 227 218 209 200 189 178 164 147 131 115 78 70 69 76 87 101 114 123 128 131 132 133 134 135 136 137 137 138 139 140 141 142 143 143 144 144 145 146 146 147 147 147 147 147 147 146 146 145 144 144 143 143 142 141 140 139 138 137 137 136 135 134 133 133 131 130 128 125 119 112 103 90 79 71 68 90 122 136 153 169 182 193 203 213 221 229 235 241 245 248 251 253 253 254 254 255 255 255 255 255 255 255 255 255 255 255 255 255 255 255 255 255 255 255 255 255 255 255 
255 255 255 255 255 255 255 255 255 255 255 255 255 255 255 255 255 255 255 255 255 255 255 254 254 254 253 252 250 248 243 239 233 227 218 209 200 189 178 164 147 131 115 78 70 69 76 87 100 112 118 123 125 126 126 127 128 129 130 130 130 131 131 132 134 134 134 134 135 136 137 137 137 137 137 137 137 137 135 135 134 134 134 134 132 131 131 130 130 130 129 127 127 126 126 126 125 123 120 117 111 102 90 79 71 68 90 122 136 153 169 182 193 203 213 221 229 235 241 245 248 251 253 253 254 254 255 255 255 255 255 255 255 255 255 255 255 255 255 255 255 255 255 255 255 255 255 255 255 255 
255 255 255 255 255 255 255 255 255 255 255 255 255 255 255 255 255 255 255 255 255 255 255 255 254 254 254 253 252 250 248 243 239 233 227 219 209 200 189 178 164 147 131 115 78 70 69 76 85 96 103 108 110 111 112 112 113 114 114 114 114 114 115 115 116 116 117 117 117 117 117 117 117 117 117 117 117 117 117 117 117 117 116 116 115 115 114 114 114 114 114 113 112 112 111 111 110 109 107 104 98 89 79 71 68 90 123 136 154 168 182 193 203 212 221 229 235 241 245 248 251 253 253 254 254 255 255 255 255 255 255 255 255 255 255 255 255 255 255 255 255 255 255 255 255 255 255 255 255 255 
255 255 255 255 255 255 255 255 255 255 255 255 255 255 255 255 255 255 255 255 255 255 255 255 255 254 254 254 253 252 250 248 244 239 233 227 218 209 200 189 178 164 147 132 114 78 70 68 74 79 86 89 91 91 92 92 92 92 92 93 93 93 93 94 94 94 94 95 95 95 95 95 95 95 95 95 95 95 95 95 95 94 94 94 94 93 93 93 93 92 92 92 92 92 91 91 91 90 89 87 81 76 71 68 90 123 136 153 168 182 193 203 212 221 229 236 241 245 248 251 253 253 254 254 255 255 255 255 255 255 255 255 255 255 255 255 255 255 255 255 255 255 255 255 255 255 255 255 255 255 
255 255 255 255 255 255 255 255 255 255 255 255 255 255 255 255 255 255 255 255 255 255 255 255 255 255 254 254 254 253 252 250 248 244 239 233 227 218 209 200 189 177 164 147 131 115 79 69 68 70 72 74 75 75 75 75 75 76 76 76 76 76 76 76 76 77 77 77 77 77 77 77 77 77 77 77 77 77 77 77 77 77 77 76 76 76 76 76 76 76 75 75 75 75 75 75 75 75 74 73 71 69 68 89 123 136 153 169 182 193 203 213 221 229 235 241 245 248 251 253 253 254 254 255 255 255 255 255 255 255 255 255 255 255 255 255 255 255 255 255 255 255 255 255 255 255 255 255 255 255 
255 255 255 255 255 255 255 255 255 255 255 255 255 255 255 255 255 255 255 255 255 255 255 255 255 255 255 254 254 254 253 252 250 248 243 239 233 226 218 209 200 189 178 164 148 132 117 79 67 66 66 67 67 67 67 67 67 67 67 67 67 67 67 67 67 67 67 67 67 67 67 67 67 67 67 67 67 67 67 67 67 67 67 67 67 67 67 67 67 67 67 67 67 67 67 67 67 67 67 66 66 68 91 124 136 154 169 182 193 203 213 221 228 235 241 245 248 251 253 253 254 254 255 255 255 255 255 255 255 255 255 255 255 255 255 255 255 255 255 255 255 255 255 255 255 255 255 255 255 255 
255 255 255 255 255 255 255 255 255 255 255 255 255 255 255 255 255 255 255 255 255 255 255 255 255 255 255 255 254 254 254 253 252 250 248 243 239 233 226 218 209 200 189 178 164 149 135 120 104 98 97 96 95 95 95 95 95 95 95 95 95 95 95 95 95 95 95 95 95 95 95 95 95 95 95 95 95 95 95 95 95 95 95 95 95 95 95 95 95 95 95 95 95 95 95 95 95 95 95 97 100 109 126 139 154 169 182 193 203 212 221 228 235 241 245 248 251 253 253 254 254 255 255 255 255 255 255 255 255 255 255 255 255 255 255 255 255 255 255 255 255 255 255 255 255 255 255 255 255 255 
255 255 255 255 255 255 255 255 255 255 255 255 255 255 255 255 255 255 255 255 255 255 255 255 255 255 255 255 255 254 254 254 253 252 250 248 243 239 233 227 218 209 200 190 179 165 153 141 134 127 124 122 122 122 122 122 122 122 122 122 122 122 122 122 122 122 122 122 122 122 122 122 122 122 122 122 122 122 122 122 122 122 122 122 122 122 122 122 122 122 122 122 122 122 122 122 122 122 123 124 129 136 144 156 170 182 194 203 213 221 229 235 241 245 248 251 253 253 254 254 255 255 255 255 255 255 255 255 255 255 255 255 255 255 255 255 255 255 255 255 255 255 255 255 255 255 255 255 255 255 
255 255 255 255 255 255 255 255 255 255 255 255 255 255 255 255 255 255 255 255 255 255 255 255 255 255 255 255 255 255 254 254 254 253 252 250 248 243 238 233 227 219 209 200 191 181 170 160 152 147 143 141 141 140 141 141 141 140 140 140 140 140 140 140 140 140 140 140 140 140 140 140 140 140 140 140 140 140 140 140 140 140 140 140 140 140 140 140 140 140 140 140 140 141 141 140 141 141 142 144 148 154 163 173 184 195 203 213 221 229 235 240 245 248 251 253 253 254 254 255 255 255 255 255 255 255 255 255 255 255 255 255 255 255 255 255 255 255 255 255 255 255 255 255 255 255 255 255 255 255 
255 255 255 255 255 255 255 255 255 255 255 255 255 255 255 255 255 255 255 255 255 255 255 255 255 255 255 255 255 255 255 254 254 254 253 252 250 248 243 238 233 227 219 209 201 192 184 176 170 164 162 159 158 157 157 157 157 156 156 156 156 156 156 156 156 156 156 156 156 156 156 156 156 156 156 156 156 156 156 156 156 156 156 156 156 156 156 156 156 156 156 156 156 157 157 157 158 158 160 163 166 172 179 187 196 204 213 221 229 235 240 245 248 251 253 253 254 254 255 255 255 255 255 255 255 255 255 255 255 255 255 255 255 255 255 255 255 255 255 255 255 255 255 255 255 255 255 255 255 255 
255 255 255 255 255 255 255 255 255 255 255 255 255 255 255 255 255 255 255 255 255 255 255 255 255 255 255 255 255 255 255 255 254 254 254 253 252 250 248 243 238 233 227 219 211 203 196 189 184 179 176 173 173 173 171 172 171 171 171 171 171 171 171 171 171 171 171 171 171 171 171 171 171 171 171 171 171 171 171 171 171 171 171 171 171 171 171 171 171 171 171 171 171 171 172 172 173 173 174 177 181 186 191 199 206 214 221 229 235 240 245 248 251 253 253 254 254 255 255 255 255 255 255 255 255 255 255 255 255 255 255 255 255 255 255 255 255 255 255 255 255 255 255 255 255 255 255 255 255 255 
255 255 255 255 255 255 255 255 255 255 255 255 255 255 255 255 255 255 255 255 255 255 255 255 255 255 255 255 255 255 255 255 255 254 254 254 253 252 250 248 243 239 234 227 221 214 207 201 196 192 189 187 185 184 184 184 183 183 183 183 183 183 183 183 183 183 183 183 183 183 183 183 183 183 183 183 183 183 183 183 183 183 183 183 183 183 183 183 183 183 183 183 183 183 184 184 185 186 188 189 193 197 203 209 216 223 230 236 241 245 248 251 253 253 254 254 255 255 255 255 255 255 255 255 255 255 255 255 255 255 255 255 255 255 255 255 255 255 255 255 255 255 255 255 255 255 255 255 255 255 
255 255 255 255 255 255 255 255 255 255 255 255 255 255 255 255 255 255 255 255 255 255 255 255 255 255 255 255 255 255 255 255 255 255 254 254 254 253 252 250 248 244 240 234 229 224 218 213 208 204 202 199 198 197 196 196 196 196 196 196 196 196 196 196 196 196 196 196 196 196 196 196 196 196 196 196 196 196 196 196 196 196 196 196 196 196 196 196 196 196 196 196 196 196 196 196 197 198 200 203 205 209 215 220 226 232 237 241 245 248 251 253 253 254 254 254 255 255 255 255 255 255 255 255 255 255 255 255 255 255 255 255 255 255 255 255 255 255 255 255 255 255 255 255 255 255 255 255 255 255 
255 255 255 255 255 255 255 255 255 255 255 255 255 255 255 255 255 255 255 255 255 255 255 255 255 255 255 255 255 255 255 255 255 255 255 254 254 254 253 252 250 248 244 241 237 232 227 223 219 215 213 211 210 209 209 209 209 209 209 209 209 209 209 209 209 209 209 209 209 209 209 209 209 209 209 209 209 209 209 209 209 209 209 209 209 209 209 209 209 209 209 209 209 209 209 209 209 210 212 214 216 221 224 229 233 238 242 246 249 251 253 253 254 254 254 255 255 255 255 255 255 255 255 255 255 255 255 255 255 255 255 255 255 255 255 255 255 255 255 255 255 255 255 255 255 255 255 255 255 255 
255 255 255 255 255 255 255 255 255 255 255 255 255 255 255 255 255 255 255 255 255 255 255 255 255 255 255 255 255 255 255 255 255 255 255 255 254 254 254 253 252 250 248 246 243 239 235 232 229 227 224 223 221 221 221 221 221 221 221 221 221 221 221 221 221 221 221 221 221 221 221 221 221 221 221 221 221 221 221 221 221 221 221 221 221 221 221 221 221 221 221 221 221 221 221 221 221 222 224 225 227 230 232 237 240 243 247 248 251 253 253 254 254 254 255 255 255 255 255 255 255 255 255 255 255 255 255 255 255 255 255 255 255 255 255 255 255 255 255 255 255 255 255 255 255 255 255 255 255 255 
255 255 255 255 255 255 255 255 255 255 255 255 255 255 255 255 255 255 255 255 255 255 255 255 255 255 255 255 255 255 255 255 255 255 255 255 255 254 254 254 253 252 251 249 247 244 242 239 238 235 234 232 232 232 232 232 232 232 232 232 232 232 232 232 232 232 232 232 232 232 232 232 232 232 232 232 232 232 232 232 232 232 232 232 232 232 232 232 232 232 232 232 232 232 232 232 232 232 233 234 236 238 240 243 245 248 249 251 253 253 254 254 254 255 255 255 255 255 255 255 255 255 255 255 255 255 255 255 255 255 255 255 255 255 255 255 255 255 255 255 255 255 255 255 255 255 255 255 255 255 
255 255 255 255 255 255 255 255 255 255 255 255 255 255 255 255 255 255 255 255 255 255 255 255 255 255 255 255 255 255 255 255 255 255 255 255 255 255 255 254 254 253 253 252 250 248 247 245 244 243 242 241 240 240 240 240 240 240 240 240 240 240 240 240 240 240 240 240 240 240 240 240 240 240 240 240 240 240 240 240 240 240 240 240 240 240 240 240 240 240 240 240 240 240 240 240 240 240 241 242 243 244 246 248 249 250 252 253 253 254 254 255 255 255 255 255 255 255 255 255 255 255 255 255 255 255 255 255 255 255 255 255 255 255 255 255 255 255 255 255 255 255 255 255 255 255 255 255 255 255 
255 255 255 255 255 255 255 255 255 255 255 255 255 255 255 255 255 255 255 255 255 255 255 255 255 255 255 255 255 255 255 255 255 255 255 255 255 255 255 255 254 254 253 253 253 251 250 249 248 248 248 247 247 246 246 246 246 246 246 246 246 246 246 246 246 246 246 246 246 246 246 246 246 246 246 246 246 246 246 246 246 246 246 246 246 246 246 246 246 246 246 246 246 246 246 246 246 247 247 248 248 248 249 250 252 253 253 253 254 254 255 255 255 255 255 255 255 255 255 255 255 255 255 255 255 255 255 255 255 255 255 255 255 255 255 255 255 255 255 255 255 255 255 255 255 255 255 255 255 255 
255 255 255 255 255 255 255 255 255 255 255 255 255 255 255 255 255 255 255 255 255 255 255 255 255 255 255 255 255 255 255 255 255 255 255 255 255 255 255 255 255 254 254 254 253 253 253 252 251 251 250 250 250 250 250 250 250 250 250 250 250 250 250 250 250 250 250 250 250 250 250 250 250 250 250 250 250 250 250 250 250 250 250 250 250 250 250 250 250 250 250 250 250 250 250 250 250 250 250 251 251 252 252 253 253 253 254 254 254 255 255 255 255 255 255 255 255 255 255 255 255 255 255 255 255 255 255 255 255 255 255 255 255 255 255 255 255 255 255 255 255 255 255 255 255 255 255 255 255 255 
255 255 255 255 255 255 255 255 255 255 255 255 255 255 255 255 255 255 255 255 255 255 255 255 255 255 255 255 255 255 255 255 255 255 255 255 255 255 255 255 255 255 255 254 254 254 253 253 253 253 253 253 253 253 253 253 253 253 253 253 253 253 253 253 253 253 253 253 253 253 253 253 253 253 253 253 253 253 253 253 253 253 253 253 253 253 253 253 253 253 253 253 253 253 253 253 253 253 253 253 253 253 253 253 254 254 254 255 255 255 255 255 255 255 255 255 255 255 255 255 255 255 255 255 255 255 255 255 255 255 255 255 255 255 255 255 255 255 255 255 255 255 255 255 255 255 255 255 255 255 
255 255 255 255 255 255 255 255 255 255 255 255 255 255 255 255 255 255 255 255 255 255 255 255 255 255 255 255 255 255 255 255 255 255 255 255 255 255 255 255 255 255 255 255 255 254 254 254 254 254 254 254 254 254 254 254 254 254 254 254 254 254 254 254 254 254 254 254 254 254 254 254 254 254 254 254 254 254 254 254 254 254 254 254 254 254 254 254 254 254 254 254 254 254 254 254 254 254 254 254 254 254 254 254 254 255 255 255 255 255 255 255 255 255 255 255 255 255 255 255 255 255 255 255 255 255 255 255 255 255 255 255 255 255 255 255 255 255 255 255 255 255 255 255 255 255 255 255 255 255 
255 255 255 255 255 255 255 255 255 255 255 255 255 255 255 255 255 255 255 255 255 255 255 255 255 255 255 255 255 255 255 255 255 255 255 255 255 255 255 255 255 255 255 255 255 255 255 255 255 254 254 254 254 254 254 254 254 254 254 254 254 254 254 254 254 254 254 254 254 254 254 254 254 254 254 254 254 254 254 254 254 254 254 254 254 254 254 254 254 254 254 254 254 254 254 254 254 254 254 254 254 255 255 255 255 255 255 255 255 255 255 255 255 255 255 255 255 255 255 255 255 255 255 255 255 255 255 255 255 255 255 255 255 255 255 255 255 255 255 255 255 255 255 255 255 255 255 255 255 255 
255 255 255 255 255 255 255 255 255 255 255 255 255 255 255 255 255 255 255 255 255 255 255 255 255 255 255 255 255 255 255 255 255 255 255 255 255 255 255 255 255 255 255 255 255 255 255 255 255 255 255 255 255 255 255 255 255 255 255 255 255 255 255 255 255 255 255 255 255 255 255 255 255 255 255 255 255 255 255 255 255 255 255 255 255 255 255 255 255 255 255 255 255 255 255 255 255 255 255 255 255 255 255 255 255 255 255 255 255 255 255 255 255 255 255 255 255 255 255 255 255 255 255 255 255 255 255 255 255 255 255 255 255 255 255 255 255 255 255 255 255 255 255 255 255 255 255 255 255 255 
