P2
300 257
255
255 255 255 255 255 255 255 255 255 255 255 255 255 255 255 255 255 255 255 255 255 255 255 255 255 255 255 255 255 255 255 255 255 255 255 255 255 255 255 255 255 255 255 255 255 255 255 255 255 255 255 255 255 255 255 255 255 255 255 255 255 255 255 255 255 255 255 255 255 255 255 255 255 255 255 255 255 255 255 255 255 255 255 255 255 255 255 255 255 255 255 255 255 255 255 255 255 255 255 255 255 255 255 255 255 255 255 255 255 255 255 255 255 255 255 255 255 255 255 255 255 255 255 255 255 255 255 255 255 255 255 255 255 255 255 255 255 255 255 255 255 255 255 255 255 255 255 255 255 255 255 255 255 255 255 255 255 255 255 255 255 255 255 255 255 255 255 255 255 255 255 255 255 255 255 255 255 255 255 255 255 255 255 255 255 255 255 255 255 255 255 255 255 255 255 255 255 255 255 255 255 255 255 255 255 255 255 255 255 255 255 255 255 255 255 255 255 255 255 255 255 255 255 255 255 255 255 255 255 255 255 255 255 255 255 255 255 255 255 255 255 255 255 255 255 255 255 255 255 255 255 255 255 255 255 255 255 255 255 255 255 255 255 255 255 255 255 255 255 255 255 255 255 255 255 255 255 255 255 255 255 255 255 255 255 255 255 255 255 255 255 255 255 255 255 255 255 255 255 255 
255 255 255 255 255 255 255 255 255 255 255 255 255 255 255 255 255 255 255 255 255 255 255 255 255 255 255 255 255 255 255 255 255 255 255 255 255 255 255 255 255 255 255 255 255 255 255 255 255 255 255 255 255 255 255 255 255 255 255 255 255 255 255 255 255 255 255 255 255 255 255 255 255 255 255 255 255 255 255 255 255 255 255 255 255 255 255 255 255 255 255 255 255 255 255 255 255 255 255 255 255 255 255 255 255 255 255 255 255 255 255 255 255 255 255 255 255 255 255 255 255 255 255 255 255 255 255 255 255 255 255 255 255 255 255 255 255 255 255 255 255 255 255 255 255 255 255 255 255 255 255 255 255 255 255 255 255 255 255 255 255 255 255 255 255 255 255 255 255 255 255 255 255 255 255 255 255 255 255 255 255 255 255 255 255 255 255 255 255 255 255 255 255 255 255 255 255 255 255 255 255 255 255 255 255 255 255 255 255 255 255 255 255 255 255 255 255 255 255 255 255 255 255 255 255 255 255 255 255 255 255 255 255 255 255 255 255 255 255 255 255 255 255 255 255 255 255 255 255 255 255 255 255 255 255 255 255 255 255 255 255 255 255 255 255 255 255 255 255 255 255 255 255 255 255 255 255 255 255 255 255 255 255 255 255 255 255 255 255 255 255 255 255 255 255 255 255 255 255 255 
255 255 255 255 255 255 255 255 255 255 255 255 255 255 255 255 255 255 255 255 255 255 255 255 255 255 255 255 255 255 255 255 255 255 255 255 255 255 255 255 255 255 255 255 255 255 255 255 255 255 255 255 255 255 255 255 255 255 255 255 255 255 255 255 255 255 255 255 255 255 255 255 255 255 255 255 255 255 255 255 255 255 255 255 255 255 255 255 255 255 255 255 255 255 255 255 255 255 255 255 255 255 255 255 255 255 255 255 255 255 255 255 255 255 255 255 255 255 255 255 255 255 255 255 255 255 255 255 255 255 255 255 255 255 255 255 255 255 255 255 255 255 255 255 255 255 255 255 255 255 255 255 255 255 255 255 255 255 255 255 255 255 255 255 255 255 255 255 255 255 255 255 255 255 255 255 255 255 255 255 255 255 255 255 255 255 255 255 255 255 255 255 255 255 255 255 255 255 255 255 255 255 255 255 255 255 255 255 255 255 255 255 255 255 255 255 255 255 255 255 255 255 255 255 255 255 255 255 255 255 255 255 255 255 255 255 255 255 255 255 255 255 255 255 255 255 255 255 255 255 255 255 255 255 255 255 255 255 255 255 255 255 255 255 255 255 255 255 255 255 255 255 255 255 255 255 255 255 255 255 255 255 255 255 255 255 255 255 255 255 255 255 255 255 255 255 255 255 255 255 
255 255 255 255 255 255 255 255 255 255 255 255 255 255 255 255 255 255 255 255 255 255 255 255 255 255 255 255 255 255 255 255 255 255 255 255 255 255 255 255 255 255 255 255 255 255 255 255 255 255 255 255 255 255 255 255 255 255 255 255 255 255 255 255 255 255 255 255 255 255 255 255 255 255 255 255 255 255 255 255 255 255 255 255 255 255 255 255 255 255 255 255 255 255 255 255 255 255 255 255 255 255 255 255 255 255 255 255 255 255 255 255 255 255 255 255 255 255 255 255 255 255 255 255 255 255 255 255 255 255 255 255 255 255 255 255 255 255 255 255 255 255 255 255 255 255 255 255 255 255 255 255 255 255 255 255 255 255 255 255 255 255 255 255 255 255 255 255 255 255 255 255 255 255 255 255 255 255 255 255 255 255 255 255 255 255 255 255 255 255 255 255 255 255 255 255 255 255 255 255 255 255 255 255 255 255 255 255 255 255 255 255 255 255 255 255 255 255 255 255 255 255 255 255 255 255 255 255 255 255 255 255 255 255 255 255 255 255 255 255 255 255 255 255 255 255 255 255 255 255 255 255 255 255 255 255 255 255 255 255 255 255 255 255 255 255 255 255 255 255 255 255 255 255 255 255 255 255 255 255 255 255 255 255 255 255 255 255 255 255 255 255 255 255 255 255 255 255 255 255 
255 255 255 255 255 255 255 255 255 255 255 255 255 255 255 255 255 255 255 255 255 255 255 255 255 255 255 255 255 255 255 255 255 255 255 255 255 255 255 255 255 255 255 255 255 255 255 255 255 255 255 255 255 255 255 255 255 255 255 255 255 255 255 255 255 255 255 255 255 255 255 255 255 255 255 255 255 255 255 255 255 255 255 255 255 255 255 255 255 255 255 255 255 255 255 255 255 255 255 255 255 255 255 255 255 255 255 255 255 255 255 255 255 255 255 255 255 255 255 255 255 255 255 255 255 255 255 255 255 255 255 255 255 255 255 255 255 255 255 255 255 255 255 255 255 255 255 255 255 255 255 255 255 255 255 255 255 255 255 255 255 255 255 255 255 255 255 255 255 255 255 255 255 255 255 255 255 255 255 255 255 255 255 255 255 255 255 255 255 255 255 255 255 255 255 255 255 255 255 255 255 255 255 255 255 255 255 255 255 255 255 255 255 255 255 255 255 255 255 255 255 255 255 255 255 255 255 255 255 255 255 255 255 255 255 255 255 255 255 255 255 255 255 255 255 255 255 255 255 255 255 255 255 255 255 255 255 255 255 255 255 255 255 255 255 255 255 255 255 255 255 255 255 255 255 255 255 255 255 255 255 255 255 255 255 255 255 255 255 255 255 255 255 255 255 255 255 255 255 255 
255 255 255 255 255 255 255 255 255 255 255 255 255 255 255 255 255 255 255 255 255 255 255 255 255 255 255 255 255 255 255 255 255 255 255 255 255 255 255 255 255 255 255 255 255 255 255 255 255 255 255 255 255 255 255 255 255 255 255 255 255 255 255 255 255 255 255 255 255 255 255 255 255 255 255 255 255 255 255 255 255 255 255 255 255 255 255 255 255 255 255 255 255 255 255 255 255 255 255 255 255 255 255 255 255 255 255 255 255 255 255 255 255 255 255 255 255 255 255 255 255 255 255 255 255 255 255 255 255 255 255 255 255 255 255 255 255 255 255 255 255 255 255 255 255 255 255 255 255 255 255 255 255 255 255 255 255 255 255 255 255 255 255 255 255 255 255 255 255 255 255 255 255 255 255 255 255 255 255 255 255 255 255 255 255 255 255 255 255 255 255 255 255 255 255 255 255 255 255 255 255 255 255 255 255 255 255 255 255 255 255 255 255 255 255 255 255 255 255 255 255 255 255 255 255 255 255 255 255 255 255 255 255 255 255 255 255 255 255 255 255 255 255 255 255 255 255 255 255 255 255 255 255 255 255 255 255 255 255 255 255 255 255 255 255 255 255 255 255 255 255 255 255 255 255 255 255 255 255 255 255 255 255 255 255 255 255 255 255 255 255 255 255 255 255 255 255 255 255 255 
255 255 255 255 255 255 255 255 255 255 255 255 255 255 255 255 255 255 255 255 255 255 255 255 255 255 255 255 255 255 255 255 255 255 255 255 255 255 255 255 255 255 255 255 255 255 255 255 255 255 255 255 255 255 255 255 255 255 255 255 255 255 255 255 255 255 255 255 255 255 255 255 255 255 255 255 255 255 255 255 255 255 255 255 255 255 255 255 255 255 255 255 255 255 255 255 255 255 255 255 255 255 255 255 255 255 255 255 255 255 255 255 255 255 255 255 255 255 255 255 255 255 255 255 255 255 255 255 255 255 255 255 255 255 255 255 255 255 255 255 255 255 255 255 255 255 255 255 255 255 255 255 255 255 255 255 255 255 255 255 255 255 255 255 255 255 255 255 255 255 255 255 255 255 255 255 255 255 255 255 255 255 255 255 255 255 255 255 255 255 255 255 255 255 255 255 255 255 255 255 255 255 255 255 255 255 255 255 255 255 255 255 255 255 255 255 255 255 255 255 255 255 255 255 255 255 255 255 255 255 255 255 255 255 255 255 255 255 255 255 255 255 255 255 255 255 255 255 255 255 255 255 255 255 255 255 255 255 255 255 255 255 255 255 255 255 255 255 255 255 255 255 255 255 255 255 255 255 255 255 255 255 255 255 255 255 255 255 255 255 255 255 255 255 255 255 255 255 255 255 
255 255 255 255 255 255 255 255 255 255 255 255 255 255 255 255 255 255 255 255 255 255 255 255 255 255 255 255 255 255 255 255 255 255 255 255 255 255 255 255 255 255 255 255 255 255 255 255 255 255 255 255 255 255 255 255 255 255 255 255 255 255 255 255 255 255 255 255 255 255 255 255 255 255 255 255 255 255 255 255 255 255 255 255 255 255 255 255 255 255 255 255 255 255 255 255 255 255 255 255 255 255 255 255 255 255 255 255 255 255 255 255 255 255 255 255 255 255 255 255 255 255 255 255 255 255 255 255 255 255 255 255 255 255 255 255 255 255 255 255 255 255 255 255 255 255 255 255 255 255 255 255 255 255 255 255 255 255 255 255 255 255 255 255 255 255 255 255 255 255 255 255 255 255 255 255 255 255 255 255 255 255 255 255 255 255 255 255 255 255 255 255 255 255 255 255 255 255 255 255 255 255 255 255 255 255 255 255 255 255 255 255 255 255 255 255 255 255 255 255 255 255 255 255 255 255 255 255 255 255 255 255 255 255 255 255 255 255 255 255 255 255 255 255 255 255 255 255 255 255 255 255 255 255 255 255 255 255 255 255 255 255 255 255 255 255 255 255 255 255 255 255 255 255 255 255 255 255 255 255 255 255 255 255 255 255 255 255 255 255 255 255 255 255 255 255 255 255 255 255 
255 255 255 255 255 255 255 255 255 255 255 255 255 255 255 255 255 255 255 255 255 255 255 255 255 255 255 255 255 255 255 255 255 255 255 255 255 255 255 255 255 255 255 255 255 255 255 255 255 255 255 255 255 255 255 255 255 255 255 255 255 255 255 255 255 255 255 255 255 255 255 255 255 255 255 255 255 255 255 255 255 255 255 255 255 255 255 255 255 255 255 255 255 255 255 255 255 255 255 255 255 255 255 255 255 255 255 255 255 255 255 255 255 255 255 255 255 255 255 255 255 255 255 255 255 255 255 255 255 255 255 255 255 255 255 255 255 255 255 255 255 255 255 255 255 255 255 255 255 255 255 255 255 255 255 255 255 255 255 255 255 255 255 255 255 255 255 255 255 255 255 255 255 255 255 255 255 255 255 255 255 255 255 255 255 255 255 255 255 255 255 255 255 255 255 255 255 255 255 255 255 255 255 255 255 255 255 255 255 255 255 255 255 255 255 255 255 255 255 255 255 255 255 255 255 255 255 255 255 255 255 255 255 255 255 255 255 255 255 255 255 255 255 255 255 255 255 255 255 255 255 255 255 255 255 255 255 255 255 255 255 255 255 255 255 255 255 255 255 255 255 255 255 255 255 255 255 255 255 255 255 255 255 255 255 255 255 255 255 255 255 255 255 255 255 255 255 255 255 255 
255 255 255 255 255 255 255 255 255 255 255 255 255 255 255 255 255 255 255 255 255 255 255 255 255 255 255 255 255 255 255 255 255 255 255 255 255 255 255 255 255 255 255 255 255 255 255 255 255 255 255 255 255 255 255 255 255 255 255 255 255 255 255 255 255 255 255 255 255 255 255 255 255 255 255 255 255 255 255 255 255 255 255 255 255 255 255 255 255 255 255 255 255 255 255 255 255 255 255 255 255 255 255 255 255 255 255 255 255 255 255 255 255 255 255 255 255 255 255 255 255 255 255 255 255 255 255 255 255 255 255 255 255 255 255 255 255 255 255 255 255 255 255 255 255 255 255 255 255 255 255 255 255 255 255 255 255 255 255 255 255 255 255 255 255 255 255 255 255 255 255 255 255 255 255 255 255 255 255 255 255 255 255 255 255 255 255 255 255 255 255 255 255 255 255 255 255 255 255 255 255 255 255 255 255 255 255 255 255 255 255 255 255 255 255 255 255 255 255 255 255 255 255 255 255 255 255 255 255 255 255 255 255 255 255 255 255 255 255 255 255 255 255 255 255 255 255 255 255 255 255 255 255 255 255 255 255 255 255 255 255 255 255 255 255 255 255 255 255 255 255 255 255 255 255 255 255 255 255 255 255 255 255 255 255 255 255 255 255 255 255 255 255 255 255 255 255 255 255 255 
255 255 255 255 255 255 255 255 255 255 255 255 255 255 255 255 255 255 255 255 255 255 255 255 255 255 255 255 255 255 255 255 255 255 255 255 255 255 255 255 255 255 255 255 255 255 255 255 255 255 255 255 255 255 255 255 255 255 255 255 255 255 255 255 255 255 255 255 255 255 255 255 255 255 255 255 255 255 255 255 255 255 255 255 255 255 255 255 255 255 255 255 255 255 255 255 255 255 255 255 255 255 255 255 255 255 255 255 255 255 255 255 255 255 255 255 255 255 255 255 255 255 255 255 255 255 255 255 255 255 255 255 255 255 255 255 255 255 255 255 255 255 255 255 255 255 255 255 255 255 255 255 255 255 255 255 255 255 255 255 255 255 255 255 255 255 255 255 255 255 255 255 255 255 255 255 255 255 255 255 255 255 255 255 255 255 255 255 255 255 255 255 255 255 255 255 255 255 255 255 255 255 255 255 255 255 255 255 255 255 255 255 255 255 255 255 255 255 255 255 255 255 255 255 255 255 255 255 255 255 255 255 255 255 255 255 255 255 255 255 255 255 255 255 255 255 255 255 255 255 255 255 255 255 255 255 255 255 255 255 255 255 255 255 255 255 255 255 255 255 255 255 255 255 255 255 255 255 255 255 255 255 255 255 255 255 255 255 255 255 255 255 255 255 255 255 255 255 255 255 
255 255 255 255 255 255 255 255 255 255 255 255 255 255 255 255 255 255 255 255 255 255 255 255 255 255 255 255 255 255 255 255 255 255 255 255 255 255 255 255 255 255 255 255 255 255 255 255 255 255 255 255 255 255 255 255 255 255 255 255 255 255 255 255 255 255 255 255 255 255 255 255 255 255 255 255 255 255 255 255 255 255 255 255 255 255 255 255 255 255 255 255 255 255 255 255 255 255 255 255 255 255 255 255 255 255 255 255 255 255 255 255 255 255 255 255 255 255 255 255 255 255 255 255 255 255 255 255 255 255 255 255 255 255 255 255 255 255 255 255 255 255 255 255 255 255 255 255 255 255 255 255 255 255 255 255 255 255 255 255 255 255 255 255 255 255 255 255 255 255 255 255 255 255 255 255 255 255 255 255 255 255 255 255 255 255 255 255 255 255 255 255 255 255 255 255 255 255 255 255 255 255 255 255 255 255 255 255 255 255 255 255 255 255 255 255 255 255 255 255 255 255 255 255 255 255 255 255 255 255 255 255 255 255 255 255 255 255 255 255 255 255 255 255 255 255 255 255 255 255 255 255 255 255 255 255 255 255 255 255 255 255 255 255 255 255 255 255 255 255 255 255 255 255 255 255 255 255 255 255 255 255 255 255 255 255 255 255 255 255 255 255 255 255 255 255 255 255 255 255 
255 255 255 255 255 255 255 255 255 255 255 255 255 255 255 255 255 255 255 255 255 255 255 255 255 255 255 255 255 255 255 255 255 255 255 255 255 255 255 255 255 255 255 255 255 255 255 255 255 255 255 255 255 255 255 255 255 255 255 255 255 255 255 255 255 255 255 255 255 255 255 255 255 255 255 255 255 255 255 255 255 255 255 255 255 255 255 255 255 255 255 255 255 255 255 255 255 255 255 255 255 255 255 255 255 255 255 255 255 255 255 255 255 255 255 255 255 255 255 255 255 255 255 255 255 255 255 255 255 255 255 255 255 255 255 255 255 255 255 255 255 255 255 255 255 255 255 255 255 255 255 255 255 255 255 255 255 255 255 255 255 255 255 255 255 255 255 255 255 255 255 255 255 255 255 255 255 255 255 255 255 255 255 255 255 255 255 255 255 255 255 255 255 255 255 255 255 255 255 255 255 255 255 255 255 255 255 255 255 255 255 255 255 255 255 255 255 255 255 255 255 255 255 255 255 255 255 255 255 255 255 255 255 255 255 255 255 255 255 255 255 255 255 255 255 255 255 255 255 255 255 255 255 255 255 255 255 255 255 255 255 255 255 255 255 255 255 255 255 255 255 255 255 255 255 255 255 255 255 255 255 255 255 255 255 255 255 255 255 255 255 255 255 255 255 255 255 255 255 255 
255 255 255 255 255 255 255 255 255 255 255 255 255 255 255 255 255 255 255 255 255 255 255 255 255 255 255 255 255 255 255 255 255 255 255 255 255 255 255 255 255 255 255 255 255 255 255 255 255 255 255 255 255 255 255 255 255 255 255 255 255 255 255 255 255 255 255 255 255 255 255 255 255 255 255 255 255 255 255 255 255 255 255 255 255 255 255 255 255 255 255 255 255 255 255 255 255 255 255 255 255 255 255 255 255 255 255 255 255 255 255 255 255 255 255 255 255 255 255 255 255 255 255 255 255 255 255 255 255 255 255 255 255 255 255 255 255 255 255 255 255 255 255 255 255 255 255 255 255 255 255 255 255 255 255 255 255 255 255 255 255 255 255 255 255 255 255 255 255 255 255 255 255 255 255 255 255 255 255 255 255 255 255 255 255 255 255 255 255 255 255 255 255 255 255 255 255 255 255 255 255 255 255 255 255 255 255 255 255 255 255 255 255 255 255 255 255 255 255 255 255 255 255 255 255 255 255 255 255 255 255 255 255 255 255 255 255 255 255 255 255 255 255 255 255 255 255 255 255 255 255 255 255 255 255 255 255 255 255 255 255 255 255 255 255 255 255 255 255 255 255 255 255 255 255 255 255 255 255 255 255 255 255 255 255 255 255 255 255 255 255 255 255 255 255 255 255 255 255 255 
255 255 255 255 255 255 255 255 255 255 255 255 255 255 255 255 255 255 255 255 255 255 255 255 255 255 255 255 255 255 255 255 255 255 255 255 255 255 255 255 255 255 255 255 255 255 255 255 255 255 255 255 255 255 255 255 255 255 255 255 255 255 255 255 255 255 255 255 255 255 255 255 255 255 255 255 255 255 255 255 255 255 255 255 255 255 255 255 255 255 255 255 255 255 255 255 255 255 255 255 255 255 255 255 255 255 255 255 255 255 255 255 255 255 255 255 255 255 255 255 255 255 255 255 255 255 255 255 255 255 255 255 255 255 255 255 255 255 255 255 255 255 255 255 255 255 255 255 255 255 255 255 255 255 255 255 255 255 255 255 255 255 255 255 255 255 255 255 255 255 255 255 255 255 255 255 255 255 255 255 255 255 255 255 255 255 255 255 255 255 255 255 255 255 255 255 255 255 255 255 255 255 255 255 255 255 255 255 255 255 255 255 255 255 255 255 255 255 255 255 255 255 255 255 255 255 255 255 255 255 255 255 255 255 255 255 255 255 255 255 255 255 255 255 255 255 255 255 255 255 255 255 255 255 255 255 255 255 255 255 255 255 255 255 255 255 255 255 255 255 255 255 255 255 255 255 255 255 255 255 255 255 255 255 255 255 255 255 255 255 255 255 255 255 255 255 255 255 255 255 
255 255 255 255 255 255 255 255 255 255 255 255 255 255 255 255 255 255 255 255 255 255 255 255 255 255 255 255 255 255 255 255 255 255 255 255 255 255 255 255 255 255 255 255 255 255 255 255 255 255 255 255 255 255 255 255 255 255 255 255 255 255 255 255 255 255 255 255 255 255 255 255 255 255 255 255 255 255 255 255 255 255 255 255 255 255 255 255 255 255 255 255 255 255 255 255 255 255 255 255 255 255 255 255 255 255 255 255 255 255 255 255 255 255 255 255 255 255 255 255 255 255 255 255 255 255 255 255 255 255 255 255 255 255 255 255 255 255 255 255 255 255 255 255 255 255 255 255 255 255 255 255 255 255 255 255 255 255 255 255 255 255 255 255 255 255 255 255 255 255 255 255 255 255 255 255 255 255 255 255 255 255 255 255 255 255 255 255 255 255 255 255 255 255 255 255 255 255 255 255 255 255 255 255 255 255 255 255 255 255 255 255 255 255 255 255 255 255 255 255 255 255 255 255 255 255 255 255 255 255 255 255 255 255 255 255 255 255 255 255 255 255 255 255 255 255 255 255 255 255 255 255 255 255 255 255 255 255 255 255 255 255 255 255 255 255 255 255 255 255 255 255 255 255 255 255 255 255 255 255 255 255 255 255 255 255 255 255 255 255 255 255 255 255 255 255 255 255 255 255 
255 255 255 255 255 255 255 255 255 255 255 255 255 255 255 255 255 255 255 255 255 255 255 255 255 255 255 255 255 255 255 255 255 255 255 255 255 255 255 255 255 255 255 255 255 255 255 255 255 255 255 255 255 255 255 255 255 255 255 255 255 255 255 255 255 255 255 255 255 255 255 255 255 255 255 255 255 255 255 255 255 255 255 255 255 255 255 255 255 255 255 255 255 255 255 255 255 255 255 255 255 255 255 255 255 255 255 255 255 255 255 255 255 255 255 255 255 255 255 255 255 255 255 255 255 255 255 255 255 255 255 255 255 255 255 255 255 255 255 255 255 255 255 255 255 255 255 255 255 255 255 255 255 255 255 255 255 255 255 255 255 255 255 255 255 255 255 255 255 255 255 255 255 255 255 255 255 255 255 255 255 255 255 255 255 255 255 255 255 255 255 255 255 255 255 255 255 255 255 255 255 255 255 255 255 255 255 255 255 255 255 255 255 255 255 255 255 255 255 255 255 255 255 255 255 255 255 255 255 255 255 255 255 255 255 255 255 255 255 255 255 255 255 255 255 255 255 255 255 255 255 255 255 255 255 255 255 255 255 255 255 255 255 255 255 255 255 255 255 255 255 255 255 255 255 255 255 255 255 255 255 255 255 255 255 255 255 255 255 255 255 255 255 255 255 255 255 255 255 255 
255 255 255 255 255 255 255 255 255 255 255 255 255 255 255 255 255 255 255 255 255 255 255 255 255 255 255 255 255 255 255 255 255 255 255 255 255 255 255 255 255 255 255 255 255 255 255 255 255 255 255 255 255 255 255 255 255 255 255 255 255 255 255 255 255 255 255 255 255 255 255 255 255 255 255 255 255 255 255 255 255 255 255 255 255 255 255 255 255 255 255 255 255 255 255 255 255 255 255 255 255 255 255 255 255 255 255 255 255 255 255 255 255 255 255 255 255 255 255 255 255 255 255 255 255 255 255 255 255 255 255 255 255 255 255 255 255 255 255 255 255 255 255 255 255 255 255 255 255 255 255 255 255 255 255 255 255 255 255 255 255 255 255 255 255 255 255 255 255 255 255 255 255 255 255 255 255 255 255 255 255 255 255 255 255 255 255 255 255 255 255 255 255 255 255 255 255 255 255 255 255 255 255 255 255 255 255 255 255 255 255 255 255 255 255 255 255 255 255 255 255 255 255 255 255 255 255 255 255 255 255 255 255 255 255 255 255 255 255 255 255 255 255 255 255 255 255 255 255 255 255 255 255 255 255 255 255 255 255 255 255 255 255 255 255 255 255 255 255 255 255 255 255 255 255 255 255 255 255 255 255 255 255 255 255 255 255 255 255 255 255 255 255 255 255 255 255 255 255 255 
255 255 255 255 255 255 255 255 255 255 255 255 255 255 255 255 255 255 255 255 255 255 255 255 255 255 255 255 255 255 255 255 255 255 255 255 255 255 255 255 255 255 255 255 255 255 255 255 255 255 255 255 255 255 255 255 255 255 255 255 255 255 255 255 255 255 255 255 255 255 255 255 255 255 255 255 255 255 255 255 255 255 255 255 255 255 255 255 255 255 255 255 255 255 255 255 255 255 255 255 255 255 255 255 255 255 255 255 255 255 255 255 255 255 255 255 255 255 255 255 255 255 255 255 255 255 255 255 255 255 255 255 255 255 255 255 255 255 255 255 255 255 255 255 255 255 255 255 255 255 255 255 255 255 255 255 255 255 255 255 255 255 255 255 255 255 255 255 255 255 255 255 255 255 255 255 255 255 255 255 255 255 255 255 255 255 255 255 255 255 255 255 255 255 255 255 255 255 255 255 255 255 255 255 255 255 255 255 255 255 255 255 255 255 255 255 255 255 255 255 255 255 255 255 255 255 255 255 255 255 255 255 255 255 255 255 255 255 255 255 255 255 255 255 255 255 255 255 255 255 255 255 255 255 255 255 255 255 255 255 255 255 255 255 255 255 255 255 255 255 255 255 255 255 255 255 255 255 255 255 255 255 255 255 255 255 255 255 255 255 255 255 255 255 255 255 255 255 255 255 
255 255 255 255 255 255 255 255 255 255 255 255 255 255 255 255 255 255 255 255 255 255 255 255 255 255 255 255 255 255 255 255 255 255 255 255 255 255 255 255 255 255 255 255 255 255 255 255 255 255 255 255 255 255 255 255 255 255 255 255 255 255 255 255 255 255 255 255 255 255 255 255 255 255 255 255 255 255 255 255 255 255 255 255 255 255 255 255 255 255 255 255 255 255 255 255 255 255 255 255 255 255 255 255 255 255 255 255 255 255 255 255 255 255 255 255 255 255 255 255 255 255 255 255 255 255 255 255 255 255 255 255 255 255 255 255 255 255 255 255 255 255 255 255 255 255 255 255 255 255 255 255 255 255 255 255 255 255 255 255 255 255 255 255 255 255 255 255 255 255 255 255 255 255 255 255 255 255 255 255 255 255 255 255 255 255 255 255 255 255 255 255 255 255 255 255 255 255 255 255 255 255 255 255 255 255 255 255 255 255 255 255 255 255 255 255 255 255 255 255 255 255 255 255 255 255 255 255 255 255 255 255 255 255 255 255 255 255 255 255 255 255 255 255 255 255 255 255 255 255 255 255 255 255 255 255 255 255 255 255 255 255 255 255 255 255 255 255 255 255 255 255 255 255 255 255 255 255 255 255 255 255 255 255 255 255 255 255 255 255 255 255 255 255 255 255 255 255 255 255 
255 255 255 255 255 255 255 255 255 255 255 255 255 255 255 255 255 255 255 255 255 255 255 255 255 255 255 255 255 255 255 255 255 255 255 255 255 255 255 255 255 255 255 255 255 255 255 255 255 255 255 255 255 255 255 255 255 255 255 255 255 255 255 255 255 255 255 255 255 255 255 255 255 255 255 255 255 255 255 255 255 255 255 255 255 255 255 255 255 255 255 255 255 255 255 255 255 255 255 255 255 255 255 255 255 255 255 255 255 255 255 255 255 255 255 255 255 255 255 255 255 255 255 255 255 255 255 255 255 255 255 255 255 255 255 255 255 255 255 255 255 255 255 255 255 255 255 255 255 255 255 255 255 255 255 255 255 255 255 255 255 255 255 255 255 255 255 255 255 255 255 255 255 255 255 255 255 255 255 255 255 255 255 255 255 255 255 255 255 255 255 255 255 255 255 255 255 255 255 255 255 255 255 255 255 255 255 255 255 255 255 255 255 255 255 255 255 255 255 255 255 255 255 255 255 255 255 255 255 255 255 255 255 255 255 255 255 255 255 255 255 255 255 255 255 255 255 255 255 255 255 255 255 255 255 255 255 255 255 255 255 255 255 255 255 255 255 255 255 255 255 255 255 255 255 255 255 255 255 255 255 255 255 255 255 255 255 255 255 255 255 255 255 255 255 255 255 255 255 255 
255 255 255 255 255 255 255 255 255 255 255 255 255 255 255 255 255 255 255 255 255 255 255 255 255 255 255 255 255 255 255 255 255 255 255 255 255 255 255 255 255 255 255 255 255 255 255 255 255 255 255 255 255 255 255 255 255 255 255 255 255 255 255 255 255 255 255 255 255 255 255 255 255 255 255 255 255 255 255 255 255 255 255 255 255 255 255 255 255 255 255 255 255 255 255 255 255 255 255 255 255 255 255 255 255 255 255 255 255 255 255 255 255 255 255 255 255 255 255 255 255 255 255 255 255 255 255 255 255 255 255 255 255 255 255 255 255 255 255 255 255 255 255 255 255 255 255 255 255 255 255 255 255 255 255 255 255 255 255 255 255 255 255 255 255 255 255 255 255 255 255 255 255 255 255 255 255 255 255 255 255 255 255 255 255 255 255 255 255 255 255 255 255 255 255 255 255 255 255 255 255 255 255 255 255 255 255 255 255 255 255 255 255 255 255 255 255 255 255 255 255 255 255 255 255 255 255 255 255 255 255 255 255 255 255 255 255 255 255 255 255 255 255 255 255 255 255 255 255 255 255 255 255 255 255 255 255 255 255 255 255 255 255 255 255 255 255 255 255 255 255 255 255 255 255 255 255 255 255 255 255 255 255 255 255 255 255 255 255 255 255 255 255 255 255 255 255 255 255 255 
255 255 255 255 255 255 255 255 255 255 255 255 255 255 255 255 255 255 255 255 255 255 255 255 255 255 255 255 255 255 255 255 255 255 255 255 255 255 255 255 255 255 255 255 255 255 255 255 255 255 255 255 255 255 255 255 255 255 255 255 255 255 255 255 255 255 255 255 255 255 255 255 255 255 255 255 255 255 255 255 255 255 255 255 255 255 255 255 255 255 255 255 255 255 255 255 255 255 255 255 255 255 255 255 255 255 255 255 255 255 255 255 255 255 255 255 255 255 255 255 255 255 255 255 255 255 255 255 255 255 255 255 255 255 255 255 255 255 255 255 255 255 255 255 255 255 255 255 255 255 255 255 255 255 255 255 255 255 255 255 255 255 255 255 255 255 255 255 255 255 255 255 255 255 255 255 255 255 255 255 255 255 255 255 255 255 255 255 255 255 255 255 255 255 255 255 255 255 255 255 255 255 255 255 255 255 255 255 255 255 255 255 255 255 255 255 255 255 255 255 255 255 255 255 255 255 255 255 255 255 255 255 255 255 255 255 255 255 255 255 255 255 255 255 255 255 255 255 255 255 255 255 255 255 255 255 255 255 255 255 255 255 255 255 255 255 255 255 255 255 255 255 255 255 255 255 255 255 255 255 255 255 255 255 255 255 255 255 255 255 255 255 255 255 255 255 255 255 255 255 
255 255 255 255 255 255 255 255 255 255 255 255 255 255 255 255 255 255 255 255 255 255 255 255 255 255 255 255 255 255 255 255 255 255 255 255 255 255 255 255 255 255 255 255 255 255 255 255 255 255 255 255 255 255 255 255 255 255 255 255 255 255 255 255 255 255 255 255 255 255 255 255 255 255 255 255 255 255 255 255 255 255 255 255 255 255 255 255 255 255 255 255 255 255 255 255 255 255 255 255 255 255 255 255 255 255 255 255 255 255 255 255 255 255 255 255 255 255 255 255 255 255 255 255 255 255 255 255 255 255 255 255 255 255 255 255 255 255 255 255 255 255 255 255 255 255 255 255 255 255 255 255 255 255 255 255 255 255 255 255 255 255 255 255 255 255 255 255 255 255 255 255 255 255 255 255 255 255 255 255 255 255 255 255 255 255 255 255 255 255 255 255 255 255 255 255 255 255 255 255 255 255 255 255 255 255 255 255 255 255 255 255 255 255 255 255 255 255 255 255 255 255 255 255 255 255 255 255 255 255 255 255 255 255 255 255 255 255 255 255 255 255 255 255 255 255 255 255 255 255 255 255 255 255 255 255 255 255 255 255 255 255 255 255 255 255 255 255 255 255 255 255 255 255 255 255 255 255 255 255 255 255 255 255 255 255 255 255 255 255 255 255 255 255 255 255 255 255 255 255 
255 255 255 255 255 255 255 255 255 255 255 255 255 255 255 255 255 255 255 255 255 255 255 255 255 255 255 255 255 255 255 255 255 255 255 255 255 255 255 255 255 255 255 255 255 255 255 255 255 255 255 255 255 255 255 255 255 255 255 255 255 255 255 255 255 255 255 255 255 255 255 255 255 255 255 255 255 255 255 255 255 255 255 255 255 255 255 255 255 255 255 255 255 255 255 255 255 255 255 255 255 255 255 255 255 255 255 255 255 255 255 255 255 255 255 255 255 255 255 255 255 255 255 255 255 255 255 255 255 255 255 255 255 255 255 255 255 255 255 255 255 255 255 255 255 255 255 255 255 255 255 255 255 255 255 255 255 255 255 255 255 255 255 255 255 255 255 255 255 255 255 255 255 255 255 255 255 255 255 255 255 255 255 255 255 255 255 255 255 255 255 255 255 255 255 255 255 255 255 255 255 255 255 255 255 255 255 255 255 255 255 255 255 255 255 255 255 255 255 255 255 255 255 255 255 255 255 255 255 255 255 255 255 255 255 255 255 255 255 255 255 255 255 255 255 255 255 255 255 255 255 255 255 255 255 255 255 255 255 255 255 255 255 255 255 255 255 255 255 255 255 255 255 255 255 255 255 255 255 255 255 255 255 255 255 255 255 255 255 255 255 255 255 255 255 255 255 255 255 255 
255 255 255 255 255 255 255 255 255 255 255 255 255 255 255 255 255 255 255 255 255 255 255 255 255 255 255 255 255 255 255 255 255 255 255 255 255 255 255 255 255 255 255 255 255 255 255 255 255 255 255 255 255 255 255 255 255 255 255 255 255 255 255 255 255 255 255 255 255 255 255 255 255 255 255 255 255 255 255 255 255 255 255 255 255 255 255 255 255 255 255 255 255 255 255 255 255 255 255 255 255 255 255 255 255 255 255 255 255 255 255 255 255 255 255 255 255 255 255 255 255 255 255 255 255 255 255 255 255 255 255 255 255 255 255 255 255 255 255 255 255 255 255 255 255 255 255 255 255 255 255 255 255 255 255 255 255 255 255 255 255 255 255 255 255 255 255 255 255 255 255 255 255 255 255 255 255 255 255 255 255 255 255 255 255 255 255 255 255 255 255 255 255 255 255 255 255 255 255 255 255 255 255 255 255 255 255 255 255 255 255 255 255 255 255 255 255 255 255 255 255 255 255 255 255 255 255 255 255 255 255 255 255 255 255 255 255 255 255 255 255 255 255 255 255 255 255 255 255 255 255 255 255 255 255 255 255 255 255 255 255 255 255 255 255 255 255 255 255 255 255 255 255 255 255 255 255 255 255 255 255 255 255 255 255 255 255 255 255 255 255 255 255 255 255 255 255 255 255 255 
255 255 255 255 255 255 255 255 255 255 255 255 255 255 255 255 255 255 255 255 255 255 255 255 255 255 255 255 255 255 255 255 255 255 255 255 255 255 255 255 255 255 255 255 255 255 255 255 255 255 255 255 255 255 255 255 255 255 255 255 255 255 255 255 255 255 255 255 255 255 255 255 255 255 255 255 255 255 255 255 255 255 255 255 255 255 255 255 255 255 255 255 255 255 255 255 255 255 255 255 255 255 255 255 255 255 255 255 255 255 255 255 255 255 255 255 255 255 255 255 255 255 255 255 255 255 255 255 255 255 255 255 255 255 255 255 255 255 255 255 255 255 255 255 255 255 255 255 255 255 255 255 255 255 255 255 255 255 255 255 255 255 255 255 255 255 255 255 255 255 255 255 255 255 255 255 255 255 255 255 255 255 255 255 255 255 255 255 255 255 255 255 255 255 255 255 255 255 255 255 255 255 255 255 255 255 255 255 255 255 255 255 255 255 255 255 255 255 255 255 255 255 255 255 255 255 255 255 255 255 255 255 255 255 255 255 255 255 255 255 255 255 255 255 255 255 255 255 255 255 255 255 255 255 255 255 255 255 255 255 255 255 255 255 255 255 255 255 255 255 255 255 255 255 255 255 255 255 255 255 255 255 255 255 255 255 255 255 255 255 255 255 255 255 255 255 255 255 255 255 
255 255 255 255 255 255 255 255 255 255 255 255 255 255 255 255 255 255 255 255 255 255 255 255 255 255 255 255 255 255 255 255 255 255 255 255 255 255 255 255 255 255 255 255 255 255 255 255 255 255 255 255 255 255 255 255 255 255 255 255 255 255 255 255 255 255 255 255 255 255 255 255 255 255 255 255 255 255 255 255 255 255 255 255 255 255 255 255 255 255 255 255 255 255 255 255 255 255 255 255 255 255 255 255 255 255 255 255 255 255 255 255 255 255 255 255 255 255 255 255 255 255 255 255 255 255 255 255 255 255 255 255 255 255 255 255 255 255 255 255 255 255 255 255 255 255 255 255 255 255 255 255 255 255 255 255 255 255 255 255 255 255 255 255 255 255 255 255 255 255 255 255 255 255 255 255 255 255 255 255 255 255 255 255 255 255 255 255 255 255 255 255 255 255 255 255 255 255 255 255 255 255 255 255 255 255 255 255 255 255 255 255 255 255 255 255 255 255 255 255 255 255 255 255 255 255 255 255 255 255 255 255 255 255 255 255 255 255 255 255 255 255 255 255 255 255 255 255 255 255 255 255 255 255 255 255 255 255 255 255 255 255 255 255 255 255 255 255 255 255 255 255 255 255 255 255 255 255 255 255 255 255 255 255 255 255 255 255 255 255 255 255 255 255 255 255 255 255 255 255 
255 255 255 255 255 255 255 255 255 255 255 255 255 255 255 255 255 255 255 255 255 255 255 255 255 255 255 255 255 255 255 255 255 255 255 255 255 255 255 255 255 255 255 255 255 255 255 255 255 255 255 255 255 255 255 255 255 255 255 255 255 255 255 255 255 255 255 255 255 255 255 255 255 255 255 255 255 255 255 255 255 255 255 255 255 255 255 255 255 255 255 255 255 255 255 255 255 255 255 255 255 255 255 255 255 255 255 255 255 255 255 255 255 255 255 255 255 255 255 255 255 255 255 255 255 255 255 255 255 255 255 255 255 255 255 255 255 255 255 255 255 255 255 255 255 255 255 255 255 255 255 255 255 255 255 255 255 255 255 255 255 255 255 255 255 255 255 255 255 255 255 255 255 255 255 255 255 255 255 255 255 255 255 255 255 255 255 255 255 255 255 255 255 255 255 255 255 255 255 255 255 255 255 255 255 255 255 255 255 255 255 255 255 255 255 255 255 255 255 255 255 255 255 255 255 255 255 255 255 255 255 255 255 255 255 255 255 255 255 255 255 255 255 255 255 255 255 255 255 255 255 255 255 255 255 255 255 255 255 255 255 255 255 255 255 255 255 255 255 255 255 255 255 255 255 255 255 255 255 255 255 255 255 255 255 255 255 255 255 255 255 255 255 255 255 255 255 255 255 255 
255 255 255 255 255 255 255 255 255 255 255 255 255 255 255 255 255 255 255 255 255 255 255 255 255 255 255 255 255 255 255 255 255 255 255 255 255 255 255 255 255 255 255 255 255 255 255 255 255 255 255 255 255 255 255 255 255 255 255 255 255 255 255 255 255 255 255 255 255 255 255 255 255 255 255 255 255 255 255 255 255 255 255 255 255 255 255 255 255 255 255 255 255 255 255 255 255 255 255 255 255 255 255 255 255 255 255 255 255 255 255 255 255 255 255 255 255 255 255 255 255 255 255 255 255 255 255 255 255 255 255 255 255 255 255 255 255 255 255 255 255 255 255 255 255 255 255 255 255 255 255 255 255 255 255 255 255 255 255 255 255 255 255 255 255 255 255 255 255 255 255 255 255 255 255 255 255 255 255 255 255 255 255 255 255 255 255 255 255 255 255 255 255 255 255 255 255 255 255 255 255 255 255 255 255 255 255 255 255 255 255 255 255 255 255 255 255 255 255 255 255 255 255 255 255 255 255 255 255 255 255 255 255 255 255 255 255 255 255 255 255 255 255 255 255 255 255 255 255 255 255 255 255 255 255 255 255 255 255 255 255 255 255 255 255 255 255 255 255 255 255 255 255 255 255 255 255 255 255 255 255 255 255 255 255 255 255 255 255 255 255 255 255 255 255 255 255 255 255 255 
255 255 255 255 255 255 255 255 255 255 255 255 255 255 255 255 255 255 255 255 255 255 255 255 255 255 255 255 255 255 255 255 255 255 255 255 255 255 255 255 255 255 255 255 255 255 255 255 255 255 255 255 255 255 255 255 255 255 255 255 255 255 255 255 255 255 255 255 255 255 255 255 255 255 255 255 255 255 255 255 255 255 255 255 255 255 255 255 255 255 255 255 255 255 255 255 255 255 255 255 255 255 255 255 255 255 255 255 255 255 255 255 255 255 255 255 255 255 255 255 255 255 255 255 255 255 255 255 255 255 255 255 255 255 255 255 255 255 255 255 255 255 255 255 255 255 255 255 255 255 255 255 255 255 255 255 255 255 255 255 255 255 255 255 255 255 255 255 255 255 255 255 255 255 255 255 255 255 255 255 255 255 255 255 255 255 255 255 255 255 255 255 255 255 255 255 255 255 255 255 255 255 255 255 255 255 255 255 255 255 255 255 255 255 255 255 255 255 255 255 255 255 255 255 255 255 255 255 255 255 255 255 255 255 255 255 255 255 255 255 255 255 255 255 255 255 255 255 255 255 255 255 255 255 255 255 255 255 255 255 255 255 255 255 255 255 255 255 255 255 255 255 255 255 255 255 255 255 255 255 255 255 255 255 255 255 255 255 255 255 255 255 255 255 255 255 255 255 255 255 
255 255 255 255 255 255 255 255 255 255 255 255 255 255 255 255 255 255 255 255 255 255 255 255 255 255 255 255 255 255 255 255 255 255 255 255 255 255 255 255 255 255 255 255 255 255 255 255 255 255 255 255 255 255 255 255 255 255 255 255 255 255 255 255 255 255 255 255 255 255 255 255 255 255 255 255 255 255 255 255 255 255 255 255 255 255 255 255 255 255 255 255 255 255 255 255 255 255 255 255 255 255 255 255 255 255 255 255 255 255 255 255 255 255 255 255 255 255 255 255 255 255 255 255 255 255 255 255 255 255 255 255 255 255 255 255 255 255 255 255 255 255 255 255 255 255 255 255 255 255 255 255 255 255 255 255 255 255 255 255 255 255 255 255 255 255 255 255 255 255 255 255 255 255 255 255 255 255 255 255 255 255 255 255 255 255 255 255 255 255 255 255 255 255 255 255 255 255 255 255 255 255 255 255 255 255 255 255 255 255 255 255 255 255 255 255 255 255 255 255 255 255 255 255 255 255 255 255 255 255 255 255 255 255 255 255 255 255 255 255 255 255 255 255 255 255 255 255 255 255 255 255 255 255 255 255 255 255 255 255 255 255 255 255 255 255 255 255 255 255 255 255 255 255 255 255 255 255 255 255 255 255 255 255 255 255 255 255 255 255 255 255 255 255 255 255 255 255 255 255 
255 255 255 255 255 255 255 255 255 255 255 255 255 255 255 255 255 255 255 255 255 255 255 255 255 255 255 255 255 255 255 255 255 255 255 255 255 255 255 255 255 255 255 255 255 255 255 255 255 255 255 255 255 255 255 255 255 255 255 255 255 255 255 255 255 255 255 255 255 255 255 255 255 255 255 255 255 255 255 255 255 255 255 255 255 255 255 255 255 255 255 255 255 255 255 255 255 255 255 255 255 255 255 255 255 255 255 255 255 255 255 255 255 255 255 255 255 255 255 255 255 255 255 255 255 255 255 255 255 255 255 255 255 255 255 255 255 255 255 255 255 255 255 255 255 255 255 255 255 255 255 255 255 255 255 255 255 255 255 255 255 255 255 255 255 255 255 255 255 255 255 255 255 255 255 255 255 255 255 255 255 255 255 255 255 255 255 255 255 255 255 255 255 255 255 255 255 255 255 255 255 255 255 255 255 255 255 255 255 255 255 255 255 255 255 255 255 255 255 255 255 255 255 255 255 255 255 255 255 255 255 255 255 255 255 255 255 255 255 255 255 255 255 255 255 255 255 255 255 255 255 255 255 255 255 255 255 255 255 255 255 255 255 255 255 255 255 255 255 255 255 255 255 255 255 255 255 255 255 255 255 255 255 255 255 255 255 255 255 255 255 255 255 255 255 255 255 255 255 255 
255 255 255 255 255 255 255 255 255 255 255 255 255 255 255 255 255 255 255 255 255 255 255 255 255 255 255 255 255 255 255 255 255 255 255 255 255 255 255 255 255 255 255 255 255 255 255 255 255 255 255 255 255 255 255 255 255 255 255 255 255 255 255 255 255 255 255 255 255 255 255 255 255 255 255 255 255 255 255 255 255 255 255 255 255 255 255 255 255 255 255 255 255 255 255 255 255 255 255 255 255 255 255 255 255 255 255 255 255 255 255 255 255 255 255 255 255 255 255 255 255 255 255 255 255 255 255 255 255 255 255 255 255 255 255 255 255 255 255 255 255 255 255 255 255 255 255 255 255 255 255 255 255 255 255 255 255 255 255 255 255 255 255 255 255 255 255 255 255 255 255 255 255 255 255 255 255 255 255 255 255 255 255 255 255 255 255 255 255 255 255 255 255 255 255 255 255 255 255 255 255 255 255 255 255 255 255 255 255 255 255 255 255 255 255 255 255 255 255 255 255 255 255 255 255 255 255 255 255 255 255 255 255 255 255 255 255 255 255 255 255 255 255 255 255 255 255 255 255 255 255 255 255 255 255 255 255 255 255 255 255 255 255 255 255 255 255 255 255 255 255 255 255 255 255 255 255 255 255 255 255 255 255 255 255 255 255 255 255 255 255 255 255 255 255 255 255 255 255 255 
255 255 255 255 255 255 255 255 255 255 255 255 255 255 255 255 255 255 255 255 255 255 255 255 255 255 255 255 255 255 255 255 255 255 255 255 255 255 255 255 255 255 255 255 255 255 255 255 255 255 255 255 255 255 255 255 255 255 255 255 255 255 255 255 255 255 255 255 255 255 255 255 255 255 255 255 255 255 255 255 255 255 255 255 255 255 255 255 255 255 255 255 255 255 255 255 255 255 255 255 255 255 255 255 255 255 255 255 255 255 255 255 255 255 255 255 255 255 255 255 255 255 255 255 255 255 255 255 255 255 255 255 255 255 255 255 255 255 255 255 255 255 255 255 255 255 255 255 255 255 255 255 255 255 255 255 255 255 255 255 255 255 255 255 255 255 255 255 255 255 255 255 255 255 255 255 255 255 255 255 255 255 255 255 255 255 255 255 255 255 255 255 255 255 255 255 255 255 255 255 255 255 255 255 255 255 255 255 255 255 255 255 255 255 255 255 255 255 255 255 255 255 255 255 255 255 255 255 255 255 255 255 255 255 255 255 255 255 255 255 255 255 255 255 255 255 255 255 255 255 255 255 255 255 255 255 255 255 255 255 255 255 255 255 255 255 255 255 255 255 255 255 255 255 255 255 255 255 255 255 255 255 255 255 255 255 255 255 255 255 255 255 255 255 255 255 255 255 255 255 
255 255 255 255 255 255 255 255 255 255 255 255 255 255 255 255 255 255 255 255 255 255 255 255 255 255 255 255 255 255 255 255 255 255 255 255 255 255 255 255 255 255 255 255 255 255 255 255 255 255 255 255 255 255 255 255 255 255 255 255 255 255 255 255 255 255 255 255 255 255 255 255 255 255 255 255 255 255 255 255 255 255 255 255 255 255 255 255 255 255 255 255 255 255 255 255 255 255 255 255 255 255 255 255 255 255 255 255 255 255 255 255 255 255 255 255 255 255 255 255 255 255 255 255 255 255 255 255 255 255 255 255 255 255 255 255 255 255 255 255 255 255 255 255 255 255 255 255 255 255 255 255 255 255 255 255 255 255 255 255 255 255 255 255 255 255 255 255 255 255 255 255 255 255 255 255 255 255 255 255 255 255 255 255 255 255 255 255 255 255 255 255 255 255 255 255 255 255 255 255 255 255 255 255 255 255 255 255 255 255 255 255 255 255 255 255 255 255 255 255 255 255 255 255 255 255 255 255 255 255 255 255 255 255 255 255 255 255 255 255 255 255 255 255 255 255 255 255 255 255 255 255 255 255 255 255 255 255 255 255 255 255 255 255 255 255 255 255 255 255 255 255 255 255 255 255 255 255 255 255 255 255 255 255 255 255 255 255 255 255 255 255 255 255 255 255 255 255 255 255 
255 255 255 255 255 255 255 255 255 255 255 255 255 255 255 255 255 255 255 255 255 255 255 255 255 255 255 255 255 255 255 255 255 255 255 255 255 255 255 255 255 255 255 255 255 255 255 255 255 255 255 255 255 255 255 255 255 255 255 255 255 255 255 255 255 255 255 255 255 255 255 255 255 255 255 255 255 255 255 255 255 255 255 255 255 255 255 255 255 255 255 255 255 255 255 255 255 255 255 255 255 255 255 255 255 255 255 255 255 255 255 255 255 255 255 255 255 255 255 255 255 255 255 255 255 255 255 255 255 255 255 255 255 255 255 255 255 255 255 255 255 255 255 255 255 255 255 255 255 255 255 255 255 255 255 255 255 255 255 255 255 255 255 255 255 255 255 255 255 255 255 255 255 255 255 255 255 255 255 255 255 255 255 255 255 255 255 255 255 255 255 255 255 255 255 255 255 255 255 255 255 255 255 255 255 255 255 255 255 255 255 255 255 255 255 255 255 255 255 255 255 255 255 255 255 255 255 255 255 255 255 255 255 255 255 255 255 255 255 255 255 255 255 255 255 255 255 255 255 255 255 255 255 255 255 255 255 255 255 255 255 255 255 255 255 255 255 255 255 255 255 255 255 255 255 255 255 255 255 255 255 255 255 255 255 255 255 255 255 255 255 255 255 255 255 255 255 255 255 255 
255 255 255 255 255 255 255 255 255 255 255 255 255 255 255 255 255 255 255 255 255 255 255 255 255 255 255 255 255 255 255 255 255 255 255 255 255 255 255 255 255 255 255 255 255 255 255 255 255 255 255 255 255 255 255 255 255 255 255 255 255 255 255 255 255 255 255 255 255 255 255 255 255 255 255 255 255 255 255 255 255 255 255 255 255 255 255 255 255 255 255 255 255 255 255 255 255 255 255 255 255 255 255 255 255 255 255 255 255 255 255 255 255 255 255 255 255 255 255 255 255 255 255 255 255 255 255 255 255 255 255 255 255 254 254 255 255 255 254 255 255 255 255 255 255 255 255 255 254 255 255 255 255 255 255 255 255 255 255 255 255 255 255 255 255 254 255 255 255 255 255 255 255 255 255 255 255 255 255 255 255 255 255 255 255 255 255 255 255 255 255 255 255 255 255 255 255 255 255 255 255 255 255 255 255 255 255 255 255 255 255 255 255 255 255 255 255 255 255 255 255 255 255 255 255 255 255 255 255 255 255 255 255 255 255 255 255 255 255 255 255 255 255 255 255 255 255 255 255 255 255 255 255 255 255 255 255 255 255 255 255 255 255 255 255 255 255 255 255 255 255 255 255 255 255 255 255 255 255 255 255 255 255 255 255 255 255 255 255 255 255 255 255 255 255 255 255 255 255 255 
255 255 255 255 255 255 255 255 255 255 255 255 255 255 255 255 255 255 255 255 255 255 255 255 255 255 255 255 255 255 255 255 255 255 255 255 255 255 255 255 255 255 255 255 255 255 255 255 255 255 255 255 255 255 255 255 255 255 255 255 255 255 255 255 255 255 255 255 255 255 255 255 255 255 255 255 255 255 255 255 255 255 255 255 255 255 255 255 255 255 255 255 255 255 255 255 255 255 255 255 255 255 255 255 255 255 255 255 255 255 255 255 255 255 255 255 255 255 255 255 255 255 255 255 255 255 255 255 255 255 255 255 254 254 254 255 255 254 254 254 254 254 254 254 254 254 254 254 254 254 254 254 255 254 255 254 255 255 255 255 255 255 255 255 255 254 254 254 254 254 254 255 255 255 255 255 255 255 255 255 255 255 255 255 255 255 255 255 255 255 255 255 255 255 255 255 255 255 255 255 255 255 255 255 255 255 255 255 255 255 255 255 255 255 255 255 255 255 255 255 255 255 255 255 255 255 255 255 255 255 255 255 255 255 255 255 255 255 255 255 255 255 255 255 255 255 255 255 255 255 255 255 255 255 255 255 255 255 255 255 255 255 255 255 255 255 255 255 255 255 255 255 255 255 255 255 255 255 255 255 255 255 255 255 255 255 255 255 255 255 255 255 255 255 255 255 255 255 255 255 
255 255 255 255 255 255 255 255 255 255 255 255 255 255 255 255 255 255 255 255 255 255 255 255 255 255 255 255 255 255 255 255 255 255 255 255 255 255 255 255 255 255 255 255 255 255 255 255 255 255 255 255 255 255 255 255 255 255 255 255 255 255 255 255 255 255 255 255 255 255 255 255 255 255 255 255 255 255 255 255 255 255 255 255 255 255 255 255 255 255 255 255 255 255 255 255 255 255 255 255 255 255 255 255 255 255 255 255 255 255 255 255 255 255 255 255 255 255 255 255 255 255 255 255 255 254 254 255 255 255 255 254 254 254 253 253 252 250 248 246 244 243 243 242 243 242 242 244 246 248 250 252 253 254 254 254 254 255 255 255 255 255 255 255 255 254 254 254 254 254 254 255 255 255 255 255 254 254 254 255 255 255 255 255 255 255 255 255 255 255 255 255 255 255 255 255 255 255 255 255 255 255 255 255 255 255 255 255 255 255 255 255 255 255 255 255 255 255 255 255 255 255 255 255 255 255 255 255 255 255 255 255 255 255 255 255 255 255 255 255 255 255 255 255 255 255 255 255 255 255 255 255 255 255 255 255 255 255 255 255 255 255 255 255 255 255 255 255 255 255 255 255 255 255 255 255 255 255 255 255 255 255 255 255 255 255 255 255 255 255 255 255 255 255 255 255 255 255 255 255 
255 255 255 255 255 255 255 255 255 255 255 255 255 255 255 255 255 255 255 255 255 255 255 255 255 255 255 255 255 255 255 255 255 255 255 255 255 255 255 255 255 255 255 255 255 255 255 255 255 255 255 255 255 255 255 255 255 255 255 255 255 255 255 255 255 255 255 255 255 255 255 255 255 255 255 255 255 255 255 255 255 255 255 255 255 255 255 255 255 255 255 255 255 255 255 255 255 255 255 255 255 255 255 255 255 255 255 255 255 255 255 255 255 255 255 255 255 255 255 255 255 255 255 254 254 254 254 254 254 253 250 247 241 236 230 226 222 218 216 214 213 212 211 210 210 210 210 210 211 213 215 219 223 228 234 241 246 251 253 254 254 254 254 252 252 251 251 251 250 250 251 251 252 253 254 254 254 254 254 254 254 255 255 255 255 255 255 255 255 255 255 255 255 255 255 255 255 255 255 255 255 255 255 255 255 255 255 255 255 255 255 255 255 255 255 255 255 255 255 255 255 255 255 255 255 255 255 255 255 255 255 255 255 255 255 255 255 255 255 255 255 255 255 255 255 255 255 255 255 255 255 255 255 255 255 255 255 255 255 255 255 255 255 255 255 255 255 255 255 255 255 255 255 255 255 255 255 255 255 255 255 255 255 255 255 255 255 255 255 255 255 255 255 255 255 255 255 255 255 255 
255 255 255 255 255 255 255 255 255 255 255 255 255 255 255 255 255 255 255 255 255 255 255 255 255 255 255 255 255 255 255 255 255 255 255 255 255 255 255 255 255 255 255 255 255 255 255 255 255 255 255 255 255 255 255 255 255 255 255 255 255 255 255 255 255 255 255 255 255 255 255 255 255 255 255 255 255 255 255 255 255 255 255 255 255 255 255 255 255 255 255 255 255 255 255 255 255 255 255 255 255 255 255 255 255 255 255 255 255 255 255 255 255 255 255 255 255 255 255 255 255 255 255 254 254 252 248 242 234 226 220 216 212 211 210 210 210 211 211 211 211 211 211 210 210 210 210 209 210 209 208 208 207 206 206 207 210 214 215 239 249 248 246 241 238 234 230 227 226 227 229 234 238 241 246 249 251 253 254 254 255 255 255 255 255 255 255 255 255 255 255 255 255 255 255 255 255 255 255 255 255 255 255 255 255 255 255 255 255 255 255 255 255 255 255 255 255 255 255 255 255 255 255 255 255 255 255 255 255 255 255 255 255 255 255 255 255 255 255 255 255 255 255 255 255 255 255 255 255 255 255 255 255 255 255 255 255 255 255 255 255 255 255 255 255 255 255 255 255 255 255 255 255 255 255 255 255 255 255 255 255 255 255 255 255 255 255 255 255 255 255 255 255 255 255 255 255 255 255 255 
255 255 255 255 255 255 255 255 255 255 255 255 255 255 255 255 255 255 255 255 255 255 255 255 255 255 255 255 255 255 255 255 255 255 255 255 255 255 255 255 255 255 255 255 255 255 255 255 255 255 255 255 255 255 255 255 255 255 255 255 255 255 255 255 255 255 255 255 255 255 255 255 255 255 255 255 255 255 255 255 255 255 255 255 255 255 255 255 255 255 255 255 255 255 255 255 255 255 255 255 255 255 255 255 255 255 255 255 255 255 255 254 254 255 254 255 255 255 255 255 254 253 250 243 235 225 218 213 211 210 211 211 212 211 212 212 212 212 212 213 213 213 212 212 212 212 212 212 212 212 212 212 211 210 209 208 208 210 211 230 229 216 203 191 182 176 173 171 170 172 174 179 186 195 206 220 231 240 246 250 254 254 255 255 254 254 255 255 255 255 255 255 255 255 255 255 255 255 255 255 255 255 255 255 255 255 255 255 255 255 255 255 255 255 255 255 255 255 255 255 255 255 255 255 255 255 255 255 255 255 255 255 255 255 255 255 255 255 255 255 255 255 255 255 255 255 255 255 255 255 255 255 255 255 255 255 255 255 255 255 255 255 255 255 255 255 255 255 255 255 255 255 255 255 255 255 255 255 255 255 255 255 255 255 255 255 255 255 255 255 255 255 255 255 255 255 255 255 255 255 
255 255 255 255 255 255 255 255 255 255 255 255 255 255 255 255 255 255 255 255 255 255 255 255 255 255 255 255 255 255 255 255 255 255 255 255 255 255 255 255 255 255 255 255 255 255 255 255 255 255 255 255 255 255 255 255 255 255 255 255 255 255 255 255 255 255 255 255 255 255 255 255 255 255 255 255 255 255 255 255 255 255 255 255 255 255 255 255 255 255 255 255 255 255 255 255 255 255 255 255 255 255 255 255 255 255 255 255 255 255 255 254 254 254 254 254 254 254 253 249 241 231 221 214 212 212 212 212 213 213 212 212 213 213 214 214 214 213 213 214 214 213 213 213 213 213 213 214 214 214 214 213 212 211 210 216 222 220 208 190 177 166 162 161 161 161 161 162 161 161 161 160 160 160 162 167 178 195 214 230 241 247 253 254 254 254 254 255 255 255 255 255 255 255 255 255 255 255 255 255 255 255 255 255 255 255 255 255 255 255 255 255 255 255 255 255 255 255 255 255 255 255 255 255 255 255 255 255 255 255 255 255 255 255 255 255 255 255 255 255 255 255 255 255 255 255 255 255 255 255 255 255 255 255 255 255 255 255 255 255 255 255 255 255 255 255 255 255 255 255 255 255 255 255 255 255 255 255 255 255 255 255 255 255 255 255 255 255 255 255 255 255 255 255 255 255 255 255 255 255 
255 255 255 255 255 255 255 255 255 255 255 255 255 255 255 255 255 255 255 255 255 255 255 255 255 255 255 255 255 255 255 255 255 255 255 255 255 255 255 255 255 255 255 255 255 255 255 255 255 255 255 255 255 255 255 255 255 255 255 255 255 255 255 255 255 255 255 255 255 255 255 255 255 255 255 255 255 255 255 255 255 255 255 255 255 255 255 255 255 255 255 255 255 255 255 255 255 255 255 255 255 255 255 255 255 255 255 255 255 255 255 254 254 255 254 254 251 242 231 221 214 212 212 212 213 213 213 213 214 214 214 214 214 214 214 215 215 214 214 214 214 214 214 214 214 214 215 214 215 214 214 213 211 213 218 216 201 180 167 163 164 165 165 165 166 165 165 164 164 164 164 164 163 163 161 160 159 159 166 180 201 220 235 247 254 254 254 255 255 255 255 255 255 255 255 255 255 255 255 255 255 255 255 255 255 255 255 255 255 255 255 255 255 255 255 255 255 255 255 255 255 255 255 255 255 255 255 255 255 255 255 255 255 255 255 255 255 255 255 255 255 255 255 255 255 255 255 255 255 255 255 255 255 255 255 255 255 255 255 255 255 255 255 255 255 255 255 255 255 255 255 255 255 255 255 255 255 255 255 255 255 255 255 255 255 255 255 255 255 255 255 255 255 255 255 255 255 255 255 255 
255 255 255 255 255 255 255 255 255 255 255 255 255 255 255 255 255 255 255 255 255 255 255 255 255 255 255 255 255 255 255 255 255 255 255 255 255 255 255 255 255 255 255 255 255 255 255 255 255 255 255 255 255 255 255 255 255 255 255 255 255 255 255 255 255 255 255 255 255 255 255 255 255 255 255 255 255 255 255 255 255 255 255 255 255 255 255 255 255 255 255 255 255 255 255 255 255 255 255 255 255 255 255 255 255 255 255 255 255 255 254 254 254 253 247 235 224 215 213 213 213 213 213 214 214 214 214 215 215 214 215 215 215 215 215 215 216 215 215 215 215 214 214 215 215 214 214 214 214 214 214 210 211 211 203 184 172 166 165 166 167 167 166 166 165 165 165 164 164 164 164 164 164 163 163 163 163 162 160 158 161 176 197 219 238 252 254 254 255 255 255 255 255 255 255 255 255 255 255 255 255 255 255 255 255 255 255 255 255 255 255 255 255 255 255 255 255 255 255 255 255 255 255 255 255 255 255 255 255 255 255 255 255 255 255 255 255 255 255 255 255 255 255 255 255 255 255 255 255 255 255 255 255 255 255 255 255 255 255 255 255 255 255 255 255 255 255 255 255 255 255 255 255 255 255 255 255 255 255 255 255 255 255 255 255 255 255 255 255 255 255 255 255 255 255 255 255 255 255 255 
255 255 255 255 255 255 255 255 255 255 255 255 255 255 255 255 255 255 255 255 255 255 255 255 255 255 255 255 255 255 255 255 255 255 255 255 255 255 255 255 255 255 255 255 255 255 255 255 255 255 255 255 255 255 255 255 255 255 255 255 255 255 255 255 255 255 255 255 255 255 255 255 255 255 255 255 255 255 255 255 255 255 255 255 255 255 255 255 255 255 255 255 255 255 255 255 255 255 255 255 255 255 255 255 255 255 255 255 255 255 254 252 243 231 219 213 212 213 213 214 214 214 214 214 214 215 215 215 215 215 215 215 216 216 216 215 215 216 216 216 216 216 215 215 214 214 214 214 214 215 210 211 209 201 187 172 167 167 167 167 166 166 166 165 163 162 161 160 159 159 161 161 162 163 164 164 164 164 163 162 160 159 162 178 199 226 246 254 254 255 255 255 255 255 255 255 255 255 255 255 255 255 255 255 255 255 255 255 255 255 255 255 255 255 255 255 255 255 255 255 255 255 255 255 255 255 255 255 255 255 255 255 255 255 255 255 255 255 255 255 255 255 255 255 255 255 255 255 255 255 255 255 255 255 255 255 255 255 255 255 255 255 255 255 255 255 255 255 255 255 255 255 255 255 255 255 255 255 255 255 255 255 255 255 255 255 255 255 255 255 255 255 255 255 255 255 255 255 255 255 
255 255 255 255 255 255 255 255 255 255 255 255 255 255 255 255 255 255 255 255 255 255 255 255 255 255 255 255 255 255 255 255 255 255 255 255 255 255 255 255 255 255 255 255 255 255 255 255 255 255 255 255 255 255 255 255 255 255 255 255 255 255 255 255 255 255 255 255 255 255 255 255 255 255 255 255 255 255 255 255 255 255 255 255 255 255 255 255 255 255 255 255 255 255 255 255 255 255 255 255 255 254 255 255 255 255 254 254 254 252 242 228 216 213 213 213 214 214 214 214 215 215 214 215 215 215 215 216 216 216 216 216 216 216 216 216 216 216 216 216 216 215 214 214 214 214 215 216 215 212 212 216 206 191 171 167 168 167 167 166 164 162 158 154 150 145 142 142 142 143 146 149 152 154 157 161 163 164 163 164 164 162 160 160 167 184 213 243 254 254 255 255 255 255 255 255 255 255 255 255 255 255 255 255 255 255 255 255 255 255 255 255 255 255 255 255 255 255 255 255 255 255 255 255 255 255 255 255 255 255 255 255 255 255 255 255 255 255 255 255 255 255 255 255 255 255 255 255 255 255 255 255 255 255 255 255 255 255 255 255 255 255 255 255 255 255 255 255 255 255 255 255 255 255 255 255 255 255 255 255 255 255 255 255 255 255 255 255 255 255 255 255 255 255 255 255 255 255 255 255 
255 255 255 255 255 255 255 255 255 255 255 255 255 255 255 255 255 255 255 255 255 255 255 255 255 255 255 255 255 255 255 255 255 255 255 255 255 255 255 255 255 255 255 255 255 255 255 255 255 255 255 255 255 255 255 255 255 255 255 255 255 255 255 255 255 255 255 255 255 255 255 255 255 255 255 255 255 255 255 255 255 255 255 255 255 255 255 255 255 255 255 255 255 255 255 255 255 255 255 255 255 254 254 255 255 254 254 252 242 229 217 213 213 213 214 213 214 214 214 215 215 216 215 215 216 216 216 216 216 216 216 217 216 216 217 216 216 216 216 216 215 215 215 214 215 216 217 216 213 215 222 214 194 175 168 168 167 166 164 159 153 146 132 116 103 91 85 82 83 85 90 101 116 129 141 152 155 157 162 163 164 164 163 162 160 162 174 206 242 254 254 255 255 255 255 255 255 255 255 255 255 255 255 255 255 255 255 255 255 255 255 255 255 255 255 255 255 255 255 255 255 255 255 255 255 255 255 255 255 255 255 255 255 255 255 255 255 255 255 255 255 255 255 255 255 255 255 255 255 255 255 255 255 255 255 255 255 255 255 255 255 255 255 255 255 255 255 255 255 255 255 255 255 255 255 255 255 255 255 255 255 255 255 255 255 255 255 255 255 255 255 255 255 255 255 255 255 255 255 255 
255 255 255 255 255 255 255 255 255 255 255 255 255 255 255 255 255 255 255 255 255 255 255 255 255 255 255 255 255 255 255 255 255 255 255 255 255 255 255 255 255 255 255 255 255 255 255 255 255 255 255 255 255 255 255 255 255 255 255 255 255 255 255 255 255 255 255 255 255 255 255 255 255 255 255 255 255 255 255 255 255 255 255 255 255 255 255 255 255 255 255 255 255 255 255 255 255 255 255 255 255 255 255 255 254 253 244 230 217 214 214 213 213 213 213 213 213 214 215 215 215 216 216 216 216 216 216 216 217 216 216 217 217 216 216 217 216 215 216 215 215 215 215 215 217 214 212 213 222 230 220 195 175 169 168 167 165 159 151 135 113 93 80 78 82 88 90 89 88 84 79 76 75 79 94 119 140 151 155 157 163 164 164 164 162 160 160 168 200 242 254 254 255 255 255 255 255 255 255 255 255 255 255 255 255 255 255 255 255 255 255 255 255 255 255 255 255 255 255 255 255 255 255 255 255 255 255 255 255 255 255 255 255 255 255 255 255 255 255 255 255 255 255 255 255 255 255 255 255 255 255 255 255 255 255 255 255 255 255 255 255 255 255 255 255 255 255 255 255 255 255 255 255 255 255 255 255 255 255 255 255 255 255 255 255 255 255 255 255 255 255 255 255 255 255 255 255 255 255 255 
255 255 255 255 255 255 255 255 255 255 255 255 255 255 255 255 255 255 255 255 255 255 255 255 255 255 255 255 255 255 255 255 255 255 255 255 255 255 255 255 255 255 255 255 255 255 255 255 255 255 255 255 255 255 255 255 255 255 255 255 255 255 255 255 255 255 255 255 255 255 255 255 255 255 255 255 255 255 255 255 255 255 255 255 255 255 255 255 255 255 255 255 255 255 255 255 255 255 255 255 255 255 255 254 248 234 220 215 214 215 214 214 214 213 212 212 212 213 214 215 215 216 217 216 217 216 217 217 217 217 217 217 217 216 216 217 216 215 216 215 215 216 216 217 216 205 207 222 236 227 198 176 169 168 166 163 153 137 107 87 86 97 108 116 120 123 124 125 125 123 120 115 102 88 81 82 96 123 148 158 155 162 164 165 164 163 161 160 165 200 245 254 255 255 255 255 255 255 255 255 255 255 255 255 255 255 255 255 255 255 255 255 255 255 255 255 255 255 255 255 255 255 255 255 255 255 255 255 255 255 255 255 255 255 255 255 255 255 255 255 255 255 255 255 255 255 255 255 255 255 255 255 255 255 255 255 255 255 255 255 255 255 255 255 255 255 255 255 255 255 255 255 255 255 255 255 255 255 255 255 255 255 255 255 255 255 255 255 255 255 255 255 255 255 255 255 255 255 255 255 
255 255 255 255 255 255 255 255 255 255 255 255 255 255 255 255 255 255 255 255 255 255 255 255 255 255 255 255 255 255 255 255 255 255 255 255 255 255 255 255 255 255 255 255 255 255 255 255 255 255 255 255 255 255 255 255 255 255 255 255 255 255 255 255 255 255 255 255 255 255 255 255 255 255 255 255 255 255 255 255 255 255 255 255 255 255 255 255 255 255 255 255 255 255 255 255 255 255 255 255 255 254 252 239 225 216 216 215 215 215 215 214 214 213 212 212 212 213 214 214 215 216 216 216 216 217 217 217 217 217 217 217 217 216 217 216 216 217 216 216 216 217 217 217 203 198 224 239 229 202 178 169 168 165 161 152 116 94 87 102 113 118 121 124 127 130 132 135 136 136 136 135 130 124 114 97 84 88 113 146 159 161 160 165 165 164 162 160 159 165 206 251 255 255 255 255 255 255 255 255 255 255 255 255 255 255 255 255 255 255 255 255 255 255 255 255 255 255 255 255 255 255 255 255 255 255 255 255 255 255 255 255 255 255 255 255 255 255 255 255 255 255 255 255 255 255 255 255 255 255 255 255 255 255 255 255 255 255 255 255 255 255 255 255 255 255 255 255 255 255 255 255 255 255 255 255 255 255 255 255 255 255 255 255 255 255 255 255 255 255 255 255 255 255 255 255 255 255 255 255 
255 255 255 255 255 255 255 255 255 255 255 255 255 255 255 255 255 255 255 255 255 255 255 255 255 255 255 255 255 255 255 255 255 255 255 255 255 255 255 255 255 255 255 255 255 255 255 255 255 255 255 255 255 255 255 255 255 255 255 255 255 255 255 255 255 255 255 255 255 255 255 255 255 255 255 255 255 255 255 255 255 255 255 255 255 255 255 255 255 255 255 255 255 255 255 255 255 255 254 255 254 246 232 219 216 216 216 215 215 215 214 214 214 213 212 212 212 213 214 214 215 215 216 217 216 217 217 217 217 217 217 217 217 216 217 216 216 216 217 217 217 217 217 216 205 218 241 238 209 180 170 168 166 159 144 108 87 98 109 113 118 123 132 139 145 150 153 156 158 159 160 159 156 151 147 137 119 95 86 108 142 167 165 157 164 164 163 161 159 159 169 218 254 255 254 255 255 255 255 255 255 255 255 255 255 255 255 255 255 255 255 255 255 255 255 255 255 255 255 255 255 255 255 255 255 255 255 255 255 255 255 255 255 255 255 255 255 255 255 255 255 255 255 255 255 255 255 255 255 255 255 255 255 255 255 255 255 255 255 255 255 255 255 255 255 255 255 255 255 255 255 255 255 255 255 255 255 255 255 255 255 255 255 255 255 255 255 255 255 255 255 255 255 255 255 255 255 255 255 255 
255 255 255 255 255 255 255 255 255 255 255 255 255 255 255 255 255 255 255 255 255 255 255 255 255 255 255 255 255 255 255 255 255 255 255 255 255 255 255 255 255 255 255 255 255 255 255 255 255 255 255 255 255 255 255 255 255 255 255 255 255 255 255 255 255 255 255 255 255 255 255 255 255 255 255 255 255 255 255 255 255 255 255 255 255 255 255 255 255 255 255 255 255 255 255 255 255 254 254 253 240 225 217 216 216 216 216 215 215 215 215 214 214 213 213 212 212 213 214 214 215 216 216 216 216 216 216 217 217 217 216 216 216 216 217 217 217 217 217 217 216 216 215 213 221 243 245 222 188 171 169 166 160 138 103 90 102 105 112 121 133 141 148 155 160 164 168 171 174 175 177 177 176 171 167 160 152 141 112 91 104 146 173 166 157 164 163 162 161 159 160 181 235 254 254 255 255 255 255 255 255 255 255 255 255 255 255 255 255 255 255 255 255 255 255 255 255 255 255 255 255 255 255 255 255 255 255 255 255 255 255 255 255 255 255 255 255 255 255 255 255 255 255 255 255 255 255 255 255 255 255 255 255 255 255 255 255 255 255 255 255 255 255 255 255 255 255 255 255 255 255 255 255 255 255 255 255 255 255 255 255 255 255 255 255 255 255 255 255 255 255 255 255 255 255 255 255 255 255 255 
255 255 255 255 255 255 255 255 255 255 255 255 255 255 255 255 255 255 255 255 255 255 255 255 255 255 255 255 255 255 255 255 255 255 255 255 255 255 255 255 255 255 255 255 255 255 255 255 255 255 255 255 255 255 255 255 255 255 255 255 255 255 255 255 255 255 255 255 255 255 255 255 255 255 255 255 255 255 255 255 255 255 255 255 255 255 255 255 255 255 255 255 255 255 255 255 255 254 250 235 220 217 217 216 216 216 215 215 215 216 215 214 214 214 214 212 213 213 214 215 215 216 216 216 217 217 217 217 217 217 217 217 216 217 217 217 217 217 217 216 215 214 212 214 239 251 235 199 174 169 166 161 142 104 93 98 104 115 130 140 148 155 162 169 174 181 190 198 204 209 212 213 212 209 204 196 187 174 158 132 101 107 151 175 165 157 163 164 163 161 159 161 199 249 254 255 255 255 255 255 255 255 255 255 255 255 255 255 255 255 255 255 255 255 255 255 255 255 255 255 255 255 255 255 255 255 255 255 255 255 255 255 255 255 255 255 255 255 255 255 255 255 255 255 255 255 255 255 255 255 255 255 255 255 255 255 255 255 255 255 255 255 255 255 255 255 255 255 255 255 255 255 255 255 255 255 255 255 255 255 255 255 255 255 255 255 255 255 255 255 255 255 255 255 255 255 255 255 255 255 
255 255 255 255 255 255 255 255 255 255 255 255 255 255 255 255 255 255 255 255 255 255 255 255 255 255 255 255 255 255 255 255 255 255 255 255 255 255 255 255 255 255 255 255 255 255 255 255 255 255 255 255 255 255 255 255 255 255 255 255 255 255 255 255 255 255 255 255 255 255 255 255 255 255 255 255 255 255 255 255 255 255 255 255 255 255 255 255 255 255 255 255 255 254 254 254 254 246 230 218 217 216 216 216 216 215 215 215 215 216 215 215 215 215 214 213 213 214 214 215 215 217 217 217 217 217 217 217 217 217 217 217 217 218 218 217 217 217 216 215 214 211 209 230 252 245 214 180 170 166 163 148 108 90 95 103 123 136 146 155 162 170 178 190 203 215 225 230 233 235 235 235 234 232 230 228 223 216 205 188 161 121 120 158 176 165 160 164 163 162 160 159 168 223 254 255 255 255 255 255 255 255 255 255 255 255 255 255 255 255 255 255 255 255 255 255 255 255 255 255 255 255 255 255 255 255 255 255 255 255 255 255 255 255 255 255 255 255 255 255 255 255 255 255 255 255 255 255 255 255 255 255 255 255 255 255 255 255 255 255 255 255 255 255 255 255 255 255 255 255 255 255 255 255 255 255 255 255 255 255 255 255 255 255 255 255 255 255 255 255 255 255 255 255 255 255 255 255 255 255 
255 255 255 255 255 255 255 255 255 255 255 255 255 255 255 255 255 255 255 255 255 255 255 255 255 255 255 255 255 255 255 255 255 255 255 255 255 255 255 255 255 255 255 255 255 255 255 255 255 255 255 255 255 255 255 255 255 255 255 255 255 255 255 255 255 255 255 255 255 255 255 255 255 255 255 255 255 255 255 255 255 255 255 255 255 255 255 255 255 255 255 255 255 255 254 253 242 227 218 217 217 216 216 216 215 215 216 216 216 216 215 215 214 214 216 219 224 227 230 231 233 235 235 234 232 228 224 222 219 217 218 217 217 217 217 216 215 215 214 213 211 206 218 247 251 230 192 172 168 164 155 117 85 91 104 125 140 151 160 169 177 190 206 221 232 238 242 242 242 241 241 241 239 238 236 234 232 229 225 218 206 182 137 131 164 174 162 162 162 163 161 159 160 191 248 255 255 255 255 255 255 255 255 255 255 255 255 255 255 255 255 255 255 255 255 255 255 255 255 255 255 255 255 255 255 255 255 255 255 255 255 255 255 255 255 255 255 255 255 255 255 255 255 255 255 255 255 255 255 255 255 255 255 255 255 255 255 255 255 255 255 255 255 255 255 255 255 255 255 255 255 255 255 255 255 255 255 255 255 255 255 255 255 255 255 255 255 255 255 255 255 255 255 255 255 255 255 255 255 255 
255 255 255 255 255 255 255 255 255 255 255 255 255 255 255 255 255 255 255 255 255 255 255 255 255 255 255 255 255 255 255 255 255 255 255 255 255 255 255 255 255 255 255 255 255 255 255 255 255 255 255 255 255 255 255 255 255 255 255 255 255 255 255 255 255 255 255 255 255 255 255 255 255 255 255 255 255 255 255 255 255 255 255 255 255 255 255 255 255 255 255 254 255 255 253 239 224 218 217 217 216 216 215 215 215 215 215 215 215 215 208 212 221 227 228 224 219 211 204 199 197 199 200 203 210 215 221 227 231 230 227 221 216 216 216 215 214 214 213 211 205 203 236 253 243 208 176 169 166 160 132 91 87 103 126 141 153 163 172 182 199 218 233 240 244 245 245 245 244 243 243 242 241 240 239 238 236 233 231 228 222 213 188 142 141 169 167 158 162 162 161 160 159 165 220 254 254 255 255 255 255 255 255 255 255 255 255 255 255 255 255 255 255 255 255 255 255 255 255 255 255 255 255 255 255 255 255 255 255 255 255 255 255 255 255 255 255 255 255 255 255 255 255 255 255 255 255 255 255 255 255 255 255 255 255 255 255 255 255 255 255 255 255 255 255 255 255 255 255 255 255 255 255 255 255 255 255 255 255 255 255 255 255 255 255 255 255 255 255 255 255 255 255 255 255 255 255 255 255 255 
255 255 255 255 255 255 255 255 255 255 255 255 255 255 255 255 255 255 255 255 255 255 255 255 255 255 255 255 255 255 255 255 255 255 255 255 255 255 255 255 255 255 255 255 255 255 255 255 255 255 255 255 255 255 255 255 255 255 255 255 255 255 255 255 255 255 255 255 255 255 255 255 255 255 255 255 255 255 255 255 255 255 255 255 255 255 255 255 255 254 254 254 254 252 237 222 219 218 217 217 217 216 215 215 215 215 214 214 212 217 219 225 220 209 198 188 179 171 167 165 164 164 164 164 165 166 170 177 188 203 219 228 225 222 217 213 213 211 211 207 197 214 249 251 229 189 170 167 164 152 99 81 99 122 139 151 164 174 185 205 225 238 244 246 246 246 246 246 246 245 244 244 243 242 241 239 238 236 233 231 227 222 213 182 137 151 173 167 161 162 162 162 159 160 189 247 254 254 255 255 255 255 255 255 255 255 255 255 255 255 255 255 255 255 255 255 255 255 255 255 255 255 255 255 255 255 255 255 255 255 255 255 255 255 255 255 255 255 255 255 255 255 255 255 255 255 255 255 255 255 255 255 255 255 255 255 255 255 255 255 255 255 255 255 255 255 255 255 255 255 255 255 255 255 255 255 255 255 255 255 255 255 255 255 255 255 255 255 255 255 255 255 255 255 255 255 255 255 255 255 
255 255 255 255 255 255 255 255 255 255 255 255 255 255 255 255 255 255 255 255 255 255 255 255 255 255 255 255 255 255 255 255 255 255 255 255 255 255 255 255 255 255 255 255 255 255 255 255 255 255 255 255 255 255 255 255 255 255 255 255 255 255 255 255 255 255 255 255 255 255 255 255 255 255 255 255 255 255 255 255 255 255 255 255 255 255 255 254 254 254 254 254 251 235 222 219 218 218 217 217 217 216 216 215 214 214 211 214 218 221 216 210 205 198 187 180 175 170 168 168 168 168 167 167 166 165 164 163 162 163 170 182 198 218 227 222 214 208 207 200 195 234 253 243 209 176 169 166 160 122 78 91 115 135 149 160 172 187 208 228 240 245 246 247 248 247 247 247 246 247 246 245 244 243 242 240 239 237 235 233 230 228 223 212 161 131 164 175 164 162 161 162 160 160 167 224 254 254 255 255 255 255 255 255 255 255 255 255 255 255 255 255 255 255 255 255 255 255 255 255 255 255 255 255 255 255 255 255 255 255 255 255 255 255 255 255 255 255 255 255 255 255 255 255 255 255 255 255 255 255 255 255 255 255 255 255 255 255 255 255 255 255 255 255 255 255 255 255 255 255 255 255 255 255 255 255 255 255 255 255 255 255 255 255 255 255 255 255 255 255 255 255 255 255 255 255 255 255 255 255 
255 255 255 255 255 255 255 255 255 255 255 255 255 255 255 255 255 255 255 255 255 255 255 255 255 255 255 255 255 255 255 255 255 255 255 255 255 255 255 255 255 255 255 255 255 255 255 255 255 255 255 255 255 255 255 255 255 255 255 255 255 255 255 255 255 255 255 255 255 255 255 255 255 255 255 255 255 255 255 255 255 255 255 255 255 255 255 254 254 254 254 251 235 222 220 218 218 218 217 217 217 216 215 215 213 210 214 221 221 218 214 206 195 185 175 171 169 169 169 169 168 168 168 168 168 168 167 166 166 164 162 161 163 172 190 209 220 220 208 188 210 250 250 227 188 170 167 163 152 95 83 107 131 145 158 169 182 205 229 242 246 248 248 250 250 249 249 249 248 247 246 246 245 244 243 241 239 238 236 234 232 231 229 221 201 145 147 175 172 162 161 161 160 159 159 198 252 255 255 255 255 255 255 255 255 255 255 255 255 255 255 255 255 255 255 255 255 255 255 255 255 255 255 255 255 255 255 255 255 255 255 255 255 255 255 255 255 255 255 255 255 255 255 255 255 255 255 255 255 255 255 255 255 255 255 255 255 255 255 255 255 255 255 255 255 255 255 255 255 255 255 255 255 255 255 255 255 255 255 255 255 255 255 255 255 255 255 255 255 255 255 255 255 255 255 255 255 255 255 255 
255 255 255 255 255 255 255 255 255 255 255 255 255 255 255 255 255 255 255 255 255 255 255 255 255 255 255 255 255 255 255 255 255 255 255 255 255 255 255 255 255 255 255 255 255 255 255 255 255 255 255 255 255 255 255 255 255 255 255 255 255 255 255 255 255 255 255 255 255 255 255 255 255 255 255 255 255 255 255 255 255 255 255 255 255 255 254 254 254 254 251 235 222 220 219 218 218 217 217 217 217 216 215 210 211 216 226 230 226 215 200 185 176 172 169 169 168 168 167 167 166 166 166 166 167 167 167 167 167 167 166 165 163 161 161 168 185 207 220 216 234 253 242 206 175 168 166 162 134 80 95 122 140 153 165 178 200 226 241 247 249 250 250 250 250 249 249 250 250 249 247 247 246 245 244 242 241 238 236 234 232 231 230 225 215 177 138 170 180 170 162 161 160 159 158 177 242 255 255 255 255 255 255 255 255 255 255 255 255 255 255 255 255 255 255 255 255 255 255 255 255 255 255 255 255 255 255 255 255 255 255 255 255 255 255 255 255 255 255 255 255 255 255 255 255 255 255 255 255 255 255 255 255 255 255 255 255 255 255 255 255 255 255 255 255 255 255 255 255 255 255 255 255 255 255 255 255 255 255 255 255 255 255 255 255 255 255 255 255 255 255 255 255 255 255 255 255 255 255 255 
255 255 255 255 255 255 255 255 255 255 255 255 255 255 255 255 255 255 255 255 255 255 255 255 255 255 255 255 255 255 255 255 255 255 255 255 255 255 255 255 255 255 255 255 255 255 255 255 255 255 255 255 255 255 255 255 255 255 255 255 255 255 255 255 255 255 255 255 255 255 255 255 255 255 255 255 255 255 255 255 255 255 255 255 255 255 254 254 254 252 236 223 221 219 218 218 218 217 217 217 217 217 211 212 225 234 235 226 209 192 179 172 169 168 167 165 163 161 158 157 156 156 156 157 159 161 163 165 166 166 166 166 166 164 163 161 161 166 181 199 218 244 223 186 169 167 166 161 114 82 108 133 147 160 173 191 219 239 246 249 250 250 248 244 234 228 230 239 247 249 248 247 247 246 245 244 242 240 238 235 233 231 229 225 218 201 147 154 180 178 163 162 161 160 159 163 222 254 255 255 255 255 255 255 255 255 255 255 255 255 255 255 255 255 255 255 255 255 255 255 255 255 255 255 255 255 255 255 255 255 255 255 255 255 255 255 255 255 255 255 255 255 255 255 255 255 255 255 255 255 255 255 255 255 255 255 255 255 255 255 255 255 255 255 255 255 255 255 255 255 255 255 255 255 255 255 255 255 255 255 255 255 255 255 255 255 255 255 255 255 255 255 255 255 255 255 255 255 255 255 
255 255 255 255 255 255 255 255 255 255 255 255 255 255 255 255 255 255 255 255 255 255 255 255 255 255 255 255 255 255 255 255 255 255 255 255 255 255 255 255 255 255 255 255 255 255 255 255 255 255 255 255 255 255 255 255 255 255 255 255 255 255 255 255 255 255 255 255 255 255 255 255 255 255 255 255 255 255 255 255 255 255 255 255 255 255 254 254 253 238 223 221 220 219 218 218 218 217 217 217 217 211 216 233 242 236 221 201 184 174 170 168 166 163 157 154 149 141 133 127 125 125 127 132 139 147 153 155 156 161 164 165 166 165 165 164 163 162 161 163 178 215 200 174 168 166 165 156 98 91 121 140 154 168 183 208 234 245 249 250 250 239 193 147 117 105 108 129 168 218 245 247 247 246 246 244 243 241 239 236 234 232 230 225 219 208 170 142 175 186 167 162 161 160 158 159 202 253 254 255 255 255 255 255 255 255 255 255 255 255 255 255 255 255 255 255 255 255 255 255 255 255 255 255 255 255 255 255 255 255 255 255 255 255 255 255 255 255 255 255 255 255 255 255 255 255 255 255 255 255 255 255 255 255 255 255 255 255 255 255 255 255 255 255 255 255 255 255 255 255 255 255 255 255 255 255 255 255 255 255 255 255 255 255 255 255 255 255 255 255 255 255 255 255 255 255 255 255 255 255 
255 255 255 255 255 255 255 255 255 255 255 255 255 255 255 255 255 255 255 255 255 255 255 255 255 255 255 255 255 255 255 255 255 255 255 255 255 255 255 255 255 255 255 255 255 255 255 255 255 255 255 255 255 255 255 255 255 255 255 255 255 255 255 255 255 255 255 255 255 255 255 255 255 255 255 255 255 255 255 255 255 255 255 255 255 255 254 253 240 224 221 219 219 218 218 218 218 217 217 217 213 220 241 246 236 217 193 177 171 168 166 160 155 147 128 112 94 82 77 75 76 76 78 79 83 93 110 130 144 155 155 160 164 165 165 166 165 165 164 162 164 182 178 169 167 166 164 148 88 104 141 153 162 175 195 224 242 248 250 248 220 146 91 80 90 92 83 84 80 112 179 241 247 247 246 245 243 242 239 237 234 232 230 225 220 212 192 143 167 188 176 162 162 161 159 158 184 248 254 255 255 255 255 255 255 255 255 255 255 255 255 255 255 255 255 255 255 255 255 255 255 255 255 255 255 255 255 255 255 255 255 255 255 255 255 255 255 255 255 255 255 255 255 255 255 255 255 255 255 255 255 255 255 255 255 255 255 255 255 255 255 255 255 255 255 255 255 255 255 255 255 255 255 255 255 255 255 255 255 255 255 255 255 255 255 255 255 255 255 255 255 255 255 255 255 255 255 255 255 255 
255 255 255 255 255 255 255 255 255 255 255 255 255 255 255 255 255 255 255 255 255 255 255 255 255 255 255 255 255 255 255 255 255 255 255 255 255 255 255 255 255 255 255 255 255 255 255 255 255 255 255 255 255 255 255 255 255 255 255 255 255 255 255 255 255 255 255 255 255 255 255 255 255 255 255 255 255 255 255 255 255 255 255 255 255 255 254 243 226 221 220 219 218 218 218 218 218 217 208 210 223 244 249 238 216 192 175 168 166 162 154 141 115 94 79 83 89 96 101 104 108 108 105 99 91 82 78 82 95 121 140 155 156 161 165 166 165 165 166 166 166 168 168 168 166 166 164 138 86 108 140 158 171 184 209 235 246 249 249 222 136 83 83 100 113 113 103 110 92 81 89 169 243 247 246 245 245 243 240 238 235 232 230 225 221 215 203 153 160 185 184 163 162 161 159 158 171 239 254 254 255 255 255 255 255 255 255 255 255 255 255 255 255 255 255 255 255 255 255 255 255 255 255 255 255 255 255 255 255 255 255 255 255 255 255 255 255 255 255 255 255 255 255 255 255 255 255 255 255 255 255 255 255 255 255 255 255 255 255 255 255 255 255 255 255 255 255 255 255 255 255 255 255 255 255 255 255 255 255 255 255 255 255 255 255 255 255 255 255 255 255 255 255 255 255 255 255 255 255 255 
255 255 255 255 255 255 255 255 255 255 255 255 255 255 255 255 255 255 255 255 255 255 255 255 255 255 255 255 255 255 255 255 255 255 255 255 255 255 255 255 255 255 255 255 255 255 255 255 255 255 255 255 255 255 255 255 255 255 255 255 255 255 255 255 255 255 255 255 255 255 255 255 255 255 255 255 255 255 255 255 255 255 255 255 255 254 247 229 222 220 219 218 218 218 218 218 218 206 205 226 246 250 240 218 190 173 168 165 156 144 115 94 85 95 105 113 117 119 121 123 125 126 127 126 124 119 111 98 86 85 97 127 146 158 157 164 165 166 167 167 166 167 168 167 166 165 163 129 87 112 138 157 174 194 222 241 248 249 241 162 102 106 100 120 119 117 111 122 103 90 80 99 193 246 247 246 245 243 241 239 236 233 231 226 222 216 206 167 155 183 191 165 163 162 159 157 164 230 254 254 255 255 255 255 255 255 255 255 255 255 255 255 255 255 255 255 255 255 255 255 255 255 255 255 255 255 255 255 255 255 255 255 255 255 255 255 255 255 255 255 255 255 255 255 255 255 255 255 255 255 255 255 255 255 255 255 255 255 255 255 255 255 255 255 255 255 255 255 255 255 255 255 255 255 255 255 255 255 255 255 255 255 255 255 255 255 255 255 255 255 255 255 255 255 255 255 255 255 255 255 
255 255 255 255 255 255 255 255 255 255 255 255 255 255 255 255 255 255 255 255 255 255 255 255 255 255 255 255 255 255 255 255 255 255 255 255 255 255 255 255 255 255 255 255 255 255 255 255 255 255 255 255 255 255 255 255 255 255 255 255 255 255 255 255 255 255 255 255 255 255 255 255 255 255 255 255 255 255 255 255 255 255 255 255 254 251 233 222 220 220 219 218 219 218 219 218 217 203 218 246 252 240 219 193 173 167 163 154 129 100 85 97 108 113 117 121 125 131 136 141 144 147 147 147 145 141 136 130 119 100 83 89 112 145 158 156 164 166 166 167 166 166 166 166 165 165 163 123 88 116 139 159 175 198 229 244 249 249 211 117 104 122 119 106 91 93 92 100 113 116 102 96 135 235 247 246 245 243 241 239 237 234 231 227 222 216 209 180 155 181 195 167 163 162 160 158 160 222 254 254 255 255 255 255 255 255 255 255 255 255 255 255 255 255 255 255 255 255 255 255 255 255 255 255 255 255 255 255 255 255 255 255 255 255 255 255 255 255 255 255 255 255 255 255 255 255 255 255 255 255 255 255 255 255 255 255 255 255 255 255 255 255 255 255 255 255 255 255 255 255 255 255 255 255 255 255 255 255 255 255 255 255 255 255 255 255 255 255 255 255 255 255 255 255 255 255 255 255 255 255 
255 255 255 255 255 255 255 255 255 255 255 255 255 255 255 255 255 255 255 255 255 255 255 255 255 255 255 255 255 255 255 255 255 255 255 255 255 255 255 255 255 255 255 255 255 255 255 255 255 255 255 255 255 255 255 255 255 255 255 255 255 255 255 255 255 255 255 255 255 255 255 255 255 255 255 255 255 255 255 255 255 254 254 255 254 238 223 221 220 219 218 219 219 218 218 218 217 218 240 253 244 223 195 175 167 163 153 116 91 91 105 110 117 125 133 140 146 151 156 159 163 164 165 164 163 159 155 150 144 135 116 95 87 108 146 158 158 163 165 166 166 165 165 164 164 165 163 121 91 118 140 160 176 205 234 246 250 247 172 97 123 168 147 88 68 65 64 70 102 131 126 112 99 204 246 247 246 243 241 239 237 234 231 228 223 217 211 189 158 181 197 168 163 162 159 157 158 215 254 254 255 255 255 255 255 255 255 255 255 255 255 255 255 255 255 255 255 255 255 255 255 255 255 255 255 255 255 255 255 255 255 255 255 255 255 255 255 255 255 255 255 255 255 255 255 255 255 255 255 255 255 255 255 255 255 255 255 255 255 255 255 255 255 255 255 255 255 255 255 255 255 255 255 255 255 255 255 255 255 255 255 255 255 255 255 255 255 255 255 255 255 255 255 255 255 255 255 255 255 255 
255 255 255 255 255 255 255 255 255 255 255 255 255 255 255 255 255 255 255 255 255 255 255 255 255 255 255 255 255 255 255 255 255 255 255 255 255 255 255 255 255 255 255 255 255 255 255 255 255 255 255 255 255 255 255 255 255 255 255 255 255 255 255 255 255 255 255 255 255 255 255 255 255 255 255 255 255 255 255 255 255 254 254 254 244 226 222 221 219 219 218 219 219 218 218 217 215 234 253 249 228 201 177 169 164 153 113 87 97 102 112 123 136 143 151 158 164 169 174 179 184 189 192 195 196 194 190 186 179 170 157 142 116 96 108 146 160 160 163 165 166 165 165 164 164 165 163 122 93 123 143 162 178 212 237 246 250 242 141 101 159 231 187 90 64 62 61 60 84 131 146 115 88 176 245 247 245 243 241 239 237 234 231 227 223 217 211 194 163 181 198 169 164 161 159 156 158 213 254 255 255 255 255 255 255 255 255 255 255 255 255 255 255 255 255 255 255 255 255 255 255 255 255 255 255 255 255 255 255 255 255 255 255 255 255 255 255 255 255 255 255 255 255 255 255 255 255 255 255 255 255 255 255 255 255 255 255 255 255 255 255 255 255 255 255 255 255 255 255 255 255 255 255 255 255 255 255 255 255 255 255 255 255 255 255 255 255 255 255 255 255 255 255 255 255 255 255 255 255 255 
255 255 255 255 255 255 255 255 255 255 255 255 255 255 255 255 255 255 255 255 255 255 255 255 255 255 255 255 255 255 255 255 255 255 255 255 255 255 255 255 255 255 255 255 255 255 255 255 255 255 255 255 255 255 255 255 255 255 255 255 255 255 255 255 255 255 255 255 255 255 255 255 255 255 255 255 255 255 255 255 255 255 254 251 232 223 221 220 219 219 219 219 218 218 218 216 227 251 252 238 211 182 169 165 154 114 89 97 102 114 132 143 151 159 167 175 182 191 200 210 219 225 228 231 231 231 229 226 222 215 204 190 173 141 104 110 150 160 159 164 166 165 165 164 165 165 164 128 95 126 145 161 181 218 240 246 250 237 121 93 143 194 156 82 66 64 62 61 80 122 136 112 95 162 244 246 245 244 242 239 237 234 231 227 223 217 210 196 166 181 199 169 163 161 158 155 158 215 254 255 255 255 255 255 255 255 255 255 255 255 255 255 255 255 255 255 255 255 255 255 255 255 255 255 255 255 255 255 255 255 255 255 255 255 255 255 255 255 255 255 255 255 255 255 255 255 255 255 255 255 255 255 255 255 255 255 255 255 255 255 255 255 255 255 255 255 255 255 255 255 255 255 255 255 255 255 255 255 255 255 255 255 255 255 255 255 255 255 255 255 255 255 255 255 255 255 255 255 255 255 
255 255 255 255 255 255 255 255 255 255 255 255 255 255 255 255 255 255 255 255 255 255 255 255 255 255 255 255 255 255 255 255 255 255 255 255 255 255 255 255 255 255 255 255 255 255 255 255 255 255 255 255 255 255 255 255 255 255 255 255 255 255 255 255 255 255 255 255 255 255 255 255 255 255 255 255 255 255 255 255 255 254 254 240 224 222 220 219 219 219 219 219 218 218 217 218 243 254 245 221 189 170 166 154 122 94 95 102 119 137 149 158 166 175 183 195 209 221 231 237 241 243 243 243 243 242 240 239 237 233 229 223 213 196 163 118 117 153 161 160 166 165 165 164 165 165 164 136 96 126 149 165 186 222 241 246 249 239 127 86 116 131 102 72 68 66 65 64 96 157 173 145 111 167 244 246 245 243 241 239 237 234 231 227 222 216 209 196 169 182 198 169 163 161 157 154 159 217 254 254 255 255 255 255 255 255 255 255 255 255 255 255 255 255 255 255 255 255 255 255 255 255 255 255 255 255 255 255 255 255 255 255 255 255 255 255 255 255 255 255 255 255 255 255 255 255 255 255 255 255 255 255 255 255 255 255 255 255 255 255 255 255 255 255 255 255 255 255 255 255 255 255 255 255 255 255 255 255 255 255 255 255 255 255 255 255 255 255 255 255 255 255 255 255 255 255 255 255 255 255 
255 255 255 255 255 255 255 255 255 255 255 255 255 255 255 255 255 255 255 255 255 255 255 255 255 255 255 255 255 255 255 255 255 255 255 255 255 255 255 255 255 255 255 255 255 255 255 255 255 255 255 255 255 255 255 255 255 255 255 255 255 255 255 255 255 255 255 255 255 255 255 255 255 255 255 255 255 255 255 255 255 254 248 228 222 221 219 218 219 219 219 219 218 217 218 232 253 251 233 203 175 167 160 135 99 91 98 121 140 150 161 170 180 192 207 221 234 241 245 246 247 247 247 246 246 245 244 243 241 239 237 233 229 222 210 178 127 125 159 164 162 166 165 165 164 164 164 146 99 123 150 165 188 223 241 247 250 246 158 85 108 123 104 82 71 68 67 77 126 183 194 152 111 187 245 246 245 243 241 239 236 233 230 226 221 215 207 194 169 182 196 167 163 160 156 153 160 218 254 254 255 255 255 255 255 255 255 255 255 255 255 255 255 255 255 255 255 255 255 255 255 255 255 255 255 255 255 255 255 255 255 255 255 255 255 255 255 255 255 255 255 255 255 255 255 255 255 255 255 255 255 255 255 255 255 255 255 255 255 255 255 255 255 255 255 255 255 255 255 255 255 255 255 255 255 255 255 255 255 255 255 255 255 255 255 255 255 255 255 255 255 255 255 255 255 255 255 255 255 255 
255 255 255 255 255 255 255 255 255 255 255 255 255 255 255 255 255 255 255 255 255 255 255 255 255 255 255 255 255 255 255 255 255 255 255 255 255 255 255 255 255 255 255 255 255 255 255 255 255 255 255 255 255 255 255 255 255 255 255 255 255 255 255 255 255 255 255 255 255 255 255 255 255 255 255 255 255 255 255 255 254 253 237 222 221 220 219 218 219 219 218 218 218 219 224 245 254 245 219 187 169 165 150 104 85 95 119 141 152 163 173 184 198 215 232 241 246 248 249 248 249 248 248 247 247 247 246 245 244 243 241 238 234 230 224 214 179 127 136 161 166 165 165 164 164 164 164 156 106 117 147 163 186 222 240 245 248 249 197 94 104 129 120 109 93 84 88 111 160 172 167 132 119 215 246 245 244 242 240 238 235 232 229 225 220 214 206 191 171 188 193 164 161 159 154 153 163 223 254 255 255 255 255 255 255 255 255 255 255 255 255 255 255 255 255 255 255 255 255 255 255 255 255 255 255 255 255 255 255 255 255 255 255 255 255 255 255 255 255 255 255 255 255 255 255 255 255 255 255 255 255 255 255 255 255 255 255 255 255 255 255 255 255 255 255 255 255 255 255 255 255 255 255 255 255 255 255 255 255 255 255 255 255 255 255 255 255 255 255 255 255 255 255 255 255 255 255 255 255 255 
255 255 255 255 255 255 255 255 255 255 255 255 255 255 255 255 255 255 255 255 255 255 255 255 255 255 255 255 255 255 255 255 255 255 255 255 255 255 255 255 255 255 255 255 255 255 255 255 255 255 255 255 255 255 255 255 255 255 255 255 255 255 255 255 255 255 255 255 255 255 255 255 255 255 255 255 255 255 254 254 254 246 227 221 220 219 219 219 219 219 218 218 218 224 233 253 252 233 200 175 167 159 121 81 90 113 138 151 163 173 186 202 221 236 245 248 249 250 249 250 250 250 249 249 249 248 247 246 245 243 241 239 237 234 230 224 213 165 122 148 168 165 165 164 164 164 164 162 119 110 141 160 183 220 238 244 247 250 237 139 90 114 132 142 139 126 133 149 178 171 143 108 158 240 246 245 244 242 239 237 234 231 228 223 218 211 205 186 173 195 187 164 161 158 153 153 168 232 254 255 255 255 255 255 255 255 255 255 255 255 255 255 255 255 255 255 255 255 255 255 255 255 255 255 255 255 255 255 255 255 255 255 255 255 255 255 255 255 255 255 255 255 255 255 255 255 255 255 255 255 255 255 255 255 255 255 255 255 255 255 255 255 255 255 255 255 255 255 255 255 255 255 255 255 255 255 255 255 255 255 255 255 255 255 255 255 255 255 255 255 255 255 255 255 255 255 255 255 255 255 
255 255 255 255 255 255 255 255 255 255 255 255 255 255 255 255 255 255 255 255 255 255 255 255 255 255 255 255 255 255 255 255 255 255 255 255 255 255 255 255 255 255 255 255 255 255 255 255 255 255 255 255 255 255 255 255 255 255 255 255 255 255 255 255 255 255 255 255 255 255 255 255 255 255 255 255 255 255 255 254 253 237 223 221 219 219 219 219 219 218 218 218 221 226 241 254 247 219 184 169 164 148 91 83 105 132 148 161 172 184 202 223 239 247 249 250 250 250 250 250 251 250 250 250 250 249 247 246 245 244 242 240 237 235 232 229 224 204 142 128 165 170 165 164 164 164 164 164 135 104 130 152 177 215 236 242 246 249 248 205 114 87 118 133 147 136 142 145 150 138 114 132 215 245 246 244 242 240 238 236 233 230 226 221 216 207 203 180 174 200 178 163 160 156 151 154 177 242 254 255 255 255 255 255 255 255 255 255 255 255 255 255 255 255 255 255 255 255 255 255 255 255 255 255 255 255 255 255 255 255 255 255 255 255 255 255 255 255 255 255 255 255 255 255 255 255 255 255 255 255 255 255 255 255 255 255 255 255 255 255 255 255 255 255 255 255 255 255 255 255 255 255 255 255 255 255 255 255 255 255 255 255 255 255 255 255 255 255 255 255 255 255 255 255 255 255 255 255 255 255 
255 255 255 255 255 255 255 255 255 255 255 255 255 255 255 255 255 255 255 255 255 255 255 255 255 255 255 255 255 255 255 255 255 255 255 255 255 255 255 255 255 255 255 255 255 255 255 255 255 255 255 255 255 255 255 255 255 255 255 255 255 255 255 255 255 255 255 255 255 255 255 255 255 255 255 255 255 255 255 254 248 228 222 220 219 218 219 219 219 218 218 217 226 227 249 253 240 206 176 166 160 121 75 94 122 144 157 170 183 199 221 239 247 250 250 250 251 251 250 250 250 247 244 244 246 249 248 247 246 245 244 242 239 237 234 231 228 216 181 129 148 172 167 162 162 164 164 164 152 108 119 144 167 207 232 240 244 246 247 245 192 111 79 92 111 107 118 109 91 82 122 200 244 246 245 243 241 239 236 234 231 228 223 218 212 204 199 176 180 198 169 162 159 154 147 156 193 250 255 254 254 254 255 255 255 255 255 255 255 255 255 255 255 255 255 255 255 255 255 255 255 255 255 255 255 255 255 255 255 255 255 255 255 255 255 255 255 255 255 255 255 255 255 255 255 255 255 255 255 255 255 255 255 255 255 255 255 255 255 255 255 255 255 255 255 255 255 255 255 255 255 255 255 255 255 255 255 255 255 255 255 255 255 255 255 255 255 255 255 255 255 255 255 255 255 255 255 255 255 255 
255 255 255 255 255 255 255 255 255 255 255 255 255 255 255 255 255 255 255 255 255 255 255 255 255 255 255 255 255 255 255 255 255 255 255 255 255 255 255 255 255 255 255 255 255 255 255 255 255 255 255 255 255 255 255 255 255 255 255 255 255 255 255 255 255 255 255 255 255 255 255 255 255 255 255 255 255 254 254 254 238 223 221 220 219 218 219 219 218 218 218 220 227 231 253 250 229 195 170 165 156 97 82 107 136 153 165 178 193 216 237 247 250 250 251 251 251 251 249 233 195 163 145 144 162 198 234 246 247 246 245 243 240 238 235 233 230 222 206 154 134 171 173 161 162 163 164 164 163 127 110 133 156 197 227 237 242 245 246 247 245 213 149 97 74 70 75 81 97 150 215 244 245 244 243 241 239 237 235 233 230 225 221 216 208 202 192 172 191 190 165 161 157 151 145 161 213 254 254 254 254 254 254 255 255 255 255 255 255 255 255 255 255 255 255 255 255 255 255 255 255 255 255 255 255 255 255 255 255 255 255 255 255 255 255 255 255 255 255 255 255 255 255 255 255 255 255 255 255 255 255 255 255 255 255 255 255 255 255 255 255 255 255 255 255 255 255 255 255 255 255 255 255 255 255 255 255 255 255 255 255 255 255 255 255 255 255 255 255 255 255 255 255 255 255 255 255 255 255 255 
255 255 255 255 255 255 255 255 255 255 255 255 255 255 255 255 255 255 255 255 255 255 255 255 255 255 255 255 255 255 255 255 255 255 255 255 255 255 255 255 255 255 255 255 255 255 255 255 255 255 255 255 255 255 255 255 255 255 255 255 255 255 255 255 255 255 255 255 255 255 255 255 255 255 255 255 255 254 254 250 230 222 220 219 219 218 219 218 218 218 217 214 211 237 254 246 219 185 166 163 142 80 91 122 146 160 172 187 208 232 245 250 251 251 252 251 251 246 191 126 89 88 90 88 86 93 130 192 243 246 246 244 242 239 237 235 231 226 215 187 143 163 176 166 165 164 164 164 164 147 112 124 146 185 221 234 239 243 245 246 246 246 242 218 188 169 169 188 218 241 245 245 245 243 242 240 238 236 233 232 228 223 219 212 204 200 182 172 195 174 163 159 155 147 146 169 225 254 254 254 254 254 255 255 255 255 255 255 255 255 255 255 255 255 255 255 255 255 255 255 255 255 255 255 255 255 255 255 255 255 255 255 255 255 255 255 255 255 255 255 255 255 255 255 255 255 255 255 255 255 255 255 255 255 255 255 255 255 255 255 255 255 255 255 255 255 255 255 255 255 255 255 255 255 255 255 255 255 255 255 255 255 255 255 255 255 255 255 255 255 255 255 255 255 255 255 255 255 255 255 
255 255 255 255 255 255 255 255 255 255 255 255 255 255 255 255 255 255 255 255 255 255 255 255 255 255 255 255 255 255 255 255 255 255 255 255 255 255 255 255 255 255 255 255 255 255 255 255 255 255 255 255 255 255 255 255 255 255 255 255 255 255 255 255 255 255 255 255 255 255 255 255 255 255 255 255 254 254 254 243 224 221 219 218 218 219 219 218 218 217 216 208 211 243 254 241 209 176 165 161 124 78 105 143 161 169 180 198 223 242 249 250 251 251 252 251 247 176 100 84 95 99 110 112 116 101 82 97 174 242 246 245 243 240 238 235 231 227 220 204 160 153 180 171 165 164 164 164 164 162 130 115 137 171 212 230 235 240 243 245 245 246 246 246 246 245 245 245 245 246 245 245 244 242 240 238 236 234 232 229 225 221 215 208 203 194 173 188 191 165 162 157 151 142 152 170 211 253 254 254 254 255 255 255 255 255 255 255 255 255 255 255 255 255 255 255 255 255 255 255 255 255 255 255 255 255 255 255 255 255 255 255 255 255 255 255 255 255 255 255 255 255 255 255 255 255 255 255 255 255 255 255 255 255 255 255 255 255 255 255 255 255 255 255 255 255 255 255 255 255 255 255 255 255 255 255 255 255 255 255 255 255 255 255 255 255 255 255 255 255 255 255 255 255 255 255 255 255 255 255 
255 255 255 255 255 255 255 255 255 255 255 255 255 255 255 255 255 255 255 255 255 255 255 255 255 255 255 255 255 255 255 255 255 255 255 255 255 255 255 255 255 255 255 255 255 255 255 255 255 255 255 255 255 255 255 255 255 255 255 255 255 255 255 255 255 255 255 255 255 255 255 255 255 255 255 255 254 254 253 235 222 221 219 218 218 219 219 218 217 216 216 200 213 245 253 237 202 172 164 160 109 83 118 149 165 179 190 211 234 247 250 250 251 251 252 250 195 103 106 106 109 109 122 121 138 116 93 78 96 187 245 245 243 241 239 236 232 228 222 210 178 154 183 179 165 162 164 164 164 164 152 121 127 155 198 224 232 236 240 243 244 245 246 246 246 245 246 246 245 244 243 242 241 239 237 236 234 232 229 226 222 217 211 204 200 181 172 191 172 162 159 154 146 140 161 170 190 248 254 254 254 255 255 255 255 255 255 255 255 255 255 255 255 255 255 255 255 255 255 255 255 255 255 255 255 255 255 255 255 255 255 255 255 255 255 255 255 255 255 255 255 255 255 255 255 255 255 255 255 255 255 255 255 255 255 255 255 255 255 255 255 255 255 255 255 255 255 255 255 255 255 255 255 255 255 255 255 255 255 255 255 255 255 255 255 255 255 255 255 255 255 255 255 255 255 255 255 255 255 255 
255 255 255 255 255 255 255 255 255 255 255 255 255 255 255 255 255 255 255 255 255 255 255 255 255 255 255 255 255 255 255 255 255 255 255 255 255 255 255 255 255 255 255 255 255 255 255 255 255 255 255 255 255 255 255 255 255 255 255 255 255 255 255 255 255 255 255 255 255 255 255 255 255 255 255 255 254 254 249 227 222 220 218 218 218 218 219 218 217 217 221 211 217 247 251 230 196 169 164 158 98 90 128 149 164 180 198 225 243 249 250 250 251 252 252 237 140 102 131 121 111 98 100 100 119 125 121 100 94 124 225 245 244 242 239 236 233 229 223 214 194 159 178 186 166 163 164 164 164 164 163 141 120 140 180 215 228 233 237 240 242 243 243 244 244 244 244 244 243 242 241 240 239 238 236 234 232 230 227 224 219 213 207 203 191 171 191 185 162 159 157 150 139 145 168 166 173 235 254 254 255 255 255 255 255 255 255 255 255 255 255 255 255 255 255 255 255 255 255 255 255 255 255 255 255 255 255 255 255 255 255 255 255 255 255 255 255 255 255 255 255 255 255 255 255 255 255 255 255 255 255 255 255 255 255 255 255 255 255 255 255 255 255 255 255 255 255 255 255 255 255 255 255 255 255 255 255 255 255 255 255 255 255 255 255 255 255 255 255 255 255 255 255 255 255 255 255 255 255 255 
255 255 255 255 255 255 255 255 255 255 255 255 255 255 255 255 255 255 255 255 255 255 255 255 255 255 255 255 255 255 255 255 255 255 255 255 255 255 255 255 255 255 255 255 255 255 255 255 255 255 255 255 255 255 255 255 255 255 255 255 255 255 255 255 255 255 255 255 255 255 255 255 255 255 255 255 255 254 242 223 221 219 217 217 218 218 218 217 217 216 226 228 223 249 250 226 191 168 164 154 92 96 134 152 166 181 204 232 246 250 250 251 252 253 252 204 107 124 161 159 114 72 64 66 82 119 144 132 122 94 183 244 244 242 240 237 233 229 224 217 201 163 171 190 168 165 164 164 164 163 164 162 136 126 159 200 221 228 233 236 238 241 241 241 241 242 241 241 240 240 239 239 237 236 234 232 230 227 224 220 215 209 204 197 173 180 188 165 160 157 153 142 134 157 169 163 164 214 254 254 255 255 255 255 255 255 255 255 255 255 255 255 255 255 255 255 255 255 255 255 255 255 255 255 255 255 255 255 255 255 255 255 255 255 255 255 255 255 255 255 255 255 255 255 255 255 255 255 255 255 255 255 255 255 255 255 255 255 255 255 255 255 255 255 255 255 255 255 255 255 255 255 255 255 255 255 255 255 255 255 255 255 255 255 255 255 255 255 255 255 255 255 255 255 255 255 255 255 255 255 
255 255 255 255 255 255 255 255 255 255 255 255 255 255 255 255 255 255 255 255 255 255 255 255 255 255 255 255 255 255 255 255 255 255 255 255 255 255 255 255 255 255 255 255 255 255 255 255 255 255 255 255 255 255 255 255 255 255 255 255 255 255 255 255 255 255 255 255 255 255 255 255 255 255 255 255 255 253 235 222 220 218 217 217 217 218 218 217 216 215 228 232 222 249 248 222 186 166 164 151 90 100 134 151 167 184 211 236 247 250 250 251 252 253 250 175 97 137 209 215 117 63 57 57 60 91 146 164 146 98 150 240 245 243 240 237 234 230 225 219 205 171 168 194 171 165 164 163 163 163 163 164 160 138 138 179 209 222 228 232 235 237 238 239 239 239 239 238 238 237 237 236 234 234 232 230 227 224 221 216 210 205 199 182 177 186 168 162 158 154 146 134 142 166 163 162 163 193 250 254 255 255 255 255 255 255 255 255 255 255 255 255 255 255 255 255 255 255 255 255 255 255 255 255 255 255 255 255 255 255 255 255 255 255 255 255 255 255 255 255 255 255 255 255 255 255 255 255 255 255 255 255 255 255 255 255 255 255 255 255 255 255 255 255 255 255 255 255 255 255 255 255 255 255 255 255 255 255 255 255 255 255 255 255 255 255 255 255 255 255 255 255 255 255 255 255 255 255 255 255 
255 255 255 255 255 255 255 255 255 255 255 255 255 255 255 255 255 255 255 255 255 255 255 255 255 255 255 255 255 255 255 255 255 255 255 255 255 255 255 255 255 255 255 255 255 255 255 255 255 255 255 255 255 255 255 255 255 255 255 255 255 255 255 255 255 255 255 255 255 255 255 255 255 255 255 255 255 250 228 221 219 217 216 217 217 216 208 206 204 212 227 231 220 248 245 217 183 166 164 150 90 103 135 153 170 190 219 240 248 250 251 252 253 253 248 154 93 136 196 195 103 62 58 58 59 86 139 162 139 101 131 235 245 242 240 237 234 230 225 219 208 178 167 194 174 165 165 164 163 163 163 164 164 160 143 155 193 214 222 227 231 233 235 236 236 236 236 235 235 235 234 233 232 231 229 226 224 221 217 213 206 199 187 180 182 172 162 159 154 147 135 133 163 167 160 162 162 175 239 254 255 255 255 255 255 255 255 255 255 255 255 255 255 255 255 255 255 255 255 255 255 255 255 255 255 255 255 255 255 255 255 255 255 255 255 255 255 255 255 255 255 255 255 255 255 255 255 255 255 255 255 255 255 255 255 255 255 255 255 255 255 255 255 255 255 255 255 255 255 255 255 255 255 255 255 255 255 255 255 255 255 255 255 255 255 255 255 255 255 255 255 255 255 255 255 255 255 255 255 255 
255 255 255 255 255 255 255 255 255 255 255 255 255 255 255 255 255 255 255 255 255 255 255 255 255 255 255 255 255 255 255 255 255 255 255 255 255 255 255 255 255 255 255 255 255 255 255 255 255 255 255 255 255 255 255 255 255 255 255 255 255 255 255 255 255 255 255 255 255 255 255 255 255 255 255 255 254 246 225 221 218 217 217 216 208 191 190 178 137 141 209 229 215 245 244 216 182 166 163 151 91 106 143 158 173 194 224 242 249 250 251 252 252 252 248 155 94 129 142 115 71 59 58 58 60 85 149 174 156 123 134 234 245 243 240 237 234 230 225 219 210 183 166 196 175 165 164 163 163 162 162 163 164 164 163 156 172 200 214 220 225 229 232 233 233 233 233 232 232 232 231 230 229 228 226 225 222 220 214 207 198 190 186 181 171 163 160 156 149 138 129 153 169 158 159 161 162 165 221 254 254 254 255 255 255 255 255 255 255 255 255 255 255 255 255 255 255 255 255 255 255 255 255 255 255 255 255 255 255 255 255 255 255 255 255 255 255 255 255 255 255 255 255 255 255 255 255 255 255 255 255 255 255 255 255 255 255 255 255 255 255 255 255 255 255 255 255 255 255 255 255 255 255 255 255 255 255 255 255 255 255 255 255 255 255 255 255 255 255 255 255 255 255 255 255 255 255 255 255 255 
255 255 255 255 255 255 255 255 255 255 255 255 255 255 255 255 255 255 255 255 255 255 255 255 255 255 255 255 255 255 255 255 255 255 255 255 255 255 255 255 255 255 255 255 255 255 255 255 255 255 255 255 255 255 255 255 255 255 255 255 255 255 255 255 255 255 255 255 255 255 255 255 255 255 255 255 254 240 223 220 217 216 216 213 197 212 211 149 104 72 161 224 210 239 240 214 181 166 164 153 94 104 145 160 174 197 228 244 248 250 250 251 251 252 250 173 92 115 132 102 69 59 58 58 57 111 194 220 193 134 150 238 244 242 239 237 234 229 224 218 211 184 168 198 175 165 164 163 161 160 161 161 162 163 164 165 167 184 202 212 220 225 228 230 230 231 231 231 230 231 230 229 229 228 227 225 220 214 206 199 193 191 181 169 163 160 157 150 140 128 142 167 159 156 158 160 161 162 201 252 254 254 255 255 255 255 255 255 255 255 255 255 255 255 255 255 255 255 255 255 255 255 255 255 255 255 255 255 255 255 255 255 255 255 255 255 255 255 255 255 255 255 255 255 255 255 255 255 255 255 255 255 255 255 255 255 255 255 255 255 255 255 255 255 255 255 255 255 255 255 255 255 255 255 255 255 255 255 255 255 255 255 255 255 255 255 255 255 255 255 255 255 255 255 255 255 255 255 255 255 
255 255 255 255 255 255 255 255 255 255 255 255 255 255 255 255 255 255 255 255 255 255 255 255 255 255 255 255 255 255 255 255 255 255 255 255 255 255 255 255 255 255 255 255 255 255 255 255 255 255 255 255 255 255 255 255 255 255 255 255 255 255 255 255 255 255 255 255 255 255 255 255 255 255 255 255 253 235 222 219 216 215 215 198 174 186 198 145 110 67 132 212 205 230 239 214 181 166 164 157 100 103 142 161 177 201 231 245 248 249 250 251 251 251 251 206 100 112 143 125 97 73 64 65 88 158 202 211 178 125 176 244 244 242 239 236 233 229 223 217 211 185 172 203 175 166 164 162 159 157 157 159 161 162 164 165 165 171 186 200 208 217 223 227 229 230 231 231 231 231 230 229 227 224 221 216 212 206 203 200 192 179 166 163 160 157 151 140 127 139 165 160 154 155 157 159 161 162 182 245 254 254 255 255 255 255 255 255 255 255 255 255 255 255 255 255 255 255 255 255 255 255 255 255 255 255 255 255 255 255 255 255 255 255 255 255 255 255 255 255 255 255 255 255 255 255 255 255 255 255 255 255 255 255 255 255 255 255 255 255 255 255 255 255 255 255 255 255 255 255 255 255 255 255 255 255 255 255 255 255 255 255 255 255 255 255 255 255 255 255 255 255 255 255 255 255 255 255 255 255 
255 255 255 255 255 255 255 255 255 255 255 255 255 255 255 255 255 255 255 255 255 255 255 255 255 255 255 255 255 255 255 255 255 255 255 255 255 255 255 255 255 255 255 255 255 255 255 255 255 255 255 255 255 255 255 255 255 255 255 255 255 255 255 255 255 255 255 255 255 255 255 255 255 255 255 255 251 229 220 217 216 215 215 201 182 163 176 153 116 74 124 201 199 216 237 215 183 166 164 161 109 100 139 161 176 203 232 245 249 250 250 250 251 252 252 240 142 100 133 147 142 131 112 118 143 190 200 182 147 126 210 245 244 242 239 235 232 228 222 216 211 183 174 203 171 165 163 160 157 150 148 152 156 159 161 163 165 165 168 180 192 203 208 214 218 221 224 226 225 224 223 221 219 215 212 210 209 205 197 184 171 165 163 159 154 148 138 125 131 154 156 150 153 155 156 159 161 162 169 230 254 254 254 255 255 255 255 255 255 255 255 255 255 255 255 255 255 255 255 255 255 255 255 255 255 255 255 255 255 255 255 255 255 255 255 255 255 255 255 255 255 255 255 255 255 255 255 255 255 255 255 255 255 255 255 255 255 255 255 255 255 255 255 255 255 255 255 255 255 255 255 255 255 255 255 255 255 255 255 255 255 255 255 255 255 255 255 255 255 255 255 255 255 255 255 255 255 255 255 255 
255 255 255 255 255 255 255 255 255 255 255 255 255 255 255 255 255 255 255 255 255 255 255 255 255 255 255 255 255 255 255 255 255 255 255 255 255 255 255 255 255 255 255 255 255 255 255 255 255 255 255 255 255 255 255 255 255 255 255 255 255 255 255 255 255 255 255 255 255 255 255 255 255 255 255 255 249 226 219 217 215 214 214 205 187 171 162 158 118 78 119 186 189 198 230 215 186 166 164 163 124 96 134 160 175 202 232 243 248 250 250 250 251 251 251 251 204 112 105 143 163 171 151 160 174 193 187 159 114 166 241 245 243 241 238 234 231 227 220 215 208 177 176 201 168 165 162 159 152 141 130 135 144 151 157 160 163 164 166 166 170 179 190 200 206 209 212 213 213 214 214 213 212 209 208 202 193 181 171 167 164 162 158 151 143 134 126 137 159 147 144 151 153 154 156 159 161 162 164 211 253 254 255 255 255 255 255 255 255 255 255 255 255 255 255 255 255 255 255 255 255 255 255 255 255 255 255 255 255 255 255 255 255 255 255 255 255 255 255 255 255 255 255 255 255 255 255 255 255 255 255 255 255 255 255 255 255 255 255 255 255 255 255 255 255 255 255 255 255 255 255 255 255 255 255 255 255 255 255 255 255 255 255 255 255 255 255 255 255 255 255 255 255 255 255 255 255 255 255 255 
255 255 255 255 255 255 255 255 255 255 255 255 255 255 255 255 255 255 255 255 255 255 255 255 255 255 255 255 255 255 255 255 255 255 255 255 255 255 255 255 255 255 255 255 255 255 255 255 255 255 255 255 255 255 255 255 255 255 255 255 255 255 255 255 255 255 255 255 255 255 255 255 255 255 255 255 246 224 218 216 214 213 213 207 182 180 158 168 129 86 113 174 180 182 219 215 189 167 165 164 140 95 126 157 173 199 229 241 246 249 250 250 250 251 251 251 249 186 111 107 127 153 146 149 145 138 126 112 154 229 245 244 242 240 236 233 229 224 218 213 204 172 185 195 167 164 161 156 148 130 119 120 126 134 144 151 157 161 163 163 164 166 167 172 179 186 193 197 199 201 201 198 194 188 181 172 168 167 166 163 160 155 149 139 128 128 149 171 161 140 149 151 152 154 156 158 161 162 163 191 249 254 255 255 255 255 255 255 255 255 255 255 255 255 255 255 255 255 255 255 255 255 255 255 255 255 255 255 255 255 255 255 255 255 255 255 255 255 255 255 255 255 255 255 255 255 255 255 255 255 255 255 255 255 255 255 255 255 255 255 255 255 255 255 255 255 255 255 255 255 255 255 255 255 255 255 255 255 255 255 255 255 255 255 255 255 255 255 255 255 255 255 255 255 255 255 255 255 255 255 
255 255 255 255 255 255 255 255 255 255 255 255 255 255 255 255 255 255 255 255 255 255 255 255 255 255 255 255 255 255 255 255 255 255 255 255 255 255 255 255 255 255 255 255 255 255 255 255 255 255 255 255 255 255 255 255 255 255 255 255 255 255 255 255 255 255 255 255 255 255 255 255 255 255 255 254 242 222 217 215 213 213 211 184 146 181 162 167 149 103 109 166 175 171 201 213 193 170 165 166 156 105 115 152 170 194 226 240 245 248 249 250 250 250 250 251 251 248 194 128 88 96 98 104 105 85 102 160 229 245 244 243 240 238 234 231 227 222 215 213 200 170 196 184 166 163 159 154 141 126 150 164 144 126 123 132 141 150 156 157 159 163 164 165 166 166 167 168 169 170 170 169 169 167 167 166 165 163 161 157 151 142 131 121 133 162 174 162 148 150 150 151 152 154 156 158 161 162 163 174 237 254 255 255 255 255 255 255 255 255 255 255 255 255 255 255 255 255 255 255 255 255 255 255 255 255 255 255 255 255 255 255 255 255 255 255 255 255 255 255 255 255 255 255 255 255 255 255 255 255 255 255 255 255 255 255 255 255 255 255 255 255 255 255 255 255 255 255 255 255 255 255 255 255 255 255 255 255 255 255 255 255 255 255 255 255 255 255 255 255 255 255 255 255 255 255 255 255 255 255 
255 255 255 255 255 255 255 255 255 255 255 255 255 255 255 255 255 255 255 255 255 255 255 255 255 255 255 255 255 255 255 255 255 255 255 255 255 255 255 255 255 255 255 255 255 255 255 255 255 255 255 255 255 255 255 255 255 255 255 255 255 255 255 255 255 255 255 255 255 255 255 255 255 255 254 254 239 220 216 214 212 211 191 141 109 169 171 162 162 110 100 157 174 167 180 207 196 172 165 166 165 125 105 141 163 185 220 237 243 246 248 249 250 250 250 250 251 250 248 231 185 144 118 117 134 161 206 241 245 245 243 241 238 236 233 229 224 219 213 211 189 169 199 173 164 161 156 148 134 138 172 190 197 174 145 126 121 129 139 147 153 157 160 161 162 163 163 164 164 165 165 165 165 163 162 160 157 154 150 143 133 123 128 153 181 177 156 148 149 150 150 151 152 154 155 158 160 162 163 165 217 254 255 255 255 255 255 255 255 255 255 255 255 255 255 255 255 255 255 255 255 255 255 255 255 255 255 255 255 255 255 255 255 255 255 255 255 255 255 255 255 255 255 255 255 255 255 255 255 255 255 255 255 255 255 255 255 255 255 255 255 255 255 255 255 255 255 255 255 255 255 255 255 255 255 255 255 255 255 255 255 255 255 255 255 255 255 255 255 255 255 255 255 255 255 255 255 255 255 255 
255 255 255 255 255 255 255 255 255 255 255 255 255 255 255 255 255 255 255 255 255 255 255 255 255 255 255 255 255 255 255 255 255 255 255 255 255 255 255 255 255 255 255 255 255 255 255 255 255 255 255 255 255 255 255 255 255 255 255 255 255 255 255 255 255 255 255 255 255 255 255 255 255 255 254 254 236 219 215 213 210 188 143 102 93 147 184 158 162 123 96 146 179 175 166 189 195 174 164 166 166 146 103 126 152 175 212 234 240 244 246 247 248 249 250 250 250 250 250 250 248 244 237 236 240 244 246 246 245 244 241 239 237 234 230 226 221 215 211 206 178 183 196 167 163 159 153 141 132 156 121 91 136 184 200 182 154 132 122 126 133 140 145 150 153 155 156 157 157 158 159 159 157 155 152 148 143 136 130 126 131 152 181 193 175 153 148 148 149 150 151 151 152 154 155 157 159 162 163 163 196 251 254 255 255 255 255 255 255 255 255 255 255 255 255 255 255 255 255 255 255 255 255 255 255 255 255 255 255 255 255 255 255 255 255 255 255 255 255 255 255 255 255 255 255 255 255 255 255 255 255 255 255 255 255 255 255 255 255 255 255 255 255 255 255 255 255 255 255 255 255 255 255 255 255 255 255 255 255 255 255 255 255 255 255 255 255 255 255 255 255 255 255 255 255 255 255 255 255 255 
255 255 255 255 255 255 255 255 255 255 255 255 255 255 255 255 255 255 255 255 255 255 255 255 255 255 255 255 255 255 255 255 255 255 255 255 255 255 255 255 255 255 255 255 255 255 255 255 255 255 255 255 255 255 255 255 255 255 255 255 255 255 255 255 255 255 255 255 255 255 255 255 255 255 254 253 232 217 214 210 183 132 101 91 91 122 185 162 149 130 94 129 180 184 165 169 189 178 164 165 167 164 121 112 141 163 200 228 237 241 244 246 247 247 248 249 250 250 250 250 250 249 248 247 247 246 246 244 243 242 240 238 234 232 228 224 218 212 211 197 171 197 181 165 161 156 148 134 141 144 76 72 80 92 130 180 203 194 170 146 130 124 123 128 133 138 139 141 142 144 144 143 140 136 130 125 124 127 141 162 186 197 181 160 147 148 149 149 150 150 150 151 152 154 155 156 159 161 163 163 178 241 254 255 255 255 255 255 255 255 255 255 255 255 255 255 255 255 255 255 255 255 255 255 255 255 255 255 255 255 255 255 255 255 255 255 255 255 255 255 255 255 255 255 255 255 255 255 255 255 255 255 255 255 255 255 255 255 255 255 255 255 255 255 255 255 255 255 255 255 255 255 255 255 255 255 255 255 255 255 255 255 255 255 255 255 255 255 255 255 255 255 255 255 255 255 255 255 255 255 
255 255 255 255 255 255 255 255 255 255 255 255 255 255 255 255 255 255 255 255 255 255 255 255 255 255 255 255 255 255 255 255 255 255 255 255 255 255 255 255 255 255 255 255 255 255 255 255 255 255 255 255 255 255 255 255 255 255 255 255 255 255 255 255 255 255 255 255 255 255 255 255 255 254 254 252 229 216 209 177 126 100 98 91 84 95 169 181 158 120 78 105 170 190 173 156 174 177 165 164 166 166 145 110 128 152 186 221 233 238 242 245 245 246 246 247 247 248 248 247 247 247 247 247 246 246 245 243 241 239 237 235 232 229 225 220 214 211 206 183 183 197 168 163 158 153 140 132 157 114 45 43 62 81 89 102 126 171 204 205 192 173 155 141 133 130 125 124 123 123 124 124 125 129 135 147 164 183 199 197 178 158 144 145 147 149 149 150 150 150 151 151 152 153 154 156 158 161 163 163 166 224 254 254 255 255 255 255 255 255 255 255 255 255 255 255 255 255 255 255 255 255 255 255 255 255 255 255 255 255 255 255 255 255 255 255 255 255 255 255 255 255 255 255 255 255 255 255 255 255 255 255 255 255 255 255 255 255 255 255 255 255 255 255 255 255 255 255 255 255 255 255 255 255 255 255 255 255 255 255 255 255 255 255 255 255 255 255 255 255 255 255 255 255 255 255 255 255 255 255 
255 255 255 255 255 255 255 255 255 255 255 255 255 255 255 255 255 255 255 255 255 255 255 255 255 255 255 255 255 255 255 255 255 255 255 255 255 255 255 255 255 255 255 255 255 255 255 255 255 255 255 255 255 255 255 255 255 255 255 255 255 255 255 255 255 255 255 255 255 255 255 254 254 254 254 251 224 206 168 123 102 98 92 79 73 77 133 157 152 161 121 99 143 159 162 163 155 170 165 162 165 166 165 131 116 141 170 209 229 235 239 242 244 245 245 246 246 246 246 246 246 246 246 246 245 244 242 241 239 237 235 233 230 226 221 216 211 208 194 172 195 179 164 160 155 146 131 142 150 80 61 59 53 50 60 83 92 103 126 152 181 200 205 199 193 186 177 173 171 170 173 177 183 191 197 203 198 179 157 142 136 141 144 147 149 150 150 150 151 151 151 152 152 153 154 156 158 160 163 163 162 205 253 254 255 255 255 255 255 255 255 255 255 255 255 255 255 255 255 255 255 255 255 255 255 255 255 255 255 255 255 255 255 255 255 255 255 255 255 255 255 255 255 255 255 255 255 255 255 255 255 255 255 255 255 255 255 255 255 255 255 255 255 255 255 255 255 255 255 255 255 255 255 255 255 255 255 255 255 255 255 255 255 255 255 255 255 255 255 255 255 255 255 255 255 255 255 255 255 255 
255 255 255 255 255 255 255 255 255 255 255 255 255 255 255 255 255 255 255 255 255 255 255 255 255 255 255 255 255 255 255 255 255 255 255 255 255 255 255 255 255 255 255 255 255 255 255 255 255 255 255 255 255 255 255 255 255 255 255 255 255 255 255 255 255 255 255 255 255 255 255 255 254 254 254 249 210 160 125 109 100 87 82 72 69 91 106 148 170 195 160 95 128 154 151 173 151 157 164 161 163 165 166 158 126 128 154 192 221 231 235 239 241 242 244 244 244 244 245 245 245 244 244 243 242 241 240 239 237 235 233 230 227 222 218 213 209 200 176 189 194 166 162 157 150 137 130 164 122 69 70 71 72 70 64 58 59 73 93 107 119 130 147 165 180 189 189 195 199 199 198 191 184 175 156 134 118 115 125 137 141 144 146 148 149 150 151 151 151 151 151 152 152 153 154 155 157 159 162 162 162 185 247 254 254 255 255 255 255 255 255 255 255 255 255 255 255 255 255 255 255 255 255 255 255 255 255 255 255 255 255 255 255 255 255 255 255 255 255 255 255 255 255 255 255 255 255 255 255 255 255 255 255 255 255 255 255 255 255 255 255 255 255 255 255 255 255 255 255 255 255 255 255 255 255 255 255 255 255 255 255 255 255 255 255 255 255 255 255 255 255 255 255 255 255 255 255 255 255 255 
255 255 255 255 255 255 255 255 255 255 255 255 255 255 255 255 255 255 255 255 255 255 255 255 255 255 255 255 255 255 255 255 255 255 255 255 255 255 255 255 255 255 255 255 255 255 255 255 255 255 255 255 255 255 255 255 255 255 255 255 255 255 255 255 255 255 255 255 255 255 255 255 255 255 254 221 158 124 120 102 89 79 77 84 94 93 96 161 172 160 157 102 103 149 147 168 172 143 152 156 159 163 165 166 150 128 139 173 209 226 232 235 238 239 241 242 242 242 242 243 242 242 241 241 240 239 237 236 234 232 230 227 223 218 214 211 204 186 186 194 169 163 159 153 141 127 147 154 87 74 77 79 80 80 81 80 78 74 70 69 78 88 97 104 113 122 126 129 127 122 116 105 96 96 101 112 126 134 138 141 143 145 147 148 150 150 150 151 152 151 152 152 152 153 154 155 156 158 161 162 162 171 236 254 255 254 254 255 255 255 255 255 255 255 255 255 255 255 255 255 255 255 255 255 255 255 255 255 255 255 255 255 255 255 255 255 255 255 255 255 255 255 255 255 255 255 255 255 255 255 255 255 255 255 255 255 255 255 255 255 255 255 255 255 255 255 255 255 255 255 255 255 255 255 255 255 255 255 255 255 255 255 255 255 255 255 255 255 255 255 255 255 255 255 255 255 255 255 255 255 
255 255 255 255 255 255 255 255 255 255 255 255 255 255 255 255 255 255 255 255 255 255 255 255 255 255 255 255 255 255 255 255 255 255 255 255 255 255 255 255 255 255 255 255 255 255 255 255 255 255 255 255 255 255 255 255 255 255 255 255 255 255 255 255 255 255 255 255 255 255 255 254 254 254 246 171 133 123 106 88 82 83 101 100 95 86 103 143 185 159 153 115 87 131 150 144 177 158 140 148 154 160 163 166 166 148 132 152 190 216 226 231 234 237 238 239 240 240 240 240 240 239 239 238 237 236 234 233 231 229 226 223 220 215 211 206 194 187 192 174 164 160 155 146 130 134 169 119 78 81 84 85 86 87 88 89 89 90 90 89 87 85 82 81 82 84 87 90 90 93 98 105 113 122 130 134 136 139 141 143 144 145 147 148 150 151 151 151 151 151 152 152 152 153 153 154 156 158 160 162 162 163 219 254 255 254 254 255 255 255 255 255 255 255 255 255 255 255 255 255 255 255 255 255 255 255 255 255 255 255 255 255 255 255 255 255 255 255 255 255 255 255 255 255 255 255 255 255 255 255 255 255 255 255 255 255 255 255 255 255 255 255 255 255 255 255 255 255 255 255 255 255 255 255 255 255 255 255 255 255 255 255 255 255 255 255 255 255 255 255 255 255 255 255 255 255 255 255 255 255 
255 255 255 255 255 255 255 255 255 255 255 255 255 255 255 255 255 255 255 255 255 255 255 255 255 255 255 255 255 255 255 255 255 255 255 255 255 255 255 255 255 255 255 255 255 255 255 255 255 255 255 255 255 255 255 255 255 255 255 255 255 255 255 255 255 255 255 255 255 255 255 255 254 255 243 160 130 105 89 83 102 109 101 91 96 99 101 109 182 168 151 132 86 100 144 140 155 183 147 132 146 155 161 164 166 166 151 143 166 201 219 225 229 232 234 235 237 237 237 236 236 236 236 235 234 233 232 230 229 228 225 222 219 213 205 198 193 192 178 164 160 156 149 136 128 160 147 86 84 87 88 89 91 92 93 94 95 96 97 98 100 101 102 103 105 107 109 111 113 117 121 125 129 132 135 137 139 141 143 144 145 146 147 148 149 150 151 151 151 151 152 152 152 152 153 154 155 157 159 161 162 162 200 252 255 255 255 255 255 255 255 255 255 255 255 255 255 255 255 255 255 255 255 255 255 255 255 255 255 255 255 255 255 255 255 255 255 255 255 255 255 255 255 255 255 255 255 255 255 255 255 255 255 255 255 255 255 255 255 255 255 255 255 255 255 255 255 255 255 255 255 255 255 255 255 255 255 255 255 255 255 255 255 255 255 255 255 255 255 255 255 255 255 255 255 255 255 255 255 255 
255 255 255 255 255 255 255 255 255 255 255 255 255 255 255 255 255 255 255 255 255 255 255 255 255 255 255 255 255 255 255 255 255 255 255 255 255 255 255 255 255 255 255 255 255 255 255 255 255 255 255 255 255 255 255 255 255 255 255 255 255 255 255 255 255 255 255 255 255 255 255 255 255 255 244 156 109 88 94 111 113 105 101 110 104 98 91 83 159 177 147 142 100 83 127 143 127 167 183 138 132 145 156 161 164 166 166 157 155 178 206 217 224 228 230 232 233 234 234 234 234 235 235 234 234 233 232 231 229 227 224 218 212 205 199 200 192 178 165 162 157 150 139 128 151 162 107 86 88 91 92 94 95 96 98 100 102 104 105 107 109 110 112 113 115 117 119 120 122 125 127 131 133 135 138 140 142 143 144 145 146 147 147 148 149 150 150 151 151 151 151 151 152 152 153 154 155 157 159 161 162 162 184 247 254 255 255 255 255 255 255 255 255 255 255 255 255 255 255 255 255 255 255 255 255 255 255 255 255 255 255 255 255 255 255 255 255 255 255 255 255 255 255 255 255 255 255 255 255 255 255 255 255 255 255 255 255 255 255 255 255 255 255 255 255 255 255 255 255 255 255 255 255 255 255 255 255 255 255 255 255 255 255 255 255 255 255 255 255 255 255 255 255 255 255 255 255 255 255 255 
255 255 255 255 255 255 255 255 255 255 255 255 255 255 255 255 255 255 255 255 255 255 255 255 255 255 255 255 255 255 255 255 255 255 255 255 255 255 255 255 255 255 255 255 255 255 255 255 255 255 255 255 255 255 255 255 255 255 255 255 255 255 255 255 255 255 255 255 255 255 255 255 255 255 250 156 88 106 122 119 112 120 110 106 96 88 82 74 125 184 152 153 123 81 91 138 137 127 176 176 137 131 146 155 161 164 166 166 164 168 186 207 218 224 228 230 232 234 235 235 235 235 235 233 233 231 230 228 225 221 215 208 204 204 207 194 174 165 162 157 150 140 128 145 172 125 88 91 93 95 97 99 101 103 105 108 110 112 114 116 117 117 119 120 122 124 126 127 129 131 133 134 136 138 140 142 143 144 145 146 147 147 148 148 149 150 150 150 150 150 151 151 152 153 153 154 154 156 157 160 162 161 170 235 254 255 255 255 255 255 255 255 255 255 255 255 255 255 255 255 255 255 255 255 255 255 255 255 255 255 255 255 255 255 255 255 255 255 255 255 255 255 255 255 255 255 255 255 255 255 255 255 255 255 255 255 255 255 255 255 255 255 255 255 255 255 255 255 255 255 255 255 255 255 255 255 255 255 255 255 255 255 255 255 255 255 255 255 255 255 255 255 255 255 255 255 255 255 255 255 
255 255 255 255 255 255 255 255 255 255 255 255 255 255 255 255 255 255 255 255 255 255 255 255 255 255 255 255 255 255 255 255 255 255 255 255 255 255 255 255 255 255 255 255 255 255 255 255 255 255 255 255 255 255 255 255 255 255 255 255 255 255 255 255 255 255 255 255 255 255 255 255 255 255 254 190 120 130 131 133 132 119 103 95 85 77 70 64 92 176 163 156 142 103 74 104 134 128 134 186 176 136 131 144 154 160 163 166 167 170 177 192 205 214 221 226 230 232 232 233 233 232 232 231 229 228 225 221 216 212 207 205 208 204 190 170 165 161 157 150 139 126 144 175 138 91 93 95 98 100 103 106 108 111 113 116 118 119 120 122 124 125 126 127 129 130 130 132 134 135 137 138 139 141 142 144 144 145 146 146 147 147 148 148 148 149 150 150 150 151 151 151 152 152 153 154 155 156 157 160 162 162 164 218 254 255 255 255 255 255 255 255 255 255 255 255 255 255 255 255 255 255 255 255 255 255 255 255 255 255 255 255 255 255 255 255 255 255 255 255 255 255 255 255 255 255 255 255 255 255 255 255 255 255 255 255 255 255 255 255 255 255 255 255 255 255 255 255 255 255 255 255 255 255 255 255 255 255 255 255 255 255 255 255 255 255 255 255 255 255 255 255 255 255 255 255 255 255 255 255 
255 255 255 255 255 255 255 255 255 255 255 255 255 255 255 255 255 255 255 255 255 255 255 255 255 255 255 255 255 255 255 255 255 255 255 255 255 255 255 255 255 255 255 255 255 255 255 255 255 255 255 255 255 255 255 255 255 255 255 255 255 255 255 255 255 255 255 255 255 255 255 255 255 255 254 231 149 145 155 138 121 105 90 78 68 62 60 59 71 154 179 157 147 113 74 70 105 128 119 145 189 179 139 129 142 153 159 163 165 166 167 175 187 201 207 212 217 222 224 226 227 226 225 224 221 219 216 212 209 209 211 205 192 176 167 164 160 155 148 137 127 143 177 147 97 94 97 101 105 108 110 113 115 117 120 123 125 126 127 128 130 132 132 134 135 135 136 136 137 138 139 141 142 143 144 145 145 146 147 147 148 147 147 148 148 149 149 150 150 151 151 151 152 153 153 154 155 156 157 159 161 162 162 200 252 254 255 255 255 255 255 255 255 255 255 255 255 255 255 255 255 255 255 255 255 255 255 255 255 255 255 255 255 255 255 255 255 255 255 255 255 255 255 255 255 255 255 255 255 255 255 255 255 255 255 255 255 255 255 255 255 255 255 255 255 255 255 255 255 255 255 255 255 255 255 255 255 255 255 255 255 255 255 255 255 255 255 255 255 255 255 255 255 255 255 255 255 255 255 255 
255 255 255 255 255 255 255 255 255 255 255 255 255 255 255 255 255 255 255 255 255 255 255 255 255 255 255 255 255 255 255 255 255 255 255 255 255 255 255 255 255 255 255 255 255 255 255 255 255 255 255 255 255 255 255 255 255 255 255 255 255 255 255 255 255 255 255 255 255 255 255 255 255 255 254 235 170 164 145 121 104 88 73 64 64 69 82 100 115 155 193 169 149 127 94 52 79 119 131 121 153 191 183 145 128 139 151 157 161 163 165 166 168 177 185 196 204 209 211 214 215 215 215 214 212 210 210 209 207 200 189 176 169 166 162 158 153 144 132 127 150 179 152 102 97 100 104 109 111 113 116 118 121 124 127 130 131 132 134 135 137 138 139 140 141 141 141 141 142 142 143 144 145 145 146 146 146 147 147 147 147 148 148 148 149 148 150 150 150 151 151 151 153 153 153 154 155 155 157 158 160 162 162 183 246 254 255 255 255 255 255 255 255 255 255 255 255 255 255 255 255 255 255 255 255 255 255 255 255 255 255 255 255 255 255 255 255 255 255 255 255 255 255 255 255 255 255 255 255 255 255 255 255 255 255 255 255 255 255 255 255 255 255 255 255 255 255 255 255 255 255 255 255 255 255 255 255 255 255 255 255 255 255 255 255 255 255 255 255 255 255 255 255 255 255 255 255 255 255 255 
255 255 255 255 255 255 255 255 255 255 255 255 255 255 255 255 255 255 255 255 255 255 255 255 255 255 255 255 255 255 255 255 255 255 255 255 255 255 255 255 255 255 255 255 255 255 255 255 255 255 255 255 255 255 255 255 255 255 255 255 255 255 255 255 255 255 255 255 255 255 255 255 255 255 254 232 173 149 125 97 82 71 71 78 97 117 132 141 146 154 178 183 177 162 120 100 107 108 128 132 144 166 189 195 156 132 135 146 153 158 161 163 164 166 166 170 175 184 191 197 200 200 200 200 198 194 189 182 176 170 167 165 163 160 155 148 139 127 129 159 188 151 105 100 104 108 112 114 116 119 121 124 127 130 133 135 137 139 140 141 143 144 147 148 149 148 147 146 146 146 146 147 148 148 147 147 148 148 148 148 148 148 148 149 149 149 150 150 151 151 151 152 152 153 153 154 155 156 156 158 160 162 162 171 235 254 254 255 255 255 255 255 255 255 255 255 255 255 255 255 255 255 255 255 255 255 255 255 255 255 255 255 255 255 255 255 255 255 255 255 255 255 255 255 255 255 255 255 255 255 255 255 255 255 255 255 255 255 255 255 255 255 255 255 255 255 255 255 255 255 255 255 255 255 255 255 255 255 255 255 255 255 255 255 255 255 255 255 255 255 255 255 255 255 255 255 255 255 255 255 
255 255 255 255 255 255 255 255 255 255 255 255 255 255 255 255 255 255 255 255 255 255 255 255 255 255 255 255 255 255 255 255 255 255 255 255 255 255 255 255 255 255 255 255 255 255 255 255 255 255 255 255 255 255 255 255 255 255 255 255 255 255 255 255 255 255 255 255 255 255 255 255 255 255 254 217 153 121 98 77 79 93 115 135 151 160 164 168 169 168 155 149 153 146 133 142 137 119 113 133 158 168 157 184 205 174 141 133 139 147 154 158 161 163 164 164 164 166 167 168 170 171 171 171 170 168 167 166 164 163 161 159 155 150 141 130 126 142 174 193 149 105 103 108 111 114 117 120 122 124 127 129 132 135 138 140 143 145 146 147 148 150 153 156 157 157 155 153 151 150 150 149 149 149 148 150 149 149 149 149 149 148 148 149 150 150 150 151 151 151 152 152 153 153 154 154 155 156 156 158 159 161 161 163 221 254 255 255 255 255 255 255 255 255 255 255 255 255 255 255 255 255 255 255 255 255 255 255 255 255 255 255 255 255 255 255 255 255 255 255 255 255 255 255 255 255 255 255 255 255 255 255 255 255 255 255 255 255 255 255 255 255 255 255 255 255 255 255 255 255 255 255 255 255 255 255 255 255 255 255 255 255 255 255 255 255 255 255 255 255 255 255 255 255 255 255 255 255 255 255 
255 255 255 255 255 255 255 255 255 255 255 255 255 255 255 255 255 255 255 255 255 255 255 255 255 255 255 255 255 255 255 255 255 255 255 255 255 255 255 255 255 255 255 255 255 255 255 255 255 255 255 255 255 255 255 255 255 255 255 255 255 255 255 255 255 255 255 255 255 255 255 255 254 255 254 211 118 87 88 107 138 162 175 182 187 191 192 193 193 191 187 180 172 162 156 151 148 141 125 118 122 125 146 151 177 203 192 162 137 130 136 145 151 156 158 160 162 163 164 164 164 164 164 165 164 164 162 161 159 156 153 147 140 131 125 135 162 191 182 141 103 107 111 114 117 119 121 124 126 129 131 134 137 140 143 146 148 149 150 152 153 157 161 164 165 165 163 161 158 156 154 152 152 151 150 151 150 149 149 149 149 148 149 150 150 150 151 151 151 151 152 153 153 153 153 154 155 156 157 157 158 160 161 161 206 253 255 255 255 255 255 255 255 255 255 255 255 255 255 255 255 255 255 255 255 255 255 255 255 255 255 255 255 255 255 255 255 255 255 255 255 255 255 255 255 255 255 255 255 255 255 255 255 255 255 255 255 255 255 255 255 255 255 255 255 255 255 255 255 255 255 255 255 255 255 255 255 255 255 255 255 255 255 255 255 255 255 255 255 255 255 255 255 255 255 255 255 255 255 255 
255 255 255 255 255 255 255 255 255 255 255 255 255 255 255 255 255 255 255 255 255 255 255 255 255 255 255 255 255 255 255 255 255 255 255 255 255 255 255 255 255 255 255 255 255 255 255 255 255 255 255 255 255 255 255 255 255 255 255 255 255 255 255 255 255 255 255 255 255 255 255 254 254 254 255 212 73 99 156 185 194 199 200 202 203 203 203 203 203 201 198 195 189 180 170 158 153 150 146 130 124 133 148 139 134 163 191 205 189 161 138 128 131 138 145 150 153 155 157 157 157 159 159 158 157 156 153 151 149 144 135 127 126 137 162 190 201 167 125 107 111 114 118 120 122 124 126 128 131 133 136 139 142 145 148 150 151 153 155 156 159 163 167 170 171 171 170 168 166 162 158 156 155 154 153 151 150 149 149 149 149 149 150 151 151 152 152 152 152 152 152 153 153 153 153 154 155 155 156 157 158 160 161 160 188 250 254 255 255 254 255 255 255 255 255 255 255 255 255 255 255 255 255 255 255 255 255 255 255 255 255 255 255 255 255 255 255 255 255 255 255 255 255 255 255 255 255 255 255 255 255 255 255 255 255 255 255 255 255 255 255 255 255 255 255 255 255 255 255 255 255 255 255 255 255 255 255 255 255 255 255 255 255 255 255 255 255 255 255 255 255 255 255 255 255 255 255 255 255 255 
255 255 255 255 255 255 255 255 255 255 255 255 255 255 255 255 255 255 255 255 255 255 255 255 255 255 255 255 255 255 255 255 255 255 255 255 255 255 255 255 255 255 255 255 255 255 255 255 255 255 255 255 255 255 255 255 255 255 255 255 255 255 255 255 255 255 255 255 255 255 255 255 254 255 254 244 135 146 201 204 205 207 207 207 207 206 206 206 206 204 203 200 198 193 184 168 158 155 155 156 147 142 147 150 139 138 149 174 199 208 193 170 148 134 128 131 135 139 142 144 146 147 146 144 144 141 137 133 132 131 134 148 171 193 204 180 143 112 112 115 118 120 123 124 126 128 131 133 135 137 141 144 146 149 152 154 156 157 159 160 164 169 173 174 175 175 174 173 171 167 163 160 159 157 156 154 153 152 151 151 151 151 151 152 152 152 152 153 153 153 154 154 154 154 154 154 154 155 156 157 158 159 161 160 173 242 255 255 255 254 254 255 255 255 255 255 255 255 255 255 255 255 255 255 255 255 255 255 255 255 255 255 255 255 255 255 255 255 255 255 255 255 255 255 255 255 255 255 255 255 255 255 255 255 255 255 255 255 255 255 255 255 255 255 255 255 255 255 255 255 255 255 255 255 255 255 255 255 255 255 255 255 255 255 255 255 255 255 255 255 255 255 255 255 255 255 255 255 255 255 
255 255 255 255 255 255 255 255 255 255 255 255 255 255 255 255 255 255 255 255 255 255 255 255 255 255 255 255 255 255 255 255 255 255 255 255 255 255 255 255 255 255 255 255 255 255 255 255 255 255 255 255 255 255 255 255 255 255 255 255 255 255 255 255 255 255 255 255 255 255 255 255 255 255 254 254 233 190 199 207 208 208 208 208 208 208 207 207 207 206 205 204 202 199 194 180 167 162 162 167 174 165 154 150 154 151 146 144 154 173 194 212 207 193 173 157 146 139 135 133 132 132 131 131 131 133 137 145 154 168 188 200 197 175 146 116 111 116 119 122 123 125 127 129 131 132 135 137 139 143 145 148 150 153 155 157 159 160 162 165 169 173 176 177 178 178 178 177 175 170 166 164 163 162 159 156 155 154 153 153 152 152 151 152 152 152 152 153 153 154 154 154 154 154 154 153 154 155 155 156 157 158 160 159 163 228 254 255 254 254 254 254 255 255 255 255 255 255 255 255 255 255 255 255 255 255 255 255 255 255 255 255 255 255 255 255 255 255 255 255 255 255 255 255 255 255 255 255 255 255 255 255 255 255 255 255 255 255 255 255 255 255 255 255 255 255 255 255 255 255 255 255 255 255 255 255 255 255 255 255 255 255 255 255 255 255 255 255 255 255 255 255 255 255 255 255 255 255 255 255 
255 255 255 255 255 255 255 255 255 255 255 255 255 255 255 255 255 255 255 255 255 255 255 255 255 255 255 255 255 255 255 255 255 255 255 255 255 255 255 255 255 255 255 255 255 255 255 255 255 255 255 255 255 255 255 255 255 255 255 255 255 255 255 255 255 255 255 255 255 255 255 255 255 255 255 254 249 195 193 204 207 208 208 208 208 208 208 208 207 207 206 206 204 203 200 192 180 172 171 178 186 186 174 159 153 157 161 160 152 145 149 170 186 201 205 206 200 194 186 181 178 174 173 177 182 186 189 197 201 194 180 152 127 112 112 116 120 123 125 127 128 129 131 132 134 137 139 141 144 147 150 152 154 156 158 160 162 164 166 170 174 177 179 180 181 180 179 178 176 171 166 162 169 170 166 161 158 156 154 154 153 153 153 153 153 153 154 154 154 154 154 154 154 154 153 153 154 155 155 156 156 158 159 159 159 211 254 255 254 254 254 254 255 255 255 255 255 255 255 255 255 255 255 255 255 255 255 255 255 255 255 255 255 255 255 255 255 255 255 255 255 255 255 255 255 255 255 255 255 255 255 255 255 255 255 255 255 255 255 255 255 255 255 255 255 255 255 255 255 255 255 255 255 255 255 255 255 255 255 255 255 255 255 255 255 255 255 255 255 255 255 255 255 255 255 255 255 255 255 255 
255 255 255 255 255 255 255 255 255 255 255 255 255 255 255 255 255 255 255 255 255 255 255 255 255 255 255 255 255 255 255 255 255 255 255 255 255 255 255 255 255 255 255 255 255 255 255 255 255 255 255 255 255 255 255 255 255 255 255 255 255 255 255 255 255 255 255 255 255 255 255 255 255 255 255 255 252 202 187 200 204 207 207 208 209 209 209 208 208 207 208 207 208 206 204 201 194 186 185 189 195 196 191 181 166 155 152 158 164 161 155 151 149 151 170 178 186 193 196 197 202 202 201 201 201 193 175 159 139 119 106 105 113 118 121 124 126 128 129 130 132 133 134 135 138 141 143 146 148 151 153 155 157 160 161 163 165 167 171 175 177 180 181 181 182 181 179 176 173 168 154 165 179 178 173 168 165 161 158 157 155 155 154 154 153 154 155 155 154 154 154 154 154 154 154 154 154 154 154 155 156 157 159 158 156 187 222 246 254 254 254 254 255 255 255 255 255 255 255 255 255 255 255 255 255 255 255 255 255 255 255 255 255 255 255 255 255 255 255 255 255 255 255 255 255 255 255 255 255 255 255 255 255 255 255 255 255 255 255 255 255 255 255 255 255 255 255 255 255 255 255 255 255 255 255 255 255 255 255 255 255 255 255 255 255 255 255 255 255 255 255 255 255 255 255 255 255 255 255 255 
255 255 255 255 255 255 255 255 255 255 255 255 255 255 255 255 255 255 255 255 255 255 255 255 255 255 255 255 255 255 255 255 255 255 255 255 255 255 255 255 255 255 255 255 255 255 255 255 255 255 255 255 255 255 255 255 255 255 255 255 255 255 255 255 255 255 255 255 255 255 255 255 254 254 255 255 254 198 180 196 201 204 206 207 208 209 210 209 209 209 209 208 208 208 206 204 203 199 198 199 202 201 200 196 187 175 162 151 147 145 148 152 158 148 156 141 142 140 142 145 148 147 147 143 129 112 96 92 98 109 117 121 124 125 127 129 130 131 133 134 135 136 138 139 142 145 146 149 152 154 156 158 161 163 164 166 169 172 175 178 180 183 182 181 180 179 177 173 166 156 165 188 188 185 181 176 172 167 164 161 160 158 156 155 155 155 155 155 155 155 155 154 155 154 153 153 154 153 154 154 154 156 157 157 154 134 85 151 250 254 254 254 255 255 255 255 255 255 255 255 255 255 255 255 255 255 255 255 255 255 255 255 255 255 255 255 255 255 255 255 255 255 255 255 255 255 255 255 255 255 255 255 255 255 255 255 255 255 255 255 255 255 255 255 255 255 255 255 255 255 255 255 255 255 255 255 255 255 255 255 255 255 255 255 255 255 255 255 255 255 255 255 255 255 255 255 255 255 255 255 
255 255 255 255 255 255 255 255 255 255 255 255 255 255 255 255 255 255 255 255 255 255 255 255 255 255 255 255 255 255 255 255 255 255 255 255 255 255 255 255 255 255 255 255 255 255 255 255 255 255 255 255 255 255 255 255 255 255 255 255 255 255 255 255 255 255 255 255 255 255 255 255 254 254 254 255 249 176 154 173 196 201 204 206 208 209 210 210 209 209 209 209 208 208 208 207 206 205 205 205 206 206 205 204 200 193 182 169 158 148 140 132 127 123 113 103 111 106 108 107 104 99 96 95 98 103 110 117 121 123 126 128 130 131 132 133 134 135 137 138 139 141 143 144 147 149 151 153 156 158 160 162 164 166 168 169 172 175 179 180 182 182 180 179 178 176 174 161 161 176 194 195 194 191 187 183 178 174 170 167 165 162 160 158 157 157 156 156 156 155 155 155 154 154 153 153 154 153 153 153 153 154 155 155 151 133 70 98 233 254 254 254 255 255 255 255 255 255 255 255 255 255 255 255 255 255 255 255 255 255 255 255 255 255 255 255 255 255 255 255 255 255 255 255 255 255 255 255 255 255 255 255 255 255 255 255 255 255 255 255 255 255 255 255 255 255 255 255 255 255 255 255 255 255 255 255 255 255 255 255 255 255 255 255 255 255 255 255 255 255 255 255 255 255 255 255 255 255 255 255 
255 255 255 255 255 255 255 255 255 255 255 255 255 255 255 255 255 255 255 255 255 255 255 255 255 255 255 255 255 255 255 255 255 255 255 255 255 255 255 255 255 255 255 255 255 255 255 255 255 255 255 255 255 255 255 255 255 255 255 255 255 255 255 255 255 255 255 255 255 255 255 255 254 254 255 255 246 157 139 153 176 191 202 204 206 208 209 210 210 211 210 210 210 209 208 209 209 208 208 208 208 208 208 206 205 202 198 190 178 166 156 148 141 135 128 123 118 115 112 111 112 114 116 118 120 122 124 126 129 130 131 133 134 135 136 137 138 139 141 142 143 145 146 148 150 152 154 157 159 161 163 165 167 169 171 172 175 178 180 179 179 179 178 177 174 166 163 170 190 198 198 198 196 194 192 189 185 181 178 173 170 167 164 162 161 159 158 157 157 156 156 155 154 154 153 153 153 153 153 152 152 152 153 151 144 116 71 89 213 255 255 255 255 255 255 255 255 255 255 255 255 255 255 255 255 255 255 255 255 255 255 255 255 255 255 255 255 255 255 255 255 255 255 255 255 255 255 255 255 255 255 255 255 255 255 255 255 255 255 255 255 255 255 255 255 255 255 255 255 255 255 255 255 255 255 255 255 255 255 255 255 255 255 255 255 255 255 255 255 255 255 255 255 255 255 255 255 255 255 255 
255 255 255 255 255 255 255 255 255 255 255 255 255 255 255 255 255 255 255 255 255 255 255 255 255 255 255 255 255 255 255 255 255 255 255 255 255 255 255 255 255 255 255 255 255 255 255 255 255 255 255 255 255 255 255 255 255 255 255 255 255 255 255 255 255 255 255 255 255 255 255 255 255 255 255 255 239 138 130 153 163 169 187 199 203 206 208 209 210 212 211 211 211 210 210 210 210 211 210 210 210 210 209 208 208 207 205 202 197 187 176 165 156 148 142 137 133 130 128 126 126 125 125 126 126 127 129 131 133 133 136 137 138 139 140 141 142 144 145 146 147 148 150 151 153 156 158 160 162 163 165 167 168 170 172 174 176 177 177 177 176 175 172 166 164 171 186 198 200 200 200 198 198 195 193 192 189 187 184 179 176 173 170 167 164 162 161 159 158 157 157 156 155 154 154 153 153 153 152 151 151 150 149 145 131 92 74 84 185 254 255 255 255 255 255 255 255 255 255 255 255 255 255 255 255 255 255 255 255 255 255 255 255 255 255 255 255 255 255 255 255 255 255 255 255 255 255 255 255 255 255 255 255 255 255 255 255 255 255 255 255 255 255 255 255 255 255 255 255 255 255 255 255 255 255 255 255 255 255 255 255 255 255 255 255 255 255 255 255 255 255 255 255 255 255 255 255 255 255 255 
255 255 255 255 255 255 255 255 255 255 255 255 255 255 255 255 255 255 255 255 255 255 255 255 255 255 255 255 255 255 255 255 255 255 255 255 255 255 255 255 255 255 255 255 255 255 255 255 255 255 255 255 255 255 255 255 255 255 255 255 255 255 255 255 255 255 255 255 255 255 255 255 255 255 255 254 224 129 130 141 150 157 162 175 193 203 206 209 210 211 211 211 211 211 211 212 212 212 212 211 211 211 210 210 210 209 208 207 206 202 195 185 174 163 154 148 142 137 135 133 132 131 131 131 131 131 131 131 121 109 122 137 141 142 143 145 146 147 148 149 150 152 153 154 156 158 161 163 164 165 166 168 170 171 172 173 174 174 173 171 166 161 162 172 185 197 200 201 202 202 200 199 198 197 194 193 192 190 188 185 182 178 175 172 169 166 164 161 160 159 157 156 155 155 154 153 153 152 151 150 149 147 144 133 104 81 78 74 154 253 254 255 255 255 255 255 255 255 255 255 255 255 255 255 255 255 255 255 255 255 255 255 255 255 255 255 255 255 255 255 255 255 255 255 255 255 255 255 255 255 255 255 255 255 255 255 255 255 255 255 255 255 255 255 255 255 255 255 255 255 255 255 255 255 255 255 255 255 255 255 255 255 255 255 255 255 255 255 255 255 255 255 255 255 255 255 255 255 255 255 
255 255 255 255 255 255 255 255 255 255 255 255 255 255 255 255 255 255 255 255 255 255 255 255 255 255 255 255 255 255 255 255 255 255 255 255 255 255 255 255 255 255 255 255 255 255 255 255 255 255 255 255 255 255 255 255 255 255 255 255 255 255 255 255 254 254 254 254 255 255 255 255 255 255 254 254 204 132 135 138 141 151 159 158 166 188 201 206 209 211 211 212 212 212 212 213 213 213 212 213 212 211 211 211 211 210 209 209 209 207 204 199 192 181 171 161 152 146 142 140 138 136 136 135 135 134 133 131 124 107 95 99 112 128 137 142 145 147 149 150 152 153 155 156 157 159 161 163 163 164 165 165 166 167 167 167 165 160 156 156 164 177 190 198 200 200 201 202 202 202 200 200 199 198 196 195 194 192 191 189 186 183 180 177 174 171 167 164 162 161 158 157 156 155 154 153 152 152 150 149 147 143 134 112 80 77 69 67 125 248 254 254 255 255 255 255 255 255 255 255 255 255 255 255 255 255 255 255 255 255 255 255 255 255 255 255 255 255 255 255 255 255 255 255 255 255 255 255 255 255 255 255 255 255 255 255 255 255 255 255 255 255 255 255 255 255 255 255 255 255 255 255 255 255 255 255 255 255 255 255 255 255 255 255 255 255 255 255 255 255 255 255 255 255 255 255 255 255 255 255 
255 255 255 255 255 255 255 255 255 255 255 255 255 255 255 255 255 255 255 255 255 255 255 255 255 255 255 255 255 255 255 255 255 255 255 255 255 255 255 255 255 255 255 255 255 255 255 255 255 255 255 255 255 254 254 255 254 254 254 255 254 255 255 255 254 254 254 254 255 255 255 255 255 255 255 253 184 138 138 141 143 146 149 147 143 158 183 199 207 210 211 212 212 212 213 213 213 213 212 213 213 213 212 211 211 211 211 211 210 209 207 206 203 197 187 174 163 155 151 147 144 142 141 140 139 138 137 135 132 127 121 108 94 90 95 106 118 129 137 142 145 148 150 151 153 154 155 156 156 156 156 154 152 149 146 146 150 158 171 186 196 201 202 202 201 201 201 202 201 201 200 200 200 199 196 197 196 194 193 192 190 187 184 181 178 175 171 168 166 163 160 158 156 155 154 153 152 151 150 148 144 135 116 84 75 76 68 67 99 237 254 254 255 255 255 255 255 255 255 255 255 255 255 255 255 255 255 255 255 255 255 255 255 255 255 255 255 255 255 255 255 255 255 255 255 255 255 255 255 255 255 255 255 255 255 255 255 255 255 255 255 255 255 255 255 255 255 255 255 255 255 255 255 255 255 255 255 255 255 255 255 255 255 255 255 255 255 255 255 255 255 255 255 255 255 255 255 255 255 255 
255 255 255 255 255 255 255 255 255 255 255 255 255 255 255 255 255 255 255 255 255 255 255 255 255 255 255 255 255 255 255 255 255 255 255 255 255 255 255 255 255 255 255 255 255 255 255 255 255 255 255 255 255 254 254 254 254 254 254 254 254 254 255 255 254 254 255 255 255 255 255 255 255 255 255 246 174 149 147 146 146 143 141 134 140 148 161 178 198 207 209 211 212 213 213 213 213 213 213 213 213 213 213 212 212 211 211 211 211 211 210 209 208 205 198 187 177 167 161 156 152 150 147 146 144 142 142 140 139 137 135 134 130 124 115 106 99 96 97 102 109 114 119 123 126 128 129 129 129 128 128 130 137 147 161 175 187 195 199 202 202 203 204 204 202 201 201 201 202 202 201 201 200 200 198 198 197 195 194 193 192 190 188 184 181 177 174 171 169 166 163 160 158 156 154 153 152 151 149 147 139 122 89 73 90 79 71 67 76 212 254 254 255 255 255 255 255 255 255 255 255 255 255 255 255 255 255 255 255 255 255 255 255 255 255 255 255 255 255 255 255 255 255 255 255 255 255 255 255 255 255 255 255 255 255 255 255 255 255 255 255 255 255 255 255 255 255 255 255 255 255 255 255 255 255 255 255 255 255 255 255 255 255 255 255 255 255 255 255 255 255 255 255 255 255 255 255 255 255 255 
255 255 255 255 255 255 255 255 255 255 255 255 255 255 255 255 255 255 255 255 255 255 255 255 255 255 255 255 255 255 255 255 255 255 255 255 255 255 255 255 255 255 255 255 255 255 255 255 255 255 255 255 255 254 254 254 254 254 254 255 254 253 254 254 254 255 255 255 255 255 255 255 255 255 254 239 180 165 166 159 155 145 137 132 137 143 150 165 185 194 205 209 211 212 213 213 213 213 213 213 213 213 214 214 213 213 212 212 212 212 212 211 210 208 204 198 190 181 174 168 163 158 154 152 150 149 148 147 146 145 145 145 144 143 142 140 137 134 130 125 121 119 119 119 120 123 127 131 138 148 160 171 182 191 197 200 203 204 203 204 203 203 204 204 202 201 200 200 202 202 202 201 201 200 199 198 198 196 195 195 194 192 190 187 183 180 177 174 171 168 165 162 160 157 155 153 151 150 148 143 128 99 75 81 83 73 68 65 62 175 254 255 255 255 255 255 255 255 255 255 255 255 255 255 255 255 255 255 255 255 255 255 255 255 255 255 255 255 255 255 255 255 255 255 255 255 255 255 255 255 255 255 255 255 255 255 255 255 255 255 255 255 255 255 255 255 255 255 255 255 255 255 255 255 255 255 255 255 255 255 255 255 255 255 255 255 255 255 255 255 255 255 255 255 255 255 255 255 255 255 
255 255 255 255 255 255 255 255 255 255 255 255 255 255 255 255 255 255 255 255 255 255 255 255 255 255 255 255 255 255 255 255 255 255 255 255 255 255 255 255 255 255 255 255 255 255 255 255 255 255 255 255 255 254 254 254 254 249 252 246 230 224 246 251 254 254 254 254 255 255 255 255 255 254 254 233 176 180 177 172 165 149 135 131 134 133 139 158 182 185 186 201 207 210 212 213 213 214 213 213 213 213 213 214 213 213 213 213 212 212 212 211 210 210 208 205 200 194 188 182 176 170 164 160 157 155 153 153 152 152 151 151 152 152 152 152 153 153 154 154 154 155 157 158 159 163 168 173 180 186 192 196 200 203 205 205 206 206 205 205 204 203 204 203 202 202 201 201 202 202 202 202 201 200 199 198 199 198 196 196 194 193 190 188 184 182 180 177 174 171 167 164 161 158 155 153 151 149 145 135 110 80 73 75 71 72 66 63 60 144 252 255 255 255 255 255 255 255 255 255 255 255 255 255 255 255 255 255 255 255 255 255 255 255 255 255 255 255 255 255 255 255 255 255 255 255 255 255 255 255 255 255 255 255 255 255 255 255 255 255 255 255 255 255 255 255 255 255 255 255 255 255 255 255 255 255 255 255 255 255 255 255 255 255 255 255 255 255 255 255 255 255 255 255 255 255 255 255 255 255 
255 255 255 255 255 255 255 255 255 255 255 255 255 255 255 255 255 255 255 255 255 255 255 255 255 255 255 255 255 255 255 255 255 255 255 255 255 255 255 255 255 255 255 255 255 255 255 254 254 254 254 254 255 255 254 254 244 202 187 170 144 134 161 185 224 251 254 255 254 255 255 255 255 254 254 239 159 162 176 170 164 148 131 134 134 132 135 143 155 169 172 178 192 204 209 212 213 213 213 213 213 214 214 214 214 213 213 213 212 212 212 212 212 211 210 209 207 203 199 195 189 182 176 170 166 162 160 158 157 158 158 158 159 160 161 162 163 164 165 167 168 170 172 175 179 184 188 193 196 199 202 204 206 207 207 207 206 206 206 205 204 204 204 204 203 202 201 202 202 202 202 202 201 201 200 198 198 199 198 196 195 193 191 188 185 183 181 178 176 173 169 165 162 159 156 153 151 147 138 118 89 79 71 65 64 66 66 63 61 135 250 254 255 255 255 255 255 255 255 255 255 255 255 255 255 255 255 255 255 255 255 255 255 255 255 255 255 255 255 255 255 255 255 255 255 255 255 255 255 255 255 255 255 255 255 255 255 255 255 255 255 255 255 255 255 255 255 255 255 255 255 255 255 255 255 255 255 255 255 255 255 255 255 255 255 255 255 255 255 255 255 255 255 255 255 255 255 255 255 255 
255 255 255 255 255 255 255 255 255 255 255 255 255 255 255 255 255 255 255 255 255 255 255 255 255 255 255 255 255 255 255 255 255 255 255 255 255 255 255 255 255 255 255 255 255 255 255 254 254 254 254 254 254 254 253 234 204 157 136 125 116 111 113 114 142 184 222 249 254 254 254 254 254 254 254 254 214 186 182 174 169 150 137 138 136 139 140 138 138 148 158 167 175 183 199 208 210 212 213 213 213 213 213 214 214 213 213 213 213 212 213 212 212 211 211 211 211 209 207 204 199 194 189 183 177 173 170 168 166 166 166 166 166 167 168 169 170 171 172 175 177 180 183 187 192 196 199 201 203 205 207 208 209 209 208 208 206 207 206 206 205 204 204 204 203 203 203 202 201 201 202 201 201 201 200 199 199 199 198 197 195 193 191 188 185 183 182 179 176 174 171 166 163 159 156 153 149 142 125 95 84 79 66 65 61 64 64 63 66 155 253 254 255 255 255 255 255 255 255 255 255 255 255 255 255 255 255 255 255 255 255 255 255 255 255 255 255 255 255 255 255 255 255 255 255 255 255 255 255 255 255 255 255 255 255 255 255 255 255 255 255 255 255 255 255 255 255 255 255 255 255 255 255 255 255 255 255 255 255 255 255 255 255 255 255 255 255 255 255 255 255 255 255 255 255 255 255 255 255 255 
255 255 255 255 255 255 255 255 255 255 255 255 255 255 255 255 255 255 255 255 255 255 255 255 255 255 255 255 255 255 255 255 255 255 255 255 255 255 255 255 255 255 255 255 255 254 254 254 255 254 254 250 234 226 211 172 147 133 126 120 114 120 123 118 107 115 140 189 238 248 254 254 254 254 255 255 250 220 196 176 173 156 146 146 137 137 142 138 138 149 148 156 161 157 169 191 206 209 211 213 213 214 213 213 214 213 213 213 213 213 213 213 213 212 212 212 212 211 210 208 205 203 200 195 190 186 182 179 176 175 174 174 174 174 175 177 178 180 182 185 187 191 193 197 200 202 205 207 207 208 209 209 209 209 209 208 207 207 207 206 205 204 204 205 204 204 204 203 202 202 202 201 201 201 200 200 199 198 198 197 196 194 192 189 186 184 182 179 175 174 172 168 164 160 157 153 146 132 105 89 89 78 65 63 60 63 65 64 71 156 250 254 255 255 255 255 255 255 255 255 255 255 255 255 255 255 255 255 255 255 255 255 255 255 255 255 255 255 255 255 255 255 255 255 255 255 255 255 255 255 255 255 255 255 255 255 255 255 255 255 255 255 255 255 255 255 255 255 255 255 255 255 255 255 255 255 255 255 255 255 255 255 255 255 255 255 255 255 255 255 255 255 255 255 255 255 255 255 255 255 
255 255 255 255 255 255 255 255 255 255 255 255 255 255 255 255 255 255 255 255 255 255 255 255 255 255 255 255 255 255 255 255 255 255 255 255 255 255 255 255 255 255 255 255 255 254 254 254 254 249 237 195 158 148 129 114 111 106 101 98 109 123 135 135 117 115 107 108 134 160 213 241 253 254 254 254 249 221 205 192 176 152 149 153 145 136 144 141 141 148 146 151 149 147 145 160 186 202 209 211 213 214 213 213 214 213 213 213 213 213 213 213 214 213 213 213 213 212 212 211 209 208 206 203 200 197 195 192 189 187 185 185 185 185 186 188 189 191 193 195 197 199 201 204 206 207 208 210 210 210 211 210 210 210 209 208 207 207 206 206 206 206 205 205 205 204 204 203 202 201 201 201 201 201 200 199 198 198 197 197 195 195 192 189 186 184 182 179 175 174 172 168 165 162 157 151 138 113 97 92 78 71 61 60 60 61 68 65 87 130 217 254 255 255 255 255 255 255 255 255 255 255 255 255 255 255 255 255 255 255 255 255 255 255 255 255 255 255 255 255 255 255 255 255 255 255 255 255 255 255 255 255 255 255 255 255 255 255 255 255 255 255 255 255 255 255 255 255 255 255 255 255 255 255 255 255 255 255 255 255 255 255 255 255 255 255 255 255 255 255 255 255 255 255 255 255 255 255 255 255 
255 255 255 255 255 255 255 255 255 255 255 255 255 255 255 255 255 255 255 255 255 255 255 255 255 255 255 255 255 255 255 255 255 255 255 255 255 255 254 255 255 255 255 255 255 254 254 251 231 196 168 139 126 111 100 101 101 96 93 131 148 155 158 141 133 148 157 122 89 89 109 145 214 244 253 254 246 219 209 201 188 164 157 165 157 147 145 138 143 150 136 135 140 144 148 157 163 176 198 208 211 212 213 213 213 213 213 213 213 213 214 214 214 214 213 213 213 213 212 212 211 211 210 208 207 206 204 201 199 197 196 195 196 196 197 197 198 200 202 203 204 206 207 209 210 211 211 211 211 211 211 211 210 209 209 209 208 208 207 207 206 206 205 205 204 204 203 203 202 202 201 201 201 200 200 199 198 198 198 197 195 194 191 189 186 183 182 180 176 174 172 169 166 161 155 144 123 104 99 89 75 69 59 56 57 60 69 73 106 126 177 250 254 255 255 254 255 255 255 255 255 255 255 255 255 255 255 255 255 255 255 255 255 255 255 255 255 255 255 255 255 255 255 255 255 255 255 255 255 255 255 255 255 255 255 255 255 255 255 255 255 255 255 255 255 255 255 255 255 255 255 255 255 255 255 255 255 255 255 255 255 255 255 255 255 255 255 255 255 255 255 255 255 255 255 255 255 255 255 255 
255 255 255 255 255 255 255 255 255 255 255 255 255 255 255 255 255 255 255 255 255 255 255 255 255 255 255 255 255 255 255 255 255 255 255 255 255 255 254 254 254 254 255 255 254 253 236 201 171 144 128 116 105 92 90 99 99 91 93 134 161 162 139 111 114 141 174 157 101 78 84 96 126 157 206 251 240 215 208 204 197 186 167 168 173 165 154 141 141 145 138 135 137 141 143 150 158 161 176 193 205 208 210 212 212 214 213 213 214 214 214 214 214 214 214 214 213 213 213 213 212 212 212 211 211 210 210 208 206 205 205 204 204 204 203 204 205 206 208 208 209 210 210 211 212 212 211 211 211 211 211 210 210 210 209 208 207 207 207 206 206 205 204 204 204 204 203 203 203 202 202 202 202 201 200 200 198 198 197 197 195 193 191 189 186 183 181 180 177 174 171 168 165 159 149 133 116 106 82 77 69 66 59 55 56 61 70 91 118 134 147 221 254 255 254 254 254 255 255 255 255 255 255 255 255 255 255 255 255 255 255 255 255 255 255 255 255 255 255 255 255 255 255 255 255 255 255 255 255 255 255 255 255 255 255 255 255 255 255 255 255 255 255 255 255 255 255 255 255 255 255 255 255 255 255 255 255 255 255 255 255 255 255 255 255 255 255 255 255 255 255 255 255 255 255 255 255 255 255 255 
255 255 255 255 255 255 255 255 255 255 255 255 255 255 255 255 255 255 255 255 255 255 255 255 255 255 255 255 255 255 255 255 255 255 255 255 255 255 254 254 254 254 254 254 248 220 179 139 117 118 113 107 96 92 86 91 91 92 90 97 130 139 136 146 147 149 137 114 90 85 91 94 99 108 129 196 226 209 206 204 201 196 188 171 168 186 175 158 155 145 134 133 139 140 143 146 150 162 177 177 183 195 205 210 211 213 213 214 214 214 214 214 214 215 214 214 214 213 213 213 214 213 213 213 213 212 212 212 211 210 210 209 209 209 209 209 210 210 211 211 212 212 212 212 212 212 212 211 211 210 210 210 210 209 209 209 207 207 207 206 206 205 204 204 204 204 203 203 203 202 202 202 202 201 200 200 198 198 197 197 195 193 191 188 185 183 181 178 177 174 170 167 162 153 139 122 115 106 82 75 67 69 60 57 61 62 82 107 121 141 147 188 250 254 254 254 255 255 255 255 255 255 255 255 255 255 255 255 255 255 255 255 255 255 255 255 255 255 255 255 255 255 255 255 255 255 255 255 255 255 255 255 255 255 255 255 255 255 255 255 255 255 255 255 255 255 255 255 255 255 255 255 255 255 255 255 255 255 255 255 255 255 255 255 255 255 255 255 255 255 255 255 255 255 255 255 255 255 255 255 
255 255 255 255 255 255 255 255 255 255 255 255 255 255 255 255 255 255 255 255 255 255 255 255 255 255 255 255 255 255 255 255 255 255 255 255 255 255 255 255 254 254 254 239 206 166 135 118 111 110 105 96 92 92 88 89 87 92 88 85 89 88 87 91 91 94 93 94 94 90 93 100 105 108 110 128 168 194 202 203 202 200 196 191 173 170 176 176 165 152 136 131 137 143 143 143 149 151 166 170 158 174 190 206 209 211 213 214 214 214 214 214 215 215 215 214 215 214 214 214 214 214 214 214 214 214 213 213 213 212 212 212 212 212 212 212 212 212 212 213 213 212 212 213 213 213 212 211 211 210 210 210 209 209 209 208 207 207 207 206 206 206 205 204 203 203 203 202 202 202 202 202 201 200 200 200 199 197 197 196 195 193 191 188 185 182 180 177 176 174 169 164 156 144 125 118 102 90 77 69 66 66 61 61 63 72 102 113 124 147 156 163 228 254 254 254 254 255 255 255 255 255 255 255 255 255 255 255 255 255 255 255 255 255 255 255 255 255 255 255 255 255 255 255 255 255 255 255 255 255 255 255 255 255 255 255 255 255 255 255 255 255 255 255 255 255 255 255 255 255 255 255 255 255 255 255 255 255 255 255 255 255 255 255 255 255 255 255 255 255 255 255 255 255 255 255 255 255 255 255 
255 255 255 255 255 255 255 255 255 255 255 255 255 255 255 255 255 255 255 255 255 255 255 255 255 255 255 255 255 255 255 255 255 255 255 255 255 255 255 255 254 254 234 190 148 129 114 103 107 104 99 94 98 109 122 136 128 99 85 88 87 84 87 85 85 79 73 76 87 85 90 99 101 107 109 112 120 159 193 201 202 201 199 197 193 180 168 174 175 162 149 138 133 138 142 143 147 148 152 155 151 169 178 187 202 208 211 213 214 214 214 214 214 214 215 215 214 214 215 215 215 214 214 215 215 214 214 214 214 213 213 213 213 213 213 213 213 213 213 213 213 213 212 213 213 212 212 211 211 210 210 210 209 210 208 208 208 207 206 205 206 206 205 205 203 203 202 202 202 202 202 201 201 201 200 200 199 197 196 195 194 192 189 187 184 182 179 177 175 172 167 159 146 130 123 114 88 81 77 69 64 64 65 64 66 94 114 117 128 151 161 158 198 253 254 254 255 255 255 255 255 255 255 255 255 255 255 255 255 255 255 255 255 255 255 255 255 255 255 255 255 255 255 255 255 255 255 255 255 255 255 255 255 255 255 255 255 255 255 255 255 255 255 255 255 255 255 255 255 255 255 255 255 255 255 255 255 255 255 255 255 255 255 255 255 255 255 255 255 255 255 255 255 255 255 255 255 255 255 255 
255 255 255 255 255 255 255 255 255 255 255 255 255 255 255 255 255 255 255 255 255 255 255 255 255 255 255 255 255 255 255 255 255 255 255 255 255 255 255 255 254 240 189 150 126 118 112 98 94 104 102 107 151 181 195 197 193 179 133 79 86 84 94 96 89 82 69 60 68 85 90 102 109 108 110 110 106 122 167 197 201 200 200 200 200 196 186 172 173 177 158 145 139 137 136 138 140 139 146 151 159 160 170 174 188 198 206 210 212 213 213 214 214 214 214 214 214 215 215 215 215 215 215 215 215 215 215 215 214 215 214 214 213 214 214 213 214 214 213 213 213 213 212 212 212 212 212 211 210 210 210 210 210 209 208 207 206 207 207 206 206 206 205 205 203 203 202 202 202 202 201 200 201 199 199 199 198 196 195 193 193 191 188 186 183 181 178 176 173 168 161 150 134 124 104 86 76 77 76 70 65 64 67 66 88 114 116 120 132 152 161 161 172 242 254 255 255 255 255 255 255 255 255 255 255 255 255 255 255 255 255 255 255 255 255 255 255 255 255 255 255 255 255 255 255 255 255 255 255 255 255 255 255 255 255 255 255 255 255 255 255 255 255 255 255 255 255 255 255 255 255 255 255 255 255 255 255 255 255 255 255 255 255 255 255 255 255 255 255 255 255 255 255 255 255 255 255 255 255 255 
255 255 255 255 255 255 255 255 255 255 255 255 255 255 255 255 255 255 255 255 255 255 255 255 255 255 255 255 255 255 255 255 255 255 255 255 255 255 255 254 249 209 159 132 120 119 111 106 95 106 124 158 180 187 192 174 174 198 188 102 79 84 89 93 85 77 73 62 64 86 100 105 111 115 111 108 110 113 137 183 198 199 199 201 202 201 199 192 176 165 157 156 153 151 133 130 133 138 145 148 156 151 161 171 190 188 192 205 209 211 212 213 214 214 214 214 214 215 215 215 215 215 215 215 215 215 215 215 215 215 214 214 214 213 214 213 213 214 213 213 213 212 212 212 211 211 211 211 211 210 209 209 209 208 208 207 206 207 207 206 206 205 204 204 203 203 202 201 201 201 200 199 199 198 199 199 197 195 194 192 191 189 187 184 181 179 176 172 168 162 152 137 136 123 88 79 77 76 75 70 65 67 69 81 109 117 118 122 132 150 160 162 158 223 254 254 255 255 255 255 255 255 255 255 255 255 255 255 255 255 255 255 255 255 255 255 255 255 255 255 255 255 255 255 255 255 255 255 255 255 255 255 255 255 255 255 255 255 255 255 255 255 255 255 255 255 255 255 255 255 255 255 255 255 255 255 255 255 255 255 255 255 255 255 255 255 255 255 255 255 255 255 255 255 255 255 255 255 255 255 
255 255 255 255 255 255 255 255 255 255 255 255 255 255 255 255 255 255 255 255 255 255 255 255 255 255 255 255 255 255 255 255 255 255 255 255 255 255 255 252 221 170 144 131 113 111 106 106 102 111 164 190 191 190 164 130 155 189 189 118 85 92 93 98 82 70 64 60 67 98 104 107 116 111 109 113 115 114 116 157 190 197 198 200 202 204 204 202 197 183 162 153 159 157 144 135 133 135 140 148 154 148 144 153 182 196 188 189 202 207 209 212 213 213 214 214 214 214 214 214 214 215 215 215 214 215 215 215 214 214 214 214 214 214 213 213 213 213 212 213 212 212 212 211 211 210 210 211 210 210 209 208 208 208 207 207 206 206 206 205 205 205 204 203 202 202 202 201 200 199 199 197 196 197 196 196 195 193 191 189 188 186 182 178 175 172 169 164 159 151 139 130 121 98 77 77 79 78 74 71 73 69 78 105 119 120 120 123 133 150 161 163 155 199 254 254 254 255 255 255 255 255 255 255 255 255 255 255 255 255 255 255 255 255 255 255 255 255 255 255 255 255 255 255 255 255 255 255 255 255 255 255 255 255 255 255 255 255 255 255 255 255 255 255 255 255 255 255 255 255 255 255 255 255 255 255 255 255 255 255 255 255 255 255 255 255 255 255 255 255 255 255 255 255 255 255 255 255 255 255 
255 255 255 255 255 255 255 255 255 255 255 255 255 255 255 255 255 255 255 255 255 255 255 255 255 255 255 255 255 255 255 255 255 255 255 255 255 254 254 236 187 154 132 119 109 106 102 104 107 132 190 193 202 169 138 159 192 193 172 102 85 92 87 93 81 71 61 53 65 98 113 118 117 112 111 113 113 114 116 138 179 194 197 200 202 203 205 206 204 201 190 168 161 158 152 144 144 135 139 146 151 147 143 153 163 176 185 180 186 197 206 209 211 212 213 214 214 214 213 214 214 214 214 214 214 215 215 214 214 214 214 214 214 214 214 213 213 213 212 212 212 211 211 211 211 210 210 210 210 210 210 209 208 207 207 207 206 206 205 204 204 203 202 201 199 199 199 198 197 196 194 193 192 192 191 190 188 185 183 181 177 174 169 165 156 154 150 144 134 130 130 115 89 86 74 75 78 78 69 77 78 68 99 119 122 122 121 123 133 152 163 168 160 175 247 254 254 255 255 255 255 255 255 255 255 255 255 255 255 255 255 255 255 255 255 255 255 255 255 255 255 255 255 255 255 255 255 255 255 255 255 255 255 255 255 255 255 255 255 255 255 255 255 255 255 255 255 255 255 255 255 255 255 255 255 255 255 255 255 255 255 255 255 255 255 255 255 255 255 255 255 255 255 255 255 255 255 255 255 255 
255 255 255 255 255 255 255 255 255 255 255 255 255 255 255 255 255 255 255 255 255 255 255 255 255 255 255 255 255 255 255 255 255 255 255 255 255 254 246 199 158 140 125 116 109 103 101 101 106 142 189 192 183 146 164 193 202 201 149 92 83 88 93 98 78 70 64 61 77 97 107 113 111 123 124 114 113 113 112 121 159 186 195 199 201 203 206 206 206 206 203 197 177 162 154 148 151 147 145 146 151 144 144 154 160 170 177 184 192 188 187 203 209 211 212 213 214 214 214 214 214 214 213 214 214 214 215 214 214 214 214 214 214 213 213 212 211 211 211 211 211 210 211 211 210 210 209 210 209 209 208 208 207 206 205 204 204 203 201 200 199 198 196 194 193 192 188 187 184 181 177 175 171 171 164 159 161 158 155 144 139 140 138 132 101 112 118 93 81 117 116 92 85 78 73 73 78 75 71 82 82 93 118 122 124 123 121 123 133 153 167 173 165 159 231 254 254 255 255 255 255 255 255 255 255 255 255 255 255 255 255 255 255 255 255 255 255 255 255 255 255 255 255 255 255 255 255 255 255 255 255 255 255 255 255 255 255 255 255 255 255 255 255 255 255 255 255 255 255 255 255 255 255 255 255 255 255 255 255 255 255 255 255 255 255 255 255 255 255 255 255 255 255 255 255 255 255 255 255 255 
255 255 255 255 255 255 255 255 255 255 255 255 255 255 255 255 255 255 255 255 255 255 255 255 255 255 255 255 255 255 255 255 255 255 255 255 255 253 221 167 147 133 120 112 108 102 107 110 106 127 180 197 186 177 188 191 185 151 99 90 90 89 98 102 92 90 76 79 92 98 99 105 124 142 133 108 109 109 109 108 139 175 192 198 201 203 205 206 207 207 207 206 201 187 167 148 146 158 157 152 147 136 140 147 154 161 168 176 180 185 165 178 199 208 210 211 212 213 214 214 213 213 213 214 214 214 214 214 213 213 213 213 212 212 211 211 211 210 210 210 209 209 209 209 208 208 207 206 205 204 202 202 200 198 196 194 193 189 183 179 179 175 173 169 168 164 141 137 135 140 136 139 136 150 133 110 127 134 137 126 114 123 134 114 82 99 88 57 98 136 94 77 77 69 72 71 75 76 71 71 89 113 121 124 125 124 123 121 131 154 169 175 169 154 209 254 254 255 255 255 255 255 255 255 255 255 255 255 255 255 255 255 255 255 255 255 255 255 255 255 255 255 255 255 255 255 255 255 255 255 255 255 255 255 255 255 255 255 255 255 255 255 255 255 255 255 255 255 255 255 255 255 255 255 255 255 255 255 255 255 255 255 255 255 255 255 255 255 255 255 255 255 255 255 255 255 255 255 255 255 
255 255 255 255 255 255 255 255 255 255 255 255 255 255 255 255 255 255 255 255 255 255 255 255 255 255 255 255 255 255 255 255 255 255 254 254 254 242 187 148 130 121 117 109 107 102 103 107 107 110 144 178 172 181 177 154 125 96 88 96 95 96 103 97 101 97 85 92 90 96 100 105 111 100 84 80 96 103 103 97 120 162 188 195 200 202 204 206 207 208 209 209 207 204 194 171 148 164 171 162 156 148 145 143 152 158 159 165 168 170 164 171 176 188 204 208 209 211 212 213 213 213 213 213 213 213 213 212 212 212 212 211 211 211 210 209 208 206 206 206 205 203 201 199 198 195 193 190 186 179 172 172 163 159 160 165 168 157 150 147 156 155 155 162 170 167 127 129 131 137 126 126 128 153 128 97 110 121 129 117 109 119 126 98 89 95 83 109 136 112 81 71 73 69 67 67 72 84 77 79 104 119 122 125 126 126 124 118 130 153 169 176 172 157 186 251 255 255 255 255 255 255 255 255 255 255 255 255 255 255 255 255 255 255 255 255 255 255 255 255 255 255 255 255 255 255 255 255 255 255 255 255 255 255 255 255 255 255 255 255 255 255 255 255 255 255 255 255 255 255 255 255 255 255 255 255 255 255 255 255 255 255 255 255 255 255 255 255 255 255 255 255 255 255 255 255 255 255 255 255 
255 255 255 255 255 255 255 255 255 255 255 255 255 255 255 255 255 255 255 255 255 255 255 255 255 255 255 255 255 255 255 255 255 254 254 254 254 226 167 134 120 113 110 107 107 106 109 106 105 103 110 121 113 118 115 100 90 91 90 94 98 96 106 103 98 87 95 103 95 103 105 94 71 68 68 78 93 98 103 98 108 151 182 193 198 201 204 206 207 209 209 210 210 209 206 199 177 170 184 175 157 167 155 145 150 152 156 162 163 165 170 176 181 183 188 200 205 208 210 211 212 212 211 211 210 210 210 209 209 209 208 205 203 201 198 196 194 195 190 187 184 182 177 172 174 160 164 167 152 149 154 161 149 142 149 164 173 149 146 146 147 139 140 148 145 128 110 130 129 126 115 116 120 120 91 86 99 106 117 108 99 107 104 80 74 85 114 124 102 78 68 65 74 69 61 63 77 93 87 98 115 120 123 126 127 126 125 116 130 152 169 178 175 161 166 243 254 255 255 255 255 255 255 255 255 255 255 255 255 255 255 255 255 255 255 255 255 255 255 255 255 255 255 255 255 255 255 255 255 255 255 255 255 255 255 255 255 255 255 255 255 255 255 255 255 255 255 255 255 255 255 255 255 255 255 255 255 255 255 255 255 255 255 255 255 255 255 255 255 255 255 255 255 255 255 255 255 255 255 255 
255 255 255 255 255 255 255 255 255 255 255 255 255 255 255 255 255 255 255 255 255 255 255 255 255 255 255 255 255 255 255 255 255 254 254 254 251 204 146 124 121 114 109 104 108 109 109 105 109 101 97 98 96 96 90 90 91 94 89 92 99 96 102 95 97 98 92 99 106 110 104 98 93 93 87 84 92 93 96 89 92 137 174 191 197 201 204 205 207 209 210 210 211 210 210 209 204 188 170 155 150 171 158 157 153 146 150 157 154 157 164 165 173 183 186 189 194 199 203 205 204 202 200 200 196 197 192 190 188 190 182 174 167 169 164 171 173 173 164 164 169 166 172 168 165 158 162 161 137 137 147 144 135 137 140 141 140 131 137 136 131 125 130 127 113 101 101 114 111 111 107 109 113 107 85 89 96 101 110 106 101 107 106 86 89 117 117 89 77 69 64 67 71 70 62 63 80 85 92 109 117 122 124 126 127 127 124 112 128 151 170 179 177 164 155 228 254 255 255 255 255 255 255 255 255 255 255 255 255 255 255 255 255 255 255 255 255 255 255 255 255 255 255 255 255 255 255 255 255 255 255 255 255 255 255 255 255 255 255 255 255 255 255 255 255 255 255 255 255 255 255 255 255 255 255 255 255 255 255 255 255 255 255 255 255 255 255 255 255 255 255 255 255 255 255 255 255 255 255 255 
255 255 255 255 255 255 255 255 255 255 255 255 255 255 255 255 255 255 255 255 255 255 255 255 255 255 255 255 255 255 255 255 255 254 254 250 226 175 129 115 111 109 111 104 104 101 108 103 109 105 102 97 97 93 92 93 87 89 91 100 106 105 98 93 102 101 96 99 110 109 104 96 98 99 97 96 98 91 86 79 84 125 166 188 196 200 203 205 207 208 210 210 210 210 211 211 209 206 195 172 158 183 183 171 161 149 146 145 149 147 152 157 164 175 189 185 181 174 173 171 163 165 168 173 169 169 164 167 170 167 152 155 156 162 161 167 168 160 154 155 154 153 157 154 163 165 153 139 121 124 125 124 127 127 122 118 112 114 121 126 123 120 122 116 105 99 104 105 104 102 105 108 109 107 97 97 100 105 110 107 112 116 107 112 133 112 76 53 40 45 57 64 67 71 72 64 78 86 101 112 117 122 125 126 127 127 122 109 127 150 169 181 179 167 153 213 254 255 255 255 255 255 255 255 255 255 255 255 255 255 255 255 255 255 255 255 255 255 255 255 255 255 255 255 255 255 255 255 255 255 255 255 255 255 255 255 255 255 255 255 255 255 255 255 255 255 255 255 255 255 255 255 255 255 255 255 255 255 255 255 255 255 255 255 255 255 255 255 255 255 255 255 255 255 255 255 255 255 255 255 
255 255 255 255 255 255 255 255 255 255 255 255 255 255 255 255 255 255 255 255 255 255 255 255 255 255 255 255 255 254 254 255 254 250 229 199 162 140 117 106 106 104 108 98 104 103 107 103 102 98 100 93 92 95 92 90 82 86 87 98 102 107 108 95 100 100 98 97 109 102 92 93 102 105 106 101 104 95 89 78 71 111 160 185 195 200 203 205 207 208 210 210 210 210 211 211 211 210 207 202 181 175 186 181 171 159 151 142 143 141 146 150 153 163 161 163 182 173 174 151 131 151 159 154 151 158 161 164 151 135 137 146 148 149 150 148 142 141 142 146 143 142 144 149 158 158 143 127 117 117 118 119 125 123 118 113 110 113 117 119 122 122 121 113 107 103 107 107 105 103 104 105 105 101 96 97 99 100 101 99 103 91 116 154 131 81 50 26 23 24 39 58 65 74 77 69 81 92 105 113 118 123 125 126 128 127 119 106 126 150 168 182 181 171 155 196 253 255 255 255 255 255 255 255 255 255 255 255 255 255 255 255 255 255 255 255 255 255 255 255 255 255 255 255 255 255 255 255 255 255 255 255 255 255 255 255 255 255 255 255 255 255 255 255 255 255 255 255 255 255 255 255 255 255 255 255 255 255 255 255 255 255 255 255 255 255 255 255 255 255 255 255 255 255 255 255 255 255 255 255 
255 255 255 255 255 255 255 255 255 255 255 255 255 255 255 255 255 255 255 255 255 255 255 255 255 255 255 255 254 254 254 254 247 206 164 139 120 108 95 92 104 102 102 101 107 102 101 99 103 98 90 89 94 97 95 95 87 93 92 97 96 92 104 95 95 104 102 107 105 97 103 107 104 102 108 100 102 94 84 74 69 107 153 183 193 199 202 204 206 208 209 210 211 211 211 211 211 211 211 210 205 192 173 170 184 171 163 155 150 146 143 147 151 151 156 159 155 147 167 169 151 129 125 125 135 146 152 147 133 127 134 138 143 145 146 139 131 132 137 137 131 130 133 139 146 142 138 122 117 118 116 122 124 123 116 112 113 115 116 117 122 122 119 107 106 105 105 104 108 107 104 101 101 102 99 100 101 101 96 86 77 74 146 167 106 61 30 25 32 23 27 46 66 80 81 77 88 100 107 113 119 124 126 128 128 127 114 103 126 149 168 182 183 174 160 180 250 254 254 255 255 255 255 255 255 255 255 255 255 255 255 255 255 255 255 255 255 255 255 255 255 255 255 255 255 255 255 255 255 255 255 255 255 255 255 255 255 255 255 255 255 255 255 255 255 255 255 255 255 255 255 255 255 255 255 255 255 255 255 255 255 255 255 255 255 255 255 255 255 255 255 255 255 255 255 255 255 255 255 255 
255 255 255 255 255 255 255 255 255 255 255 255 255 255 255 255 255 255 255 255 255 255 255 255 255 255 255 255 254 254 254 253 222 166 133 118 108 99 95 94 101 108 104 108 107 101 98 97 104 97 88 92 87 88 92 100 92 95 99 95 98 94 93 89 91 102 96 103 105 101 108 106 101 98 102 97 95 91 79 73 68 104 147 180 191 197 200 204 206 207 209 209 210 211 211 211 211 212 212 212 210 207 197 176 169 162 164 166 162 155 148 142 143 147 146 125 102 97 117 144 158 152 142 133 141 146 148 144 136 136 139 140 142 140 146 141 137 134 136 131 125 126 131 137 136 133 130 123 124 124 121 124 127 121 115 116 120 122 121 117 117 120 120 109 107 103 99 104 107 106 107 105 103 105 100 100 103 101 91 83 87 85 116 133 81 47 28 43 62 27 24 41 70 70 73 83 96 101 108 113 119 124 127 129 129 126 108 101 126 149 167 181 184 177 166 167 243 254 254 255 255 255 255 255 255 255 255 255 255 255 255 255 255 255 255 255 255 255 255 255 255 255 255 255 255 255 255 255 255 255 255 255 255 255 255 255 255 255 255 255 255 255 255 255 255 255 255 255 255 255 255 255 255 255 255 255 255 255 255 255 255 255 255 255 255 255 255 255 255 255 255 255 255 255 255 255 255 255 255 255 
255 255 255 255 255 255 255 255 255 255 255 255 255 255 255 255 255 255 255 255 255 255 255 255 255 255 255 255 254 254 254 241 182 144 125 114 100 94 99 92 92 102 97 102 106 104 95 91 94 91 89 95 92 91 95 93 91 99 96 91 96 104 93 88 99 108 100 104 107 102 104 102 98 97 101 98 93 89 80 68 58 98 142 176 189 196 200 202 204 207 208 209 210 211 211 212 212 212 213 213 211 211 209 201 181 167 170 170 169 164 158 147 144 142 104 68 56 60 66 93 133 157 172 164 141 141 141 140 137 139 140 137 138 139 142 145 139 135 134 133 130 130 131 134 133 133 135 131 127 124 124 124 126 120 118 116 118 122 121 117 121 121 117 106 106 99 95 100 99 105 108 105 103 108 100 99 103 103 97 99 108 110 105 118 93 63 28 37 47 26 25 47 73 66 80 92 97 101 108 113 119 124 127 129 129 124 102 101 127 150 167 181 185 181 171 161 234 254 255 255 255 255 255 255 255 255 255 255 255 255 255 255 255 255 255 255 255 255 255 255 255 255 255 255 255 255 255 255 255 255 255 255 255 255 255 255 255 255 255 255 255 255 255 255 255 255 255 255 255 255 255 255 255 255 255 255 255 255 255 255 255 255 255 255 255 255 255 255 255 255 255 255 255 255 255 255 255 255 255 255 
255 255 255 255 255 255 255 255 255 255 255 255 255 255 255 255 255 255 255 255 255 255 255 255 255 255 255 255 255 254 253 221 158 130 121 114 105 98 100 89 85 95 100 105 101 98 99 92 88 91 88 92 98 94 95 92 88 95 102 100 96 101 101 99 99 104 104 107 105 99 98 102 97 95 97 94 89 82 72 55 52 97 138 173 188 193 198 201 203 206 208 209 210 211 211 212 212 212 213 213 212 213 211 210 205 191 176 177 189 182 168 161 149 127 72 47 55 75 58 64 109 142 145 179 120 110 133 135 136 139 140 138 142 142 141 142 139 134 136 132 132 134 129 132 133 131 133 131 130 124 123 117 120 118 113 116 118 121 120 119 122 123 123 112 110 100 98 99 104 111 114 109 103 107 100 101 104 110 116 117 124 119 92 111 127 79 29 25 22 20 26 50 65 71 87 93 97 100 106 112 120 125 127 129 128 119 96 101 127 150 167 181 186 184 176 162 225 254 255 254 255 255 255 255 255 255 255 255 255 255 255 255 255 255 255 255 255 255 255 255 255 255 255 255 255 255 255 255 255 255 255 255 255 255 255 255 255 255 255 255 255 255 255 255 255 255 255 255 255 255 255 255 255 255 255 255 255 255 255 255 255 255 255 255 255 255 255 255 255 255 255 255 255 255 255 255 255 255 255 255 
255 255 255 255 255 255 255 255 255 255 255 255 255 255 255 255 255 255 255 255 255 255 255 255 255 255 255 255 255 254 250 214 154 128 120 118 110 102 101 92 84 86 90 100 103 100 98 93 87 91 95 90 91 91 92 95 92 83 93 104 102 100 102 103 94 98 98 103 102 105 95 93 90 88 91 95 88 76 63 50 51 94 136 171 185 191 196 200 203 205 207 208 210 210 211 212 212 212 213 212 213 213 213 212 211 207 197 179 177 187 177 172 157 118 58 59 95 103 68 61 88 137 144 136 66 104 136 136 138 135 136 136 137 138 141 136 136 134 138 140 136 137 131 131 136 136 134 131 132 125 122 118 120 119 114 114 116 115 114 112 118 117 118 110 106 103 103 106 110 110 107 104 104 109 104 103 109 117 119 105 98 90 66 79 124 91 44 22 20 20 36 50 64 80 88 93 96 99 104 112 119 126 128 129 126 112 90 101 127 150 167 180 186 187 181 162 212 254 254 254 255 255 255 255 255 255 255 255 255 255 255 255 255 255 255 255 255 255 255 255 255 255 255 255 255 255 255 255 255 255 255 255 255 255 255 255 255 255 255 255 255 255 255 255 255 255 255 255 255 255 255 255 255 255 255 255 255 255 255 255 255 255 255 255 255 255 255 255 255 255 255 255 255 255 255 255 255 255 255 255 
255 255 255 255 255 255 255 255 255 255 255 255 255 255 255 255 255 255 255 255 255 255 255 255 255 255 255 255 255 255 254 224 156 128 124 120 112 105 105 103 98 88 89 94 97 98 100 97 93 96 91 89 91 87 91 98 97 90 91 86 88 93 98 97 98 102 96 93 92 97 91 89 87 93 87 85 81 73 59 42 52 93 134 169 183 190 195 198 201 204 206 208 209 210 211 211 211 212 213 212 213 213 213 213 212 211 209 201 183 172 178 182 169 127 60 56 92 90 71 60 91 149 153 100 93 140 144 144 144 142 137 131 131 132 135 133 131 133 136 139 132 133 128 129 131 131 130 125 127 125 124 118 117 116 110 107 110 106 108 104 109 106 113 106 105 104 105 108 106 100 95 96 104 111 108 109 117 122 111 91 74 66 57 66 112 108 65 41 26 31 39 36 62 82 89 94 97 98 103 111 120 126 128 128 122 99 72 73 80 90 107 134 167 188 185 165 198 254 254 255 255 255 255 255 255 255 255 255 255 255 255 255 255 255 255 255 255 255 255 255 255 255 255 255 255 255 255 255 255 255 255 255 255 255 255 255 255 255 255 255 255 255 255 255 255 255 255 255 255 255 255 255 255 255 255 255 255 255 255 255 255 255 255 255 255 255 255 255 255 255 255 255 255 255 255 255 255 255 255 255 
255 255 255 255 255 255 255 255 255 255 255 255 255 255 255 255 255 255 255 255 255 255 255 255 255 255 255 255 255 255 254 229 163 132 128 123 114 112 106 101 103 98 91 96 101 95 98 99 96 98 89 92 97 95 98 99 100 101 98 91 93 86 92 97 95 95 99 93 91 94 90 90 89 86 83 78 72 68 53 45 56 92 132 167 182 189 194 198 200 203 205 207 209 210 210 211 212 212 212 212 212 213 214 214 213 213 212 210 204 185 159 171 182 152 75 55 70 64 58 59 105 159 133 82 125 144 140 145 144 143 137 129 133 134 134 135 130 127 131 127 118 122 121 124 122 122 123 114 115 115 116 109 111 113 107 105 106 104 106 100 99 97 106 103 98 97 97 97 95 87 83 90 102 109 108 110 113 112 99 87 72 73 77 89 104 119 86 76 56 39 29 29 62 81 88 93 96 98 102 110 119 125 123 114 86 51 33 30 30 33 36 40 63 110 160 170 185 251 254 255 254 255 255 255 255 255 255 255 255 255 255 255 255 255 255 255 255 255 255 255 255 255 255 255 255 255 255 255 255 255 255 255 255 255 255 255 255 255 255 255 255 255 255 255 255 255 255 255 255 255 255 255 255 255 255 255 255 255 255 255 255 255 255 255 255 255 255 255 255 255 255 255 255 255 255 255 255 255 255 255 
255 255 255 255 255 255 255 255 255 255 255 255 255 255 255 255 255 255 255 255 255 255 255 255 255 255 255 255 255 254 254 236 172 135 128 123 116 117 112 108 109 105 97 101 101 92 93 101 107 109 98 95 96 105 113 111 108 105 103 102 101 99 97 97 101 97 98 96 90 91 85 83 83 77 78 78 68 70 61 47 57 90 129 165 180 187 192 197 200 202 205 206 208 209 210 210 211 212 212 212 212 213 213 214 214 213 212 212 210 205 170 150 165 172 120 65 61 61 59 81 136 153 84 74 120 130 135 144 143 142 139 132 137 136 135 135 130 118 110 103 100 105 105 107 106 105 107 102 104 105 105 100 100 102 97 97 100 99 99 92 87 85 88 85 81 82 82 82 87 95 108 118 97 107 104 107 106 102 94 82 79 91 95 96 90 117 109 80 51 28 24 27 61 80 87 92 94 96 100 106 93 74 58 48 39 37 37 35 33 33 34 35 36 35 63 111 168 245 255 254 254 254 255 255 255 255 255 255 255 255 255 255 255 255 255 255 255 255 255 255 255 255 255 255 255 255 255 255 255 255 255 255 255 255 255 255 255 255 255 255 255 255 255 255 255 255 255 255 255 255 255 255 255 255 255 255 255 255 255 255 255 255 255 255 255 255 255 255 255 255 255 255 255 255 255 255 255 255 255 255 
255 255 255 255 255 255 255 255 255 255 255 255 255 255 255 255 255 255 255 255 255 255 255 255 255 255 255 255 254 254 254 246 204 153 133 121 124 120 114 114 117 110 104 103 98 96 97 97 103 106 103 106 104 108 112 110 109 109 105 104 103 99 101 98 97 90 86 83 82 86 84 80 74 74 79 76 72 73 68 55 58 89 127 162 178 185 190 196 199 201 204 205 207 208 209 210 211 212 212 213 213 213 213 213 213 214 213 213 212 209 191 164 152 144 165 136 95 83 96 128 159 122 59 100 129 132 134 140 136 132 133 131 136 137 138 136 126 149 143 120 116 117 112 109 110 110 114 103 99 101 99 97 97 99 100 98 101 99 99 101 100 100 109 125 131 124 115 108 116 141 148 119 75 96 98 99 101 98 93 90 91 100 103 92 70 90 132 72 28 24 25 32 62 78 85 90 93 94 81 57 34 32 37 40 42 43 43 41 38 36 34 34 36 35 33 36 98 234 254 255 255 255 255 255 255 255 255 255 255 255 255 255 255 255 255 255 255 255 255 255 255 255 255 255 255 255 255 255 255 255 255 255 255 255 255 255 255 255 255 255 255 255 255 255 255 255 255 255 255 255 255 255 255 255 255 255 255 255 255 255 255 255 255 255 255 255 255 255 255 255 255 255 255 255 255 255 255 255 255 255 
255 255 255 255 255 255 255 255 255 255 255 255 255 255 255 255 255 255 255 255 255 255 255 255 255 255 255 255 255 255 255 254 240 184 140 121 124 121 115 119 121 117 113 98 99 97 95 96 101 103 108 111 109 109 106 104 107 110 110 106 106 106 108 104 99 95 87 79 78 78 77 70 64 76 82 82 81 80 78 71 73 93 124 159 176 183 189 193 198 201 203 205 207 207 208 209 210 211 212 213 213 213 212 213 213 213 213 212 213 210 186 164 164 142 139 160 167 152 156 164 167 86 82 133 140 139 138 139 136 134 132 131 133 136 140 143 122 163 156 136 138 138 138 132 134 136 140 134 129 131 130 127 128 130 130 129 131 128 127 127 127 124 124 129 131 122 114 116 120 127 113 78 64 94 98 101 103 103 100 96 94 101 100 83 59 64 96 50 25 27 31 41 61 76 84 89 85 59 33 28 36 41 43 43 43 43 43 42 39 37 35 34 34 35 31 29 33 158 254 255 255 255 255 255 255 255 255 255 255 255 255 255 255 255 255 255 255 255 255 255 255 255 255 255 255 255 255 255 255 255 255 255 255 255 255 255 255 255 255 255 255 255 255 255 255 255 255 255 255 255 255 255 255 255 255 255 255 255 255 255 255 255 255 255 255 255 255 255 255 255 255 255 255 255 255 255 255 255 255 255 
255 255 255 255 255 255 255 255 255 255 255 255 255 255 255 255 255 255 255 255 255 255 255 255 255 255 255 255 255 255 255 254 251 214 161 132 125 123 115 124 125 118 112 100 101 91 92 101 102 107 115 114 113 108 104 107 113 113 111 108 109 105 107 106 104 98 97 90 87 80 76 75 75 81 88 89 88 88 93 89 91 97 121 153 173 181 187 192 197 200 202 205 207 207 209 209 210 211 212 212 212 213 212 213 213 212 212 213 213 210 189 181 171 156 139 127 142 153 146 164 143 75 118 139 141 139 137 138 136 136 137 135 132 128 124 124 114 160 147 138 139 137 140 132 131 127 128 130 129 130 130 131 131 130 129 128 127 124 122 122 125 125 123 122 120 115 111 113 119 119 106 89 69 102 105 106 107 101 100 99 91 88 83 74 59 45 38 30 27 30 37 46 60 75 83 67 41 24 32 39 42 42 43 44 43 43 43 42 39 35 35 34 32 31 28 26 25 80 235 255 255 255 255 255 255 255 255 255 255 255 255 255 255 255 255 255 255 255 255 255 255 255 255 255 255 255 255 255 255 255 255 255 255 255 255 255 255 255 255 255 255 255 255 255 255 255 255 255 255 255 255 255 255 255 255 255 255 255 255 255 255 255 255 255 255 255 255 255 255 255 255 255 255 255 255 255 255 255 255 255 
255 255 255 255 255 255 255 255 255 255 255 255 255 255 255 255 255 255 255 255 255 255 255 255 255 255 255 255 255 255 255 254 254 249 221 176 145 133 125 127 127 117 103 97 94 97 102 108 112 119 117 118 114 110 108 110 118 115 110 111 111 113 109 108 104 97 92 82 80 75 78 84 81 76 89 89 87 90 94 94 92 92 104 142 167 179 186 191 195 199 201 204 206 207 208 209 210 211 211 211 212 212 213 213 213 213 212 213 213 208 182 175 151 140 136 130 119 122 136 164 98 88 136 141 138 134 137 136 132 133 138 142 141 133 129 123 112 152 143 141 136 134 140 140 135 129 127 126 126 128 130 130 136 130 129 126 124 121 117 118 120 122 122 120 118 114 110 111 117 120 114 100 76 114 119 115 113 101 96 88 80 71 68 63 57 50 45 38 32 32 34 35 54 71 52 29 27 35 42 43 40 38 42 45 44 43 43 42 39 35 33 33 32 29 27 24 24 36 196 255 255 255 255 255 255 255 255 255 255 255 255 255 255 255 255 255 255 255 255 255 255 255 255 255 255 255 255 255 255 255 255 255 255 255 255 255 255 255 255 255 255 255 255 255 255 255 255 255 255 255 255 255 255 255 255 255 255 255 255 255 255 255 255 255 255 255 255 255 255 255 255 255 255 255 255 255 255 255 255 255 
255 255 255 255 255 255 255 255 255 255 255 255 255 255 255 255 255 255 255 255 255 255 255 255 255 255 255 255 255 255 255 255 255 254 253 238 201 159 139 129 126 116 107 96 99 111 107 106 112 121 117 117 115 114 116 110 119 115 111 115 115 110 100 106 106 104 98 84 82 80 86 89 86 84 84 91 94 95 94 98 92 93 96 122 155 175 183 189 194 198 201 203 204 206 208 209 209 211 211 211 212 212 212 212 213 213 213 213 212 208 178 183 157 139 134 133 134 121 123 123 76 113 138 140 135 132 135 138 135 135 140 145 150 146 141 128 116 154 146 141 135 136 144 142 139 135 132 126 126 132 137 139 144 140 139 130 132 125 123 124 120 124 123 120 120 114 110 111 114 109 104 91 71 113 123 116 108 99 93 84 77 71 69 62 58 59 52 46 39 29 25 27 46 40 24 31 39 44 45 41 35 35 40 48 47 45 44 43 38 34 32 32 31 29 26 24 24 23 162 254 254 255 255 255 255 255 255 255 255 255 255 255 255 255 255 255 255 255 255 255 255 255 255 255 255 255 255 255 255 255 255 255 255 255 255 255 255 255 255 255 255 255 255 255 255 255 255 255 255 255 255 255 255 255 255 255 255 255 255 255 255 255 255 255 255 255 255 255 255 255 255 255 255 255 255 255 255 255 255 255 
255 255 255 255 255 255 255 255 255 255 255 255 255 255 255 255 255 255 255 255 255 255 255 255 255 255 255 255 255 255 255 255 255 254 254 254 248 235 204 152 134 115 110 107 112 103 103 109 115 115 113 117 115 111 110 110 113 110 107 109 114 109 108 107 100 98 96 83 79 77 86 89 83 83 83 86 86 86 95 97 96 100 103 102 127 164 178 186 191 196 199 201 204 205 207 208 209 210 211 211 212 212 212 212 213 213 213 213 212 208 174 169 155 146 143 141 145 139 124 105 103 130 137 137 134 133 132 135 135 138 137 141 149 150 145 133 122 155 145 147 140 141 148 147 141 136 140 137 138 144 142 141 143 147 155 146 142 130 129 135 130 134 129 123 115 109 110 115 116 112 116 94 72 108 114 108 101 93 87 78 75 73 73 67 59 62 56 51 44 32 29 27 30 29 40 48 48 46 42 35 31 31 37 51 52 48 46 44 38 33 31 30 29 28 25 24 25 22 145 253 254 254 255 255 255 255 255 255 255 255 255 255 255 255 255 255 255 255 255 255 255 255 255 255 255 255 255 255 255 255 255 255 255 255 255 255 255 255 255 255 255 255 255 255 255 255 255 255 255 255 255 255 255 255 255 255 255 255 255 255 255 255 255 255 255 255 255 255 255 255 255 255 255 255 255 255 255 255 255 255 
255 255 255 255 255 255 255 255 255 255 255 255 255 255 255 255 255 255 255 255 255 255 255 255 255 255 255 255 255 255 255 255 255 255 254 254 254 254 249 208 154 119 108 109 109 99 99 101 110 112 111 117 112 114 112 106 112 111 107 106 118 117 116 110 100 90 92 87 77 78 87 82 79 83 82 72 82 91 98 94 97 95 98 103 110 138 171 183 189 194 197 200 203 204 205 207 209 210 211 211 211 211 212 212 213 213 213 212 211 208 178 162 150 140 141 145 151 148 140 134 133 137 143 144 139 139 135 134 139 139 134 131 134 134 126 119 116 148 136 139 132 132 135 138 135 135 139 147 151 157 151 146 151 153 153 142 141 138 129 135 137 138 133 122 115 111 114 121 120 115 120 94 76 106 105 98 94 90 82 77 74 74 73 68 58 61 55 48 45 37 34 29 30 43 59 63 54 43 37 32 28 28 36 54 58 54 49 44 37 32 29 28 28 27 25 26 27 23 143 253 255 255 255 255 255 255 255 255 255 255 255 255 255 255 255 255 255 255 255 255 255 255 255 255 255 255 255 255 255 255 255 255 255 255 255 255 255 255 255 255 255 255 255 255 255 255 255 255 255 255 255 255 255 255 255 255 255 255 255 255 255 255 255 255 255 255 255 255 255 255 255 255 255 255 255 255 255 255 255 255 
255 255 255 255 255 255 255 255 255 255 255 255 255 255 255 255 255 255 255 255 255 255 255 255 255 255 255 255 255 255 255 255 255 255 255 255 255 255 254 249 198 137 111 106 102 101 109 110 114 118 118 117 114 115 119 110 114 111 109 105 114 114 114 107 96 84 90 84 77 83 82 70 68 77 81 80 82 83 90 88 95 96 97 104 100 112 156 178 187 192 196 199 202 203 205 207 208 209 210 211 211 211 211 212 212 212 212 212 211 204 184 187 173 159 154 150 146 141 137 140 140 140 144 149 145 140 141 135 139 143 138 134 136 132 124 116 109 137 135 146 144 138 138 137 136 140 137 147 157 164 162 160 164 153 146 141 136 132 128 131 131 132 132 122 115 114 113 110 111 105 111 86 76 99 95 94 93 89 83 79 75 74 73 67 56 60 53 42 35 29 28 30 39 56 70 70 56 40 33 29 26 23 34 53 62 59 53 45 36 31 28 28 27 27 28 29 30 27 162 254 255 255 255 255 255 255 255 255 255 255 255 255 255 255 255 255 255 255 255 255 255 255 255 255 255 255 255 255 255 255 255 255 255 255 255 255 255 255 255 255 255 255 255 255 255 255 255 255 255 255 255 255 255 255 255 255 255 255 255 255 255 255 255 255 255 255 255 255 255 255 255 255 255 255 255 255 255 255 255 255 
255 255 255 255 255 255 255 255 255 255 255 255 255 255 255 255 255 255 255 255 255 255 255 255 255 255 255 255 255 255 255 255 255 255 255 255 255 255 255 254 239 189 133 109 106 107 112 114 110 113 115 117 117 107 105 109 113 110 108 114 112 108 107 103 89 73 76 78 70 70 77 64 60 67 73 77 76 74 84 86 91 93 98 108 106 106 139 170 183 189 194 197 200 202 204 205 207 208 209 211 211 211 212 212 212 212 212 212 211 202 178 187 168 164 164 155 148 140 141 145 146 145 143 146 143 141 139 133 137 145 144 143 147 151 145 129 119 142 136 145 143 140 140 135 132 135 136 147 156 156 159 165 170 164 157 151 139 130 128 126 120 125 123 126 125 119 115 107 106 108 113 80 83 100 97 101 103 98 88 82 76 73 72 67 57 56 51 40 31 29 30 36 52 67 74 69 53 38 32 27 23 18 25 38 59 63 57 45 35 30 28 28 28 28 32 35 35 46 201 254 255 255 255 255 255 255 255 255 255 255 255 255 255 255 255 255 255 255 255 255 255 255 255 255 255 255 255 255 255 255 255 255 255 255 255 255 255 255 255 255 255 255 255 255 255 255 255 255 255 255 255 255 255 255 255 255 255 255 255 255 255 255 255 255 255 255 255 255 255 255 255 255 255 255 255 255 255 255 255 255 
255 255 255 255 255 255 255 255 255 255 255 255 255 255 255 255 255 255 255 255 255 255 255 255 255 255 255 255 255 255 255 255 255 255 255 255 255 255 254 254 254 243 193 144 117 105 109 106 102 112 117 114 117 113 111 109 108 108 107 116 111 105 98 93 77 50 42 45 46 45 47 45 44 46 47 47 52 59 76 89 88 91 102 105 104 104 116 154 177 186 191 195 198 201 203 204 206 207 208 209 210 211 211 212 212 212 212 212 211 199 161 155 147 149 160 160 152 146 143 143 146 144 144 147 145 145 140 135 137 138 140 140 137 137 135 125 119 146 138 141 140 144 148 145 137 138 135 138 140 140 140 151 155 160 165 153 143 140 129 129 123 129 130 131 133 127 120 111 106 112 113 80 95 112 111 105 103 99 92 89 79 70 72 66 56 51 48 39 30 30 34 47 64 75 75 64 48 37 31 26 18 12 13 23 52 64 58 44 34 29 28 28 29 32 38 40 35 103 242 254 255 255 255 255 255 255 255 255 255 255 255 255 255 255 255 255 255 255 255 255 255 255 255 255 255 255 255 255 255 255 255 255 255 255 255 255 255 255 255 255 255 255 255 255 255 255 255 255 255 255 255 255 255 255 255 255 255 255 255 255 255 255 255 255 255 255 255 255 255 255 255 255 255 255 255 255 255 255 255 255 
255 255 255 255 255 255 255 255 255 255 255 255 255 255 255 255 255 255 255 255 255 255 255 255 255 255 255 255 255 255 255 255 255 255 255 255 255 255 255 254 254 254 248 215 156 121 113 108 110 115 111 112 118 122 116 108 110 106 112 113 107 100 87 71 51 35 40 45 49 51 53 54 53 52 50 46 40 36 43 68 88 96 100 98 94 100 99 125 165 181 188 192 196 199 201 203 205 206 207 209 210 210 211 211 212 212 212 212 210 197 162 162 149 141 149 158 156 155 154 149 148 146 145 145 145 148 147 142 144 142 144 144 146 143 136 124 116 152 144 150 145 144 144 142 138 142 139 130 132 132 131 138 142 147 154 149 145 146 135 136 131 130 130 130 134 129 124 120 111 115 117 91 106 115 113 104 103 95 87 83 75 66 69 66 57 53 46 33 28 31 40 58 73 79 72 58 42 35 31 24 15 8 10 25 51 63 57 41 31 28 28 29 32 37 43 41 63 187 254 255 255 255 255 255 255 255 255 255 255 255 255 255 255 255 255 255 255 255 255 255 255 255 255 255 255 255 255 255 255 255 255 255 255 255 255 255 255 255 255 255 255 255 255 255 255 255 255 255 255 255 255 255 255 255 255 255 255 255 255 255 255 255 255 255 255 255 255 255 255 255 255 255 255 255 255 255 255 255 255 255 
255 255 255 255 255 255 255 255 255 255 255 255 255 255 255 255 255 255 255 255 255 255 255 255 255 255 255 255 255 255 255 255 255 255 255 255 255 255 255 255 255 254 255 250 212 158 121 111 112 113 112 117 118 118 115 114 116 110 106 99 99 69 54 43 34 37 43 54 62 66 68 68 66 65 63 59 51 39 32 40 71 87 88 96 93 100 107 111 146 173 183 189 194 197 200 201 203 205 206 208 209 210 211 211 211 211 212 211 211 195 166 166 152 145 146 155 151 153 154 151 151 147 145 140 138 148 149 146 149 153 160 157 153 143 128 114 110 148 138 138 134 133 141 145 144 152 146 140 145 144 138 134 132 139 145 140 133 136 132 132 131 129 125 128 125 123 121 122 117 117 110 85 101 102 101 98 94 86 80 74 72 64 67 67 61 58 48 29 28 32 47 67 78 78 68 51 39 34 30 22 12 8 19 37 55 62 52 37 31 29 30 33 37 42 41 68 167 253 255 255 255 255 255 255 255 255 255 255 255 255 255 255 255 255 255 255 255 255 255 255 255 255 255 255 255 255 255 255 255 255 255 255 255 255 255 255 255 255 255 255 255 255 255 255 255 255 255 255 255 255 255 255 255 255 255 255 255 255 255 255 255 255 255 255 255 255 255 255 255 255 255 255 255 255 255 255 255 255 255 255 
255 255 255 255 255 255 255 255 255 255 255 255 255 255 255 255 255 255 255 255 255 255 255 255 255 255 255 255 255 255 255 255 255 255 255 255 255 255 255 255 255 255 255 254 252 229 184 138 115 110 107 109 106 106 106 108 109 104 104 87 64 32 29 35 37 35 33 39 49 56 62 64 65 65 64 62 56 44 33 30 52 77 80 88 88 96 99 103 128 158 176 184 190 195 198 200 201 203 205 207 208 210 210 210 211 211 211 211 209 189 174 160 147 147 151 154 149 151 152 157 158 147 140 135 133 143 143 147 149 154 153 146 135 128 119 117 118 141 128 131 137 138 142 147 147 152 149 151 153 156 150 144 140 136 136 133 126 132 131 132 128 124 123 124 121 118 118 118 115 118 114 75 93 96 96 91 89 85 83 80 77 74 74 73 67 60 46 28 28 34 53 70 77 73 60 46 38 34 29 20 10 14 35 52 60 58 45 34 31 31 34 45 50 67 119 196 254 255 255 255 255 255 255 255 255 255 255 255 255 255 255 255 255 255 255 255 255 255 255 255 255 255 255 255 255 255 255 255 255 255 255 255 255 255 255 255 255 255 255 255 255 255 255 255 255 255 255 255 255 255 255 255 255 255 255 255 255 255 255 255 255 255 255 255 255 255 255 255 255 255 255 255 255 255 255 255 255 255 255 255 
255 255 255 255 255 255 255 255 255 255 255 255 255 255 255 255 255 255 255 255 255 255 255 255 255 255 255 255 255 255 255 255 255 255 255 255 255 255 255 255 255 255 255 254 254 254 246 210 178 165 125 104 98 95 102 96 93 76 62 44 31 33 38 44 48 48 46 43 44 46 48 46 45 45 46 48 49 44 32 28 38 67 72 79 86 93 95 100 103 125 161 177 185 191 194 196 199 202 203 205 207 208 209 210 210 210 210 211 209 181 176 157 146 147 148 147 147 145 146 155 155 153 145 140 138 145 143 144 145 147 140 138 130 129 128 129 123 134 138 146 145 136 134 137 143 145 141 146 147 150 143 139 140 136 138 139 127 129 127 126 127 125 123 123 121 117 117 118 113 112 107 70 94 102 101 97 92 94 96 86 80 80 77 72 64 57 45 30 28 35 52 66 69 63 51 42 38 35 29 16 10 25 49 61 60 50 39 33 33 35 76 167 207 224 248 254 254 255 255 255 255 255 255 255 255 255 255 255 255 255 255 255 255 255 255 255 255 255 255 255 255 255 255 255 255 255 255 255 255 255 255 255 255 255 255 255 255 255 255 255 255 255 255 255 255 255 255 255 255 255 255 255 255 255 255 255 255 255 255 255 255 255 255 255 255 255 255 255 255 255 255 255 255 255 255 255 255 255 255 255 
255 255 255 255 255 255 255 255 255 255 255 255 255 255 255 255 255 255 255 255 255 255 255 255 255 255 255 255 255 255 255 255 255 255 255 255 255 255 255 255 255 255 255 255 254 254 254 253 248 247 211 169 123 60 66 57 53 40 30 34 38 42 48 56 61 61 60 57 56 59 58 51 46 44 41 38 37 43 42 32 31 55 65 71 80 93 96 95 94 100 139 162 175 182 187 190 193 196 198 201 203 204 207 208 208 209 209 209 206 179 181 163 152 151 151 145 144 142 147 153 146 145 141 139 145 149 145 145 146 147 143 141 134 133 135 131 122 129 146 142 137 132 131 132 148 151 143 137 136 136 131 130 132 133 134 131 127 123 120 119 121 123 124 120 120 117 117 116 117 113 93 79 98 104 108 110 106 102 97 84 82 82 78 75 68 64 54 39 30 33 47 57 58 53 45 42 39 34 27 13 13 31 53 61 53 43 36 33 36 76 186 253 254 254 254 254 254 255 255 255 255 255 255 255 255 255 255 255 255 255 255 255 255 255 255 255 255 255 255 255 255 255 255 255 255 255 255 255 255 255 255 255 255 255 255 255 255 255 255 255 255 255 255 255 255 255 255 255 255 255 255 255 255 255 255 255 255 255 255 255 255 255 255 255 255 255 255 255 255 255 255 255 255 255 255 255 255 255 255 255 
255 255 255 255 255 255 255 255 255 255 255 255 255 255 255 255 255 255 255 255 255 255 255 255 255 255 255 255 255 255 255 255 255 255 255 255 255 255 255 255 255 255 255 255 255 255 254 254 254 254 253 248 176 58 42 40 39 38 39 41 45 49 55 62 66 67 65 63 65 73 73 64 58 55 49 42 35 32 42 48 38 44 56 63 73 82 86 88 93 92 110 134 155 151 164 176 180 182 185 190 192 196 199 201 202 202 203 203 202 165 152 150 146 146 148 146 147 150 151 157 153 150 146 146 150 151 146 148 145 142 141 139 135 137 134 126 121 124 148 141 143 139 132 129 143 146 145 136 131 133 132 128 126 130 129 125 123 119 115 115 119 126 128 124 121 120 118 116 116 122 95 96 103 104 106 110 110 108 96 88 88 87 85 80 76 75 69 56 40 32 40 48 49 46 43 42 39 34 22 11 18 33 48 52 44 37 34 35 60 177 254 254 254 255 255 254 254 255 255 255 255 255 255 255 255 255 255 255 255 255 255 255 255 255 255 255 255 255 255 255 255 255 255 255 255 255 255 255 255 255 255 255 255 255 255 255 255 255 255 255 255 255 255 255 255 255 255 255 255 255 255 255 255 255 255 255 255 255 255 255 255 255 255 255 255 255 255 255 255 255 255 255 255 255 255 255 255 255 255 255 
255 255 255 255 255 255 255 255 255 255 255 255 255 255 255 255 255 255 255 255 255 255 255 255 255 255 255 255 255 255 255 255 255 255 255 255 255 255 255 255 255 255 255 255 255 255 255 255 255 254 254 253 173 70 56 50 44 43 43 46 50 54 55 57 60 62 63 62 68 79 78 71 69 66 59 49 40 32 30 43 51 44 54 61 67 75 78 79 80 80 87 120 143 105 127 161 172 173 166 168 168 172 185 191 195 196 194 193 191 162 139 135 124 127 130 133 142 148 151 160 160 156 153 149 150 150 146 151 151 148 144 141 139 143 142 141 132 121 139 144 147 136 131 131 135 140 135 130 132 135 139 132 127 131 132 128 125 123 118 118 121 130 131 125 121 123 123 117 119 124 85 103 108 104 102 106 105 109 96 93 90 86 87 85 81 79 78 68 57 38 37 42 44 44 43 42 40 30 15 12 24 35 42 43 38 35 35 43 153 253 254 254 255 255 255 255 255 255 255 255 255 255 255 255 255 255 255 255 255 255 255 255 255 255 255 255 255 255 255 255 255 255 255 255 255 255 255 255 255 255 255 255 255 255 255 255 255 255 255 255 255 255 255 255 255 255 255 255 255 255 255 255 255 255 255 255 255 255 255 255 255 255 255 255 255 255 255 255 255 255 255 255 255 255 255 255 255 255 255 255 
255 255 255 255 255 255 255 255 255 255 255 255 255 255 255 255 255 255 255 255 255 255 255 255 255 255 255 255 255 255 255 255 255 255 255 255 255 255 255 255 255 255 255 255 255 255 255 255 255 255 255 251 172 82 76 59 48 45 45 48 52 56 55 52 52 54 56 57 63 73 74 72 73 70 64 56 46 36 30 30 50 53 49 58 61 70 75 78 78 79 80 99 125 123 137 159 168 163 155 160 154 143 152 170 185 187 182 176 170 150 142 144 133 130 128 125 128 130 140 153 155 155 152 145 146 142 139 143 148 148 146 147 145 147 144 145 131 114 121 142 139 133 132 136 138 132 124 131 136 134 137 132 129 129 130 128 125 120 120 117 123 130 128 124 120 117 116 116 124 100 75 109 117 110 111 113 110 110 99 94 91 91 90 87 83 79 80 75 72 63 45 40 43 44 44 46 54 37 12 19 30 37 38 38 36 36 40 125 240 254 254 255 255 255 255 255 255 255 255 255 255 255 255 255 255 255 255 255 255 255 255 255 255 255 255 255 255 255 255 255 255 255 255 255 255 255 255 255 255 255 255 255 255 255 255 255 255 255 255 255 255 255 255 255 255 255 255 255 255 255 255 255 255 255 255 255 255 255 255 255 255 255 255 255 255 255 255 255 255 255 255 255 255 255 255 255 255 255 255 255 
255 255 255 255 255 255 255 255 255 255 255 255 255 255 255 255 255 255 255 255 255 255 255 255 255 255 255 255 255 255 255 255 255 255 255 255 255 255 255 255 255 255 255 255 255 255 255 255 255 255 255 252 175 78 85 64 51 47 47 50 54 59 58 52 49 50 51 52 55 61 65 67 69 68 63 56 48 39 31 28 35 52 47 51 56 67 75 75 74 78 82 78 99 145 159 166 158 142 135 143 145 142 138 144 156 165 160 153 144 134 134 148 142 141 138 131 128 121 128 138 142 144 150 151 147 139 136 138 148 148 146 145 138 137 134 134 125 121 113 125 137 140 134 137 141 128 123 128 131 131 130 131 136 131 126 121 121 121 116 112 115 122 126 129 126 114 109 119 110 78 91 112 117 115 115 117 119 118 111 103 99 95 94 94 89 83 80 82 81 86 81 64 54 57 64 81 104 72 18 26 33 36 37 36 36 41 93 214 254 255 255 255 255 255 255 255 255 255 255 255 255 255 255 255 255 255 255 255 255 255 255 255 255 255 255 255 255 255 255 255 255 255 255 255 255 255 255 255 255 255 255 255 255 255 255 255 255 255 255 255 255 255 255 255 255 255 255 255 255 255 255 255 255 255 255 255 255 255 255 255 255 255 255 255 255 255 255 255 255 255 255 255 255 255 255 255 255 255 255 255 
255 255 255 255 255 255 255 255 255 255 255 255 255 255 255 255 255 255 255 255 255 255 255 255 255 255 255 255 255 255 255 255 255 255 255 255 255 255 255 255 255 255 255 255 255 255 255 255 255 255 255 254 187 78 85 65 54 49 48 51 55 60 61 54 48 45 47 49 50 52 55 58 61 61 58 53 46 39 33 29 28 46 51 48 54 65 72 73 77 72 73 71 88 133 151 155 140 129 130 134 134 137 141 138 140 148 146 137 133 149 145 147 146 152 152 141 138 136 140 140 140 144 149 145 142 137 134 140 150 146 142 138 132 133 133 137 138 133 117 101 120 143 136 136 138 124 126 130 130 130 130 135 138 129 120 114 120 122 112 115 118 123 127 127 126 117 109 105 90 85 105 111 117 118 118 117 118 120 119 109 101 98 93 95 89 77 73 74 76 76 82 86 95 101 106 111 112 86 31 29 34 36 36 37 41 76 185 254 254 255 255 255 255 255 255 255 255 255 255 255 255 255 255 255 255 255 255 255 255 255 255 255 255 255 255 255 255 255 255 255 255 255 255 255 255 255 255 255 255 255 255 255 255 255 255 255 255 255 255 255 255 255 255 255 255 255 255 255 255 255 255 255 255 255 255 255 255 255 255 255 255 255 255 255 255 255 255 255 255 255 255 255 255 255 255 255 255 255 255 255 
255 255 255 255 255 255 255 255 255 255 255 255 255 255 255 255 255 255 255 255 255 255 255 255 255 255 255 255 255 255 255 255 255 255 255 255 255 255 255 255 255 255 255 255 255 255 255 255 255 255 255 254 209 91 86 66 56 50 49 53 57 61 64 59 49 41 39 43 46 47 48 50 52 53 51 47 42 37 34 30 27 39 51 46 53 62 67 72 72 73 75 68 72 115 140 140 127 121 126 126 126 127 132 138 141 139 134 127 125 153 150 143 139 147 158 153 147 152 157 152 146 147 152 149 145 138 136 139 143 139 133 129 131 132 135 137 134 125 113 108 105 107 111 120 132 120 125 133 135 130 119 125 130 128 123 115 115 120 118 112 111 119 125 126 124 127 105 86 92 101 109 108 107 113 121 115 115 113 115 112 104 98 94 93 87 78 72 71 70 68 72 70 75 76 75 72 69 68 42 32 36 37 40 45 70 185 254 255 254 255 255 255 255 255 255 255 255 255 255 255 255 255 255 255 255 255 255 255 255 255 255 255 255 255 255 255 255 255 255 255 255 255 255 255 255 255 255 255 255 255 255 255 255 255 255 255 255 255 255 255 255 255 255 255 255 255 255 255 255 255 255 255 255 255 255 255 255 255 255 255 255 255 255 255 255 255 255 255 255 255 255 255 255 255 255 255 255 255 255 255 
255 255 255 255 255 255 255 255 255 255 255 255 255 255 255 255 255 255 255 255 255 255 255 255 255 255 255 255 255 255 255 255 255 255 255 255 255 255 255 255 255 255 255 255 255 255 255 255 255 255 254 254 243 147 93 68 58 52 49 53 58 62 64 62 51 37 27 28 36 42 44 45 45 45 44 42 40 37 35 32 28 36 47 47 52 55 65 68 70 73 73 63 61 97 127 127 119 115 119 121 124 123 123 128 135 133 126 122 120 144 149 140 135 133 141 157 164 167 168 157 148 147 150 151 151 144 140 132 133 130 127 128 132 134 138 136 131 123 116 116 114 114 110 99 97 97 103 114 120 124 120 115 116 124 125 122 117 123 124 122 117 119 123 119 112 105 84 82 97 97 101 105 106 108 115 112 113 109 109 108 102 95 88 87 81 76 72 72 70 66 73 65 43 40 40 43 47 46 51 52 49 48 58 56 88 236 254 255 255 255 255 255 255 255 255 255 255 255 255 255 255 255 255 255 255 255 255 255 255 255 255 255 255 255 255 255 255 255 255 255 255 255 255 255 255 255 255 255 255 255 255 255 255 255 255 255 255 255 255 255 255 255 255 255 255 255 255 255 255 255 255 255 255 255 255 255 255 255 255 255 255 255 255 255 255 255 255 255 255 255 255 255 255 255 255 255 255 255 255 255 
255 255 255 255 255 255 255 255 255 255 255 255 255 255 255 255 255 255 255 255 255 255 255 255 255 255 255 255 255 255 255 255 255 255 255 255 255 255 255 255 255 255 255 255 255 255 255 255 255 255 254 254 254 221 136 74 60 55 50 52 58 63 65 63 51 30 15 12 17 27 37 41 42 41 40 39 38 37 36 33 33 38 42 47 51 55 63 68 68 72 69 64 65 93 124 123 114 113 114 115 120 119 121 122 124 122 117 124 134 144 143 141 146 141 143 150 152 160 164 156 153 149 147 147 143 144 145 141 138 130 129 131 135 137 141 140 134 128 122 122 116 118 121 114 99 96 96 94 91 83 86 90 94 101 102 107 104 104 104 106 91 89 89 80 75 81 91 98 101 103 106 107 107 105 108 107 111 110 108 103 97 90 84 87 86 81 76 83 83 71 84 88 68 68 68 70 74 63 65 73 61 50 58 45 87 236 255 255 255 255 255 255 255 255 255 255 255 255 255 255 255 255 255 255 255 255 255 255 255 255 255 255 255 255 255 255 255 255 255 255 255 255 255 255 255 255 255 255 255 255 255 255 255 255 255 255 255 255 255 255 255 255 255 255 255 255 255 255 255 255 255 255 255 255 255 255 255 255 255 255 255 255 255 255 255 255 255 255 255 255 255 255 255 255 255 255 255 255 255 255 
255 255 255 255 255 255 255 255 255 255 255 255 255 255 255 255 255 255 255 255 255 255 255 255 255 255 255 255 255 255 255 255 255 255 255 255 255 255 255 255 255 255 255 255 255 255 255 255 255 255 254 255 255 254 202 95 63 58 52 51 55 61 66 66 55 34 21 20 18 15 20 29 37 38 38 37 38 39 38 38 38 40 40 41 48 54 57 62 66 68 62 60 62 88 122 114 107 108 107 109 114 117 117 118 122 118 111 117 142 156 144 139 151 154 154 156 152 152 158 154 148 151 150 150 146 148 145 144 140 129 128 128 134 140 144 140 133 128 125 124 123 126 127 124 113 111 113 118 109 95 96 93 90 87 84 85 87 88 85 82 82 94 99 94 94 102 108 108 108 110 108 109 105 107 106 102 106 106 106 101 94 89 83 90 94 94 90 90 89 75 78 84 69 74 77 72 60 54 68 79 61 57 50 34 100 243 255 255 255 255 255 255 255 255 255 255 255 255 255 255 255 255 255 255 255 255 255 255 255 255 255 255 255 255 255 255 255 255 255 255 255 255 255 255 255 255 255 255 255 255 255 255 255 255 255 255 255 255 255 255 255 255 255 255 255 255 255 255 255 255 255 255 255 255 255 255 255 255 255 255 255 255 255 255 255 255 255 255 255 255 255 255 255 255 255 255 255 255 255 255 
255 255 255 255 255 255 255 255 255 255 255 255 255 255 255 255 255 255 255 255 255 255 255 255 255 255 255 255 255 255 255 255 255 255 255 255 255 255 255 255 255 255 255 255 255 255 255 255 255 255 255 255 255 254 251 158 70 62 56 51 51 57 64 67 60 49 42 42 39 29 17 15 21 27 31 35 37 39 40 38 38 41 43 42 47 51 54 62 64 67 66 62 59 70 107 112 103 106 108 111 111 117 119 117 119 115 111 109 143 156 146 134 146 151 156 155 154 149 150 154 147 149 153 151 149 150 150 150 148 135 128 131 137 138 135 130 124 117 117 118 123 129 134 130 117 113 115 126 119 112 116 113 111 109 107 110 115 117 111 107 107 109 109 104 103 110 117 122 119 118 118 113 107 107 105 103 104 104 104 102 95 91 91 98 109 110 101 92 84 70 81 109 76 76 78 60 49 58 69 72 64 61 44 29 101 244 254 255 255 255 255 255 255 255 255 255 255 255 255 255 255 255 255 255 255 255 255 255 255 255 255 255 255 255 255 255 255 255 255 255 255 255 255 255 255 255 255 255 255 255 255 255 255 255 255 255 255 255 255 255 255 255 255 255 255 255 255 255 255 255 255 255 255 255 255 255 255 255 255 255 255 255 255 255 255 255 255 255 255 255 255 255 255 255 255 255 255 255 255 255 
255 255 255 255 255 255 255 255 255 255 255 255 255 255 255 255 255 255 255 255 255 255 255 255 255 255 255 255 255 255 255 255 255 255 255 255 255 255 255 255 255 255 255 255 255 255 255 255 255 255 255 255 254 254 255 221 117 70 61 55 50 52 57 63 64 61 57 53 53 48 31 20 17 17 18 21 24 28 37 36 37 41 41 43 47 50 54 58 64 73 64 63 58 63 86 106 103 109 109 112 113 114 118 116 109 103 96 120 150 150 146 136 140 142 146 143 145 139 139 141 143 146 146 146 146 146 147 149 154 144 137 137 138 141 136 131 124 116 116 118 127 131 132 128 120 115 114 122 119 117 118 119 117 117 117 121 121 123 119 115 114 115 111 106 109 115 119 122 120 119 117 112 111 114 111 108 110 108 105 103 100 98 99 104 113 111 96 89 76 64 81 109 77 78 76 57 58 68 65 64 70 63 45 27 77 229 254 255 255 255 255 255 255 255 255 255 255 255 255 255 255 255 255 255 255 255 255 255 255 255 255 255 255 255 255 255 255 255 255 255 255 255 255 255 255 255 255 255 255 255 255 255 255 255 255 255 255 255 255 255 255 255 255 255 255 255 255 255 255 255 255 255 255 255 255 255 255 255 255 255 255 255 255 255 255 255 255 255 255 255 255 255 255 255 255 255 255 255 255 255 
255 255 255 255 255 255 255 255 255 255 255 255 255 255 255 255 255 255 255 255 255 255 255 255 255 255 255 255 255 255 255 255 255 255 255 255 255 255 255 255 255 255 255 255 255 255 255 255 255 255 255 255 255 255 255 254 202 119 76 63 54 49 50 55 59 60 56 51 55 54 38 29 25 24 23 23 22 28 36 40 43 39 41 45 48 50 54 54 55 65 64 64 52 52 74 102 101 103 109 111 109 106 110 108 99 91 113 147 145 148 141 139 138 136 139 141 140 138 142 138 137 141 136 136 131 132 137 139 139 139 142 143 138 137 140 134 129 122 120 121 125 128 129 122 121 120 120 125 120 121 123 126 121 124 123 121 117 119 122 120 117 117 114 111 111 114 117 120 121 124 119 116 117 120 117 118 122 116 111 106 105 106 109 111 113 108 91 80 67 64 86 94 72 77 72 63 65 69 63 63 70 65 48 28 73 225 254 255 255 255 255 255 255 255 255 255 255 255 255 255 255 255 255 255 255 255 255 255 255 255 255 255 255 255 255 255 255 255 255 255 255 255 255 255 255 255 255 255 255 255 255 255 255 255 255 255 255 255 255 255 255 255 255 255 255 255 255 255 255 255 255 255 255 255 255 255 255 255 255 255 255 255 255 255 255 255 255 255 255 255 255 255 255 255 255 255 255 255 255 255 
255 255 255 255 255 255 255 255 255 255 255 255 255 255 255 255 255 255 255 255 255 255 255 255 255 255 255 255 255 255 255 255 255 255 255 255 255 255 255 255 255 255 255 255 255 255 255 255 255 255 255 255 255 255 255 255 254 217 153 95 69 55 48 47 49 50 48 47 50 49 39 33 31 30 29 27 25 30 32 35 40 39 41 45 46 46 53 54 57 58 55 60 52 50 61 80 98 104 111 108 102 99 98 96 98 117 143 142 143 140 134 140 140 138 137 143 143 141 143 139 136 135 134 130 125 125 128 128 126 131 133 137 129 133 142 132 127 124 117 116 120 127 127 120 118 117 121 123 115 115 117 123 118 122 123 124 119 120 121 123 121 119 118 117 113 110 112 116 118 118 116 113 114 119 120 125 130 120 117 112 110 110 110 107 100 91 81 71 68 71 93 92 70 76 74 70 69 68 63 67 74 66 47 28 88 233 255 255 255 255 255 255 255 255 255 255 255 255 255 255 255 255 255 255 255 255 255 255 255 255 255 255 255 255 255 255 255 255 255 255 255 255 255 255 255 255 255 255 255 255 255 255 255 255 255 255 255 255 255 255 255 255 255 255 255 255 255 255 255 255 255 255 255 255 255 255 255 255 255 255 255 255 255 255 255 255 255 255 255 255 255 255 255 255 255 255 255 255 255 255 
255 255 255 255 255 255 255 255 255 255 255 255 255 255 255 255 255 255 255 255 255 255 255 255 255 255 255 255 255 255 255 255 255 255 255 255 255 255 255 255 255 255 255 255 255 255 255 255 255 255 255 255 255 255 255 255 255 254 247 208 149 88 64 50 45 43 42 42 43 42 38 35 34 33 31 29 29 31 34 38 39 38 40 47 47 48 52 52 59 58 55 59 53 54 52 57 75 88 93 93 95 98 108 127 142 142 137 138 138 129 126 138 139 140 137 142 145 139 143 143 137 137 142 140 132 128 126 129 130 132 130 137 128 125 129 125 124 119 114 115 114 115 117 118 116 119 120 116 113 112 117 120 118 126 126 125 124 126 125 121 125 122 117 119 118 114 109 111 112 109 113 112 112 111 113 118 123 117 115 114 112 107 103 105 97 85 78 79 79 81 101 100 75 78 80 75 69 69 64 66 79 71 47 43 148 251 254 255 255 255 255 255 255 255 255 255 255 255 255 255 255 255 255 255 255 255 255 255 255 255 255 255 255 255 255 255 255 255 255 255 255 255 255 255 255 255 255 255 255 255 255 255 255 255 255 255 255 255 255 255 255 255 255 255 255 255 255 255 255 255 255 255 255 255 255 255 255 255 255 255 255 255 255 255 255 255 255 255 255 255 255 255 255 255 255 255 255 255 255 255 
255 255 255 255 255 255 255 255 255 255 255 255 255 255 255 255 255 255 255 255 255 255 255 255 255 255 255 255 255 255 255 255 255 255 255 255 255 255 255 255 255 255 255 255 255 255 255 255 255 255 255 255 255 255 255 255 255 254 254 254 227 148 102 78 62 50 42 39 39 37 36 35 34 34 34 33 33 34 42 40 37 38 40 44 48 51 53 51 53 58 62 58 49 48 44 75 109 125 128 126 143 149 150 148 145 138 134 134 130 124 126 135 134 133 134 135 134 135 139 141 135 134 135 136 137 139 133 131 132 137 138 138 135 133 138 135 137 129 122 118 118 117 114 113 111 111 112 110 110 110 116 122 126 135 126 119 120 123 123 121 119 113 110 111 109 107 101 103 107 105 112 114 114 107 110 114 113 112 110 112 107 103 98 104 95 86 86 90 79 84 103 106 78 80 83 80 72 70 64 66 76 66 52 90 221 254 254 255 255 255 255 255 255 255 255 255 255 255 255 255 255 255 255 255 255 255 255 255 255 255 255 255 255 255 255 255 255 255 255 255 255 255 255 255 255 255 255 255 255 255 255 255 255 255 255 255 255 255 255 255 255 255 255 255 255 255 255 255 255 255 255 255 255 255 255 255 255 255 255 255 255 255 255 255 255 255 255 255 255 255 255 255 255 255 255 255 255 255 255 255 
255 255 255 255 255 255 255 255 255 255 255 255 255 255 255 255 255 255 255 255 255 255 255 255 255 255 255 255 255 255 255 255 255 255 255 255 255 255 255 255 255 255 255 255 255 255 255 255 255 255 255 255 255 255 255 255 255 254 254 254 249 195 124 83 72 63 53 46 41 36 33 32 33 33 33 33 37 38 40 40 43 43 43 45 49 51 53 54 53 54 51 44 45 52 47 54 83 112 123 124 139 141 136 131 128 127 128 124 123 121 123 132 135 127 126 128 126 123 123 127 130 136 136 135 138 136 138 142 135 137 142 142 143 144 143 142 142 135 123 123 126 125 121 121 120 118 115 115 113 110 121 135 145 143 129 117 118 121 115 114 111 108 107 105 105 104 102 106 109 110 113 115 112 106 108 107 108 107 107 107 104 101 96 98 92 92 97 93 77 88 106 114 81 74 77 82 76 73 68 71 81 70 55 130 251 255 255 255 255 255 255 255 255 255 255 255 255 255 255 255 255 255 255 255 255 255 255 255 255 255 255 255 255 255 255 255 255 255 255 255 255 255 255 255 255 255 255 255 255 255 255 255 255 255 255 255 255 255 255 255 255 255 255 255 255 255 255 255 255 255 255 255 255 255 255 255 255 255 255 255 255 255 255 255 255 255 255 255 255 255 255 255 255 255 255 255 255 255 255 255 
255 255 255 255 255 255 255 255 255 255 255 255 255 255 255 255 255 255 255 255 255 255 255 255 255 255 255 255 255 255 255 255 255 255 255 255 255 255 255 255 255 255 255 255 255 255 255 255 255 255 255 255 255 255 255 255 255 254 254 254 254 226 153 96 75 59 50 48 44 40 36 33 36 35 35 34 36 38 38 40 42 43 43 46 51 53 55 54 50 52 55 44 48 59 55 52 63 82 100 120 134 136 127 127 124 124 124 122 117 118 116 119 127 125 121 122 123 121 118 119 124 133 140 140 138 134 138 146 141 137 136 138 140 141 137 140 134 131 125 116 118 122 123 121 121 121 122 126 124 121 132 140 145 136 126 124 121 119 113 109 108 108 111 110 113 109 109 113 112 113 111 111 110 112 113 111 109 103 100 101 102 99 95 97 101 108 106 90 81 94 109 115 78 67 73 77 79 77 77 80 82 69 60 178 254 255 255 255 255 255 255 255 255 255 255 255 255 255 255 255 255 255 255 255 255 255 255 255 255 255 255 255 255 255 255 255 255 255 255 255 255 255 255 255 255 255 255 255 255 255 255 255 255 255 255 255 255 255 255 255 255 255 255 255 255 255 255 255 255 255 255 255 255 255 255 255 255 255 255 255 255 255 255 255 255 255 255 255 255 255 255 255 255 255 255 255 255 255 255 255 
255 255 255 255 255 255 255 255 255 255 255 255 255 255 255 255 255 255 255 255 255 255 255 255 255 255 255 255 255 255 255 255 255 255 255 255 255 255 255 255 255 255 255 255 255 255 255 255 255 255 255 255 255 255 255 255 255 255 254 254 254 250 201 131 96 69 57 54 52 53 51 46 42 43 43 37 35 37 41 42 43 50 50 49 55 55 55 55 55 48 48 46 65 80 71 63 62 69 78 99 122 130 126 127 122 123 118 120 116 115 115 115 116 118 119 119 116 116 117 117 117 124 132 136 134 133 131 136 138 136 134 134 135 138 134 132 131 130 130 127 130 129 130 126 120 117 118 123 124 127 140 138 139 134 123 122 125 126 123 118 113 115 120 122 120 111 111 111 110 109 106 108 111 113 118 115 107 99 91 94 93 99 104 107 115 121 105 90 93 106 113 112 80 63 73 80 81 79 82 88 87 70 86 224 254 255 255 255 255 255 255 255 255 255 255 255 255 255 255 255 255 255 255 255 255 255 255 255 255 255 255 255 255 255 255 255 255 255 255 255 255 255 255 255 255 255 255 255 255 255 255 255 255 255 255 255 255 255 255 255 255 255 255 255 255 255 255 255 255 255 255 255 255 255 255 255 255 255 255 255 255 255 255 255 255 255 255 255 255 255 255 255 255 255 255 255 255 255 255 255 
255 255 255 255 255 255 255 255 255 255 255 255 255 255 255 255 255 255 255 255 255 255 255 255 255 255 255 255 255 255 255 255 255 255 255 255 255 255 255 255 255 255 255 255 255 255 255 255 255 255 255 255 255 255 255 255 255 255 254 254 255 254 247 193 126 108 86 71 69 62 56 55 52 53 50 45 40 39 44 49 51 55 55 53 57 54 53 55 52 43 41 45 81 93 82 73 67 70 76 82 96 113 118 121 121 121 116 116 115 111 113 114 117 116 115 115 113 110 115 115 115 119 123 127 126 122 123 129 132 132 127 130 134 139 137 132 129 128 128 135 137 140 138 126 123 124 126 127 124 125 137 133 130 123 118 116 123 128 126 119 111 116 119 128 129 120 114 111 111 114 112 108 110 112 117 113 103 97 89 95 98 106 113 121 130 128 103 96 106 111 109 97 85 66 69 79 81 83 85 90 85 66 131 249 255 255 255 255 255 255 255 255 255 255 255 255 255 255 255 255 255 255 255 255 255 255 255 255 255 255 255 255 255 255 255 255 255 255 255 255 255 255 255 255 255 255 255 255 255 255 255 255 255 255 255 255 255 255 255 255 255 255 255 255 255 255 255 255 255 255 255 255 255 255 255 255 255 255 255 255 255 255 255 255 255 255 255 255 255 255 255 255 255 255 255 255 255 255 255 255 
255 255 255 255 255 255 255 255 255 255 255 255 255 255 255 255 255 255 255 255 255 255 255 255 255 255 255 255 255 255 255 255 255 255 255 255 255 255 255 255 255 255 255 255 255 255 255 255 255 255 255 255 255 255 255 255 255 255 255 255 255 254 254 247 198 150 109 81 78 74 67 63 58 61 60 58 56 48 46 51 53 56 57 57 59 56 56 53 50 42 41 41 73 101 94 84 73 69 75 84 89 100 113 120 119 116 111 112 113 109 108 111 118 120 116 115 112 109 114 114 116 117 118 117 121 118 118 119 119 123 117 123 129 137 132 122 120 120 126 125 126 131 136 125 120 122 124 125 123 123 134 141 132 122 115 115 117 120 122 117 112 117 119 124 122 117 113 115 115 121 121 118 113 106 106 103 99 95 93 99 103 109 116 129 130 119 107 106 118 111 106 102 103 78 63 75 79 81 89 94 79 69 185 254 254 255 255 255 255 255 255 255 255 255 255 255 255 255 255 255 255 255 255 255 255 255 255 255 255 255 255 255 255 255 255 255 255 255 255 255 255 255 255 255 255 255 255 255 255 255 255 255 255 255 255 255 255 255 255 255 255 255 255 255 255 255 255 255 255 255 255 255 255 255 255 255 255 255 255 255 255 255 255 255 255 255 255 255 255 255 255 255 255 255 255 255 255 255 255 255 
255 255 255 255 255 255 255 255 255 255 255 255 255 255 255 255 255 255 255 255 255 255 255 255 255 255 255 255 255 255 255 255 255 255 255 255 255 255 255 255 255 255 255 255 255 255 255 255 255 255 255 255 255 255 255 255 255 255 255 255 255 255 255 254 226 158 114 97 87 79 75 74 69 65 67 67 70 62 57 58 60 59 61 61 61 56 52 52 51 44 45 49 56 87 102 96 86 78 72 78 83 90 99 107 112 116 111 111 112 108 106 111 114 116 112 110 111 110 112 114 116 118 118 114 114 114 112 111 109 114 111 115 122 125 122 116 116 111 116 116 126 129 131 129 128 133 134 136 133 135 138 134 122 121 119 117 114 113 117 120 117 118 124 126 120 115 115 123 122 125 123 121 116 112 103 101 101 100 99 102 109 115 118 118 112 107 107 110 118 106 100 101 103 94 69 63 71 77 88 86 71 106 234 254 254 254 255 255 255 255 255 255 255 255 255 255 255 255 255 255 255 255 255 255 255 255 255 255 255 255 255 255 255 255 255 255 255 255 255 255 255 255 255 255 255 255 255 255 255 255 255 255 255 255 255 255 255 255 255 255 255 255 255 255 255 255 255 255 255 255 255 255 255 255 255 255 255 255 255 255 255 255 255 255 255 255 255 255 255 255 255 255 255 255 255 255 255 255 255 255 
255 255 255 255 255 255 255 255 255 255 255 255 255 255 255 255 255 255 255 255 255 255 255 255 255 255 255 255 255 255 255 255 255 255 255 255 255 255 255 255 255 255 255 255 255 255 255 255 255 255 255 255 255 255 255 255 255 255 255 255 255 255 255 250 200 140 111 102 91 88 85 83 83 82 84 82 67 65 66 60 62 59 60 62 63 54 48 50 52 53 53 50 50 67 97 105 97 88 79 78 82 86 95 96 103 109 106 106 107 107 105 109 108 107 106 105 107 108 109 110 112 115 117 115 114 112 109 110 108 109 108 109 113 112 112 111 118 116 115 110 116 120 125 126 129 135 136 146 147 152 143 132 117 117 118 118 113 116 119 124 122 121 126 123 113 111 117 122 120 120 121 121 115 114 107 108 106 105 101 103 109 114 115 112 110 110 111 116 116 107 101 102 100 107 88 57 46 50 52 66 67 169 254 254 255 255 255 255 255 255 255 255 255 255 255 255 255 255 255 255 255 255 255 255 255 255 255 255 255 255 255 255 255 255 255 255 255 255 255 255 255 255 255 255 255 255 255 255 255 255 255 255 255 255 255 255 255 255 255 255 255 255 255 255 255 255 255 255 255 255 255 255 255 255 255 255 255 255 255 255 255 255 255 255 255 255 255 255 255 255 255 255 255 255 255 255 255 255 255 255 
255 255 255 255 255 255 255 255 255 255 255 255 255 255 255 255 255 255 255 255 255 255 255 255 255 255 255 255 255 255 255 255 255 255 255 255 255 255 255 255 255 255 255 255 255 255 255 255 255 255 255 255 255 255 255 255 255 255 255 255 255 255 254 239 174 131 108 102 97 98 91 87 88 89 90 87 76 78 76 63 62 63 65 61 58 54 55 55 53 49 48 51 53 56 75 106 110 100 92 85 87 90 96 97 102 105 104 104 106 108 105 106 107 105 104 104 103 104 105 103 105 106 109 109 109 109 106 105 105 107 107 106 105 105 108 107 115 119 120 121 123 119 117 116 120 123 120 122 124 135 136 133 115 112 108 110 110 113 117 117 116 113 112 112 108 102 109 115 111 111 113 113 111 113 109 112 108 107 101 102 106 108 108 110 110 120 117 111 105 98 93 93 96 99 94 94 74 58 50 61 119 238 254 254 255 255 255 255 255 255 255 255 255 255 255 255 255 255 255 255 255 255 255 255 255 255 255 255 255 255 255 255 255 255 255 255 255 255 255 255 255 255 255 255 255 255 255 255 255 255 255 255 255 255 255 255 255 255 255 255 255 255 255 255 255 255 255 255 255 255 255 255 255 255 255 255 255 255 255 255 255 255 255 255 255 255 255 255 255 255 255 255 255 255 255 255 255 255 255 255 
255 255 255 255 255 255 255 255 255 255 255 255 255 255 255 255 255 255 255 255 255 255 255 255 255 255 255 255 255 255 255 255 255 255 255 255 255 255 255 255 255 255 255 255 255 255 255 255 255 255 255 255 255 255 255 255 255 255 255 255 255 255 252 217 158 125 109 104 96 97 96 98 97 90 88 91 96 85 75 66 64 63 63 62 60 60 59 57 56 58 61 63 56 64 68 101 122 113 104 97 96 98 97 97 99 101 101 102 104 107 106 105 105 103 104 102 99 101 102 102 102 103 106 108 109 109 112 112 108 107 105 105 104 102 104 104 105 107 109 112 115 116 115 113 112 118 115 110 111 120 126 134 116 108 103 104 105 107 112 110 111 110 111 112 109 104 104 105 104 107 108 109 109 109 104 105 98 98 95 99 100 101 103 104 107 111 104 105 103 96 93 93 96 100 98 103 100 90 69 82 194 254 254 254 254 254 254 255 255 255 255 255 255 255 255 255 255 255 255 255 255 255 255 255 255 255 255 255 255 255 255 255 255 255 255 255 255 255 255 255 255 255 255 255 255 255 255 255 255 255 255 255 255 255 255 255 255 255 255 255 255 255 255 255 255 255 255 255 255 255 255 255 255 255 255 255 255 255 255 255 255 255 255 255 255 255 255 255 255 255 255 255 255 255 255 255 255 255 255 255 
255 255 255 255 255 255 255 255 255 255 255 255 255 255 255 255 255 255 255 255 255 255 255 255 255 255 255 255 255 255 255 255 255 255 255 255 255 255 255 255 255 255 255 255 255 255 255 255 255 255 255 255 255 255 255 255 255 255 255 255 255 255 241 182 138 120 108 100 97 96 98 97 92 95 91 86 93 90 105 128 121 79 72 71 67 67 60 60 68 68 65 64 64 65 57 82 120 126 115 108 104 103 101 100 98 99 99 100 102 103 103 102 103 103 104 103 100 97 98 101 101 103 106 111 110 112 112 115 112 109 106 107 106 102 99 98 97 96 97 98 102 105 106 107 106 110 108 103 105 111 120 123 114 107 104 106 109 110 111 110 106 108 110 109 106 101 101 103 100 102 106 105 103 102 100 101 97 98 99 101 100 98 96 99 105 103 99 107 110 102 101 100 98 92 93 99 95 78 67 162 253 254 255 254 254 254 254 255 255 255 255 255 255 255 255 255 255 255 255 255 255 255 255 255 255 255 255 255 255 255 255 255 255 255 255 255 255 255 255 255 255 255 255 255 255 255 255 255 255 255 255 255 255 255 255 255 255 255 255 255 255 255 255 255 255 255 255 255 255 255 255 255 255 255 255 255 255 255 255 255 255 255 255 255 255 255 255 255 255 255 255 255 255 255 255 255 255 255 255 255 
255 255 255 255 255 255 255 255 255 255 255 255 255 255 255 255 255 255 255 255 255 255 255 255 255 255 255 255 255 255 255 255 255 255 255 255 255 255 255 255 255 255 255 255 255 255 255 255 255 255 255 255 255 255 255 255 255 255 255 255 255 254 242 176 132 116 108 104 101 100 102 96 96 95 93 85 89 101 189 244 229 130 91 82 73 72 68 69 78 74 69 72 75 67 63 68 109 128 125 118 110 105 102 103 104 101 98 99 102 101 100 99 100 99 105 106 104 102 102 104 104 106 110 113 107 110 111 114 114 113 113 111 110 106 100 99 96 96 96 94 94 94 98 102 103 105 104 100 100 105 116 113 110 104 106 106 104 104 104 107 108 110 110 106 102 103 103 102 102 100 102 104 103 101 100 100 100 101 99 99 95 90 93 100 104 99 103 112 109 102 100 101 96 92 94 90 79 66 140 243 254 254 254 255 255 255 254 255 255 255 255 255 255 255 255 255 255 255 255 255 255 255 255 255 255 255 255 255 255 255 255 255 255 255 255 255 255 255 255 255 255 255 255 255 255 255 255 255 255 255 255 255 255 255 255 255 255 255 255 255 255 255 255 255 255 255 255 255 255 255 255 255 255 255 255 255 255 255 255 255 255 255 255 255 255 255 255 255 255 255 255 255 255 255 255 255 255 255 255 255 
255 255 255 255 255 255 255 255 255 255 255 255 255 255 255 255 255 255 255 255 255 255 255 255 255 255 255 255 255 255 255 255 255 255 255 255 255 255 255 255 255 255 255 255 255 255 255 255 255 255 255 255 255 255 255 255 255 255 255 255 254 254 234 163 130 118 111 108 110 110 113 111 112 103 93 95 99 102 200 253 247 175 112 92 79 77 76 74 75 73 69 74 77 70 68 68 126 182 144 123 118 112 106 103 104 104 100 97 96 98 98 98 98 98 101 102 102 100 101 104 102 99 101 107 105 107 110 111 116 114 112 110 107 102 100 100 97 93 93 94 94 96 98 100 103 107 107 102 102 109 116 108 102 99 100 97 94 95 96 99 99 104 105 99 99 103 106 105 106 108 110 109 108 102 98 97 98 98 96 93 91 91 97 99 98 97 102 109 106 101 97 100 100 99 90 78 68 126 228 254 254 254 255 255 255 255 255 255 255 255 255 255 255 255 255 255 255 255 255 255 255 255 255 255 255 255 255 255 255 255 255 255 255 255 255 255 255 255 255 255 255 255 255 255 255 255 255 255 255 255 255 255 255 255 255 255 255 255 255 255 255 255 255 255 255 255 255 255 255 255 255 255 255 255 255 255 255 255 255 255 255 255 255 255 255 255 255 255 255 255 255 255 255 255 255 255 255 255 255 255 
255 255 255 255 255 255 255 255 255 255 255 255 255 255 255 255 255 255 255 255 255 255 255 255 255 255 255 255 255 255 255 255 255 255 255 255 255 255 255 255 255 255 255 255 255 255 255 255 255 255 255 255 255 255 255 255 255 255 255 255 254 254 226 159 135 118 113 109 112 110 106 104 107 107 104 107 103 124 215 253 252 208 133 104 86 82 84 80 80 77 72 78 80 76 72 64 101 224 223 175 129 114 112 107 102 99 97 96 94 94 94 94 95 97 96 99 101 98 97 99 99 96 97 100 100 99 104 108 113 112 110 112 109 102 103 101 98 92 91 90 89 95 100 100 101 105 103 100 101 108 116 105 98 96 98 96 95 95 94 97 97 98 98 94 98 104 108 106 106 109 107 104 103 101 98 98 98 97 92 88 89 91 92 94 93 93 99 104 104 101 97 97 95 89 78 69 124 217 254 254 254 255 255 255 255 255 255 255 255 255 255 255 255 255 255 255 255 255 255 255 255 255 255 255 255 255 255 255 255 255 255 255 255 255 255 255 255 255 255 255 255 255 255 255 255 255 255 255 255 255 255 255 255 255 255 255 255 255 255 255 255 255 255 255 255 255 255 255 255 255 255 255 255 255 255 255 255 255 255 255 255 255 255 255 255 255 255 255 255 255 255 255 255 255 255 255 255 255 255 255 
255 255 255 255 255 255 255 255 255 255 255 255 255 255 255 255 255 255 255 255 255 255 255 255 255 255 255 255 255 255 255 255 255 255 255 255 255 255 255 255 255 255 255 255 255 255 255 255 255 255 255 255 255 255 255 255 255 255 255 255 254 253 221 156 129 118 117 113 114 112 103 98 107 108 109 107 104 176 247 254 254 231 163 115 93 87 87 85 81 84 78 84 89 79 74 65 84 212 253 252 210 160 134 116 102 98 95 92 89 88 89 90 90 91 91 91 95 94 95 94 97 96 94 96 96 95 96 101 106 104 104 107 107 105 104 103 97 93 92 92 90 93 95 97 98 100 100 99 101 110 119 109 100 97 103 106 105 102 101 103 102 96 94 96 98 99 99 102 103 106 101 100 102 102 97 94 93 93 88 89 90 90 92 94 94 98 102 103 101 98 94 92 88 82 70 127 219 254 254 254 254 255 255 255 255 255 255 255 255 255 255 255 255 255 255 255 255 255 255 255 255 255 255 255 255 255 255 255 255 255 255 255 255 255 255 255 255 255 255 255 255 255 255 255 255 255 255 255 255 255 255 255 255 255 255 255 255 255 255 255 255 255 255 255 255 255 255 255 255 255 255 255 255 255 255 255 255 255 255 255 255 255 255 255 255 255 255 255 255 255 255 255 255 255 255 255 255 255 255 255 
255 255 255 255 255 255 255 255 255 255 255 255 255 255 255 255 255 255 255 255 255 255 255 255 255 255 255 255 255 255 255 255 255 255 255 255 255 255 255 255 255 255 255 255 255 255 255 255 255 255 255 255 255 255 255 255 255 255 255 255 255 254 235 174 132 120 122 117 114 113 111 114 119 117 105 107 125 211 252 254 254 252 202 129 101 89 90 94 89 90 82 86 94 85 76 69 92 203 251 254 254 249 241 213 158 104 91 90 87 86 85 85 85 83 85 85 86 88 89 88 91 91 90 92 92 91 93 98 100 96 98 100 102 107 105 105 102 101 98 101 97 96 97 100 100 100 98 96 104 113 110 104 104 107 108 112 108 101 100 103 104 98 94 95 96 97 98 99 101 108 106 105 105 102 95 90 89 91 90 90 90 89 92 93 92 96 98 101 97 92 90 85 79 73 142 229 254 254 254 254 254 255 255 255 255 255 255 255 255 255 255 255 255 255 255 255 255 255 255 255 255 255 255 255 255 255 255 255 255 255 255 255 255 255 255 255 255 255 255 255 255 255 255 255 255 255 255 255 255 255 255 255 255 255 255 255 255 255 255 255 255 255 255 255 255 255 255 255 255 255 255 255 255 255 255 255 255 255 255 255 255 255 255 255 255 255 255 255 255 255 255 255 255 255 255 255 255 255 255 255 
255 255 255 255 255 255 255 255 255 255 255 255 255 255 255 255 255 255 255 255 255 255 255 255 255 255 255 255 255 255 255 255 255 255 255 255 255 255 255 255 255 255 255 255 255 255 255 255 255 255 255 255 255 255 255 255 255 255 255 255 255 254 236 184 138 121 122 120 121 120 110 110 116 119 110 119 188 246 254 254 254 253 216 138 110 97 88 95 91 88 86 88 93 93 80 73 84 145 237 254 254 255 255 254 247 205 163 125 91 83 83 82 80 79 78 78 77 79 82 81 80 80 79 81 87 89 89 91 92 92 93 94 94 97 100 100 102 104 108 109 105 106 106 109 106 102 97 96 101 109 108 102 105 111 110 107 100 98 99 102 104 101 96 93 95 98 102 100 101 102 97 97 93 92 89 87 88 91 90 89 89 89 89 91 93 95 96 97 93 87 81 75 91 165 246 254 254 255 255 255 255 255 255 255 255 255 255 255 255 255 255 255 255 255 255 255 255 255 255 255 255 255 255 255 255 255 255 255 255 255 255 255 255 255 255 255 255 255 255 255 255 255 255 255 255 255 255 255 255 255 255 255 255 255 255 255 255 255 255 255 255 255 255 255 255 255 255 255 255 255 255 255 255 255 255 255 255 255 255 255 255 255 255 255 255 255 255 255 255 255 255 255 255 255 255 255 255 255 255 255 
255 255 255 255 255 255 255 255 255 255 255 255 255 255 255 255 255 255 255 255 255 255 255 255 255 255 255 255 255 255 255 255 255 255 255 255 255 255 255 255 255 255 255 255 255 255 255 255 255 255 255 255 255 255 255 255 255 255 255 254 254 254 250 227 171 132 126 123 124 126 122 118 117 118 115 153 233 254 254 254 254 254 234 167 120 99 91 96 91 89 89 88 95 95 87 84 93 165 243 254 254 254 255 254 254 254 252 239 197 147 100 79 75 73 72 71 70 67 68 69 71 71 70 69 73 76 80 83 85 88 91 94 96 96 96 96 99 103 108 105 104 110 111 112 109 104 96 94 100 106 102 101 104 107 107 103 100 100 98 99 100 98 91 87 91 94 94 92 92 90 89 91 87 88 87 89 90 92 90 89 88 91 92 90 89 91 89 89 84 75 71 124 197 252 254 254 254 255 255 255 255 255 255 255 255 255 255 255 255 255 255 255 255 255 255 255 255 255 255 255 255 255 255 255 255 255 255 255 255 255 255 255 255 255 255 255 255 255 255 255 255 255 255 255 255 255 255 255 255 255 255 255 255 255 255 255 255 255 255 255 255 255 255 255 255 255 255 255 255 255 255 255 255 255 255 255 255 255 255 255 255 255 255 255 255 255 255 255 255 255 255 255 255 255 255 255 255 255 255 255 
255 255 255 255 255 255 255 255 255 255 255 255 255 255 255 255 255 255 255 255 255 255 255 255 255 255 255 255 255 255 255 255 255 255 255 255 255 255 255 255 255 255 255 255 255 255 255 255 255 255 255 255 255 255 255 255 255 255 255 255 254 255 254 251 218 157 129 124 127 126 124 121 118 112 118 194 253 255 255 255 255 254 253 233 164 112 98 99 95 84 88 86 96 96 90 92 121 215 254 254 254 254 255 254 254 255 255 255 254 250 220 171 120 78 63 60 59 57 56 56 59 61 60 60 62 63 66 71 75 79 82 83 87 92 96 99 99 97 97 98 98 101 103 104 104 102 98 97 100 101 98 101 101 99 96 92 90 90 89 91 89 90 88 87 89 89 86 84 84 83 86 87 86 86 87 88 88 90 89 89 90 91 91 87 83 81 80 77 71 105 169 237 254 254 255 254 254 254 255 255 255 255 255 255 255 255 255 255 255 255 255 255 255 255 255 255 255 255 255 255 255 255 255 255 255 255 255 255 255 255 255 255 255 255 255 255 255 255 255 255 255 255 255 255 255 255 255 255 255 255 255 255 255 255 255 255 255 255 255 255 255 255 255 255 255 255 255 255 255 255 255 255 255 255 255 255 255 255 255 255 255 255 255 255 255 255 255 255 255 255 255 255 255 255 255 255 255 255 255 255 
255 255 255 255 255 255 255 255 255 255 255 255 255 255 255 255 255 255 255 255 255 255 255 255 255 255 255 255 255 255 255 255 255 255 255 255 255 255 255 255 255 255 255 255 255 255 255 255 255 255 255 255 255 255 255 255 255 255 255 255 255 255 255 254 245 204 161 129 125 121 121 123 120 132 168 232 254 255 255 255 255 254 254 242 185 128 105 103 102 96 94 94 101 98 97 113 183 249 254 254 254 255 255 254 254 255 255 255 255 254 254 254 242 198 136 73 51 49 47 47 46 47 48 52 54 54 55 58 62 68 72 74 79 82 85 87 90 90 91 93 96 96 94 93 96 99 95 92 98 91 89 92 95 98 95 92 92 91 88 89 87 87 87 86 85 83 80 78 80 81 83 85 84 82 82 84 86 86 85 85 85 85 82 78 74 69 71 107 166 229 254 254 254 254 255 255 254 255 255 255 255 255 255 255 255 255 255 255 255 255 255 255 255 255 255 255 255 255 255 255 255 255 255 255 255 255 255 255 255 255 255 255 255 255 255 255 255 255 255 255 255 255 255 255 255 255 255 255 255 255 255 255 255 255 255 255 255 255 255 255 255 255 255 255 255 255 255 255 255 255 255 255 255 255 255 255 255 255 255 255 255 255 255 255 255 255 255 255 255 255 255 255 255 255 255 255 255 255 255 255 
255 255 255 255 255 255 255 255 255 255 255 255 255 255 255 255 255 255 255 255 255 255 255 255 255 255 255 255 255 255 255 255 255 255 255 255 255 255 255 255 255 255 255 255 255 255 255 255 255 255 255 255 255 255 255 255 255 255 255 255 255 255 255 255 254 249 234 196 159 131 131 144 142 216 245 254 254 255 255 255 255 254 254 253 238 185 132 110 102 100 97 98 102 98 109 188 245 254 254 254 255 255 255 255 255 255 255 255 255 254 254 254 254 254 250 193 99 52 46 43 40 39 39 41 42 42 44 45 47 51 55 59 64 68 72 76 77 80 82 83 87 89 90 89 90 91 88 86 91 85 89 85 85 85 85 85 85 84 81 80 77 73 73 71 71 72 69 68 69 71 73 77 75 75 78 80 80 78 76 72 68 65 66 74 99 142 190 236 254 254 254 254 254 254 255 255 255 255 255 255 255 255 255 255 255 255 255 255 255 255 255 255 255 255 255 255 255 255 255 255 255 255 255 255 255 255 255 255 255 255 255 255 255 255 255 255 255 255 255 255 255 255 255 255 255 255 255 255 255 255 255 255 255 255 255 255 255 255 255 255 255 255 255 255 255 255 255 255 255 255 255 255 255 255 255 255 255 255 255 255 255 255 255 255 255 255 255 255 255 255 255 255 255 255 255 255 255 255 255 255 
255 255 255 255 255 255 255 255 255 255 255 255 255 255 255 255 255 255 255 255 255 255 255 255 255 255 255 255 255 255 255 255 255 255 255 255 255 255 255 255 255 255 255 255 255 255 255 255 255 255 255 255 255 255 255 255 255 255 255 255 255 255 255 255 254 254 254 250 238 222 222 238 228 253 255 255 255 255 255 255 255 254 254 254 254 239 201 150 126 118 104 112 124 138 186 242 254 255 255 255 255 255 255 255 255 255 255 255 255 255 255 255 255 255 255 254 185 79 57 47 44 41 37 37 37 37 38 38 39 41 42 45 47 50 53 56 58 60 60 62 62 63 65 66 69 66 64 62 62 63 67 65 64 61 62 63 62 59 58 58 58 57 56 54 54 55 54 54 55 55 55 59 60 61 62 61 58 55 60 76 104 137 175 209 237 253 254 254 255 255 255 255 255 255 255 255 255 255 255 255 255 255 255 255 255 255 255 255 255 255 255 255 255 255 255 255 255 255 255 255 255 255 255 255 255 255 255 255 255 255 255 255 255 255 255 255 255 255 255 255 255 255 255 255 255 255 255 255 255 255 255 255 255 255 255 255 255 255 255 255 255 255 255 255 255 255 255 255 255 255 255 255 255 255 255 255 255 255 255 255 255 255 255 255 255 255 255 255 255 255 255 255 255 255 255 255 255 255 255 255 
255 255 255 255 255 255 255 255 255 255 255 255 255 255 255 255 255 255 255 255 255 255 255 255 255 255 255 255 255 255 255 255 255 255 255 255 255 255 255 255 255 255 255 255 255 255 255 255 255 255 255 255 255 255 255 255 255 255 255 255 255 255 255 255 255 254 254 254 254 254 254 254 254 254 254 255 255 255 255 255 255 254 254 254 254 254 251 235 223 206 155 188 231 240 252 254 254 255 255 255 255 255 255 255 255 255 255 255 255 255 255 255 255 255 254 254 229 113 71 58 52 49 45 43 41 40 41 41 40 42 42 44 45 46 47 48 46 42 37 34 94 158 172 180 184 132 34 31 33 36 39 41 43 43 43 43 44 45 46 45 44 44 41 40 41 41 40 41 43 42 42 44 46 50 62 78 106 142 184 219 242 251 254 254 254 254 254 254 255 255 255 255 255 255 255 255 255 255 255 255 255 255 255 255 255 255 255 255 255 255 255 255 255 255 255 255 255 255 255 255 255 255 255 255 255 255 255 255 255 255 255 255 255 255 255 255 255 255 255 255 255 255 255 255 255 255 255 255 255 255 255 255 255 255 255 255 255 255 255 255 255 255 255 255 255 255 255 255 255 255 255 255 255 255 255 255 255 255 255 255 255 255 255 255 255 255 255 255 255 255 255 255 255 255 255 255 255 255 255 255 
255 255 255 255 255 255 255 255 255 255 255 255 255 255 255 255 255 255 255 255 255 255 255 255 255 255 255 255 255 255 255 255 255 255 255 255 255 255 255 255 255 255 255 255 255 255 255 255 255 255 255 255 255 255 255 255 255 255 255 255 255 255 255 255 255 255 254 255 254 254 255 254 255 254 254 255 255 255 255 255 255 254 254 254 254 254 254 254 254 253 235 248 254 254 254 254 255 255 255 255 255 255 255 255 255 255 255 255 255 255 255 255 255 255 255 254 242 136 79 67 62 57 51 48 45 44 45 45 44 45 46 48 51 50 49 48 44 36 28 68 198 253 254 254 254 238 99 23 27 31 35 38 41 42 43 43 43 43 43 39 39 39 37 36 35 35 35 34 35 34 41 94 146 184 212 231 246 253 254 254 254 254 254 255 254 255 255 255 255 255 255 255 255 255 255 255 255 255 255 255 255 255 255 255 255 255 254 254 255 255 255 254 254 254 254 254 255 255 255 255 255 255 255 255 255 255 255 255 255 255 255 255 255 255 255 255 255 255 255 255 255 255 255 255 255 255 255 255 255 255 255 255 255 255 255 255 255 255 255 255 255 255 255 255 255 255 255 255 255 255 255 255 255 255 255 255 255 255 255 255 255 255 255 255 255 255 255 255 255 255 255 255 255 255 255 255 255 255 255 255 
255 255 255 255 255 255 255 255 255 255 255 255 255 255 255 255 255 255 255 255 255 255 255 255 255 255 255 255 255 255 255 255 255 255 255 255 255 255 255 255 255 255 255 255 255 255 255 255 255 255 255 255 255 255 255 255 255 255 255 255 255 255 255 255 255 255 254 254 254 255 255 255 255 254 254 255 255 255 255 255 255 254 254 254 255 254 254 254 254 254 254 254 254 254 255 255 255 255 255 255 255 255 255 255 255 255 255 255 255 255 255 255 255 255 255 254 249 158 85 74 71 67 60 54 51 48 50 52 50 49 50 50 50 48 43 39 34 28 22 125 252 254 254 254 254 254 165 31 26 30 33 37 41 45 49 51 51 48 47 44 45 47 48 48 47 46 46 45 44 52 155 237 254 254 254 254 254 254 254 254 254 254 254 254 254 254 254 254 254 254 254 254 254 254 254 254 254 254 254 254 254 254 254 254 254 254 254 254 254 254 254 254 254 254 254 254 254 254 254 254 254 254 254 254 254 254 254 254 254 254 254 254 254 254 254 254 254 254 255 255 255 255 255 255 255 255 255 255 255 255 255 255 255 255 255 255 255 255 255 255 255 255 255 255 255 255 255 255 255 255 255 255 255 255 255 255 255 255 255 255 255 255 255 255 255 255 255 255 255 255 255 255 255 255 255 255 255 255 255 255 
255 255 255 255 255 255 255 255 255 255 255 255 255 255 255 255 255 255 255 255 255 255 255 255 255 255 255 255 255 255 255 255 255 255 255 255 255 255 255 255 255 255 255 255 255 255 255 255 255 255 255 255 255 255 255 255 255 255 255 255 255 255 255 255 255 255 255 254 255 255 255 255 255 255 255 255 255 255 255 255 255 255 254 255 255 255 255 255 255 255 255 255 255 255 255 255 255 255 255 255 255 255 255 255 255 255 255 255 255 255 255 255 255 255 254 254 253 179 94 82 79 79 74 68 59 53 52 54 53 52 53 52 49 45 41 36 30 24 24 162 254 254 255 254 254 254 195 53 26 29 32 37 40 43 49 51 51 50 51 48 47 51 56 55 54 53 52 53 50 135 249 254 254 254 254 254 254 254 254 254 254 254 253 253 253 253 253 253 253 253 253 253 253 253 253 253 253 253 253 253 253 253 253 253 253 253 253 253 253 253 253 253 253 253 253 253 253 253 253 253 253 253 253 253 253 253 253 254 254 254 254 254 253 253 254 254 254 254 254 254 254 254 254 254 254 254 255 255 255 255 255 255 255 255 255 255 255 255 255 255 255 255 255 255 255 255 255 255 255 255 255 255 255 255 255 255 255 255 255 255 255 255 255 255 255 255 255 255 255 255 255 255 255 255 255 255 255 255 255 255 
255 255 255 255 255 255 255 255 255 255 255 255 255 255 255 255 255 255 255 255 255 255 255 255 255 255 255 255 255 255 255 255 255 255 255 255 255 255 255 255 255 255 255 255 255 255 255 255 255 255 255 255 255 255 255 255 255 255 255 255 255 255 255 255 255 255 255 255 255 255 255 255 255 255 255 255 255 255 255 255 255 255 255 255 255 255 255 255 255 255 255 255 255 255 255 255 255 255 255 255 255 255 255 255 255 255 255 255 255 255 255 255 255 255 255 254 254 201 101 86 83 82 80 82 73 65 60 56 52 53 52 50 48 45 41 35 28 23 74 219 254 255 255 255 254 254 201 72 33 29 32 37 41 43 48 48 49 51 50 47 48 54 57 55 54 55 55 54 73 206 254 254 254 253 253 253 253 253 253 253 252 252 252 252 252 252 252 252 252 253 252 252 253 253 253 253 253 252 252 252 252 252 252 252 252 252 252 253 253 253 253 253 253 253 253 253 253 253 253 253 253 253 253 253 253 253 253 253 253 253 253 253 253 253 253 254 254 254 254 254 254 254 254 254 254 254 254 254 254 255 255 255 255 255 255 255 255 255 255 255 255 255 255 255 255 255 255 255 255 255 255 255 255 255 255 255 255 255 255 255 255 255 255 255 255 255 255 255 255 255 255 255 255 255 255 255 255 255 255 255 
255 255 255 255 255 255 255 255 255 255 255 255 255 255 255 255 255 255 255 255 255 255 255 255 255 255 255 255 255 255 255 255 255 255 255 255 255 255 255 255 255 255 255 255 255 255 255 255 255 255 255 255 255 255 255 255 255 255 255 255 255 255 255 255 255 255 255 255 255 255 255 255 255 255 255 255 255 255 255 255 255 255 255 255 255 255 255 255 255 255 255 255 255 255 255 255 255 255 255 255 255 255 255 255 255 255 255 255 255 255 255 255 255 255 255 255 254 222 113 89 86 88 86 88 81 73 65 61 57 55 50 48 46 44 40 33 29 46 175 254 255 255 255 254 254 254 231 97 39 32 32 36 41 45 50 51 50 53 52 48 48 53 54 53 56 55 56 50 128 248 252 252 252 252 251 251 251 251 250 251 251 250 250 250 250 250 250 250 250 250 251 250 250 250 250 250 250 250 250 250 250 250 250 250 250 250 250 250 251 251 251 251 251 251 252 252 252 252 252 252 252 252 253 253 253 253 253 253 253 253 253 253 253 253 253 253 253 253 253 253 253 254 254 254 253 253 254 254 254 254 254 254 254 254 254 255 255 255 255 254 254 255 255 255 255 255 255 255 255 255 255 255 255 255 255 255 255 255 255 255 255 255 255 255 255 255 255 255 255 255 255 255 255 255 255 255 255 255 255 255 
255 255 255 255 255 255 255 255 255 255 255 255 255 255 255 255 255 255 255 255 255 255 255 255 255 255 255 255 255 255 255 255 255 255 255 255 255 255 255 255 255 255 255 255 255 255 255 255 255 255 255 255 255 255 255 255 255 255 255 255 255 255 255 255 255 255 255 255 255 255 255 255 255 255 255 255 255 255 255 255 255 255 255 255 255 255 255 255 255 255 255 255 255 255 255 255 255 255 255 255 255 255 255 255 255 255 255 255 255 255 255 255 255 255 255 255 255 239 131 95 88 88 85 85 80 73 67 64 58 54 49 48 47 45 40 34 31 84 243 254 254 254 254 254 254 253 250 152 47 33 32 35 40 44 49 53 52 52 53 51 50 51 51 50 53 55 56 55 183 250 250 250 249 249 249 248 249 248 248 248 248 248 248 248 248 248 248 248 248 248 248 248 248 248 248 248 248 248 248 248 248 248 249 248 249 249 249 249 249 249 249 249 249 249 249 250 250 250 250 250 250 251 251 251 251 252 252 252 253 253 253 253 253 253 253 253 253 253 253 253 253 253 253 253 254 253 254 254 254 254 254 254 254 254 254 254 254 254 255 254 254 255 255 255 255 255 255 255 255 255 255 255 255 255 255 255 255 255 255 255 255 255 255 255 255 255 255 255 255 255 255 255 255 255 255 255 255 255 255 255 
255 255 255 255 255 255 255 255 255 255 255 255 255 255 255 255 255 255 255 255 255 255 255 255 255 255 255 255 255 255 255 255 255 255 255 255 255 255 255 255 255 255 255 255 255 255 255 255 255 255 255 255 255 255 255 255 255 255 255 255 255 255 255 255 255 255 255 255 255 255 255 255 255 255 255 255 255 255 255 255 255 255 255 255 255 255 255 255 255 255 255 255 255 255 255 255 255 255 255 255 255 255 255 255 255 255 255 255 255 255 255 255 255 255 255 255 255 250 177 104 98 98 99 93 80 77 72 68 58 57 57 53 51 49 45 33 26 74 236 253 252 253 253 252 252 251 251 195 73 39 33 35 41 44 47 50 54 52 50 50 50 48 49 50 50 48 46 87 228 248 247 247 246 247 246 246 246 246 246 245 245 245 245 245 245 246 245 246 245 245 246 245 245 246 245 246 246 245 245 245 246 246 246 246 246 247 247 248 248 248 248 248 248 248 248 248 249 249 249 249 249 249 250 250 250 250 251 251 251 252 252 252 252 253 253 253 253 253 253 253 253 253 253 253 253 253 253 253 253 254 254 254 254 254 254 254 254 254 254 254 254 254 255 255 255 255 255 255 255 255 255 255 255 255 255 255 255 255 255 255 255 255 255 255 255 255 255 255 255 255 255 255 255 255 255 255 255 255 255 255 
255 255 255 255 255 255 255 255 255 255 255 255 255 255 255 255 255 255 255 255 255 255 255 255 255 255 255 255 255 255 255 255 255 255 255 255 255 255 255 255 255 255 255 255 255 255 255 255 255 255 255 255 255 255 255 255 255 255 255 255 255 255 255 255 255 255 255 255 255 255 255 255 255 255 255 255 255 255 255 255 255 255 255 255 255 255 255 255 255 255 255 255 255 255 255 255 255 255 255 255 255 255 255 255 255 255 255 255 255 255 255 255 255 255 255 255 255 254 246 180 117 93 96 98 83 79 79 76 64 60 63 58 50 42 33 23 22 67 228 250 250 249 249 249 248 248 246 169 70 43 35 37 43 45 46 47 50 53 49 47 47 46 47 46 46 43 40 139 242 244 243 243 243 243 242 242 242 242 242 241 242 241 241 242 242 242 242 242 242 242 242 242 242 242 242 242 242 242 242 242 243 243 243 243 244 244 244 244 244 245 245 246 246 246 247 247 247 247 248 248 248 248 248 249 249 249 249 250 250 250 250 251 251 252 252 253 253 253 253 253 253 253 253 253 253 253 253 253 253 253 253 253 253 254 254 254 254 254 254 254 254 254 254 254 254 255 255 255 255 255 255 255 255 255 255 255 255 255 255 255 255 255 255 255 255 255 255 255 255 255 255 255 255 255 255 255 255 255 255 255 
255 255 255 255 255 255 255 255 255 255 255 255 255 255 255 255 255 255 255 255 255 255 255 255 255 255 255 255 255 255 255 255 255 255 255 255 255 255 255 255 255 255 255 255 255 255 255 255 255 255 255 255 255 255 255 255 255 255 255 255 255 255 255 255 255 255 255 255 255 255 255 255 255 255 255 255 255 255 255 255 255 255 255 255 255 255 255 255 255 255 255 255 255 255 255 255 255 255 255 255 255 255 255 255 255 255 255 255 255 255 255 255 255 255 255 255 255 254 254 231 111 48 60 80 76 66 64 63 58 52 49 40 28 23 22 22 23 33 190 245 244 244 243 243 242 242 222 124 60 44 35 39 48 50 49 47 47 51 46 43 42 43 43 42 42 41 62 196 238 238 238 238 238 238 237 237 237 237 237 237 237 237 237 237 237 237 237 237 237 237 237 238 238 238 238 238 238 238 239 239 239 240 240 240 241 241 241 242 242 243 243 243 244 244 244 244 245 246 247 247 248 248 248 248 248 249 248 249 249 249 250 250 250 251 251 251 252 252 252 253 253 253 253 253 253 253 252 253 253 252 253 253 253 253 253 253 254 254 254 254 254 254 254 254 254 254 254 255 255 255 255 255 255 255 255 255 255 255 255 255 255 255 255 255 255 255 255 255 255 255 255 255 255 255 255 255 255 255 255 255 
255 255 255 255 255 255 255 255 255 255 255 255 255 255 255 255 255 255 255 255 255 255 255 255 255 255 255 255 255 255 255 255 255 255 255 255 255 255 255 255 255 255 255 255 255 255 255 255 255 255 255 255 255 255 255 255 255 255 255 255 255 255 255 255 255 255 255 255 255 255 255 255 255 255 255 255 255 255 255 255 255 255 255 255 255 255 255 255 255 255 255 255 255 255 255 255 255 255 255 255 255 255 255 255 255 255 255 255 255 255 255 254 254 254 254 254 254 254 220 119 33 19 18 23 24 22 21 20 21 20 20 28 24 22 22 23 21 24 175 238 237 236 235 235 234 234 177 67 49 41 37 29 37 48 52 55 56 56 47 44 42 41 41 42 41 40 114 224 231 231 230 230 231 231 231 231 230 230 231 231 230 230 230 231 231 232 232 232 232 232 232 232 233 233 233 233 234 234 235 235 236 236 237 237 238 238 239 239 239 240 240 241 242 242 243 243 243 244 244 245 246 247 247 248 248 249 248 248 249 249 249 249 250 250 250 250 251 251 251 252 252 253 253 253 253 253 252 253 253 252 252 253 253 253 253 253 253 253 254 254 254 254 254 254 254 254 254 255 255 255 255 255 255 255 255 255 255 255 255 255 255 255 255 255 255 255 255 255 255 255 255 255 255 255 255 255 255 255 255 255 
255 255 255 255 255 255 255 255 255 255 255 255 255 255 255 255 255 255 255 255 255 255 255 255 255 255 255 255 255 255 255 255 255 255 255 255 255 255 255 255 255 255 255 255 255 255 255 255 255 255 255 255 255 255 254 255 255 255 255 255 255 255 255 255 255 255 255 255 255 255 255 255 255 255 255 255 255 255 255 255 255 255 255 255 255 255 255 255 255 255 255 255 255 255 255 255 255 255 255 254 254 254 254 254 254 254 254 254 254 254 254 254 254 254 253 253 253 209 110 35 27 27 28 27 25 21 18 17 17 17 20 29 26 22 23 23 17 29 178 228 227 226 225 225 224 224 152 42 40 38 45 29 20 22 32 46 59 57 50 45 42 37 38 40 53 110 191 222 222 223 223 223 223 222 223 223 223 223 223 224 224 224 224 225 225 225 226 226 227 227 227 227 228 228 229 229 229 230 231 231 232 232 233 234 234 235 236 236 237 237 238 239 240 240 241 241 242 242 243 244 244 245 245 246 246 247 248 247 249 249 248 249 249 249 249 249 250 251 251 251 251 251 252 252 252 252 253 253 253 253 253 253 253 253 253 253 252 253 253 253 253 253 254 254 254 254 254 254 254 255 255 255 255 255 255 255 255 255 255 255 255 255 255 255 255 255 255 255 255 255 255 255 255 255 255 255 255 255 255 255 
255 255 255 255 255 255 255 255 255 255 255 255 255 255 255 255 255 255 255 255 255 255 255 255 255 255 255 255 255 255 255 255 255 255 255 255 255 255 255 255 255 255 255 255 255 255 254 254 254 254 254 254 254 254 254 254 255 255 255 255 255 255 255 255 255 255 255 255 255 255 255 255 255 255 255 255 255 255 255 255 255 255 255 255 255 255 255 255 255 255 255 254 254 254 254 254 254 254 254 254 254 253 253 254 254 253 253 253 253 253 253 253 253 253 252 252 205 103 36 27 27 28 28 27 26 24 21 20 20 20 21 22 22 24 24 19 16 81 200 215 215 214 213 212 212 212 143 32 24 40 56 39 23 12 11 14 19 24 27 29 29 25 25 56 160 205 212 213 213 213 214 214 214 214 214 215 215 215 216 216 217 217 218 218 218 219 219 220 220 221 221 222 223 223 224 224 225 226 226 227 228 229 229 230 231 231 232 233 233 234 235 236 237 238 239 239 240 241 241 242 243 243 244 244 245 246 246 247 248 248 248 249 249 249 249 249 249 250 250 250 250 250 251 251 252 252 252 253 253 253 254 253 253 253 253 252 252 252 253 253 253 253 254 254 254 254 254 254 254 255 255 255 255 255 255 255 255 255 255 255 255 255 255 255 255 255 255 255 255 255 255 255 255 255 255 255 255 255 255 255 
255 255 255 255 255 255 255 255 255 255 255 255 255 255 255 255 255 255 255 255 255 255 255 255 255 255 255 255 255 255 255 255 255 255 255 255 255 255 255 255 255 255 255 255 255 254 254 254 254 254 254 254 254 254 254 254 255 255 255 255 255 255 255 255 255 255 255 255 255 255 255 255 255 255 255 255 255 255 255 255 255 255 255 255 255 255 255 255 255 254 254 254 254 253 254 254 254 254 254 253 253 253 253 252 252 252 251 251 250 249 248 247 246 245 243 204 104 37 24 22 23 25 25 24 23 22 21 20 20 21 22 22 23 24 18 15 43 144 203 203 203 202 202 202 200 200 156 40 14 36 69 50 28 16 12 12 12 12 13 14 14 13 12 20 124 202 203 203 204 204 205 205 206 206 206 207 207 208 209 209 210 210 211 211 212 212 213 214 215 215 216 217 217 218 219 220 221 222 222 223 224 225 225 226 227 228 229 229 230 231 232 233 234 235 237 237 238 239 240 241 241 242 242 243 244 244 244 245 245 246 247 247 248 249 249 249 249 249 249 249 250 249 250 250 250 251 251 252 253 253 253 254 253 253 252 252 252 252 253 252 253 253 253 254 254 254 254 254 254 255 255 255 255 255 255 255 255 255 255 255 255 255 255 255 255 255 255 255 255 255 255 255 255 255 255 255 255 255 255 255 
255 255 255 255 255 255 255 255 255 255 255 255 255 255 255 255 255 255 255 255 255 255 255 255 255 255 255 255 255 255 255 255 255 255 255 255 255 255 255 255 255 255 255 254 254 254 254 254 254 254 254 254 254 254 254 254 254 255 255 255 255 255 255 255 255 255 255 255 255 255 255 255 255 255 255 255 255 255 255 255 255 255 255 255 255 255 254 254 254 254 254 253 253 253 253 253 253 252 251 251 250 248 248 246 244 242 240 238 236 235 233 231 229 227 209 118 41 23 20 21 21 22 22 22 21 21 20 20 21 22 22 23 24 19 24 39 124 189 191 191 191 191 191 190 189 188 170 70 12 25 78 74 47 28 18 17 18 19 20 21 20 19 18 17 40 126 187 195 196 196 197 197 198 198 199 200 201 201 202 202 203 204 205 205 206 207 208 209 209 210 211 212 213 214 215 215 216 217 218 219 220 221 221 223 223 224 225 226 227 228 229 230 231 233 234 235 237 237 238 239 240 240 241 242 242 243 243 244 244 245 246 246 247 247 248 248 249 248 248 249 249 249 250 250 250 251 251 251 251 251 252 253 254 253 253 252 253 252 253 252 253 253 253 254 254 254 254 254 254 255 255 255 255 255 255 255 255 255 255 255 255 255 255 255 255 255 255 255 255 255 255 255 255 255 255 255 255 255 255 255 
255 255 255 255 255 255 255 255 255 255 255 255 255 255 255 255 255 255 255 255 255 255 255 255 255 255 255 255 255 255 255 255 255 255 255 255 255 255 255 255 255 255 254 254 254 254 254 254 254 254 254 254 254 254 254 254 254 254 255 255 255 255 255 255 255 255 255 255 255 255 255 255 255 255 255 255 255 255 255 255 255 255 255 254 254 254 254 253 253 253 253 252 252 251 249 248 246 244 242 240 238 235 233 230 228 226 223 221 219 217 215 213 211 208 149 57 30 25 25 25 24 23 21 20 20 20 20 21 21 23 24 26 22 26 106 145 174 178 180 181 181 181 181 180 178 176 173 119 36 17 69 89 59 38 35 42 44 37 27 21 19 20 19 18 17 25 82 156 188 189 189 190 191 192 193 193 194 195 196 197 198 198 199 200 201 202 203 204 205 206 207 207 208 209 210 211 212 213 214 215 216 217 218 219 220 221 222 223 224 225 226 227 229 231 232 233 234 235 236 237 238 238 240 240 240 241 242 243 243 244 244 245 245 246 247 247 248 248 249 248 249 249 249 249 250 250 250 251 251 251 252 253 254 254 253 253 253 253 252 252 253 253 253 254 254 254 254 254 254 255 255 255 255 255 255 255 255 255 255 255 255 255 255 255 255 255 255 255 255 255 255 255 255 255 255 255 255 255 255 255 
255 255 255 255 255 255 255 255 255 255 255 255 255 255 255 255 255 255 255 255 255 255 255 255 255 255 255 255 255 255 255 255 255 255 255 255 255 255 255 255 255 254 254 254 254 254 254 254 254 254 254 254 254 254 254 254 254 254 255 255 255 255 255 255 255 255 255 255 255 255 255 255 255 255 255 255 255 255 255 255 254 254 254 254 254 253 253 252 251 249 247 245 244 241 239 236 233 230 228 225 222 220 217 215 213 211 209 207 206 204 202 201 199 187 99 43 36 38 41 40 36 30 25 22 22 21 22 23 24 28 31 29 19 81 153 159 163 167 170 172 172 172 172 170 168 165 161 155 123 61 52 93 67 50 59 68 56 37 26 22 24 26 25 24 23 20 17 67 159 183 184 184 185 186 187 188 189 189 190 191 192 193 194 196 197 197 198 199 200 201 203 203 204 206 207 208 209 209 211 212 213 214 215 216 217 218 219 220 221 222 223 225 227 229 230 231 232 233 234 235 235 236 237 238 239 240 241 242 242 243 243 244 244 245 246 247 248 248 249 249 249 249 249 250 250 250 250 251 251 252 253 253 253 253 253 253 252 253 253 253 253 253 254 254 254 254 254 255 255 255 255 255 255 255 255 255 255 255 255 255 255 255 255 255 255 255 255 255 255 255 255 255 255 255 255 255 255 255 255 255 
255 255 255 255 255 255 255 255 255 255 255 255 255 255 255 255 255 255 255 255 255 255 255 255 255 255 255 255 255 255 255 255 255 255 255 255 255 255 255 255 254 254 253 254 254 254 254 254 254 254 254 254 254 254 254 254 254 254 254 254 255 255 255 254 254 255 255 254 254 254 254 254 254 254 254 254 254 254 254 254 254 253 253 252 251 250 247 245 242 239 236 234 231 228 226 223 220 218 216 213 211 209 207 205 204 202 200 199 197 196 194 193 191 166 74 47 50 58 65 64 53 41 33 29 28 27 29 31 34 38 41 25 49 123 142 147 153 158 161 163 164 164 163 162 159 154 149 143 137 99 45 83 72 57 62 56 38 29 29 33 37 40 38 35 32 29 25 19 98 177 178 179 180 181 182 183 184 185 186 187 188 189 190 191 192 193 194 195 196 198 199 200 201 202 203 204 206 207 207 209 211 212 212 213 215 216 217 218 219 220 221 223 225 227 228 229 230 231 232 233 233 234 235 236 238 239 240 241 242 242 242 243 244 245 246 247 248 249 249 248 249 249 250 250 250 251 251 252 251 252 253 253 253 253 253 252 252 253 253 253 254 254 254 254 254 254 255 255 255 255 255 255 255 255 255 255 255 255 255 255 255 255 255 255 255 255 255 255 255 255 255 255 255 255 255 255 255 255 255 255 
255 255 255 255 255 255 255 255 255 255 255 255 255 255 255 255 255 255 255 255 255 255 255 255 255 255 255 255 255 255 255 255 255 255 255 255 255 255 255 255 254 254 253 253 254 254 254 254 254 254 254 254 254 254 254 254 254 253 254 254 254 254 254 254 254 254 254 254 254 254 254 254 254 254 254 254 254 254 253 253 253 251 249 247 244 242 238 236 233 230 227 224 223 219 217 214 212 210 208 206 204 202 200 199 197 195 193 192 190 188 187 185 182 144 65 55 62 74 82 83 72 54 43 39 38 38 39 43 50 53 36 26 84 121 129 137 144 150 153 156 157 157 156 154 151 145 139 132 126 115 60 60 64 52 50 42 34 35 42 52 64 67 60 50 43 37 33 26 57 160 173 174 175 176 178 178 179 181 182 183 184 185 186 187 188 189 191 192 193 194 195 196 198 199 200 202 203 204 205 206 207 209 210 211 213 214 215 216 217 219 220 221 223 225 226 228 229 229 230 231 232 233 234 235 237 239 240 241 241 242 243 244 245 245 246 248 249 249 249 249 249 249 250 251 251 251 252 253 253 253 253 253 253 253 253 253 253 253 254 254 254 254 254 254 255 255 255 255 255 255 255 255 255 255 255 255 255 255 255 255 255 255 255 255 255 255 255 255 255 255 255 255 255 255 255 255 255 255 255 255 
255 255 255 255 255 255 255 255 255 255 255 255 255 255 255 255 255 255 255 255 255 255 255 255 255 255 255 255 255 255 255 255 255 255 255 255 255 255 255 255 254 254 254 254 254 254 254 254 254 254 254 254 254 254 254 254 254 253 253 254 254 254 254 254 254 254 254 254 254 254 254 254 254 254 253 253 253 253 254 253 252 249 247 243 241 238 236 233 230 228 225 222 220 216 213 211 208 206 203 200 198 196 195 193 191 189 187 185 184 182 180 177 173 113 56 57 62 70 76 75 69 59 51 48 46 48 53 58 52 36 22 49 96 105 117 129 136 142 146 149 150 150 149 147 144 138 130 123 116 110 78 41 47 47 47 44 44 45 51 60 72 76 70 61 52 45 42 37 51 149 167 169 170 172 173 174 175 176 177 178 180 181 182 183 185 186 187 188 190 191 192 193 194 196 197 199 199 201 202 203 205 206 208 209 210 211 212 214 215 217 218 219 221 223 224 226 227 228 230 231 232 234 235 237 238 240 241 242 242 243 244 245 246 247 248 248 248 248 249 249 250 250 251 251 252 252 253 253 253 253 253 253 253 253 253 253 254 254 254 254 254 254 255 255 255 255 255 255 255 255 255 255 255 255 255 255 255 255 255 255 255 255 255 255 255 255 255 255 255 255 255 255 255 255 255 255 255 255 255 255 
255 255 255 255 255 255 255 255 255 255 255 255 255 255 255 255 255 255 255 255 255 255 255 255 255 255 255 255 255 255 255 255 255 255 255 255 255 255 255 255 254 254 254 254 254 254 254 254 254 254 254 254 254 254 254 254 254 254 254 254 254 254 254 254 254 254 254 254 254 254 254 254 254 253 253 253 253 253 253 253 252 251 250 248 247 246 244 242 239 234 229 225 221 217 213 209 206 202 199 195 193 191 189 187 185 183 181 180 178 176 173 169 161 93 42 50 56 62 65 62 60 54 49 48 49 48 42 32 21 24 42 65 83 96 111 122 130 136 139 142 142 143 142 140 137 131 124 115 107 101 87 41 31 40 47 50 52 52 52 53 58 63 63 61 56 49 46 43 69 145 159 163 165 167 168 169 170 172 173 175 176 177 178 180 182 183 183 185 186 188 189 190 191 193 194 195 196 198 199 201 202 203 205 206 208 209 211 212 214 215 217 218 220 222 224 225 227 229 231 233 236 237 239 240 241 242 243 244 245 246 246 247 248 248 248 249 249 249 250 251 251 251 252 252 253 253 253 253 253 253 253 253 253 254 254 254 254 254 255 255 255 255 255 255 255 255 255 255 255 255 255 255 255 255 255 255 255 255 255 255 255 255 255 255 255 255 255 255 255 255 255 255 255 255 255 255 255 255 255 255 
255 255 255 255 255 255 255 255 255 255 255 255 255 255 255 255 255 255 255 255 255 255 255 255 255 255 255 255 255 255 255 255 255 255 255 255 255 255 255 255 254 254 254 254 254 254 254 254 254 254 254 254 254 254 254 254 254 254 253 254 254 254 253 253 253 253 253 253 253 253 253 253 253 253 253 253 252 252 253 253 252 252 252 252 252 252 252 250 246 239 231 225 220 215 210 206 201 198 194 190 188 186 184 182 180 179 176 174 172 169 166 161 148 95 33 28 33 41 44 44 40 36 32 31 28 23 20 23 27 38 53 65 80 96 109 119 126 131 134 136 137 137 136 135 131 126 119 111 103 95 87 52 29 28 28 29 32 34 34 36 38 43 44 43 40 34 30 26 51 128 150 157 160 162 164 165 166 168 170 171 172 174 175 177 178 180 181 183 184 185 187 188 190 191 192 194 195 197 199 201 202 204 206 208 210 212 214 216 219 221 223 225 228 230 231 234 236 238 240 242 245 246 247 247 247 248 248 248 249 249 250 250 250 251 250 251 251 252 252 253 253 253 253 253 253 254 254 254 254 254 254 254 254 255 255 255 255 255 255 255 255 255 255 255 255 255 255 255 255 255 255 255 255 255 255 255 255 255 255 255 255 255 255 255 255 255 255 255 255 255 255 255 255 255 255 255 255 255 255 255 
255 255 255 255 255 255 255 255 255 255 255 255 255 255 255 255 255 255 255 255 255 255 255 255 255 255 255 255 255 255 255 255 255 255 255 255 255 255 255 255 254 254 254 254 254 254 254 254 254 254 254 254 254 254 254 253 253 253 253 253 253 253 253 253 253 253 253 253 253 253 253 253 253 253 253 253 253 253 253 253 253 252 253 252 252 253 252 251 247 240 231 223 217 211 206 201 197 194 189 186 184 181 179 177 175 174 171 169 166 164 160 154 138 108 59 28 26 32 31 30 28 24 22 22 24 26 27 33 39 46 57 73 90 105 116 124 130 134 137 138 138 137 136 135 132 128 123 115 107 100 91 70 39 27 27 27 26 29 28 28 31 34 34 33 30 26 22 21 37 117 144 153 158 160 162 165 166 168 170 172 174 176 178 180 182 184 186 187 189 191 193 195 198 200 201 204 206 209 211 214 216 219 222 224 227 230 232 235 237 239 241 243 245 246 247 248 249 250 251 252 252 252 252 252 252 252 253 252 253 253 253 253 253 254 253 254 254 254 254 254 254 254 254 254 254 254 254 254 254 254 255 255 255 255 255 255 255 255 255 255 255 255 255 255 255 255 255 255 255 255 255 255 255 255 255 255 255 255 255 255 255 255 255 255 255 255 255 255 255 255 255 255 255 255 255 255 255 255 255 255 
255 255 255 255 255 255 255 255 255 255 255 255 255 255 255 255 255 255 255 255 255 255 255 255 255 255 255 255 255 255 255 255 255 255 255 255 255 255 255 255 254 254 254 254 254 254 254 254 254 254 254 254 254 254 253 253 253 253 253 253 253 253 253 253 253 253 253 253 253 253 253 253 253 253 253 253 253 253 253 253 253 253 252 252 252 250 248 244 239 232 224 216 209 204 199 195 191 188 185 182 180 178 177 176 174 173 171 169 167 164 160 154 141 118 87 51 35 35 31 30 30 28 26 25 29 34 38 49 59 72 88 104 118 129 137 144 149 152 154 155 155 154 154 152 150 147 142 136 129 122 115 103 77 52 41 37 34 33 31 29 37 44 39 33 30 28 30 39 63 126 151 162 168 173 176 179 182 185 188 190 193 196 198 201 204 206 208 210 213 215 218 220 222 224 226 229 231 233 235 237 238 240 242 244 245 246 247 249 250 251 251 252 252 252 253 253 252 253 253 254 254 254 254 254 254 254 254 254 254 254 254 254 254 254 254 255 255 255 255 255 255 255 255 255 255 255 255 255 255 255 255 255 255 255 255 255 255 255 255 255 255 255 255 255 255 255 255 255 255 255 255 255 255 255 255 255 255 255 255 255 255 255 255 255 255 255 255 255 255 255 255 255 255 255 255 255 255 255 255 255 
255 255 255 255 255 255 255 255 255 255 255 255 255 255 255 255 255 255 255 255 255 255 255 255 255 255 255 255 255 255 255 255 255 255 255 255 255 255 255 255 254 254 254 254 254 254 254 254 254 254 254 254 253 253 253 253 252 252 253 253 253 253 253 253 253 253 253 253 253 253 253 253 253 253 253 253 253 253 253 253 253 253 252 251 246 240 233 226 219 212 206 201 197 194 192 189 188 186 185 184 183 183 183 185 186 187 187 186 185 182 178 173 164 150 129 102 76 62 56 54 54 57 60 65 73 82 92 103 115 127 137 146 154 160 165 169 173 175 177 177 178 179 178 178 177 175 172 168 164 159 154 149 143 135 127 120 114 106 99 92 91 92 90 87 89 94 104 124 144 168 180 187 192 196 199 203 205 208 211 213 216 219 221 223 225 226 228 230 232 233 235 237 238 239 240 242 242 244 245 246 247 248 249 249 250 251 251 252 253 253 252 253 253 253 253 253 254 254 254 254 255 255 255 255 255 255 255 255 255 255 255 255 255 255 255 255 255 255 255 255 255 255 255 255 255 255 255 255 255 255 255 255 255 255 255 255 255 255 255 255 255 255 255 255 255 255 255 255 255 255 255 255 255 255 255 255 255 255 255 255 255 255 255 255 255 255 255 255 255 255 255 255 255 255 255 255 255 255 255 255 
255 255 255 255 255 255 255 255 255 255 255 255 255 255 255 255 255 255 255 255 255 255 255 255 255 255 255 255 255 255 255 255 255 255 255 255 255 255 255 255 254 254 254 254 254 254 254 254 254 254 254 254 253 253 253 253 253 253 253 253 253 253 253 253 253 253 253 253 253 253 253 253 253 253 253 253 253 253 253 253 253 253 252 249 243 236 229 223 218 213 210 207 205 204 203 203 203 203 204 205 207 209 211 213 214 215 215 214 211 208 205 201 197 190 182 172 162 154 149 147 147 149 150 152 155 158 162 167 172 176 180 184 187 189 192 194 196 197 198 199 200 200 200 200 199 199 198 196 194 192 190 187 185 184 183 182 182 181 181 179 177 176 176 177 179 182 187 193 200 205 209 212 214 216 218 220 221 224 225 227 228 230 232 233 235 236 237 238 239 241 242 242 244 244 245 247 247 248 249 249 250 250 251 252 253 253 253 253 253 252 252 253 253 254 254 254 254 254 255 255 255 255 255 255 255 255 255 255 255 255 255 255 255 255 255 255 255 255 255 255 255 255 255 255 255 255 255 255 255 255 255 255 255 255 255 255 255 255 255 255 255 255 255 255 255 255 255 255 255 255 255 255 255 255 255 255 255 255 255 255 255 255 255 255 255 255 255 255 255 255 255 255 255 255 255 255 255 255 255 255 
255 255 255 255 255 255 255 255 255 255 255 255 255 255 255 255 255 255 255 255 255 255 255 255 255 255 255 255 255 255 255 255 255 255 255 255 255 255 255 255 254 254 254 254 254 254 254 254 254 254 254 254 253 253 252 253 253 253 253 253 253 253 253 253 253 253 253 253 253 253 253 253 253 253 253 253 253 253 253 253 253 253 253 251 249 247 245 242 240 238 237 235 235 234 234 234 235 235 236 236 237 237 237 236 235 235 233 232 230 228 227 225 223 220 217 214 211 208 206 205 204 204 204 204 205 206 207 209 209 210 211 213 214 214 216 216 217 218 218 218 219 219 220 220 219 219 219 218 217 217 216 215 214 214 215 215 215 216 216 217 217 217 218 219 220 221 222 224 226 227 228 229 230 231 233 234 235 236 237 238 239 240 241 241 242 243 244 245 246 247 247 247 248 249 249 250 250 251 251 252 252 253 253 253 253 253 253 253 253 253 253 254 254 254 255 255 255 255 255 255 255 255 255 255 255 255 255 255 255 255 255 255 255 255 255 255 255 255 255 255 255 255 255 255 255 255 255 255 255 255 255 255 255 255 255 255 255 255 255 255 255 255 255 255 255 255 255 255 255 255 255 255 255 255 255 255 255 255 255 255 255 255 255 255 255 255 255 255 255 255 255 255 255 255 255 255 255 255 255 255 
255 255 255 255 255 255 255 255 255 255 255 255 255 255 255 255 255 255 255 255 255 255 255 255 255 255 255 255 255 255 255 255 255 255 255 255 255 255 255 255 254 253 254 254 254 254 254 254 254 254 254 254 253 253 252 253 253 253 253 253 253 253 253 253 253 253 253 253 253 253 253 253 253 253 253 253 253 253 253 254 253 253 254 253 253 253 253 252 252 252 251 251 250 250 250 249 249 249 248 248 248 248 247 246 246 245 245 245 243 243 242 241 240 239 238 237 236 234 233 233 232 232 232 232 232 232 232 233 233 233 233 233 233 233 234 234 234 234 234 234 234 234 234 234 234 234 235 235 234 234 234 234 233 233 234 234 234 235 236 236 236 237 237 237 238 238 239 240 240 241 241 242 243 243 244 244 245 245 246 246 247 247 248 248 248 249 249 250 250 250 251 251 251 251 252 252 252 253 253 253 253 254 253 253 253 253 253 253 253 254 254 255 255 255 255 255 255 255 255 255 255 255 255 255 255 255 255 255 255 255 255 255 255 255 255 255 255 255 255 255 255 255 255 255 255 255 255 255 255 255 255 255 255 255 255 255 255 255 255 255 255 255 255 255 255 255 255 255 255 255 255 255 255 255 255 255 255 255 255 255 255 255 255 255 255 255 255 255 255 255 255 255 255 255 255 255 255 255 255 255 
255 255 255 255 255 255 255 255 255 255 255 255 255 255 255 255 255 255 255 255 255 255 255 255 255 255 255 255 255 255 255 255 255 255 255 255 255 255 255 255 254 254 254 254 254 254 254 254 254 254 254 254 253 253 253 253 253 253 253 253 253 253 253 253 253 253 253 253 253 253 253 253 253 253 253 253 253 253 253 253 253 253 253 253 253 253 253 253 253 253 253 253 253 252 252 252 252 252 251 251 251 251 251 251 250 250 250 250 250 250 249 249 249 248 248 248 247 247 247 247 247 246 246 246 246 246 246 246 246 246 246 245 245 246 245 245 245 245 246 245 245 245 245 245 245 245 245 245 245 245 245 245 245 245 246 246 246 246 247 247 247 247 247 247 247 248 248 248 248 248 249 249 249 249 249 250 250 250 250 250 251 251 251 251 251 251 252 252 252 252 252 253 252 252 253 253 253 254 254 254 254 253 253 253 253 253 253 254 254 254 255 255 255 255 255 255 255 255 255 255 255 255 255 255 255 255 255 255 255 255 255 255 255 255 255 255 255 255 255 255 255 255 255 255 255 255 255 255 255 255 255 255 255 255 255 255 255 255 255 255 255 255 255 255 255 255 255 255 255 255 255 255 255 255 255 255 255 255 255 255 255 255 255 255 255 255 255 255 255 255 255 255 255 255 255 255 255 255 255 255 
255 255 255 255 255 255 255 255 255 255 255 255 255 255 255 255 255 255 255 255 255 255 255 255 255 255 255 255 255 255 255 255 255 255 255 255 255 255 255 255 255 254 254 254 254 254 254 254 254 254 254 254 254 253 254 253 253 253 253 253 253 253 253 253 253 253 253 253 253 253 253 253 253 253 253 253 253 253 252 252 252 253 253 253 253 253 253 253 253 253 253 253 253 253 253 253 253 253 253 253 253 253 253 253 252 252 252 252 252 252 251 251 251 251 251 251 250 250 250 250 250 250 250 250 250 250 250 250 250 250 250 249 250 250 249 249 249 249 250 250 249 249 249 249 249 249 249 249 249 249 249 249 249 249 249 249 249 249 250 250 250 250 250 250 251 251 251 251 251 251 251 251 251 251 251 251 251 251 251 252 252 252 251 251 252 253 253 253 253 253 253 253 253 253 253 253 253 254 253 253 253 253 252 253 253 254 254 255 255 255 255 255 255 255 255 255 255 255 255 255 255 255 255 255 255 255 255 255 255 255 255 255 255 255 255 255 255 255 255 255 255 255 255 255 255 255 255 255 255 255 255 255 255 255 255 255 255 255 255 255 255 255 255 255 255 255 255 255 255 255 255 255 255 255 255 255 255 255 255 255 255 255 255 255 255 255 255 255 255 255 255 255 255 255 255 255 255 255 255 255 
255 255 255 255 255 255 255 255 255 255 255 255 255 255 255 255 255 255 255 255 255 255 255 255 255 255 255 255 255 255 255 255 255 255 255 255 255 255 255 255 255 254 254 254 254 254 254 254 254 254 254 254 254 254 254 254 254 253 253 253 253 253 253 253 253 253 253 253 253 253 253 253 253 253 253 253 253 253 253 253 253 253 253 253 253 253 253 253 253 253 253 253 252 253 253 253 253 253 253 253 253 253 253 253 253 253 253 253 253 253 253 253 253 253 252 252 252 251 252 252 251 251 251 251 251 251 251 251 251 251 251 251 251 251 251 251 251 251 251 251 251 251 251 251 251 251 251 251 251 251 251 251 251 251 251 251 251 251 251 251 251 251 251 251 252 252 252 252 252 252 253 253 253 253 253 253 253 253 253 253 253 253 253 253 253 253 253 253 253 253 253 253 253 252 253 253 253 253 253 253 253 253 253 254 254 254 255 255 255 255 255 255 255 255 255 255 255 255 255 255 255 255 255 255 255 255 255 255 255 255 255 255 255 255 255 255 255 255 255 255 255 255 255 255 255 255 255 255 255 255 255 255 255 255 255 255 255 255 255 255 255 255 255 255 255 255 255 255 255 255 255 255 255 255 255 255 255 255 255 255 255 255 255 255 255 255 255 255 255 255 255 255 255 255 255 255 255 255 255 255 
255 255 255 255 255 255 255 255 255 255 255 255 255 255 255 255 255 255 255 255 255 255 255 255 255 255 255 255 255 255 255 255 255 255 255 255 255 255 255 255 255 255 254 254 254 254 254 254 254 254 254 254 254 254 254 254 254 254 254 254 254 254 254 254 254 254 254 253 253 253 254 254 254 254 253 253 253 253 253 253 253 253 253 253 253 253 253 253 253 253 253 253 252 253 253 253 253 253 253 253 253 253 253 253 253 253 253 253 253 253 253 253 253 253 253 253 253 252 252 253 253 253 253 252 253 253 253 253 253 253 253 252 253 253 252 252 252 252 252 252 252 252 252 252 252 252 252 252 252 252 252 252 252 252 252 252 252 252 252 252 252 252 252 252 252 253 253 253 253 253 253 253 253 253 253 253 253 253 253 253 253 253 253 253 253 253 253 253 253 253 253 253 253 252 253 253 253 253 253 253 253 253 254 254 255 255 255 255 255 255 255 255 255 255 255 255 255 255 255 255 255 255 255 255 255 255 255 255 255 255 255 255 255 255 255 255 255 255 255 255 255 255 255 255 255 255 255 255 255 255 255 255 255 255 255 255 255 255 255 255 255 255 255 255 255 255 255 255 255 255 255 255 255 255 255 255 255 255 255 255 255 255 255 255 255 255 255 255 255 255 255 255 255 255 255 255 255 255 255 255 
255 255 255 255 255 255 255 255 255 255 255 255 255 255 255 255 255 255 255 255 255 255 255 255 255 255 255 255 255 255 255 255 255 255 255 255 255 255 255 255 255 255 255 255 255 254 254 254 254 254 254 254 254 254 254 254 254 254 254 254 254 254 254 254 254 254 254 254 254 254 254 254 254 254 254 254 254 254 254 254 254 254 254 254 254 254 254 254 254 254 254 253 253 253 253 253 253 253 253 253 253 253 253 253 253 253 253 253 253 253 253 253 253 253 253 253 253 253 253 253 253 253 253 253 253 253 253 253 253 253 253 253 253 253 253 253 253 253 253 253 253 253 253 253 253 253 253 253 253 253 253 253 253 253 253 253 253 253 253 253 253 253 253 253 253 253 253 253 253 253 253 252 253 253 253 253 253 253 253 253 253 253 253 253 253 253 253 253 253 253 253 253 253 253 253 253 253 253 253 253 254 254 254 255 255 255 255 255 255 255 255 255 255 255 255 255 255 255 255 255 255 255 255 255 255 255 255 255 255 255 255 255 255 255 255 255 255 255 255 255 255 255 255 255 255 255 255 255 255 255 255 255 255 255 255 255 255 255 255 255 255 255 255 255 255 255 255 255 255 255 255 255 255 255 255 255 255 255 255 255 255 255 255 255 255 255 255 255 255 255 255 255 255 255 255 255 255 255 255 255 
255 255 255 255 255 255 255 255 255 255 255 255 255 255 255 255 255 255 255 255 255 255 255 255 255 255 255 255 255 255 255 255 255 255 255 255 255 255 255 255 255 255 255 255 255 255 255 255 255 255 254 254 254 254 254 254 254 254 254 254 254 254 254 254 254 254 254 254 254 254 254 254 254 254 254 254 254 254 254 254 254 254 254 254 254 254 254 254 254 254 254 254 254 254 254 254 254 254 254 254 254 254 254 253 253 253 253 253 253 253 253 253 253 253 253 253 253 253 253 253 253 253 253 253 253 253 253 253 253 253 253 253 253 253 253 253 253 253 253 253 253 253 253 253 253 253 253 253 253 253 253 253 253 253 253 253 253 253 253 253 253 253 253 253 253 253 253 253 253 253 253 253 253 253 253 253 253 253 253 253 254 254 254 254 254 254 254 254 254 254 254 254 254 254 254 254 254 254 254 254 254 255 255 255 255 255 255 255 255 255 255 255 255 255 255 255 255 255 255 255 255 255 255 255 255 255 255 255 255 255 255 255 255 255 255 255 255 255 255 255 255 255 255 255 255 255 255 255 255 255 255 255 255 255 255 255 255 255 255 255 255 255 255 255 255 255 255 255 255 255 255 255 255 255 255 255 255 255 255 255 255 255 255 255 255 255 255 255 255 255 255 255 255 255 255 255 255 255 255 255 
255 255 255 255 255 255 255 255 255 255 255 255 255 255 255 255 255 255 255 255 255 255 255 255 255 255 255 255 255 255 255 255 255 255 255 255 255 255 255 255 255 255 255 255 255 255 255 255 255 255 255 255 255 255 255 255 255 255 255 255 255 255 255 255 254 254 254 254 254 254 254 254 254 254 254 254 254 254 254 254 254 254 254 254 254 254 254 254 254 254 254 254 254 254 254 254 254 254 254 254 254 254 254 254 254 254 254 254 254 254 254 254 254 254 254 254 254 254 254 254 254 254 254 254 254 254 254 254 254 254 254 254 254 254 254 254 254 254 254 254 254 254 254 254 254 254 254 254 254 254 254 254 254 254 254 254 254 254 254 254 254 254 254 254 254 254 254 254 254 254 254 254 254 254 254 254 254 254 254 254 254 254 254 254 254 254 254 254 254 254 254 254 254 254 254 254 254 254 254 255 255 255 255 255 255 255 255 255 255 255 255 255 255 255 255 255 255 255 255 255 255 255 255 255 255 255 255 255 255 255 255 255 255 255 255 255 255 255 255 255 255 255 255 255 255 255 255 255 255 255 255 255 255 255 255 255 255 255 255 255 255 255 255 255 255 255 255 255 255 255 255 255 255 255 255 255 255 255 255 255 255 255 255 255 255 255 255 255 255 255 255 255 255 255 255 255 255 255 255 255 
255 255 255 255 255 255 255 255 255 255 255 255 255 255 255 255 255 255 255 255 255 255 255 255 255 255 255 255 255 255 255 255 255 255 255 255 255 255 255 255 255 255 255 255 255 255 255 255 255 255 255 255 255 255 255 255 255 255 255 255 255 255 255 255 255 255 255 255 255 255 255 255 255 255 255 255 255 255 255 255 255 255 255 255 255 255 255 255 255 255 255 255 255 255 255 255 255 255 255 255 255 255 255 255 255 255 255 255 255 255 255 255 255 255 255 255 255 255 255 255 255 255 255 255 255 255 255 255 255 255 255 255 255 255 255 255 255 255 255 255 255 255 255 255 255 255 255 255 255 255 255 255 255 255 255 255 255 255 255 255 255 255 255 255 255 255 255 255 255 255 255 255 255 255 255 255 255 255 255 255 255 255 255 255 255 255 255 255 255 255 255 255 255 255 255 255 255 255 255 255 255 255 255 255 255 255 255 255 255 255 255 255 255 255 255 255 255 255 255 255 255 255 255 255 255 255 255 255 255 255 255 255 255 255 255 255 255 255 255 255 255 255 255 255 255 255 255 255 255 255 255 255 255 255 255 255 255 255 255 255 255 255 255 255 255 255 255 255 255 255 255 255 255 255 255 255 255 255 255 255 255 255 255 255 255 255 255 255 255 255 255 255 255 255 255 255 255 255 255 255 
255 255 255 255 255 255 255 255 255 255 255 255 255 255 255 255 255 255 255 255 255 255 255 255 255 255 255 255 255 255 255 255 255 255 255 255 255 255 255 255 255 255 255 255 255 255 255 255 255 255 255 255 255 255 255 255 255 255 255 255 255 255 255 255 255 255 255 255 255 255 255 255 255 255 255 255 255 255 255 255 255 255 255 255 255 255 255 255 255 255 255 255 255 255 255 255 255 255 255 255 255 255 255 255 255 255 255 255 255 255 255 255 255 255 255 255 255 255 255 255 255 255 255 255 255 255 255 255 255 255 255 255 255 255 255 255 255 255 255 255 255 255 255 255 255 255 255 255 255 255 255 255 255 255 255 255 255 255 255 255 255 255 255 255 255 255 255 255 255 255 255 255 255 255 255 255 255 255 255 255 255 255 255 255 255 255 255 255 255 255 255 255 255 255 255 255 255 255 255 255 255 255 255 255 255 255 255 255 255 255 255 255 255 255 255 255 255 255 255 255 255 255 255 255 255 255 255 255 255 255 255 255 255 255 255 255 255 255 255 255 255 255 255 255 255 255 255 255 255 255 255 255 255 255 255 255 255 255 255 255 255 255 255 255 255 255 255 255 255 255 255 255 255 255 255 255 255 255 255 255 255 255 255 255 255 255 255 255 255 255 255 255 255 255 255 255 255 255 255 255 
255 255 255 255 255 255 255 255 255 255 255 255 255 255 255 255 255 255 255 255 255 255 255 255 255 255 255 255 255 255 255 255 255 255 255 255 255 255 255 255 255 255 255 255 255 255 255 255 255 255 255 255 255 255 255 255 255 255 255 255 255 255 255 255 255 255 255 255 255 255 255 255 255 255 255 255 255 255 255 255 255 255 255 255 255 255 255 255 255 255 255 255 255 255 255 255 255 255 255 255 255 255 255 255 255 255 255 255 255 255 255 255 255 255 255 255 255 255 255 255 255 255 255 255 255 255 255 255 255 255 255 255 255 255 255 255 255 255 255 255 255 255 255 255 255 255 255 255 255 255 255 255 255 255 255 255 255 255 255 255 255 255 255 255 255 255 255 255 255 255 255 255 255 255 255 255 255 255 255 255 255 255 255 255 255 255 255 255 255 255 255 255 255 255 255 255 255 255 255 255 255 255 255 255 255 255 255 255 255 255 255 255 255 255 255 255 255 255 255 255 255 255 255 255 255 255 255 255 255 255 255 255 255 255 255 255 255 255 255 255 255 255 255 255 255 255 255 255 255 255 255 255 255 255 255 255 255 255 255 255 255 255 255 255 255 255 255 255 255 255 255 255 255 255 255 255 255 255 255 255 255 255 255 255 255 255 255 255 255 255 255 255 255 255 255 255 255 255 255 255 
255 255 255 255 255 255 255 255 255 255 255 255 255 255 255 255 255 255 255 255 255 255 255 255 255 255 255 255 255 255 255 255 255 255 255 255 255 255 255 255 255 255 255 255 255 255 255 255 255 255 255 255 255 255 255 255 255 255 255 255 255 255 255 255 255 255 255 255 255 255 255 255 255 255 255 255 255 255 255 255 255 255 255 255 255 255 255 255 255 255 255 255 255 255 255 255 255 255 255 255 255 255 255 255 255 255 255 255 255 255 255 255 255 255 255 255 255 255 255 255 255 255 255 255 255 255 255 255 255 255 255 255 255 255 255 255 255 255 255 255 255 255 255 255 255 255 255 255 255 255 255 255 255 255 255 255 255 255 255 255 255 255 255 255 255 255 255 255 255 255 255 255 255 255 255 255 255 255 255 255 255 255 255 255 255 255 255 255 255 255 255 255 255 255 255 255 255 255 255 255 255 255 255 255 255 255 255 255 255 255 255 255 255 255 255 255 255 255 255 255 255 255 255 255 255 255 255 255 255 255 255 255 255 255 255 255 255 255 255 255 255 255 255 255 255 255 255 255 255 255 255 255 255 255 255 255 255 255 255 255 255 255 255 255 255 255 255 255 255 255 255 255 255 255 255 255 255 255 255 255 255 255 255 255 255 255 255 255 255 255 255 255 255 255 255 255 255 255 255 255 
255 255 255 255 255 255 255 255 255 255 255 255 255 255 255 255 255 255 255 255 255 255 255 255 255 255 255 255 255 255 255 255 255 255 255 255 255 255 255 255 255 255 255 255 255 255 255 255 255 255 255 255 255 255 255 255 255 255 255 255 255 255 255 255 255 255 255 255 255 255 255 255 255 255 255 255 255 255 255 255 255 255 255 255 255 255 255 255 255 255 255 255 255 255 255 255 255 255 255 255 255 255 255 255 255 255 255 255 255 255 255 255 255 255 255 255 255 255 255 255 255 255 255 255 255 255 255 255 255 255 255 255 255 255 255 255 255 255 255 255 255 255 255 255 255 255 255 255 255 255 255 255 255 255 255 255 255 255 255 255 255 255 255 255 255 255 255 255 255 255 255 255 255 255 255 255 255 255 255 255 255 255 255 255 255 255 255 255 255 255 255 255 255 255 255 255 255 255 255 255 255 255 255 255 255 255 255 255 255 255 255 255 255 255 255 255 255 255 255 255 255 255 255 255 255 255 255 255 255 255 255 255 255 255 255 255 255 255 255 255 255 255 255 255 255 255 255 255 255 255 255 255 255 255 255 255 255 255 255 255 255 255 255 255 255 255 255 255 255 255 255 255 255 255 255 255 255 255 255 255 255 255 255 255 255 255 255 255 255 255 255 255 255 255 255 255 255 255 255 255 
255 255 255 255 255 255 255 255 255 255 255 255 255 255 255 255 255 255 255 255 255 255 255 255 255 255 255 255 255 255 255 255 255 255 255 255 255 255 255 255 255 255 255 255 255 255 255 255 255 255 255 255 255 255 255 255 255 255 255 255 255 255 255 255 255 255 255 255 255 255 255 255 255 255 255 255 255 255 255 255 255 255 255 255 255 255 255 255 255 255 255 255 255 255 255 255 255 255 255 255 255 255 255 255 255 255 255 255 255 255 255 255 255 255 255 255 255 255 255 255 255 255 255 255 255 255 255 255 255 255 255 255 255 255 255 255 255 255 255 255 255 255 255 255 255 255 255 255 255 255 255 255 255 255 255 255 255 255 255 255 255 255 255 255 255 255 255 255 255 255 255 255 255 255 255 255 255 255 255 255 255 255 255 255 255 255 255 255 255 255 255 255 255 255 255 255 255 255 255 255 255 255 255 255 255 255 255 255 255 255 255 255 255 255 255 255 255 255 255 255 255 255 255 255 255 255 255 255 255 255 255 255 255 255 255 255 255 255 255 255 255 255 255 255 255 255 255 255 255 255 255 255 255 255 255 255 255 255 255 255 255 255 255 255 255 255 255 255 255 255 255 255 255 255 255 255 255 255 255 255 255 255 255 255 255 255 255 255 255 255 255 255 255 255 255 255 255 255 255 255 
255 255 255 255 255 255 255 255 255 255 255 255 255 255 255 255 255 255 255 255 255 255 255 255 255 255 255 255 255 255 255 255 255 255 255 255 255 255 255 255 255 255 255 255 255 255 255 255 255 255 255 255 255 255 255 255 255 255 255 255 255 255 255 255 255 255 255 255 255 255 255 255 255 255 255 255 255 255 255 255 255 255 255 255 255 255 255 255 255 255 255 255 255 255 255 255 255 255 255 255 255 255 255 255 255 255 255 255 255 255 255 255 255 255 255 255 255 255 255 255 255 255 255 255 255 255 255 255 255 255 255 255 255 255 255 255 255 255 255 255 255 255 255 255 255 255 255 255 255 255 255 255 255 255 255 255 255 255 255 255 255 255 255 255 255 255 255 255 255 255 255 255 255 255 255 255 255 255 255 255 255 255 255 255 255 255 255 255 255 255 255 255 255 255 255 255 255 255 255 255 255 255 255 255 255 255 255 255 255 255 255 255 255 255 255 255 255 255 255 255 255 255 255 255 255 255 255 255 255 255 255 255 255 255 255 255 255 255 255 255 255 255 255 255 255 255 255 255 255 255 255 255 255 255 255 255 255 255 255 255 255 255 255 255 255 255 255 255 255 255 255 255 255 255 255 255 255 255 255 255 255 255 255 255 255 255 255 255 255 255 255 255 255 255 255 255 255 255 255 255 
255 255 255 255 255 255 255 255 255 255 255 255 255 255 255 255 255 255 255 255 255 255 255 255 255 255 255 255 255 255 255 255 255 255 255 255 255 255 255 255 255 255 255 255 255 255 255 255 255 255 255 255 255 255 255 255 255 255 255 255 255 255 255 255 255 255 255 255 255 255 255 255 255 255 255 255 255 255 255 255 255 255 255 255 255 255 255 255 255 255 255 255 255 255 255 255 255 255 255 255 255 255 255 255 255 255 255 255 255 255 255 255 255 255 255 255 255 255 255 255 255 255 255 255 255 255 255 255 255 255 255 255 255 255 255 255 255 255 255 255 255 255 255 255 255 255 255 255 255 255 255 255 255 255 255 255 255 255 255 255 255 255 255 255 255 255 255 255 255 255 255 255 255 255 255 255 255 255 255 255 255 255 255 255 255 255 255 255 255 255 255 255 255 255 255 255 255 255 255 255 255 255 255 255 255 255 255 255 255 255 255 255 255 255 255 255 255 255 255 255 255 255 255 255 255 255 255 255 255 255 255 255 255 255 255 255 255 255 255 255 255 255 255 255 255 255 255 255 255 255 255 255 255 255 255 255 255 255 255 255 255 255 255 255 255 255 255 255 255 255 255 255 255 255 255 255 255 255 255 255 255 255 255 255 255 255 255 255 255 255 255 255 255 255 255 255 255 255 255 255 
255 255 255 255 255 255 255 255 255 255 255 255 255 255 255 255 255 255 255 255 255 255 255 255 255 255 255 255 255 255 255 255 255 255 255 255 255 255 255 255 255 255 255 255 255 255 255 255 255 255 255 255 255 255 255 255 255 255 255 255 255 255 255 255 255 255 255 255 255 255 255 255 255 255 255 255 255 255 255 255 255 255 255 255 255 255 255 255 255 255 255 255 255 255 255 255 255 255 255 255 255 255 255 255 255 255 255 255 255 255 255 255 255 255 255 255 255 255 255 255 255 255 255 255 255 255 255 255 255 255 255 255 255 255 255 255 255 255 255 255 255 255 255 255 255 255 255 255 255 255 255 255 255 255 255 255 255 255 255 255 255 255 255 255 255 255 255 255 255 255 255 255 255 255 255 255 255 255 255 255 255 255 255 255 255 255 255 255 255 255 255 255 255 255 255 255 255 255 255 255 255 255 255 255 255 255 255 255 255 255 255 255 255 255 255 255 255 255 255 255 255 255 255 255 255 255 255 255 255 255 255 255 255 255 255 255 255 255 255 255 255 255 255 255 255 255 255 255 255 255 255 255 255 255 255 255 255 255 255 255 255 255 255 255 255 255 255 255 255 255 255 255 255 255 255 255 255 255 255 255 255 255 255 255 255 255 255 255 255 255 255 255 255 255 255 255 255 255 255 255 
255 255 255 255 255 255 255 255 255 255 255 255 255 255 255 255 255 255 255 255 255 255 255 255 255 255 255 255 255 255 255 255 255 255 255 255 255 255 255 255 255 255 255 255 255 255 255 255 255 255 255 255 255 255 255 255 255 255 255 255 255 255 255 255 255 255 255 255 255 255 255 255 255 255 255 255 255 255 255 255 255 255 255 255 255 255 255 255 255 255 255 255 255 255 255 255 255 255 255 255 255 255 255 255 255 255 255 255 255 255 255 255 255 255 255 255 255 255 255 255 255 255 255 255 255 255 255 255 255 255 255 255 255 255 255 255 255 255 255 255 255 255 255 255 255 255 255 255 255 255 255 255 255 255 255 255 255 255 255 255 255 255 255 255 255 255 255 255 255 255 255 255 255 255 255 255 255 255 255 255 255 255 255 255 255 255 255 255 255 255 255 255 255 255 255 255 255 255 255 255 255 255 255 255 255 255 255 255 255 255 255 255 255 255 255 255 255 255 255 255 255 255 255 255 255 255 255 255 255 255 255 255 255 255 255 255 255 255 255 255 255 255 255 255 255 255 255 255 255 255 255 255 255 255 255 255 255 255 255 255 255 255 255 255 255 255 255 255 255 255 255 255 255 255 255 255 255 255 255 255 255 255 255 255 255 255 255 255 255 255 255 255 255 255 255 255 255 255 255 255 
255 255 255 255 255 255 255 255 255 255 255 255 255 255 255 255 255 255 255 255 255 255 255 255 255 255 255 255 255 255 255 255 255 255 255 255 255 255 255 255 255 255 255 255 255 255 255 255 255 255 255 255 255 255 255 255 255 255 255 255 255 255 255 255 255 255 255 255 255 255 255 255 255 255 255 255 255 255 255 255 255 255 255 255 255 255 255 255 255 255 255 255 255 255 255 255 255 255 255 255 255 255 255 255 255 255 255 255 255 255 255 255 255 255 255 255 255 255 255 255 255 255 255 255 255 255 255 255 255 255 255 255 255 255 255 255 255 255 255 255 255 255 255 255 255 255 255 255 255 255 255 255 255 255 255 255 255 255 255 255 255 255 255 255 255 255 255 255 255 255 255 255 255 255 255 255 255 255 255 255 255 255 255 255 255 255 255 255 255 255 255 255 255 255 255 255 255 255 255 255 255 255 255 255 255 255 255 255 255 255 255 255 255 255 255 255 255 255 255 255 255 255 255 255 255 255 255 255 255 255 255 255 255 255 255 255 255 255 255 255 255 255 255 255 255 255 255 255 255 255 255 255 255 255 255 255 255 255 255 255 255 255 255 255 255 255 255 255 255 255 255 255 255 255 255 255 255 255 255 255 255 255 255 255 255 255 255 255 255 255 255 255 255 255 255 255 255 255 255 255 
255 255 255 255 255 255 255 255 255 255 255 255 255 255 255 255 255 255 255 255 255 255 255 255 255 255 255 255 255 255 255 255 255 255 255 255 255 255 255 255 255 255 255 255 255 255 255 255 255 255 255 255 255 255 255 255 255 255 255 255 255 255 255 255 255 255 255 255 255 255 255 255 255 255 255 255 255 255 255 255 255 255 255 255 255 255 255 255 255 255 255 255 255 255 255 255 255 255 255 255 255 255 255 255 255 255 255 255 255 255 255 255 255 255 255 255 255 255 255 255 255 255 255 255 255 255 255 255 255 255 255 255 255 255 255 255 255 255 255 255 255 255 255 255 255 255 255 255 255 255 255 255 255 255 255 255 255 255 255 255 255 255 255 255 255 255 255 255 255 255 255 255 255 255 255 255 255 255 255 255 255 255 255 255 255 255 255 255 255 255 255 255 255 255 255 255 255 255 255 255 255 255 255 255 255 255 255 255 255 255 255 255 255 255 255 255 255 255 255 255 255 255 255 255 255 255 255 255 255 255 255 255 255 255 255 255 255 255 255 255 255 255 255 255 255 255 255 255 255 255 255 255 255 255 255 255 255 255 255 255 255 255 255 255 255 255 255 255 255 255 255 255 255 255 255 255 255 255 255 255 255 255 255 255 255 255 255 255 255 255 255 255 255 255 255 255 255 255 255 255 
255 255 255 255 255 255 255 255 255 255 255 255 255 255 255 255 255 255 255 255 255 255 255 255 255 255 255 255 255 255 255 255 255 255 255 255 255 255 255 255 255 255 255 255 255 255 255 255 255 255 255 255 255 255 255 255 255 255 255 255 255 255 255 255 255 255 255 255 255 255 255 255 255 255 255 255 255 255 255 255 255 255 255 255 255 255 255 255 255 255 255 255 255 255 255 255 255 255 255 255 255 255 255 255 255 255 255 255 255 255 255 255 255 255 255 255 255 255 255 255 255 255 255 255 255 255 255 255 255 255 255 255 255 255 255 255 255 255 255 255 255 255 255 255 255 255 255 255 255 255 255 255 255 255 255 255 255 255 255 255 255 255 255 255 255 255 255 255 255 255 255 255 255 255 255 255 255 255 255 255 255 255 255 255 255 255 255 255 255 255 255 255 255 255 255 255 255 255 255 255 255 255 255 255 255 255 255 255 255 255 255 255 255 255 255 255 255 255 255 255 255 255 255 255 255 255 255 255 255 255 255 255 255 255 255 255 255 255 255 255 255 255 255 255 255 255 255 255 255 255 255 255 255 255 255 255 255 255 255 255 255 255 255 255 255 255 255 255 255 255 255 255 255 255 255 255 255 255 255 255 255 255 255 255 255 255 255 255 255 255 255 255 255 255 255 255 255 255 255 255 
255 255 255 255 255 255 255 255 255 255 255 255 255 255 255 255 255 255 255 255 255 255 255 255 255 255 255 255 255 255 255 255 255 255 255 255 255 255 255 255 255 255 255 255 255 255 255 255 255 255 255 255 255 255 255 255 255 255 255 255 255 255 255 255 255 255 255 255 255 255 255 255 255 255 255 255 255 255 255 255 255 255 255 255 255 255 255 255 255 255 255 255 255 255 255 255 255 255 255 255 255 255 255 255 255 255 255 255 255 255 255 255 255 255 255 255 255 255 255 255 255 255 255 255 255 255 255 255 255 255 255 255 255 255 255 255 255 255 255 255 255 255 255 255 255 255 255 255 255 255 255 255 255 255 255 255 255 255 255 255 255 255 255 255 255 255 255 255 255 255 255 255 255 255 255 255 255 255 255 255 255 255 255 255 255 255 255 255 255 255 255 255 255 255 255 255 255 255 255 255 255 255 255 255 255 255 255 255 255 255 255 255 255 255 255 255 255 255 255 255 255 255 255 255 255 255 255 255 255 255 255 255 255 255 255 255 255 255 255 255 255 255 255 255 255 255 255 255 255 255 255 255 255 255 255 255 255 255 255 255 255 255 255 255 255 255 255 255 255 255 255 255 255 255 255 255 255 255 255 255 255 255 255 255 255 255 255 255 255 255 255 255 255 255 255 255 255 255 255 255 
255 255 255 255 255 255 255 255 255 255 255 255 255 255 255 255 255 255 255 255 255 255 255 255 255 255 255 255 255 255 255 255 255 255 255 255 255 255 255 255 255 255 255 255 255 255 255 255 255 255 255 255 255 255 255 255 255 255 255 255 255 255 255 255 255 255 255 255 255 255 255 255 255 255 255 255 255 255 255 255 255 255 255 255 255 255 255 255 255 255 255 255 255 255 255 255 255 255 255 255 255 255 255 255 255 255 255 255 255 255 255 255 255 255 255 255 255 255 255 255 255 255 255 255 255 255 255 255 255 255 255 255 255 255 255 255 255 255 255 255 255 255 255 255 255 255 255 255 255 255 255 255 255 255 255 255 255 255 255 255 255 255 255 255 255 255 255 255 255 255 255 255 255 255 255 255 255 255 255 255 255 255 255 255 255 255 255 255 255 255 255 255 255 255 255 255 255 255 255 255 255 255 255 255 255 255 255 255 255 255 255 255 255 255 255 255 255 255 255 255 255 255 255 255 255 255 255 255 255 255 255 255 255 255 255 255 255 255 255 255 255 255 255 255 255 255 255 255 255 255 255 255 255 255 255 255 255 255 255 255 255 255 255 255 255 255 255 255 255 255 255 255 255 255 255 255 255 255 255 255 255 255 255 255 255 255 255 255 255 255 255 255 255 255 255 255 255 255 255 255 
255 255 255 255 255 255 255 255 255 255 255 255 255 255 255 255 255 255 255 255 255 255 255 255 255 255 255 255 255 255 255 255 255 255 255 255 255 255 255 255 255 255 255 255 255 255 255 255 255 255 255 255 255 255 255 255 255 255 255 255 255 255 255 255 255 255 255 255 255 255 255 255 255 255 255 255 255 255 255 255 255 255 255 255 255 255 255 255 255 255 255 255 255 255 255 255 255 255 255 255 255 255 255 255 255 255 255 255 255 255 255 255 255 255 255 255 255 255 255 255 255 255 255 255 255 255 255 255 255 255 255 255 255 255 255 255 255 255 255 255 255 255 255 255 255 255 255 255 255 255 255 255 255 255 255 255 255 255 255 255 255 255 255 255 255 255 255 255 255 255 255 255 255 255 255 255 255 255 255 255 255 255 255 255 255 255 255 255 255 255 255 255 255 255 255 255 255 255 255 255 255 255 255 255 255 255 255 255 255 255 255 255 255 255 255 255 255 255 255 255 255 255 255 255 255 255 255 255 255 255 255 255 255 255 255 255 255 255 255 255 255 255 255 255 255 255 255 255 255 255 255 255 255 255 255 255 255 255 255 255 255 255 255 255 255 255 255 255 255 255 255 255 255 255 255 255 255 255 255 255 255 255 255 255 255 255 255 255 255 255 255 255 255 255 255 255 255 255 255 255 
255 255 255 255 255 255 255 255 255 255 255 255 255 255 255 255 255 255 255 255 255 255 255 255 255 255 255 255 255 255 255 255 255 255 255 255 255 255 255 255 255 255 255 255 255 255 255 255 255 255 255 255 255 255 255 255 255 255 255 255 255 255 255 255 255 255 255 255 255 255 255 255 255 255 255 255 255 255 255 255 255 255 255 255 255 255 255 255 255 255 255 255 255 255 255 255 255 255 255 255 255 255 255 255 255 255 255 255 255 255 255 255 255 255 255 255 255 255 255 255 255 255 255 255 255 255 255 255 255 255 255 255 255 255 255 255 255 255 255 255 255 255 255 255 255 255 255 255 255 255 255 255 255 255 255 255 255 255 255 255 255 255 255 255 255 255 255 255 255 255 255 255 255 255 255 255 255 255 255 255 255 255 255 255 255 255 255 255 255 255 255 255 255 255 255 255 255 255 255 255 255 255 255 255 255 255 255 255 255 255 255 255 255 255 255 255 255 255 255 255 255 255 255 255 255 255 255 255 255 255 255 255 255 255 255 255 255 255 255 255 255 255 255 255 255 255 255 255 255 255 255 255 255 255 255 255 255 255 255 255 255 255 255 255 255 255 255 255 255 255 255 255 255 255 255 255 255 255 255 255 255 255 255 255 255 255 255 255 255 255 255 255 255 255 255 255 255 255 255 255 
255 255 255 255 255 255 255 255 255 255 255 255 255 255 255 255 255 255 255 255 255 255 255 255 255 255 255 255 255 255 255 255 255 255 255 255 255 255 255 255 255 255 255 255 255 255 255 255 255 255 255 255 255 255 255 255 255 255 255 255 255 255 255 255 255 255 255 255 255 255 255 255 255 255 255 255 255 255 255 255 255 255 255 255 255 255 255 255 255 255 255 255 255 255 255 255 255 255 255 255 255 255 255 255 255 255 255 255 255 255 255 255 255 255 255 255 255 255 255 255 255 255 255 255 255 255 255 255 255 255 255 255 255 255 255 255 255 255 255 255 255 255 255 255 255 255 255 255 255 255 255 255 255 255 255 255 255 255 255 255 255 255 255 255 255 255 255 255 255 255 255 255 255 255 255 255 255 255 255 255 255 255 255 255 255 255 255 255 255 255 255 255 255 255 255 255 255 255 255 255 255 255 255 255 255 255 255 255 255 255 255 255 255 255 255 255 255 255 255 255 255 255 255 255 255 255 255 255 255 255 255 255 255 255 255 255 255 255 255 255 255 255 255 255 255 255 255 255 255 255 255 255 255 255 255 255 255 255 255 255 255 255 255 255 255 255 255 255 255 255 255 255 255 255 255 255 255 255 255 255 255 255 255 255 255 255 255 255 255 255 255 255 255 255 255 255 255 255 255 255 
255 255 255 255 255 255 255 255 255 255 255 255 255 255 255 255 255 255 255 255 255 255 255 255 255 255 255 255 255 255 255 255 255 255 255 255 255 255 255 255 255 255 255 255 255 255 255 255 255 255 255 255 255 255 255 255 255 255 255 255 255 255 255 255 255 255 255 255 255 255 255 255 255 255 255 255 255 255 255 255 255 255 255 255 255 255 255 255 255 255 255 255 255 255 255 255 255 255 255 255 255 255 255 255 255 255 255 255 255 255 255 255 255 255 255 255 255 255 255 255 255 255 255 255 255 255 255 255 255 255 255 255 255 255 255 255 255 255 255 255 255 255 255 255 255 255 255 255 255 255 255 255 255 255 255 255 255 255 255 255 255 255 255 255 255 255 255 255 255 255 255 255 255 255 255 255 255 255 255 255 255 255 255 255 255 255 255 255 255 255 255 255 255 255 255 255 255 255 255 255 255 255 255 255 255 255 255 255 255 255 255 255 255 255 255 255 255 255 255 255 255 255 255 255 255 255 255 255 255 255 255 255 255 255 255 255 255 255 255 255 255 255 255 255 255 255 255 255 255 255 255 255 255 255 255 255 255 255 255 255 255 255 255 255 255 255 255 255 255 255 255 255 255 255 255 255 255 255 255 255 255 255 255 255 255 255 255 255 255 255 255 255 255 255 255 255 255 255 255 255 