P2
300 337
255
36 40 39 45 45 42 38 39 43 43 43 45 45 43 44 45 45 47 49 45 43 44 47 51 47 50 51 51 49 49 51 50 51 51 51 52 52 50 51 47 45 44 42 45 45 45 40 42 43 42 43 46 52 52 46 47 46 45 45 46 45 44 42 44 45 46 45 45 45 45 45 45 46 47 42 38 35 35 36 36 37 36 35 36 36 36 37 38 32 33 33 36 36 35 31 31 32 33 36 35 33 33 36 31 29 29 29 29 30 31 31 31 31 32 33 31 29 30 31 35 31 30 30 30 31 31 29 30 29 25 25 25 31 31 29 29 31 31 32 32 30 33 36 32 35 36 37 38 38 43 45 44 42 38 36 42 40 42 45 45 46 46 45 47 45 47 47 47 47 51 52 44 44 43 40 43 43 43 39 49 49 45 44 43 45 47 47 49 49 49 49 49 45 44 44 47 45 45 45 46 49 52 51 50 52 53 53 53 53 59 58 57 64 63 54 56 53 53 59 59 57 54 53 54 54 53 53 47 47 52 56 52 54 56 53 47 45 52 52 46 47 52 53 52 50 51 44 45 49 50 49 52 50 50 51 49 52 49 51 52 47 45 46 50 53 51 47 46 52 54 63 73 77 74 79 73 66 63 59 63 64 63 66 61 57 57 59 60 53 51 49 52 51 49 45 45 46 42 36 27 
45 50 45 48 46 45 46 48 49 49 46 48 50 50 50 53 51 54 53 50 50 53 57 58 55 55 55 55 56 57 56 53 55 55 55 58 61 61 59 55 56 56 54 55 54 50 44 45 45 45 45 48 54 55 57 56 54 51 53 52 52 51 48 48 52 55 51 53 51 48 48 49 52 52 44 41 40 40 40 40 45 45 43 41 40 40 40 38 35 38 40 42 37 36 40 40 40 39 39 39 39 38 41 37 35 37 35 34 34 36 37 37 37 37 37 34 30 31 34 36 34 32 32 32 32 36 39 39 33 28 27 28 37 37 38 36 36 38 41 39 34 39 41 38 38 38 39 41 41 47 50 50 47 48 45 46 48 50 50 49 53 54 53 55 51 52 52 52 52 56 60 55 53 49 46 49 50 48 47 52 50 52 51 50 50 52 52 55 57 57 57 56 53 53 56 62 56 55 52 48 50 53 56 56 53 57 59 60 60 63 65 65 71 66 62 62 63 64 67 68 66 63 61 63 63 60 57 56 60 60 64 58 55 59 56 52 56 63 60 54 56 58 61 62 59 54 52 53 54 58 57 56 53 54 57 55 55 55 57 54 54 59 59 56 55 60 62 68 84 94 89 84 84 87 89 78 71 74 72 70 68 71 77 72 63 59 58 62 62 56 52 53 55 56 52 53 51 44 39 31 
47 54 50 49 48 46 48 49 50 49 43 45 48 49 50 50 49 51 50 49 52 55 58 58 55 53 55 55 56 56 54 52 55 56 53 53 56 58 57 56 57 54 49 48 49 49 45 46 44 44 42 46 50 54 59 58 55 51 50 51 54 51 48 47 52 57 56 52 49 49 48 51 53 51 44 43 42 41 40 41 48 52 43 35 33 34 35 36 38 38 37 39 35 34 41 41 41 41 38 38 38 41 43 41 40 38 35 34 34 35 37 38 38 35 30 31 29 29 32 33 30 27 27 29 31 37 40 39 35 33 32 31 35 35 38 37 36 39 42 40 36 40 43 42 37 35 36 36 37 42 43 43 42 43 46 48 51 47 44 45 50 53 50 51 49 46 48 51 50 49 50 49 48 48 48 51 51 50 51 52 49 49 50 50 49 49 47 53 55 54 55 56 55 55 53 56 56 56 54 52 56 57 57 55 53 57 57 59 60 60 63 66 67 64 64 61 64 63 60 61 61 62 62 62 59 55 55 61 58 54 57 56 56 59 58 51 53 57 57 55 58 60 61 62 57 52 55 53 47 58 65 56 52 52 53 55 55 52 53 50 53 57 57 64 70 78 87 93 102 97 88 78 76 82 80 72 71 70 68 71 64 61 63 64 61 56 55 52 53 55 55 54 54 56 51 50 47 42 38 31 
49 57 53 50 50 50 50 50 50 49 46 47 49 49 49 49 48 49 49 50 53 53 53 57 56 54 58 55 56 56 53 52 56 57 51 50 55 54 56 58 62 53 49 54 52 52 49 49 47 46 44 49 49 53 55 56 55 49 48 50 52 48 45 49 53 55 58 55 50 51 49 48 50 53 51 53 50 46 46 49 52 51 44 36 32 31 36 38 38 37 37 39 38 38 39 39 39 42 39 38 39 46 47 42 38 37 35 34 34 34 37 41 40 36 30 29 27 29 32 32 28 25 25 28 31 34 35 34 34 35 32 31 33 34 36 37 37 38 40 40 37 42 46 45 43 42 38 34 36 39 40 40 42 43 45 50 52 47 47 47 49 50 47 47 48 46 48 51 48 49 48 47 48 50 48 50 50 52 53 52 49 48 51 57 52 50 46 50 51 47 46 51 52 55 53 55 57 51 50 50 55 57 59 57 54 52 52 53 56 56 61 66 62 63 66 65 69 66 63 60 59 63 59 53 52 53 53 51 51 53 57 55 57 64 61 53 51 56 57 57 56 59 58 57 56 55 57 55 50 57 62 57 56 57 52 49 48 48 52 50 50 65 73 80 90 101 101 88 83 83 77 73 77 80 74 69 71 67 62 71 69 63 62 62 61 57 53 49 46 50 55 55 52 53 48 45 43 40 37 31 
49 56 53 50 50 50 49 49 50 50 54 53 51 50 50 51 52 51 50 50 50 50 50 55 58 56 58 55 56 57 53 52 55 54 48 47 52 51 51 53 58 53 50 57 52 50 49 50 50 49 44 47 52 49 48 48 46 41 43 47 51 53 50 54 53 53 57 54 51 51 48 46 52 56 53 55 55 53 50 50 52 49 45 44 42 37 42 40 38 37 37 39 41 42 40 39 37 38 38 41 41 40 37 35 34 34 33 33 34 34 38 41 40 36 32 28 27 29 32 32 28 25 25 28 28 30 31 30 31 33 32 31 33 33 36 36 38 40 37 39 38 40 42 48 50 47 43 43 45 47 47 45 44 45 42 46 49 46 46 46 48 50 47 47 48 51 51 48 46 56 53 48 50 53 49 48 47 50 55 49 47 50 52 54 52 52 50 49 47 45 44 48 51 53 53 55 57 53 57 55 53 54 56 57 54 51 50 51 53 55 60 61 58 58 62 66 67 62 64 64 67 66 59 52 49 50 52 53 53 53 58 56 51 54 58 56 53 53 55 56 53 53 51 53 57 58 55 56 56 56 55 55 52 52 52 50 46 47 54 64 76 89 91 94 87 91 96 88 75 73 74 74 77 79 74 68 72 73 70 68 68 66 65 64 60 56 50 50 48 49 52 51 49 49 45 42 40 37 35 31 
44 50 51 51 52 51 49 48 49 50 53 55 57 55 53 52 53 54 53 53 50 49 51 53 54 53 55 57 58 58 54 49 52 52 48 48 51 52 48 50 52 52 51 53 51 50 50 53 52 53 51 47 52 48 46 47 47 46 46 49 53 56 56 57 51 47 48 52 52 47 46 48 54 57 52 52 54 54 50 45 48 50 48 46 46 42 42 39 42 41 39 39 39 40 39 39 37 38 41 41 38 36 37 39 37 34 31 32 35 36 39 41 39 36 32 31 33 31 34 36 30 27 26 27 29 30 29 28 31 31 30 29 32 34 36 32 33 35 34 37 38 38 38 45 43 43 49 57 57 59 63 58 50 48 47 50 50 48 44 46 48 51 49 48 49 50 49 46 49 56 54 48 46 51 49 52 49 47 51 45 45 49 52 53 50 47 52 51 48 48 48 48 48 49 52 54 55 53 60 58 56 56 55 54 54 53 52 54 53 55 58 55 55 55 58 60 58 55 58 62 65 62 56 54 52 49 48 54 57 54 54 54 49 49 54 55 53 52 46 48 51 53 52 53 58 57 57 55 55 55 55 55 51 50 54 60 60 69 79 90 101 97 88 86 81 84 87 80 72 70 72 75 77 78 73 69 70 72 70 62 60 64 63 59 53 53 50 51 50 51 50 50 47 42 42 42 40 38 35 30 
38 43 46 49 49 49 50 50 50 49 49 52 54 53 50 50 53 55 54 53 51 50 49 47 47 47 51 57 57 54 51 52 51 49 46 45 48 50 48 50 49 49 49 49 49 49 49 48 49 53 55 51 55 53 52 50 47 47 47 50 53 56 56 52 45 45 46 51 50 46 49 51 54 56 52 51 53 54 50 45 47 51 49 48 47 45 45 41 43 44 40 36 35 35 37 41 41 37 39 39 39 35 35 38 38 34 33 33 32 33 36 34 34 37 33 31 34 31 34 37 30 26 24 24 29 30 29 27 30 27 30 33 38 35 36 31 32 33 34 35 35 34 35 41 42 46 56 64 59 53 55 52 47 44 45 50 54 56 49 48 49 52 51 52 50 50 49 47 51 50 49 47 46 52 51 52 49 46 46 43 48 51 53 54 52 48 50 51 52 51 50 49 51 54 52 53 54 53 57 53 55 57 57 57 57 58 61 61 53 48 49 51 57 59 62 58 51 53 56 55 59 59 57 57 60 54 48 50 55 56 55 53 52 52 53 52 52 54 48 51 53 54 54 54 56 63 65 59 52 52 51 50 48 50 69 88 94 98 96 92 88 86 84 84 84 83 83 75 68 67 68 66 67 69 68 72 73 69 64 62 61 60 55 53 52 53 53 55 50 48 48 49 47 39 39 39 38 35 33 29 
39 45 45 43 45 46 48 51 52 50 50 53 53 50 49 50 53 54 52 52 50 50 50 50 50 51 52 53 52 54 57 59 57 54 52 48 45 49 51 46 45 47 46 46 47 48 49 46 50 54 51 52 53 50 50 51 49 46 44 49 53 55 56 54 50 49 51 49 52 50 56 57 54 55 55 52 52 52 48 43 46 49 48 50 50 49 49 44 42 43 40 35 34 34 37 41 43 38 36 38 39 35 34 37 39 35 35 34 32 33 35 33 33 34 32 32 34 31 31 33 29 29 29 30 31 31 29 27 31 28 30 36 38 34 33 29 32 33 33 33 33 31 32 39 47 51 47 52 57 51 52 46 42 38 40 41 46 47 47 50 49 50 48 47 49 49 50 48 48 47 47 45 43 46 46 44 44 47 45 45 51 54 56 54 53 51 48 48 49 52 52 52 55 55 49 53 55 51 54 56 56 57 59 58 57 57 53 52 49 45 45 48 54 59 62 59 62 59 54 52 53 54 55 55 55 54 52 51 53 57 58 53 50 51 55 58 56 53 50 50 52 54 55 58 57 60 55 55 53 57 57 65 74 79 92 97 95 89 85 81 79 79 82 84 85 77 76 77 75 72 68 62 66 69 66 66 69 61 61 69 62 59 58 58 54 52 52 56 52 51 50 50 48 42 37 35 34 33 32 29 
43 47 46 42 45 46 47 53 54 51 55 56 55 52 51 51 53 55 54 49 49 51 52 53 53 54 54 53 50 51 54 52 53 56 56 55 47 46 49 47 45 50 53 48 47 48 52 47 47 53 49 50 49 48 49 51 50 48 48 54 56 55 53 54 55 50 52 52 55 50 54 58 57 56 56 50 49 50 48 45 49 49 48 49 51 51 49 45 41 40 39 37 36 37 39 40 40 39 39 41 38 37 36 37 38 35 36 36 36 34 34 33 33 33 33 36 37 34 31 30 29 28 29 32 33 33 31 28 31 32 28 30 32 33 31 27 31 33 34 33 33 32 31 42 48 42 37 40 49 54 54 41 37 36 39 39 40 42 46 49 47 47 47 47 47 47 51 51 52 49 52 49 41 40 39 42 45 47 47 53 54 54 58 54 54 53 50 51 51 54 50 49 50 49 50 56 57 50 56 60 57 57 58 55 53 51 52 56 50 48 49 48 48 51 54 53 62 66 61 56 56 57 55 51 54 54 55 53 54 56 59 58 57 54 57 60 60 57 49 45 44 49 51 55 53 54 53 55 62 78 84 94 100 99 91 89 89 87 86 79 79 80 80 78 77 80 80 75 74 74 68 72 73 70 63 62 65 62 60 61 61 58 56 59 58 52 50 54 50 51 50 47 47 45 39 32 33 33 33 29 
45 50 48 48 48 49 50 56 52 52 56 56 56 55 55 53 53 55 57 54 53 55 55 54 54 52 51 51 50 52 53 50 51 56 57 56 50 50 53 50 47 50 51 47 46 48 52 48 46 47 48 49 49 51 49 49 50 48 51 56 53 50 50 51 54 52 53 52 53 52 52 52 55 58 50 45 49 50 47 44 48 51 51 49 48 47 46 46 43 40 39 37 37 37 40 40 38 39 41 41 38 37 37 36 35 32 34 36 34 30 31 32 34 32 29 31 34 33 30 29 29 27 26 29 33 33 32 31 28 27 25 27 30 35 31 27 31 33 34 34 34 35 43 55 40 38 40 37 40 44 48 45 41 40 41 39 40 45 47 45 44 44 46 46 45 41 40 47 51 46 49 51 42 40 40 48 50 45 48 54 54 54 57 54 53 53 56 57 51 52 54 55 49 49 52 59 58 48 56 59 56 57 57 59 54 49 52 60 57 55 56 51 47 48 51 51 56 67 71 67 61 59 56 51 54 51 52 50 53 58 56 57 56 55 57 58 59 60 54 50 48 49 45 46 49 53 56 64 82 95 92 92 94 91 79 82 85 87 81 75 79 80 80 79 79 79 79 75 74 77 67 68 67 62 59 60 56 55 53 56 60 55 52 56 56 56 54 53 48 51 49 44 44 43 39 33 32 33 33 29 
45 52 52 54 50 50 53 57 55 58 57 53 55 59 58 58 56 58 55 57 54 55 57 58 58 57 55 53 53 53 55 55 55 56 59 56 51 55 56 52 51 52 50 46 47 50 53 52 52 46 49 50 48 47 45 48 47 46 50 53 48 46 50 52 51 53 54 51 51 51 54 51 49 51 48 45 49 50 48 48 48 49 50 48 48 44 40 42 42 41 36 36 37 39 42 42 39 39 40 39 38 37 37 36 34 33 32 32 27 23 28 31 33 30 26 27 28 29 28 29 29 29 28 27 29 29 32 36 31 27 25 26 28 32 29 29 31 32 34 35 35 38 51 53 37 34 36 39 40 40 41 45 39 35 34 36 41 45 47 46 44 39 42 42 47 46 40 44 46 45 49 53 48 45 45 48 48 46 46 48 50 50 49 48 52 55 59 58 51 51 53 54 53 52 50 55 57 52 54 51 49 53 51 54 51 50 52 56 61 59 58 55 50 47 48 48 50 60 66 65 60 54 52 48 51 50 51 49 51 55 54 53 54 54 55 56 56 56 55 57 56 56 54 58 62 67 75 86 89 87 82 76 74 77 80 80 79 80 76 72 76 76 80 81 80 77 75 73 74 74 65 62 60 58 60 60 56 53 52 56 56 53 52 54 55 53 52 49 49 51 45 41 40 39 38 34 30 30 31 29 
43 49 51 55 51 50 53 57 60 59 56 52 56 61 56 55 58 61 49 51 49 52 55 56 56 58 57 55 56 55 58 59 58 56 55 54 56 58 56 52 52 54 53 48 50 53 54 54 55 53 55 51 48 46 46 47 50 50 52 58 53 51 52 50 47 50 52 53 54 51 53 51 48 52 54 51 53 53 53 56 54 50 50 48 47 43 42 45 41 40 38 39 40 41 43 43 40 40 38 36 36 36 37 36 34 34 34 35 28 24 27 27 30 27 26 27 27 26 22 22 26 29 27 22 24 25 28 31 32 29 25 25 28 31 28 30 31 31 34 34 35 48 55 45 35 30 35 43 43 43 41 44 43 36 31 32 40 47 45 42 42 43 43 39 46 44 38 41 42 42 44 54 58 53 45 40 40 41 42 42 44 44 44 47 50 52 51 51 45 46 48 49 48 49 49 52 53 51 52 53 53 53 55 60 59 59 58 57 55 52 56 56 53 51 48 51 53 54 53 50 52 50 53 50 49 48 51 50 53 52 53 54 54 52 51 53 52 51 52 59 63 64 71 83 93 89 82 91 86 82 80 69 65 70 75 74 76 76 74 71 76 78 74 72 72 73 75 72 69 69 67 64 64 61 61 60 54 51 51 52 52 49 49 49 49 49 48 45 45 46 44 40 40 38 38 34 30 30 31 29 
42 47 49 55 51 50 53 57 60 57 56 53 54 59 59 57 55 59 51 52 49 50 52 54 54 55 59 58 57 53 55 54 54 54 52 52 57 58 58 53 51 54 53 50 52 52 52 51 52 52 53 51 47 46 51 47 51 54 52 52 47 45 49 50 46 47 50 53 55 52 49 52 49 53 59 54 57 58 55 53 51 50 50 48 45 44 45 46 43 39 40 41 41 42 44 42 40 40 37 31 33 36 34 37 35 33 35 36 33 27 25 25 27 26 26 27 27 24 19 19 25 27 24 23 24 24 26 28 32 29 25 25 29 31 29 29 30 30 35 37 45 62 53 43 31 27 33 44 45 41 41 50 47 38 34 38 44 49 44 42 42 42 42 43 43 41 36 39 40 40 48 46 52 58 50 41 43 41 41 42 45 45 43 43 45 48 47 49 47 45 48 47 47 47 49 50 50 48 53 55 55 52 55 56 55 58 56 55 57 52 52 53 52 50 53 55 54 54 49 47 45 45 52 52 47 48 50 49 52 50 50 52 53 50 47 48 49 52 54 60 82 96 97 91 90 87 74 80 81 82 81 65 59 69 75 76 75 73 74 72 73 74 70 70 69 68 71 71 68 66 63 63 67 64 59 58 55 49 46 49 51 47 45 43 41 43 44 43 43 43 42 40 39 37 37 34 30 30 31 29 
47 49 48 55 54 52 55 57 58 58 59 55 53 58 58 55 51 56 56 56 52 51 54 55 55 55 64 63 54 47 52 53 53 51 51 49 50 54 61 57 53 54 52 50 53 49 49 45 49 49 49 51 48 48 55 49 46 51 53 52 49 46 49 51 50 48 49 50 52 56 52 52 52 56 60 55 59 60 58 50 49 51 50 45 44 44 46 46 45 40 40 41 41 43 44 41 40 40 37 33 35 36 31 37 39 36 34 33 35 27 25 25 27 26 27 27 25 24 24 24 26 27 26 26 26 26 26 27 30 25 23 26 30 31 31 29 27 30 35 37 47 60 46 43 32 31 36 43 44 40 43 53 48 39 33 40 48 46 41 41 42 44 40 41 41 42 39 41 41 45 54 42 41 45 48 41 47 44 43 44 46 47 47 46 45 47 51 50 47 45 49 49 52 51 49 49 50 50 55 56 52 52 55 57 54 57 56 52 55 52 47 45 48 48 50 49 51 55 52 48 45 41 44 48 47 46 45 43 45 45 45 47 50 49 46 49 57 63 77 88 91 94 91 73 63 70 74 75 78 82 87 82 70 72 71 70 78 80 74 72 65 62 72 83 77 70 67 69 66 62 58 58 59 58 56 58 58 50 44 46 50 47 45 43 39 40 41 44 44 43 39 36 34 33 34 33 30 30 31 29 
47 54 54 59 57 56 59 61 61 61 57 56 55 54 54 54 51 54 57 57 52 54 57 58 58 57 58 57 55 54 54 53 52 48 48 46 46 49 53 53 52 54 53 54 56 53 55 50 51 49 49 51 48 49 53 52 49 49 49 53 53 50 52 53 50 48 50 50 49 54 53 49 54 59 57 55 60 61 60 54 52 52 50 45 44 44 46 47 46 43 44 45 45 45 44 41 40 39 38 34 31 30 30 31 36 33 28 30 31 24 27 27 26 26 27 27 27 29 28 27 25 25 26 26 26 26 23 20 24 26 27 27 27 27 30 29 28 32 33 34 44 46 39 41 34 35 38 43 43 39 43 54 52 50 40 41 47 44 39 40 42 45 45 43 46 45 42 44 45 48 46 40 39 40 43 45 50 45 44 45 46 46 44 46 46 48 52 49 47 45 49 49 53 55 52 50 50 50 49 54 55 51 52 58 59 58 55 53 53 53 53 48 50 50 48 45 47 53 57 50 49 41 39 42 45 44 45 47 46 45 43 43 46 48 50 64 85 85 81 89 78 73 79 77 68 64 70 69 70 74 87 94 76 71 70 61 73 79 71 69 63 62 65 76 76 74 73 70 64 63 62 59 55 56 56 56 55 51 46 44 44 45 47 42 40 39 38 41 41 39 36 36 35 33 33 33 30 30 31 29 
45 55 57 61 60 62 65 62 61 58 55 57 54 53 54 54 53 52 57 56 53 59 59 62 62 55 54 56 56 56 55 53 51 50 48 47 46 45 47 52 51 51 56 59 59 52 54 55 54 52 49 51 50 51 55 56 52 49 47 53 57 54 54 54 50 49 54 54 49 49 51 50 54 57 55 56 59 59 60 57 53 51 48 46 44 47 47 47 45 45 43 41 44 45 42 39 36 32 34 35 29 26 27 26 27 30 35 41 40 34 36 35 33 34 36 36 38 47 48 40 36 33 31 30 26 24 22 21 23 27 31 33 32 29 27 28 30 31 30 34 47 39 35 39 39 39 40 46 45 36 39 47 44 54 50 46 44 41 41 46 52 53 55 52 53 46 43 43 45 47 39 38 37 36 39 43 47 47 47 48 46 43 42 47 48 51 56 53 54 52 52 46 47 53 54 55 53 47 43 49 53 51 52 54 58 56 54 51 49 52 53 48 48 47 47 45 46 49 52 46 44 44 41 39 45 45 46 49 48 47 45 47 52 67 76 79 87 84 70 74 75 76 74 80 79 71 67 68 71 71 79 78 66 69 70 63 67 69 72 72 67 68 63 65 66 67 70 70 70 71 70 62 55 56 56 52 50 48 45 43 43 44 43 41 40 38 38 39 37 37 35 37 38 34 31 30 30 30 30 28 
51 55 56 63 65 65 68 62 57 54 52 52 53 53 54 54 54 52 55 59 60 63 58 61 65 59 56 55 53 53 50 49 50 51 49 48 47 44 45 51 51 48 51 55 57 51 52 54 56 60 56 55 55 57 60 55 53 53 51 53 55 52 51 55 53 52 56 56 53 55 56 53 52 55 57 56 56 56 59 58 52 51 48 46 44 48 47 47 47 47 44 41 43 44 41 38 35 32 31 34 31 29 37 47 59 71 74 78 77 73 67 65 70 64 55 53 55 64 66 52 41 43 46 52 49 43 38 38 34 31 31 33 37 37 31 31 32 30 33 43 52 41 39 39 37 36 36 51 49 39 42 45 46 56 52 51 46 44 48 50 49 47 49 50 57 55 56 52 48 44 37 34 35 37 40 41 45 50 56 54 51 48 46 51 51 53 56 60 64 59 55 50 47 49 49 51 49 43 45 47 47 50 51 50 54 54 54 52 49 49 48 43 42 44 49 47 47 45 43 40 38 48 47 41 44 43 47 47 46 49 57 69 75 76 80 76 68 71 69 68 73 79 74 75 72 69 67 68 73 70 71 69 63 65 64 69 71 68 71 77 74 69 66 65 64 63 62 63 65 62 61 56 56 54 52 53 53 47 46 47 44 41 38 37 39 40 39 34 33 36 36 35 38 33 30 30 30 30 29 24 
53 57 55 63 67 65 66 59 52 57 54 49 52 54 54 54 53 53 52 57 58 58 58 61 61 58 56 52 50 49 47 47 50 52 49 50 49 46 47 52 52 48 47 49 54 51 50 50 51 58 56 53 53 54 54 50 54 57 56 51 53 49 48 54 55 52 56 56 54 51 55 55 53 53 56 54 53 52 55 56 54 52 50 48 46 49 48 45 50 47 43 42 42 43 40 36 36 36 30 34 44 70 100 115 109 96 82 78 71 67 58 58 61 50 43 42 39 36 33 30 28 28 33 37 40 43 43 48 49 49 49 46 50 54 51 53 51 49 46 58 59 46 41 39 33 32 33 47 43 38 45 54 65 82 68 52 41 36 36 39 44 56 60 62 66 66 72 76 75 60 49 40 39 44 45 48 52 60 69 68 63 57 51 53 54 49 50 61 61 51 50 47 47 45 43 46 45 42 48 49 47 48 47 49 52 52 52 53 50 46 44 41 44 46 44 44 44 45 52 48 44 50 51 47 43 43 48 55 65 69 76 79 79 74 73 70 60 66 70 67 73 74 74 76 76 75 76 74 71 64 66 74 71 64 62 69 70 72 70 73 72 63 62 63 63 60 56 58 60 61 59 54 54 49 49 52 53 50 51 49 44 40 37 35 36 38 34 34 32 36 35 35 37 33 30 30 30 30 29 24 
52 57 56 62 63 61 61 60 60 63 59 55 53 54 54 55 52 55 54 53 53 50 49 54 56 54 52 50 49 49 51 51 52 53 52 53 52 54 56 54 53 49 49 47 50 52 54 50 49 56 56 54 54 51 50 49 53 56 56 50 54 50 49 53 52 49 52 55 55 48 53 56 56 55 54 50 48 52 51 52 57 54 52 55 50 49 47 43 50 45 41 42 42 43 44 41 42 42 45 76 124 153 136 106 74 63 60 50 37 33 35 39 40 40 42 41 32 27 25 29 31 29 32 30 29 32 37 46 45 45 41 40 42 45 44 49 47 42 42 49 40 37 32 36 39 45 38 46 38 40 57 72 73 75 66 50 42 46 57 67 77 86 92 110 115 113 111 114 122 108 102 80 60 51 42 47 49 50 54 69 77 73 66 59 61 61 57 53 51 49 49 47 47 43 43 49 49 47 50 50 51 53 50 51 50 47 48 49 47 44 46 48 50 49 43 40 38 43 53 44 40 44 51 62 58 55 62 76 77 72 71 68 72 75 72 71 62 64 69 71 73 70 72 74 81 78 78 77 68 68 73 75 75 67 67 70 66 69 72 74 72 66 63 62 61 57 53 55 57 57 56 54 53 53 48 50 50 47 45 45 44 42 39 35 34 33 32 34 32 34 34 34 34 32 30 30 30 30 29 24 
49 53 55 60 57 57 58 57 57 61 64 62 59 58 58 58 56 60 60 54 51 47 44 48 54 54 52 50 49 49 53 54 55 53 52 53 52 54 57 54 53 50 49 48 50 54 60 60 57 59 54 51 51 50 49 49 52 50 53 52 52 48 47 51 46 47 49 52 54 54 55 56 57 56 52 51 52 55 57 57 57 54 52 53 47 45 43 46 50 47 47 49 49 49 49 52 54 72 122 159 157 123 79 62 53 50 53 45 33 32 35 36 36 38 43 48 46 44 40 41 42 43 44 45 47 45 41 42 42 43 40 35 30 33 34 35 41 42 51 57 35 34 31 30 34 40 43 56 59 71 79 75 69 71 89 94 101 119 131 134 146 159 171 183 185 183 176 171 166 139 129 118 115 113 99 80 61 49 45 50 59 59 61 65 75 77 60 46 47 48 43 45 48 49 46 49 50 49 51 47 47 49 47 47 47 46 44 42 45 47 51 54 47 47 46 42 37 42 48 40 44 45 48 66 80 82 74 73 67 61 60 60 69 69 62 70 70 62 62 64 65 69 68 66 69 65 69 73 69 70 72 68 73 71 71 72 65 62 61 65 69 69 66 61 58 55 52 50 49 49 50 50 50 51 48 49 46 43 41 41 41 41 39 35 33 33 33 31 33 33 33 31 31 31 30 30 30 30 28 21 
45 52 55 58 52 51 51 53 55 56 61 63 62 56 57 56 57 59 60 57 57 53 51 49 50 51 53 51 49 50 54 51 54 55 55 55 52 52 55 54 53 50 49 52 55 56 61 63 59 56 52 52 54 48 47 50 52 51 54 56 54 54 54 53 50 54 54 55 55 58 57 55 55 54 50 55 57 52 56 59 55 52 52 51 44 42 43 45 44 46 48 48 48 46 48 58 84 133 155 119 83 65 47 43 45 40 49 49 45 44 40 38 40 38 37 37 39 44 42 41 40 41 46 49 47 44 40 38 37 39 45 42 32 34 37 36 38 40 49 51 35 36 39 28 33 53 73 88 92 84 73 72 78 96 128 149 163 174 180 179 180 178 178 172 165 158 157 154 158 162 157 152 153 142 139 136 111 78 54 45 45 45 54 55 55 52 52 52 55 52 43 42 45 49 51 52 51 48 46 45 46 44 42 44 43 42 40 37 38 40 48 51 46 47 47 43 40 43 55 40 51 62 71 68 66 71 68 62 57 58 60 62 61 54 59 67 66 58 55 60 61 61 58 60 61 59 64 66 67 69 68 69 75 73 71 73 67 63 59 59 61 63 60 56 57 53 52 48 48 49 47 47 49 50 48 49 46 43 42 38 38 40 35 31 31 31 33 32 33 31 31 32 32 31 30 30 30 29 26 19 
51 58 61 57 52 50 48 53 56 56 57 60 61 54 57 57 57 51 53 59 62 59 57 57 54 50 49 48 50 56 64 56 57 57 56 51 50 55 57 52 49 51 54 56 56 57 57 54 53 53 51 47 51 48 49 53 52 52 55 58 54 53 53 53 51 54 57 57 59 65 57 50 50 53 56 57 59 52 56 57 54 52 47 48 47 44 46 46 41 43 49 45 43 42 58 110 140 121 80 49 38 38 32 33 42 38 45 52 45 41 37 37 41 38 34 31 29 34 36 37 35 32 31 24 22 25 30 33 33 33 35 44 45 36 34 32 31 43 64 56 38 39 61 68 72 92 94 92 103 102 100 104 111 130 158 168 173 166 156 148 145 147 163 170 166 159 161 154 148 155 160 159 171 154 139 151 143 129 117 93 84 81 84 82 76 61 54 55 60 53 52 47 44 48 51 47 51 49 41 43 45 42 40 44 42 39 39 39 38 39 45 46 44 43 43 42 44 49 70 59 67 69 66 61 57 62 67 69 58 60 61 60 67 59 59 59 61 60 61 59 53 52 55 56 54 59 67 72 74 77 74 75 75 69 70 72 70 67 59 57 61 65 61 53 57 56 54 52 50 50 47 46 46 46 46 46 44 41 39 37 34 34 32 30 30 30 33 34 32 30 30 33 34 32 30 30 31 29 25 19 
51 59 60 54 53 51 49 53 57 57 55 57 59 56 55 54 57 55 51 56 62 63 56 57 55 49 48 49 48 49 56 55 58 60 53 50 50 57 60 60 59 56 56 56 55 56 54 46 46 48 50 42 47 50 51 53 52 53 55 57 53 50 51 51 50 52 58 56 55 57 57 57 56 58 60 59 62 57 56 57 53 47 45 51 50 48 52 51 46 45 45 41 39 50 109 149 113 60 42 34 31 32 30 42 56 54 52 58 46 39 40 41 44 41 38 34 31 36 37 38 35 31 29 25 23 23 23 27 28 28 27 34 46 35 32 27 25 37 61 50 36 44 73 97 95 84 79 93 106 101 108 134 159 171 161 146 156 164 162 165 169 173 167 152 148 151 145 138 131 124 128 126 150 149 147 145 144 149 148 137 132 120 112 116 117 118 112 111 102 83 80 68 56 52 48 45 50 46 41 42 43 42 39 45 41 39 38 46 41 43 45 44 39 38 38 42 59 66 75 69 69 60 54 54 55 58 63 68 65 57 60 59 68 65 60 55 57 61 66 57 47 47 52 55 55 53 60 68 71 71 70 69 67 64 68 69 71 70 62 61 63 59 57 56 58 55 57 54 52 49 47 45 42 42 43 42 41 38 35 35 31 30 31 30 30 30 33 33 32 30 31 32 32 31 30 30 30 28 25 19 
52 60 56 53 55 52 51 54 58 58 54 56 60 58 53 51 57 60 58 61 63 60 55 56 56 54 52 52 49 45 49 51 53 57 51 52 52 55 56 61 64 60 57 58 57 54 56 49 45 46 49 48 54 53 49 48 51 54 55 54 53 51 51 50 52 56 61 56 51 52 56 60 61 60 57 59 65 59 54 55 54 52 49 50 49 50 57 55 55 48 40 37 41 90 142 105 57 41 42 37 34 45 55 77 104 107 96 103 93 74 66 61 56 59 66 63 53 50 40 40 39 33 29 29 25 24 23 27 28 31 25 29 39 34 33 33 35 40 48 41 44 62 78 85 81 90 108 123 116 121 146 166 162 156 149 155 148 131 124 130 126 123 116 114 114 98 79 72 78 84 95 98 111 111 118 115 117 112 118 131 125 112 101 94 87 101 100 106 115 123 129 121 104 88 67 64 73 71 71 67 59 58 55 54 49 45 41 50 45 46 50 48 42 47 50 59 71 74 73 64 61 57 59 56 55 53 55 60 69 59 58 59 63 60 62 61 59 60 62 60 58 56 54 62 60 55 60 62 59 58 55 56 65 63 63 62 64 69 67 61 55 55 57 60 58 56 56 53 52 47 46 43 40 39 38 36 36 33 32 34 33 31 31 30 30 30 31 31 32 33 33 30 30 30 30 30 29 26 23 19 
52 60 60 58 55 49 48 50 54 54 53 57 59 57 55 52 57 60 59 62 61 60 57 55 55 56 53 50 55 48 45 48 48 53 50 49 52 55 55 61 64 60 57 58 57 52 54 51 48 52 53 54 55 53 49 47 51 55 57 58 57 55 54 54 52 51 55 55 51 52 55 57 58 57 53 56 61 56 53 55 61 58 53 52 52 53 53 56 56 47 42 42 66 113 106 54 39 37 47 61 81 96 112 110 101 96 82 76 73 60 65 67 58 56 61 62 52 51 43 43 47 42 33 29 28 28 27 31 31 38 40 36 36 49 52 49 47 56 63 71 81 93 96 96 102 125 136 130 142 160 168 161 146 136 117 99 86 82 83 90 91 105 113 116 113 99 87 76 78 91 94 98 97 108 119 98 97 91 85 100 105 116 121 107 89 83 84 86 88 102 117 130 130 135 127 126 124 112 105 91 78 76 73 59 53 49 49 53 45 40 45 58 62 64 63 63 66 64 60 56 54 54 58 54 59 53 57 62 70 60 56 55 59 55 59 58 59 61 56 59 64 64 60 62 56 60 66 64 57 56 55 60 70 65 62 61 59 60 67 64 58 57 55 56 54 51 50 52 50 43 42 39 36 36 35 32 32 30 31 33 33 28 28 28 30 29 28 28 30 33 33 30 30 30 29 29 29 26 23 19 
52 59 60 59 54 49 48 49 47 53 60 58 55 53 51 53 57 56 54 54 58 62 61 62 61 59 55 53 58 53 48 48 48 51 51 48 50 53 57 59 62 60 59 55 57 53 52 54 52 56 52 55 57 52 50 50 51 53 57 57 58 60 60 57 54 52 50 52 53 55 58 61 57 54 49 52 56 52 53 57 62 56 59 61 57 57 53 54 46 41 46 74 110 104 66 39 42 51 84 111 113 90 75 62 60 60 54 48 48 45 47 54 58 52 43 40 38 38 38 38 39 41 41 38 37 36 37 49 57 56 72 72 58 63 64 52 48 63 85 120 111 110 111 121 141 148 141 135 151 167 173 156 118 78 57 67 79 80 81 98 105 104 91 80 79 78 87 96 84 81 69 74 81 91 90 72 80 98 97 105 115 126 137 125 100 93 104 113 112 112 97 97 91 107 122 144 150 150 140 115 96 80 80 76 73 66 68 79 69 63 71 75 73 65 58 56 62 57 51 57 58 51 55 57 61 57 58 60 64 56 50 52 56 58 58 55 57 63 60 58 60 64 65 67 60 62 63 61 58 55 57 64 69 65 63 61 54 54 64 65 62 61 55 53 52 50 47 47 46 42 39 35 34 34 31 32 33 32 32 31 29 28 28 29 30 29 28 29 29 33 32 30 30 29 27 27 25 23 23 19 
53 59 58 59 58 53 51 51 46 51 56 57 57 56 53 56 58 52 51 54 59 60 58 61 59 58 59 59 60 57 56 53 49 52 54 51 52 53 56 55 59 61 60 55 57 54 54 57 56 56 55 56 56 53 52 54 53 51 53 53 54 57 57 56 56 53 49 55 57 57 56 55 54 53 50 54 55 52 53 57 57 59 65 57 51 51 53 53 46 42 63 110 116 86 49 41 52 71 76 76 65 55 56 63 75 62 46 41 40 40 35 35 40 38 35 34 38 39 39 37 35 40 43 40 39 43 47 59 67 57 60 62 64 67 71 64 70 77 93 113 106 125 129 135 140 138 133 141 160 174 133 81 58 54 66 75 81 95 95 95 81 60 49 42 41 53 71 86 87 84 72 79 87 97 115 126 134 144 147 146 151 153 154 152 143 142 140 132 123 124 104 96 89 97 97 107 118 129 146 163 152 127 107 86 75 63 64 71 71 67 74 82 74 66 63 65 74 58 55 63 66 56 58 59 59 62 60 57 60 60 57 53 50 53 54 56 57 55 56 58 56 56 58 58 54 63 60 56 60 62 61 62 63 60 60 59 55 55 59 57 57 59 53 50 50 50 49 43 41 40 36 34 34 33 32 32 33 34 33 30 27 29 30 30 30 29 29 31 28 29 29 29 30 28 27 26 23 23 23 19 
53 59 59 60 63 58 54 53 50 48 50 54 59 62 60 60 57 49 50 56 57 54 57 59 56 56 60 63 63 60 59 56 54 55 57 56 54 56 55 53 58 60 60 57 55 54 58 61 59 57 60 60 55 55 56 58 56 50 50 50 50 49 51 56 59 58 55 56 56 57 56 56 54 51 54 58 56 53 54 54 52 62 71 55 50 51 55 54 49 51 102 120 95 63 45 52 51 46 43 41 48 65 70 66 66 52 45 42 41 41 33 26 31 27 24 26 36 41 41 38 34 37 36 30 28 37 44 44 43 38 38 46 49 44 50 72 101 103 111 118 120 98 95 123 139 149 159 172 176 149 87 57 65 82 83 81 78 78 90 75 59 46 46 40 36 53 74 73 84 102 117 128 129 140 140 131 122 124 125 119 117 137 139 135 133 139 130 120 126 142 127 116 109 100 94 92 91 95 121 155 172 174 159 130 109 102 101 78 62 57 51 52 58 69 69 69 73 61 61 63 69 58 56 60 58 60 60 56 60 59 58 55 49 48 46 51 54 52 53 55 57 56 55 54 59 60 57 54 57 58 61 61 59 57 57 57 56 56 59 57 55 54 50 47 47 47 46 44 41 36 34 33 33 32 34 32 31 32 32 30 28 28 29 29 29 28 29 30 27 27 27 28 29 29 27 26 23 23 23 19 
52 61 61 59 61 59 55 54 52 49 51 54 59 58 56 57 54 51 53 57 54 54 56 61 59 54 51 56 60 59 61 62 65 63 61 54 51 56 58 56 60 59 56 55 54 55 59 61 61 60 67 69 63 57 56 61 64 63 57 53 49 48 51 53 58 62 58 54 58 56 54 55 58 57 57 55 51 53 55 52 53 59 68 56 49 51 52 45 53 88 124 105 86 57 59 58 42 33 38 45 57 60 60 56 52 47 49 49 42 45 44 32 33 26 23 26 33 38 40 38 32 31 28 25 31 39 37 29 30 33 33 40 48 56 62 90 109 121 127 115 92 63 100 127 145 155 177 187 163 105 63 67 101 114 89 79 65 76 82 67 65 64 65 65 79 85 81 87 117 150 152 116 106 112 89 81 85 97 112 129 125 122 112 113 113 116 116 112 123 138 130 111 100 96 95 86 78 72 81 98 125 158 172 164 142 123 116 96 80 60 47 44 48 51 55 63 67 67 65 66 70 58 58 59 50 50 54 57 57 54 59 62 55 51 45 48 52 54 52 48 54 55 49 50 57 60 59 57 58 58 60 60 62 60 56 51 47 47 50 52 51 48 49 45 45 43 39 39 38 33 32 32 31 31 32 30 27 27 28 30 29 27 27 27 27 27 29 30 28 27 26 26 28 30 29 26 23 23 23 19 
49 57 62 60 58 59 56 53 53 55 58 57 56 53 51 53 51 49 49 52 57 58 57 60 62 55 50 54 59 59 61 64 67 64 57 49 53 55 54 53 57 55 53 57 57 57 59 62 65 66 67 66 65 60 58 60 61 67 64 63 63 58 59 61 63 66 59 54 58 55 54 59 62 62 56 52 50 52 54 52 53 61 67 55 51 57 56 48 74 112 105 95 82 69 60 48 41 38 40 46 43 41 49 51 48 53 43 42 39 44 51 49 42 33 33 38 35 35 32 32 32 29 33 29 33 31 22 18 24 29 30 39 52 69 93 121 123 113 101 103 86 91 134 136 154 164 172 161 128 72 74 98 109 97 76 88 96 96 68 67 64 69 87 120 125 114 123 146 163 139 114 93 94 79 84 101 95 88 110 122 101 87 81 97 107 107 112 115 122 105 91 82 68 65 90 89 82 72 60 64 81 115 140 163 172 154 132 103 99 100 86 61 50 51 60 68 76 78 75 64 58 57 59 56 54 52 47 55 58 56 60 66 61 56 56 53 52 49 42 41 51 55 49 50 49 54 55 57 60 62 58 58 61 62 55 48 45 45 47 48 48 45 47 42 41 40 35 35 35 30 29 28 28 28 28 28 27 27 28 29 29 27 27 27 27 27 29 29 28 26 26 23 24 27 25 22 22 23 23 19 
47 57 62 60 57 60 58 55 58 60 62 61 61 59 54 52 49 47 48 50 56 60 58 56 57 55 52 56 58 60 60 59 60 55 50 46 54 54 51 49 53 53 55 58 57 57 59 61 61 58 59 60 61 61 61 60 58 64 68 70 78 70 70 83 75 63 59 56 56 62 62 64 63 63 57 56 58 58 58 52 53 65 63 52 52 66 58 59 99 97 82 95 81 67 49 41 47 50 49 47 38 39 38 44 47 48 37 37 36 37 44 52 50 45 44 47 38 34 34 29 34 35 37 29 25 25 24 22 24 28 34 41 48 73 90 99 110 90 76 90 89 112 128 148 170 171 163 125 91 105 129 96 75 88 93 93 107 92 69 75 71 94 111 137 127 136 162 157 121 86 85 95 102 97 108 105 97 105 119 100 78 74 77 98 109 115 120 115 109 92 83 89 83 70 83 89 92 88 79 78 77 84 97 115 152 170 168 146 107 91 99 91 80 78 79 85 81 65 58 52 51 56 60 55 62 65 52 56 54 54 63 68 65 57 59 61 60 53 45 43 50 55 55 56 52 48 48 49 58 64 54 50 52 56 54 50 49 46 44 43 43 39 40 39 37 36 33 32 33 31 29 29 27 27 27 27 28 28 28 27 27 27 27 27 27 27 27 27 27 25 23 21 23 24 25 23 23 23 23 19 
52 62 64 59 58 59 61 58 60 61 63 63 61 59 53 51 49 48 50 48 51 58 58 57 56 55 53 58 58 61 62 58 59 53 51 50 50 50 48 49 54 55 56 54 54 55 59 62 61 56 58 62 68 65 59 59 64 63 64 65 83 89 82 79 71 63 59 56 56 67 74 64 62 60 59 61 60 55 57 58 58 61 63 56 55 73 61 69 103 82 79 89 75 55 43 40 47 54 58 56 58 51 40 41 49 48 41 34 31 34 43 49 55 53 54 50 39 41 49 47 57 49 33 30 29 25 26 28 28 37 47 46 61 90 92 95 90 65 72 93 105 110 122 166 169 167 145 115 121 135 96 62 88 103 98 107 106 85 91 103 111 120 117 136 151 156 150 134 100 95 105 120 125 120 131 129 118 124 118 99 90 96 107 127 139 147 148 144 142 146 141 139 133 118 110 99 97 101 99 100 93 83 76 76 100 128 147 162 150 126 109 110 118 106 79 68 61 54 53 53 53 56 56 51 60 64 55 54 49 50 60 64 65 61 60 64 64 57 48 45 49 59 66 63 58 53 52 50 61 68 62 52 50 52 50 49 50 43 39 38 40 40 40 39 36 34 34 31 33 33 31 31 28 27 27 26 26 27 26 27 27 27 27 27 27 27 27 27 26 24 21 22 23 23 23 23 23 23 23 19 
47 59 62 59 57 57 62 61 61 62 66 62 58 55 50 50 50 50 53 47 48 54 56 57 58 57 57 60 58 61 61 60 59 54 55 54 45 43 46 53 55 58 54 51 51 53 59 61 63 61 60 60 62 61 59 60 61 60 58 54 65 71 74 72 64 58 60 67 66 75 98 76 66 64 59 60 62 58 59 65 63 55 64 60 50 62 61 80 95 72 78 83 55 46 48 51 53 52 50 48 69 64 54 52 58 64 61 49 40 45 51 48 57 49 42 41 36 36 41 47 60 55 41 35 31 25 23 32 36 43 47 51 81 101 85 89 76 70 87 103 120 130 158 172 170 169 146 141 124 95 73 83 112 107 89 106 115 106 110 104 121 126 138 161 161 138 134 152 143 140 141 146 141 137 143 143 143 148 143 144 145 157 165 175 176 168 159 152 145 134 134 127 111 110 122 125 112 95 89 87 86 91 89 87 78 80 101 120 135 147 143 122 99 81 70 68 64 60 54 53 55 56 54 52 54 52 54 51 44 46 48 55 64 68 64 59 56 55 51 56 56 56 61 61 62 60 59 59 67 66 66 57 51 51 46 42 45 46 40 35 37 39 39 38 36 34 33 31 33 32 31 31 28 27 26 25 24 23 24 26 26 26 26 25 25 25 26 26 25 23 21 22 23 21 20 20 21 22 22 19 
45 57 60 58 58 59 61 65 62 66 68 60 58 55 51 50 54 53 54 50 48 48 53 60 64 58 59 61 57 64 63 66 61 55 54 56 49 49 54 58 53 57 58 57 55 55 60 59 62 63 59 57 57 58 58 57 53 56 58 52 54 61 64 62 61 58 60 69 76 72 82 72 65 62 53 55 60 58 58 60 53 48 54 56 50 56 62 92 96 74 81 81 47 47 57 63 62 58 49 51 66 59 56 50 51 61 68 71 63 51 48 42 48 45 37 36 39 39 46 50 42 44 51 45 42 36 34 43 44 44 51 54 87 95 79 80 72 87 100 121 126 147 173 168 168 154 135 110 85 96 105 120 116 84 64 81 109 113 115 117 129 140 169 167 143 141 155 152 146 138 129 123 115 120 127 134 136 148 157 161 150 148 147 148 154 156 160 156 165 155 154 140 111 98 107 132 143 135 104 83 78 77 78 78 77 80 89 108 115 113 123 135 119 77 63 63 59 61 58 55 53 52 52 52 51 50 54 52 48 46 41 46 56 63 56 52 53 52 49 52 58 55 56 61 59 62 68 67 64 56 59 55 49 49 46 42 42 42 41 35 32 34 34 34 34 32 30 30 30 28 30 31 27 28 26 24 23 23 23 23 23 23 24 21 20 20 22 23 22 20 20 22 23 21 20 20 20 20 20 18 
47 56 54 53 59 60 55 56 59 67 66 61 61 58 55 53 54 50 52 53 48 46 50 56 60 56 59 61 57 62 59 58 57 53 52 56 60 61 63 60 52 56 59 59 56 56 59 62 64 56 55 56 56 55 55 55 51 50 57 58 55 59 58 50 53 59 60 62 70 69 72 80 73 61 57 60 56 58 58 54 53 50 50 52 49 53 68 93 92 78 87 76 54 54 62 68 60 60 55 61 71 54 51 56 50 41 39 46 52 47 46 40 35 42 43 37 39 40 37 34 27 29 40 43 53 50 50 51 51 52 56 65 87 63 71 75 83 87 102 141 143 160 169 170 160 141 118 82 73 88 103 114 105 65 68 93 121 133 139 123 130 163 169 145 128 131 141 129 124 126 121 118 122 124 132 140 148 157 146 131 123 123 117 111 104 109 120 112 116 115 128 135 135 125 116 117 133 160 154 136 118 101 96 105 108 99 99 111 106 96 82 102 127 122 82 61 63 62 64 61 55 55 54 51 46 53 52 49 52 48 46 48 52 55 54 55 55 55 49 46 53 58 59 62 57 58 60 60 56 52 52 53 52 49 46 43 40 35 37 35 33 33 34 34 34 32 30 30 30 27 31 31 27 29 26 24 23 23 23 23 22 22 24 20 20 20 22 23 21 20 20 22 23 21 20 20 20 20 20 18 
52 57 51 54 61 61 56 52 60 65 60 64 68 58 55 55 52 48 51 55 54 54 54 58 59 57 57 59 55 52 51 51 51 49 46 49 56 59 65 62 58 61 58 57 54 51 54 59 60 54 53 56 56 55 52 53 52 50 54 56 54 58 56 52 52 54 54 60 60 67 74 79 72 68 72 76 64 63 62 56 59 59 52 56 56 60 75 88 92 93 101 77 57 62 66 65 66 72 65 60 68 55 45 45 44 44 44 44 44 41 44 44 44 47 46 37 34 35 32 29 30 29 35 33 36 48 58 65 70 60 58 80 71 52 61 67 91 90 113 138 144 158 165 176 156 134 108 79 69 84 105 106 93 60 91 116 128 137 146 144 168 158 130 118 108 117 130 123 113 124 112 108 130 119 123 144 147 123 100 100 111 114 107 100 82 90 102 93 80 81 88 101 119 128 117 107 102 118 130 151 156 129 108 99 96 84 70 74 86 96 79 71 89 124 121 84 70 63 61 59 51 48 50 52 46 56 48 44 49 47 52 55 60 60 58 54 51 53 50 53 54 57 52 56 58 57 57 57 56 57 53 55 53 50 47 46 42 36 34 34 34 34 33 32 31 31 29 27 29 28 28 29 26 26 24 23 23 23 22 22 22 21 22 20 20 20 21 21 20 20 20 22 23 21 20 20 20 21 21 17 
56 59 59 60 58 58 57 56 61 62 61 64 64 57 54 57 56 55 56 54 54 58 55 57 57 57 55 56 52 49 49 52 54 53 49 49 50 51 58 62 61 61 60 61 60 60 60 56 54 54 49 55 58 59 53 54 55 55 51 50 51 55 60 61 56 59 59 58 57 68 78 96 76 62 67 73 68 69 64 59 59 59 56 59 56 61 72 87 94 97 98 70 51 71 85 64 65 79 58 56 65 53 49 43 41 45 46 44 44 46 46 44 45 40 38 37 35 39 44 42 45 42 36 41 43 46 56 86 92 63 69 95 55 51 61 70 80 105 123 140 156 160 172 173 151 122 93 91 83 88 89 92 93 96 118 122 132 142 158 166 169 141 129 124 119 138 133 108 98 103 101 109 101 104 143 147 108 87 98 109 100 87 89 91 89 94 102 100 78 68 67 73 88 115 126 116 92 90 90 101 134 133 99 69 53 59 63 62 65 75 82 68 57 73 106 123 96 73 66 64 63 56 57 58 57 59 50 46 46 45 49 52 62 68 75 75 60 62 56 54 59 56 50 53 54 54 54 54 53 54 53 56 51 47 47 46 44 41 38 35 33 33 33 31 30 29 28 24 26 27 26 28 25 23 23 23 23 23 21 20 20 20 20 20 20 20 20 20 20 20 20 22 23 21 20 20 22 23 22 17 
57 64 63 60 59 63 62 57 55 58 60 60 59 58 55 57 58 57 59 59 56 57 55 54 56 55 54 54 49 45 48 54 59 57 53 56 56 54 57 58 55 56 59 60 61 66 62 58 54 51 50 56 57 60 57 57 59 59 56 56 57 61 64 64 61 65 73 72 60 70 85 99 87 67 63 66 61 65 75 74 58 55 64 65 58 62 78 93 100 95 90 69 50 65 79 67 76 86 54 58 64 46 55 54 46 45 48 47 49 55 56 59 61 52 48 53 43 37 51 59 52 51 47 54 61 55 55 87 92 74 87 83 54 62 78 79 86 111 117 146 164 157 166 159 141 119 93 94 94 85 78 88 99 121 122 127 146 166 169 154 147 143 146 147 146 142 110 86 99 117 106 89 97 133 128 101 101 111 101 86 70 63 73 83 99 122 122 111 91 75 63 62 65 83 101 100 93 83 76 76 89 127 137 85 53 58 63 63 59 68 85 91 65 52 71 123 139 99 74 67 57 56 62 65 66 54 48 47 47 45 45 45 52 55 60 76 75 67 59 53 56 50 46 50 50 50 50 51 50 48 51 52 48 44 44 45 44 41 39 37 35 34 33 31 29 29 28 25 22 23 26 27 24 23 22 22 23 23 20 17 17 19 20 20 20 20 20 20 20 20 20 22 23 21 20 20 22 23 22 17 
53 61 59 61 61 61 61 56 55 59 60 59 55 56 58 58 61 64 67 65 57 55 56 59 63 59 52 53 49 45 50 56 59 62 64 58 59 61 61 58 56 57 58 57 60 62 62 65 60 55 59 58 54 58 58 57 58 58 59 59 61 62 65 70 73 75 82 83 69 74 88 88 78 63 63 66 57 57 68 75 65 55 61 64 58 60 81 94 97 88 86 77 54 70 75 59 67 84 62 60 59 48 63 68 58 52 50 49 51 63 67 67 72 62 55 64 73 66 66 67 52 47 48 52 60 54 64 86 83 90 108 75 65 70 73 81 100 107 122 157 163 143 155 146 135 126 105 90 98 83 95 98 117 137 124 140 174 178 155 136 131 142 152 148 143 130 97 88 107 116 91 99 129 117 106 124 123 116 108 95 85 90 92 99 88 112 140 141 112 91 87 83 74 72 90 94 96 82 72 80 69 84 144 133 75 65 73 69 60 66 74 88 98 83 61 75 117 123 92 74 59 50 53 67 74 63 53 50 53 50 47 44 49 54 53 59 63 55 60 59 53 49 47 47 45 46 48 50 49 46 52 50 45 46 43 43 44 40 35 34 34 34 32 31 29 27 27 26 25 23 21 23 23 21 20 20 21 22 20 19 19 20 20 20 20 20 20 20 20 21 23 23 23 21 20 20 22 23 22 18 
54 61 58 59 59 62 65 62 62 61 63 59 55 54 58 61 68 71 70 71 66 61 59 64 65 59 50 50 53 55 54 56 58 66 73 62 59 62 62 56 59 60 60 61 66 64 62 65 66 68 70 65 61 62 63 61 58 58 65 62 62 63 62 72 75 72 80 82 74 79 86 90 67 56 72 79 64 59 56 57 60 59 56 58 57 62 83 93 86 77 84 92 64 83 79 55 53 66 66 62 60 64 72 76 67 57 57 55 53 64 61 59 75 70 59 60 64 56 55 68 67 56 46 43 56 66 72 85 89 102 113 91 89 88 78 94 110 98 123 157 152 134 153 140 137 132 136 118 105 78 100 120 141 134 142 170 171 145 127 124 139 150 143 125 135 124 97 92 92 90 111 129 114 114 134 130 106 107 109 109 127 138 115 121 127 120 134 148 146 130 128 129 116 98 100 96 91 93 81 92 82 76 115 157 127 82 74 72 73 71 69 72 101 104 72 58 74 117 128 92 69 60 61 60 58 69 70 56 48 47 48 45 45 46 48 49 52 47 51 55 57 52 49 47 44 46 47 44 45 43 47 44 44 46 40 40 39 36 34 34 34 34 31 31 30 27 27 26 25 23 21 22 23 21 20 19 18 18 19 20 20 20 20 20 20 20 20 20 20 21 24 23 23 21 20 20 22 23 23 19 
59 65 63 61 61 64 66 64 59 57 60 60 60 55 59 62 69 72 69 72 73 66 63 62 55 55 54 54 57 61 58 59 61 63 69 63 60 63 62 56 61 64 61 61 64 69 64 66 74 78 76 73 73 70 70 71 65 66 73 66 67 75 77 79 65 61 69 69 64 69 78 100 79 59 72 81 75 68 58 59 58 57 62 64 57 63 81 101 87 83 81 98 76 82 74 56 50 58 75 84 80 70 58 60 63 59 54 51 50 62 66 67 75 75 81 86 84 66 56 62 64 60 57 53 51 75 71 71 100 120 107 95 103 106 101 111 116 102 122 145 145 148 145 121 138 128 154 158 127 103 121 129 134 142 166 170 156 136 135 135 133 136 128 116 135 130 98 90 97 114 132 131 134 127 111 95 86 82 85 91 103 112 112 131 157 157 165 173 180 176 167 152 143 141 124 118 112 121 105 100 99 102 105 133 159 113 87 81 79 67 62 57 79 102 90 67 54 79 129 127 88 72 67 53 48 58 67 65 53 47 42 44 43 41 43 46 56 50 46 52 55 47 44 45 46 46 45 42 42 41 42 40 41 40 37 39 36 35 34 34 34 34 32 31 29 28 27 26 26 24 23 22 23 21 20 19 18 18 19 20 20 20 20 20 20 20 20 20 20 22 23 23 23 22 21 21 22 23 22 17 
63 68 73 74 71 65 62 62 57 56 61 55 58 58 63 61 62 63 71 74 71 65 64 59 57 59 59 59 58 62 65 63 60 59 63 59 57 59 60 58 59 59 56 60 65 67 73 69 73 68 61 64 67 62 64 68 64 67 73 70 72 75 84 77 60 59 63 63 62 64 74 109 92 70 72 73 73 76 77 71 67 65 67 68 62 66 74 88 83 89 79 100 97 81 76 64 64 72 75 84 89 80 71 63 57 54 47 49 54 57 71 78 87 92 87 78 69 58 59 62 62 61 61 63 62 73 72 78 113 119 80 90 109 107 104 112 122 126 139 141 151 155 119 97 131 140 156 161 158 137 136 133 150 168 168 158 159 142 134 127 132 135 134 133 138 129 108 117 129 137 146 159 146 118 110 92 83 94 115 124 135 148 157 161 171 177 176 183 174 171 171 164 165 169 151 151 152 156 154 144 135 118 85 85 139 129 78 76 84 79 78 60 54 80 86 75 56 61 93 136 133 91 68 62 52 53 53 53 51 50 47 49 44 41 42 51 70 56 46 50 51 43 42 40 42 44 46 45 43 40 37 37 37 37 37 37 37 36 34 34 34 34 33 31 30 29 27 26 24 23 23 23 23 21 20 20 20 20 20 20 20 20 20 20 20 20 20 20 20 22 23 23 23 23 23 23 23 23 21 17 
64 70 74 74 71 65 63 65 62 60 62 58 60 60 67 61 55 56 68 71 66 62 65 63 60 61 62 60 59 67 68 63 62 61 65 63 60 57 57 59 60 57 61 64 65 62 71 62 59 61 60 62 65 61 69 70 60 67 68 65 70 70 72 72 69 66 64 63 61 59 61 96 104 88 85 79 73 75 86 79 74 78 70 65 60 65 73 87 90 90 86 109 128 104 90 79 75 72 69 72 84 92 89 81 68 58 56 58 60 61 79 85 89 90 75 74 66 63 65 66 66 60 51 60 73 79 83 102 121 108 68 87 111 106 106 128 123 129 146 149 155 139 119 96 115 145 154 144 160 149 135 152 169 165 158 145 134 127 125 120 138 149 146 143 142 136 129 137 141 145 155 143 117 114 116 118 127 140 161 173 180 189 196 192 192 189 186 192 185 176 175 178 186 189 183 188 181 174 169 168 157 138 108 94 117 132 72 51 62 71 86 94 77 78 90 76 62 59 67 101 131 107 73 78 68 53 48 45 45 48 52 48 43 41 43 51 61 56 46 50 50 47 49 41 41 41 39 40 40 36 34 34 34 36 36 36 36 36 34 34 33 33 33 31 29 28 27 26 22 20 21 22 22 20 19 20 20 19 19 20 20 20 20 20 20 20 19 20 21 22 23 23 23 23 23 23 23 23 22 19 
59 74 77 73 68 60 59 65 61 56 60 65 64 59 60 58 58 63 64 62 61 60 62 66 64 64 61 59 61 64 62 64 66 61 64 67 64 57 54 59 63 61 63 62 72 69 59 57 59 59 61 60 64 64 76 71 63 72 74 64 64 63 63 69 69 69 65 62 62 63 62 83 101 83 78 89 84 77 84 86 70 72 70 70 68 63 69 86 93 93 87 108 132 119 88 80 84 76 70 76 84 85 81 93 90 86 86 88 81 78 91 98 96 91 83 88 83 82 78 78 84 77 58 59 70 80 99 122 129 105 74 92 114 116 108 136 128 136 142 152 155 133 125 113 110 141 161 158 148 156 152 161 167 158 150 138 119 120 126 124 130 149 152 141 140 145 141 146 142 149 142 132 131 143 155 167 183 183 180 179 180 187 191 193 202 203 199 198 193 181 177 176 181 182 185 186 185 181 170 172 171 162 154 139 123 140 118 65 52 49 65 97 104 95 95 78 66 61 72 84 105 123 85 75 77 68 55 47 44 48 51 47 44 43 46 43 49 64 48 45 45 47 53 49 42 34 34 37 37 36 35 33 33 35 35 33 32 34 34 34 33 31 34 31 26 25 24 22 19 20 20 20 20 18 18 21 21 18 18 20 20 20 20 20 20 19 20 22 23 22 22 22 23 24 26 26 23 23 22 21 
60 74 75 68 67 62 62 68 64 60 66 66 67 61 56 59 62 68 66 60 62 69 71 73 72 65 61 63 64 62 59 59 58 62 64 62 63 62 62 64 70 71 64 64 76 65 52 56 61 58 60 56 60 64 76 65 70 78 78 70 63 60 60 72 78 69 67 67 63 63 65 78 89 90 75 85 88 72 72 83 74 73 76 82 88 84 78 85 88 92 80 90 104 120 96 87 89 74 68 73 76 77 80 92 93 97 104 106 91 81 87 97 93 97 91 82 87 92 84 82 97 97 90 95 86 80 104 125 127 112 92 104 107 117 115 124 123 145 149 159 154 134 130 131 121 137 161 162 147 148 161 166 154 147 148 139 130 127 123 120 121 139 154 145 134 147 152 156 145 155 156 159 165 175 179 183 195 194 187 189 190 193 193 188 184 180 181 175 173 162 165 164 156 151 159 159 158 165 172 179 179 175 169 159 150 153 151 112 83 56 50 61 75 79 77 72 71 81 76 64 76 115 94 62 64 82 79 56 50 51 46 47 47 43 43 40 46 65 49 43 43 42 45 46 43 36 36 35 36 37 35 34 33 32 32 31 31 34 34 34 32 31 34 31 26 23 22 23 21 20 20 20 20 18 18 22 21 18 18 20 20 20 20 20 20 20 22 22 20 19 19 22 23 24 26 26 23 23 22 21 
65 70 68 64 66 63 64 71 67 63 69 65 65 61 62 68 66 61 61 63 67 70 78 74 63 63 67 67 59 59 60 55 54 62 62 56 61 67 68 70 70 68 67 68 72 62 54 57 64 58 58 58 62 65 67 68 81 73 70 71 66 65 68 79 80 69 66 70 67 57 70 77 80 101 89 75 79 82 82 78 84 88 85 87 82 84 90 93 91 98 85 93 97 110 103 99 93 75 76 86 93 94 89 90 96 105 107 100 98 104 106 102 97 96 94 84 79 85 88 90 104 96 90 103 100 99 116 123 120 119 109 122 116 115 129 108 114 149 155 162 153 139 142 129 121 145 152 150 149 154 164 167 147 145 158 144 128 121 118 124 122 137 154 150 142 154 148 153 161 163 166 169 167 172 182 193 195 195 188 188 182 179 177 154 150 138 127 120 120 107 117 127 128 116 113 131 135 128 124 126 129 130 128 132 139 157 167 158 139 103 73 64 61 62 73 78 73 87 83 63 63 87 110 82 56 75 92 79 60 52 38 39 40 42 41 40 44 59 48 44 46 44 42 43 41 38 39 35 33 33 33 32 32 30 30 30 31 31 31 30 29 30 32 29 24 21 20 21 20 20 19 18 18 17 18 20 20 18 18 20 19 18 19 20 20 20 24 22 18 19 19 21 21 20 23 23 25 25 24 22 
66 72 64 63 68 65 64 66 65 63 62 64 66 68 69 73 69 58 55 60 65 67 75 70 62 67 67 61 55 58 60 55 57 60 61 59 64 65 69 70 69 73 72 73 73 67 61 61 68 58 60 63 65 63 61 77 92 69 66 73 72 72 77 89 86 74 67 70 70 63 74 73 73 88 98 80 70 78 85 85 87 102 85 81 80 73 78 88 79 88 80 89 90 100 102 100 105 93 88 84 86 84 72 74 77 91 96 82 86 106 123 125 115 101 94 97 88 84 89 99 117 104 86 88 99 102 121 126 121 110 106 127 125 115 138 110 118 152 158 159 152 150 153 132 125 148 139 138 148 157 159 157 139 145 152 142 122 122 116 114 119 141 145 144 155 156 158 164 161 154 154 159 167 183 187 186 174 177 171 164 160 154 142 112 111 110 116 121 130 125 121 130 135 111 96 115 124 118 115 110 96 105 119 125 118 117 136 160 165 163 141 107 85 75 81 93 70 69 74 55 53 65 108 105 57 55 83 114 84 52 40 44 38 41 44 40 40 51 45 44 42 46 42 40 39 38 39 34 30 30 30 30 30 30 30 30 31 28 28 26 24 27 27 26 23 21 21 18 18 20 19 17 17 17 17 17 19 19 19 20 19 17 20 23 24 24 25 22 20 24 23 20 19 18 21 21 25 27 26 22 
59 69 63 66 69 70 67 66 62 59 65 72 67 73 72 67 62 62 59 59 59 60 68 67 63 67 66 63 63 61 58 55 57 60 61 59 63 65 69 70 67 67 67 69 68 66 64 63 66 59 62 62 59 56 58 72 88 73 75 83 75 78 79 86 85 72 68 72 73 85 75 67 69 76 97 88 73 75 78 91 91 87 79 73 78 88 78 81 82 84 74 72 73 85 90 89 99 89 79 77 74 78 78 79 69 74 79 70 73 87 101 110 111 112 107 119 114 101 97 95 103 95 82 79 98 96 105 114 124 117 118 126 128 128 137 118 133 159 160 162 155 149 149 134 136 146 134 137 149 168 167 157 139 132 136 133 121 119 108 103 117 146 152 154 162 153 161 159 160 155 162 174 180 187 185 180 170 169 165 156 155 161 155 140 145 161 167 152 149 150 149 145 143 143 137 140 139 137 134 138 131 126 129 129 124 120 122 143 149 152 165 162 143 117 88 75 69 60 61 50 55 57 86 110 66 43 57 104 99 63 49 48 37 38 45 43 41 53 46 37 34 35 37 36 39 40 34 31 30 30 30 30 30 29 30 31 31 28 28 26 24 24 24 24 22 21 21 18 18 19 18 17 17 17 17 17 19 19 19 19 19 17 20 22 22 23 24 22 20 23 22 18 19 22 24 24 24 23 22 18 
59 70 65 66 69 71 69 68 63 59 62 67 63 71 67 60 60 68 67 67 61 62 65 63 60 61 62 62 63 59 56 56 58 59 62 62 63 64 65 63 59 59 62 67 61 58 64 65 69 64 63 64 59 56 58 72 83 67 69 77 68 73 73 69 76 78 79 73 71 91 78 72 68 67 81 82 70 72 67 76 91 85 80 75 67 82 83 75 80 87 87 79 80 87 82 86 93 80 74 81 72 77 94 101 100 92 87 88 80 80 89 96 97 106 109 115 111 104 112 105 94 85 83 83 111 106 95 99 105 113 126 132 131 131 133 119 135 156 162 166 166 161 151 131 139 141 129 139 148 164 165 152 131 130 138 137 122 116 121 117 124 148 157 160 161 157 157 161 174 166 169 183 180 174 162 150 142 143 156 152 151 157 159 153 145 161 168 159 153 152 160 157 155 157 153 147 140 143 140 142 148 139 131 134 126 125 140 148 139 125 140 150 169 171 138 87 78 69 63 49 49 48 67 100 84 53 52 83 98 62 52 50 40 39 42 37 35 47 47 39 33 31 32 33 34 40 39 31 30 30 30 31 31 29 29 30 30 27 29 27 24 22 22 21 20 20 20 19 18 17 17 17 17 17 17 17 17 17 17 17 17 18 19 19 20 22 23 22 21 20 20 20 22 24 24 21 20 20 22 22 
57 64 66 62 64 63 64 63 63 62 63 61 57 61 61 61 61 67 67 75 69 63 58 57 58 57 58 57 55 52 52 54 54 59 62 64 63 61 62 57 55 59 62 70 65 55 66 71 68 66 63 63 62 59 63 71 81 69 68 76 72 71 74 67 71 77 74 70 72 75 68 69 71 65 69 83 77 78 76 70 74 91 100 102 89 84 89 86 81 78 91 98 81 84 82 79 77 73 68 79 77 66 77 86 87 91 93 85 85 71 70 89 103 97 100 113 119 115 128 116 104 95 92 92 114 118 104 100 99 105 118 128 138 140 126 114 136 156 161 153 159 166 147 135 148 151 134 135 148 160 158 137 119 127 126 141 121 120 139 140 142 149 155 159 165 162 158 165 170 164 171 179 166 149 127 130 133 138 154 159 162 156 163 166 164 169 156 156 158 152 154 154 156 156 160 149 141 143 130 126 129 125 124 121 109 108 138 159 165 156 151 145 156 166 167 137 110 81 67 64 59 51 58 87 108 86 64 74 88 64 56 54 43 44 43 35 35 45 42 38 36 33 31 33 32 33 40 31 30 30 29 29 29 30 29 27 26 24 26 25 22 19 19 19 20 20 20 19 17 17 17 17 17 17 17 17 17 17 17 17 17 19 20 20 23 26 23 23 21 20 20 22 23 22 22 23 23 23 24 23 
56 64 64 65 70 68 68 68 64 60 66 65 59 60 62 61 62 66 63 68 66 62 56 60 65 61 64 61 56 53 55 57 59 67 64 64 64 61 60 57 54 56 60 77 80 62 65 73 69 65 64 65 62 63 73 70 71 66 71 78 66 68 75 71 81 77 66 75 82 73 68 66 70 75 72 90 89 79 92 85 77 90 91 106 104 84 77 82 81 84 92 106 89 81 84 72 76 81 76 73 76 73 69 77 73 79 93 92 98 83 69 71 89 80 79 87 98 109 124 115 118 113 97 100 117 126 112 109 108 111 109 125 145 146 133 120 143 165 166 150 149 163 153 150 151 148 141 142 157 165 146 121 112 120 121 139 125 131 145 151 143 146 160 164 166 160 164 167 163 163 172 172 149 132 139 153 156 153 152 148 153 148 150 154 164 165 152 155 170 172 176 176 173 161 164 165 167 163 145 141 144 136 132 128 112 111 123 134 146 137 126 133 145 157 169 162 160 132 94 81 74 66 63 74 97 106 99 81 67 65 69 72 45 48 44 34 34 45 37 35 34 31 31 30 31 30 35 32 28 28 28 27 26 27 28 28 24 21 23 22 19 17 18 18 18 18 18 18 17 17 17 17 17 17 17 17 17 17 17 17 18 18 20 19 21 22 22 23 21 21 21 21 23 22 21 24 25 24 25 24 
59 67 70 73 75 73 75 71 63 64 66 64 61 64 63 56 58 62 61 59 56 59 63 63 66 63 63 59 55 55 57 58 59 61 61 61 60 59 59 58 56 55 59 72 82 68 66 72 74 66 59 64 66 75 76 67 65 68 71 79 70 64 66 80 90 77 74 81 79 71 75 74 70 75 76 84 96 81 100 109 83 84 86 95 93 83 72 75 82 87 90 96 104 97 92 78 81 86 83 76 72 70 81 90 97 96 85 96 103 89 83 78 82 77 78 84 93 100 109 109 115 113 99 107 119 134 125 125 124 123 108 127 154 145 138 126 134 158 166 154 139 152 152 150 149 141 141 139 149 149 135 117 113 121 133 146 135 138 144 149 143 149 151 151 159 160 166 166 165 166 170 159 136 134 142 143 152 149 155 161 170 165 164 172 177 176 174 174 177 177 173 162 154 147 142 142 153 159 156 150 155 160 153 150 137 123 109 114 124 124 121 118 125 122 144 149 158 174 150 110 82 79 74 65 67 93 105 66 54 73 79 69 63 62 49 42 35 46 35 31 33 30 27 27 27 27 33 34 28 27 27 27 27 26 26 26 23 21 22 20 17 18 20 17 17 17 17 17 17 17 17 17 17 17 17 17 17 17 18 19 19 17 20 21 24 22 22 23 22 24 22 20 23 25 22 22 24 21 25 24 
66 69 72 80 82 84 76 69 69 69 69 68 63 64 63 56 59 66 67 61 55 56 68 66 68 70 61 58 58 59 60 61 61 61 60 61 58 54 58 59 60 62 65 68 77 73 72 71 69 69 61 59 63 76 66 66 64 63 64 72 73 63 66 80 78 78 77 73 72 65 75 80 79 82 88 86 93 85 80 94 88 81 92 96 93 95 86 80 89 92 90 92 102 105 99 91 83 89 88 83 90 86 89 106 109 108 95 100 117 108 109 109 102 99 106 107 107 110 110 113 121 109 99 106 123 138 144 150 144 133 120 130 158 150 142 131 131 146 164 160 143 144 141 134 141 136 137 144 148 143 130 117 110 116 136 144 136 133 148 152 147 135 137 149 158 164 166 162 157 154 152 131 120 135 142 153 156 148 157 164 171 172 170 174 177 180 176 166 162 156 151 148 143 141 131 123 134 148 146 145 145 149 153 160 157 146 129 127 125 133 137 115 115 112 108 108 116 152 170 159 117 87 88 77 75 94 103 65 36 53 71 55 67 84 55 49 44 43 33 31 33 30 27 26 26 27 33 34 28 27 26 26 26 27 26 24 21 23 21 17 16 20 18 16 17 17 17 17 17 17 17 17 17 17 17 17 17 17 18 20 19 17 20 21 24 22 22 23 22 24 22 20 23 25 22 22 24 21 24 21 
65 69 67 75 78 83 72 64 71 70 70 68 66 61 59 59 60 68 73 70 61 57 64 64 68 70 58 53 57 63 63 63 63 61 58 63 64 58 62 63 66 68 68 66 67 72 74 65 60 65 63 60 65 71 58 66 64 64 66 67 68 66 78 82 77 91 83 90 89 74 71 73 76 88 92 94 88 91 88 81 94 86 90 87 86 94 93 89 93 98 87 88 95 101 98 90 92 99 98 94 97 95 91 104 117 125 116 113 117 118 126 133 130 119 122 132 132 128 125 134 150 126 109 102 112 125 131 148 144 128 123 128 156 156 149 143 133 142 160 161 159 155 139 132 143 143 134 140 144 142 124 117 109 113 135 145 133 134 151 150 144 120 132 153 158 162 159 153 138 146 136 129 141 149 153 162 161 155 159 157 156 166 159 160 166 176 179 175 175 166 164 154 144 145 144 138 147 161 141 143 144 135 128 133 140 142 139 129 128 140 143 121 101 103 104 119 117 124 145 173 170 146 109 85 83 90 104 106 57 51 73 71 67 74 51 42 52 50 33 29 29 31 26 23 24 25 31 32 28 27 26 24 23 25 25 22 20 21 18 16 16 18 17 16 17 17 17 17 17 17 17 17 17 17 17 17 17 17 18 20 19 17 20 22 23 23 24 24 23 23 22 22 23 23 22 22 25 25 25 19 
63 69 70 75 71 73 65 59 63 66 67 66 68 64 61 61 64 67 72 78 71 64 68 67 64 65 58 55 55 58 62 64 63 58 54 56 63 59 61 64 66 66 66 64 62 70 74 63 65 66 67 65 67 75 67 63 60 63 63 66 71 77 81 86 77 85 84 111 90 71 59 60 65 77 79 81 76 81 89 90 102 94 91 87 77 83 88 88 89 96 91 92 92 97 105 96 91 96 92 93 99 102 98 97 124 143 132 134 134 130 129 131 141 137 132 142 155 148 139 143 160 148 127 117 112 120 121 135 151 144 135 138 146 158 162 153 130 136 161 164 157 152 136 131 136 141 128 134 137 139 130 119 109 122 140 142 124 136 148 144 138 134 144 148 155 159 147 144 136 148 142 148 151 154 153 141 133 132 140 148 155 168 170 170 177 183 178 175 174 164 167 162 159 167 161 144 138 144 127 123 130 132 129 127 141 152 152 139 136 145 146 141 132 125 114 111 128 137 124 134 161 177 144 89 70 83 99 128 112 84 82 78 71 69 56 38 49 60 38 30 31 30 27 27 25 24 28 27 26 27 26 24 21 23 22 19 20 19 17 17 17 17 17 17 17 17 17 17 17 17 17 17 17 17 17 17 17 17 18 20 19 17 20 22 23 22 22 22 22 23 23 23 23 23 23 23 25 27 25 19 
63 70 71 74 69 71 66 61 64 65 63 61 66 66 63 68 77 74 69 71 72 70 70 66 66 65 61 62 62 63 63 65 61 57 54 56 67 65 62 65 63 64 65 63 72 81 67 63 66 71 72 67 66 74 75 72 63 58 66 68 71 75 69 91 90 79 77 98 76 61 61 68 65 69 77 81 78 82 81 90 104 102 87 76 74 86 94 93 89 93 94 95 92 91 104 108 98 98 96 98 95 101 108 111 126 138 135 140 141 135 138 138 143 147 150 152 159 158 149 146 150 154 147 143 143 146 123 118 136 149 151 151 143 140 161 164 128 123 153 162 155 140 142 135 137 148 142 141 138 142 137 125 126 136 143 142 128 141 146 140 137 139 155 156 155 152 136 129 128 148 146 150 138 133 121 106 114 133 146 155 164 164 166 164 169 175 172 167 166 163 168 169 159 150 147 150 149 140 137 129 126 120 120 125 127 131 139 135 136 148 155 153 151 132 115 106 115 130 126 113 129 155 168 130 72 56 70 89 100 78 74 78 73 76 71 52 46 49 44 32 32 30 28 27 29 31 32 28 26 26 26 23 21 21 19 18 19 18 18 17 17 17 17 16 15 15 15 15 16 17 17 17 17 17 17 16 15 17 18 18 18 18 20 22 23 23 20 20 20 22 23 23 23 23 24 24 26 27 26 21 
66 71 66 68 68 71 66 62 64 63 63 65 66 64 62 69 75 72 66 64 68 65 62 62 67 64 61 65 64 63 66 65 61 60 60 61 67 67 68 71 64 64 66 64 74 82 64 69 71 70 64 64 64 67 69 77 65 60 78 78 74 73 71 90 90 75 77 90 85 75 80 87 92 92 87 85 85 90 91 95 104 123 110 93 78 83 95 94 98 94 93 94 91 89 93 100 99 97 94 99 108 111 105 113 126 128 122 123 131 136 139 139 138 151 157 153 155 154 153 151 145 146 151 135 127 144 128 119 134 147 151 164 153 136 156 171 143 130 146 160 164 144 152 142 142 153 149 141 144 149 135 130 140 144 146 149 141 144 148 143 134 136 153 157 154 144 137 132 138 148 138 131 117 122 125 126 133 144 158 158 158 157 160 157 161 168 165 153 153 158 167 160 140 130 134 147 155 153 153 156 159 147 140 134 131 130 128 120 125 138 148 139 148 157 149 125 102 114 133 129 125 131 152 164 135 109 95 81 88 94 76 76 69 68 75 72 59 45 45 47 43 36 33 33 30 30 30 29 27 26 24 21 21 20 19 18 17 17 17 18 17 17 16 14 13 13 13 13 15 17 17 17 17 17 17 16 16 18 18 17 17 19 20 22 24 23 20 20 20 21 24 23 23 24 26 26 27 27 27 23 
63 67 62 64 65 71 71 68 62 63 66 68 62 64 62 68 64 65 63 65 69 65 62 61 61 62 61 68 71 66 64 58 61 61 61 63 64 68 71 74 71 73 70 70 72 77 67 71 68 64 61 60 61 64 65 76 73 73 81 82 85 83 75 81 82 72 73 81 83 83 84 89 97 86 83 90 91 100 105 96 101 117 103 98 87 81 85 81 94 100 96 91 88 85 88 94 98 96 93 92 101 119 116 116 133 136 123 122 132 140 143 143 147 155 158 160 156 151 149 150 149 147 151 145 131 129 129 127 142 150 146 157 156 147 148 165 160 138 136 150 163 151 156 145 144 150 151 139 149 152 140 145 147 145 148 150 150 147 152 149 137 141 157 160 149 138 139 129 142 140 126 114 110 126 131 131 137 146 144 132 145 156 149 140 149 148 144 147 162 165 165 168 162 160 164 168 164 158 160 164 173 174 169 160 154 151 142 133 129 132 138 133 132 141 145 147 130 119 114 118 120 123 128 150 157 147 117 93 86 95 69 62 73 54 61 90 79 56 54 56 43 36 34 34 34 31 29 29 29 25 19 17 17 19 19 18 17 16 15 14 15 16 16 14 13 13 12 13 15 16 17 17 16 16 16 17 21 20 17 15 15 19 20 20 21 20 20 20 20 21 24 23 22 24 26 26 27 27 27 23 
64 67 65 65 67 73 66 63 59 57 64 68 60 62 66 67 57 59 60 63 69 68 63 60 61 62 64 68 66 61 60 61 62 62 65 66 65 65 65 65 68 77 72 71 71 73 67 68 66 62 59 58 59 62 64 68 69 71 74 74 74 74 69 76 80 69 74 83 86 86 83 85 88 84 92 95 95 96 92 85 87 96 91 84 85 83 81 77 89 102 99 91 92 88 90 94 94 96 98 97 94 102 109 114 134 140 138 143 152 156 159 157 157 158 157 161 158 155 155 157 150 141 141 149 143 131 136 132 141 147 143 146 152 142 143 156 168 145 132 136 154 151 157 148 139 144 146 130 140 144 146 148 143 144 155 152 155 154 157 153 150 157 159 157 144 142 142 133 148 141 130 119 118 122 112 128 141 127 125 133 147 140 126 130 143 148 153 142 140 147 153 153 154 154 149 156 156 161 167 164 173 177 169 168 163 165 159 153 144 133 131 130 135 137 133 136 143 158 140 110 107 106 108 125 138 142 122 103 93 90 82 65 74 67 59 75 81 71 66 64 40 26 27 32 33 28 25 25 29 26 21 16 14 16 18 16 16 16 14 16 16 15 12 12 13 12 11 13 14 16 18 17 15 14 15 18 20 19 18 17 17 19 20 20 20 20 21 22 21 21 24 23 22 23 24 24 27 28 28 23 
63 72 72 72 73 75 62 59 62 62 62 63 64 69 69 65 60 61 59 59 64 60 58 61 65 64 67 63 58 58 56 60 62 65 69 68 69 63 61 64 64 68 72 71 72 71 62 66 68 59 55 56 57 60 60 65 72 75 73 67 63 59 62 79 91 85 91 99 100 106 96 99 111 111 107 99 95 90 91 93 82 78 89 86 90 100 98 89 88 89 90 83 78 82 92 94 93 98 98 103 108 106 109 114 128 131 131 136 141 157 168 162 158 167 164 161 163 162 163 168 159 148 137 134 140 138 142 131 128 138 144 142 147 137 147 150 159 153 147 134 143 147 155 157 145 152 154 132 136 152 157 155 155 149 153 151 157 157 159 154 154 162 159 160 152 150 145 143 149 145 135 125 126 132 129 143 133 113 124 137 145 139 136 146 147 145 145 139 134 143 147 149 149 150 148 152 154 163 164 161 168 172 161 157 157 161 156 153 155 145 143 137 135 139 135 132 132 153 149 126 109 98 86 92 105 131 130 111 96 79 79 66 57 71 75 88 92 76 58 65 62 39 32 32 29 26 26 26 29 28 23 16 13 15 17 15 16 16 15 20 19 16 15 13 13 12 11 14 14 15 18 18 15 14 15 17 16 16 16 17 17 19 20 20 20 20 22 23 21 21 24 24 21 23 23 23 25 26 26 23 
61 76 81 83 79 71 65 66 68 71 64 58 68 78 72 68 67 62 59 58 65 62 60 64 65 64 68 61 62 65 64 67 74 75 76 81 82 68 58 64 69 63 70 73 70 73 69 77 80 76 66 63 66 70 66 65 68 72 72 70 70 67 71 81 92 100 101 95 99 109 111 123 127 121 106 98 90 81 87 99 95 85 94 86 89 102 104 105 99 98 97 87 75 76 82 83 88 99 96 101 106 106 111 118 131 132 136 143 139 148 162 170 169 170 164 156 155 158 163 166 151 140 134 126 133 142 142 135 132 135 148 155 149 142 152 149 155 161 162 146 146 151 150 162 160 154 151 141 139 155 159 154 153 151 152 149 149 156 159 156 158 163 154 156 153 151 150 151 151 147 142 144 145 147 137 137 128 120 134 148 149 140 139 144 136 141 152 158 152 160 163 165 154 157 169 161 163 162 155 154 154 149 142 140 146 155 163 161 165 152 141 141 142 149 143 139 127 134 132 137 136 121 104 102 95 102 126 124 107 82 83 95 74 68 76 81 85 84 72 67 76 55 44 37 31 31 29 28 25 20 20 16 13 15 17 15 15 15 18 23 20 16 19 16 13 12 10 14 15 15 18 17 15 14 16 17 15 15 16 17 18 19 20 20 20 19 22 23 21 22 24 23 21 23 24 23 23 24 25 23 
64 78 86 91 85 72 69 74 73 71 73 63 64 69 68 67 72 72 67 61 66 66 65 66 60 57 61 68 73 71 67 75 79 74 73 74 73 67 62 63 71 68 72 78 79 79 69 74 76 84 72 66 73 80 71 62 64 72 68 72 78 75 71 72 79 86 90 91 89 100 114 117 117 111 99 98 93 91 90 101 103 94 88 82 80 84 91 103 109 111 116 113 101 93 89 86 92 96 100 106 107 107 107 111 131 139 145 159 163 164 165 165 157 154 154 159 154 155 156 159 154 140 136 135 134 142 146 140 136 132 138 157 153 150 154 152 163 168 168 161 153 146 148 157 161 154 153 157 152 152 154 154 154 150 149 148 144 155 163 160 161 161 157 153 153 155 152 152 157 155 152 152 150 146 138 135 134 136 142 147 145 143 139 139 140 140 148 147 149 155 153 157 165 165 171 170 169 169 169 170 170 163 160 156 160 160 163 159 172 179 166 147 133 128 121 128 140 140 123 124 134 134 137 130 109 102 127 136 123 92 84 115 95 53 59 77 77 64 74 71 74 56 34 34 28 25 26 27 26 21 22 19 16 17 16 13 13 13 18 22 19 17 17 16 16 15 11 13 16 16 17 17 16 17 20 19 17 18 17 18 21 21 23 24 21 19 22 23 22 22 23 23 22 23 27 26 24 26 28 23 
66 81 88 86 82 76 73 77 73 71 74 68 74 71 65 68 76 76 73 66 67 66 65 66 60 58 67 76 74 67 61 72 75 70 69 70 65 65 68 66 65 69 81 88 89 78 75 81 76 71 56 52 59 62 60 62 74 84 76 79 83 76 67 69 80 84 86 98 101 101 99 105 112 111 102 93 95 96 87 91 99 99 92 87 82 81 87 88 88 95 106 117 120 109 102 94 92 91 103 113 117 121 133 132 131 133 142 156 169 173 173 171 162 159 158 154 153 156 156 157 153 150 154 148 144 146 154 149 142 138 131 151 151 143 144 152 156 152 159 164 160 155 151 153 160 160 154 156 156 153 153 153 154 155 154 157 147 150 162 161 162 162 163 159 157 155 152 154 161 161 159 153 150 149 146 146 144 145 138 131 133 140 139 132 138 140 142 135 146 142 143 145 151 154 163 167 165 164 165 166 168 167 173 174 177 169 169 167 172 178 176 169 160 146 130 113 122 138 137 136 136 127 132 145 144 126 121 131 136 121 83 81 97 84 49 39 52 72 100 75 64 57 34 30 29 23 19 20 27 28 24 27 23 18 15 13 13 13 15 19 16 16 17 16 16 16 14 11 14 16 16 16 16 17 21 18 14 14 15 18 21 21 23 26 25 22 22 22 22 23 23 23 23 23 27 26 24 26 28 23 
66 80 83 82 78 73 71 70 68 71 71 68 68 64 67 69 74 73 70 65 66 65 64 64 68 68 72 74 64 61 67 73 72 70 71 73 72 66 68 66 69 81 81 75 74 78 78 69 59 55 51 57 65 63 57 64 77 84 80 85 81 75 69 65 74 80 87 96 95 86 86 98 106 106 100 102 107 101 89 89 92 101 103 102 105 96 97 85 81 96 106 113 123 124 119 103 98 99 101 105 116 120 138 147 151 146 141 143 150 157 162 161 160 157 159 158 157 153 149 152 154 152 155 153 148 150 158 154 149 150 142 153 155 146 143 150 152 146 150 154 160 162 157 157 161 162 150 148 151 156 158 160 156 161 160 162 159 150 155 160 161 161 164 165 163 157 151 155 164 161 162 155 148 156 153 150 149 146 139 132 125 129 136 131 135 146 155 148 142 137 148 147 150 148 154 157 156 155 160 162 164 160 167 168 171 170 167 160 168 175 175 170 166 170 177 159 144 134 123 133 144 136 123 132 150 157 139 130 133 145 126 88 75 100 90 50 29 46 94 99 65 50 45 29 27 28 16 15 24 25 22 28 22 15 14 13 15 15 15 17 15 16 16 15 14 14 13 11 13 14 13 13 14 16 18 17 15 15 16 18 22 25 24 26 27 23 21 20 21 22 23 23 23 23 26 26 25 26 27 23 
68 80 79 78 73 68 69 68 64 64 68 66 61 64 69 62 71 72 64 64 63 68 71 65 68 65 64 66 60 65 63 60 63 70 70 65 70 63 64 66 76 82 75 73 66 68 67 60 58 57 51 62 67 69 63 62 79 90 80 74 64 68 68 63 65 70 85 95 95 86 82 85 94 111 112 121 118 116 110 101 97 98 99 95 95 93 94 85 80 82 85 96 110 116 121 123 119 113 110 109 116 126 131 132 145 151 153 154 157 157 160 165 165 164 159 161 161 157 154 155 154 149 148 152 148 150 158 157 156 156 150 156 162 161 159 159 159 153 153 149 150 157 159 156 153 150 146 149 156 159 156 158 160 162 159 160 162 155 156 159 158 159 166 167 165 161 157 157 163 162 163 158 153 156 153 148 145 146 148 141 128 130 141 142 139 139 143 129 124 129 132 137 148 151 147 150 153 152 153 152 150 150 158 158 157 159 160 160 166 163 163 161 157 155 166 170 167 162 146 135 133 144 134 111 103 128 156 166 153 150 145 131 103 85 91 78 60 40 49 93 108 56 38 31 23 25 24 17 16 20 22 23 22 24 16 13 16 16 15 17 15 16 16 14 13 13 13 13 13 13 12 11 14 16 17 17 17 17 17 18 22 25 25 27 27 23 20 20 20 22 23 23 23 24 26 27 27 27 27 23 
74 82 79 73 72 70 68 69 68 65 66 62 62 66 71 68 73 72 69 67 63 64 72 66 60 61 64 68 62 65 59 53 55 59 60 61 63 63 74 81 79 71 64 63 56 61 63 64 76 77 73 76 67 74 71 65 88 91 76 69 65 72 76 79 89 94 101 112 110 103 104 100 98 114 108 115 115 111 112 102 103 100 100 103 106 104 99 98 87 83 79 82 95 94 105 122 123 117 110 110 111 114 116 124 121 122 147 160 162 156 155 159 157 157 153 154 153 152 154 156 153 148 149 149 149 152 157 159 163 163 160 153 159 169 173 171 168 162 158 154 149 156 160 155 156 154 159 159 157 157 156 156 160 158 159 161 161 152 150 154 156 156 159 159 158 155 157 161 160 161 160 158 159 155 151 147 143 145 144 144 143 150 155 138 134 128 122 123 129 132 131 132 141 145 148 154 154 146 146 146 142 145 154 159 165 163 158 159 161 159 157 159 162 156 154 152 151 153 158 155 153 154 159 148 114 105 121 143 162 170 164 160 140 105 90 97 87 70 46 52 92 78 44 31 19 12 17 17 18 16 17 20 26 35 17 14 17 17 15 17 15 16 16 14 13 13 13 13 13 13 12 12 14 16 17 17 17 17 17 18 21 24 26 28 26 23 20 20 20 22 22 22 23 24 26 26 26 26 27 24 
78 83 80 76 73 69 66 67 65 69 68 60 64 63 61 65 74 71 72 71 69 66 73 64 60 70 68 67 65 62 60 56 54 55 57 61 62 65 82 83 69 65 65 60 54 58 61 65 74 65 61 67 60 65 68 74 94 85 81 86 90 95 106 109 104 99 91 89 89 90 95 105 107 100 89 93 101 93 88 89 97 105 113 106 109 111 110 110 103 98 91 83 88 92 103 111 109 117 133 140 133 125 124 132 131 130 145 149 155 156 157 158 157 153 154 153 150 154 159 150 149 152 153 155 158 159 161 160 161 160 162 153 152 164 167 169 166 161 161 156 155 155 160 158 159 158 167 169 165 163 164 158 161 161 160 160 159 156 159 162 161 161 159 157 161 153 154 163 161 159 157 157 160 160 159 154 153 157 149 155 155 155 151 137 141 139 133 139 143 141 139 141 139 130 130 136 138 137 141 138 149 156 160 157 159 164 165 167 162 161 159 163 162 156 148 136 125 126 131 133 144 159 166 167 159 133 113 114 131 156 170 176 161 137 108 111 98 68 54 46 51 51 38 31 22 15 11 13 20 18 17 21 26 32 13 14 18 18 16 17 15 16 17 16 16 16 16 16 16 16 16 16 16 16 17 17 17 17 18 19 20 23 24 24 23 22 20 20 20 20 20 22 23 25 27 24 24 26 29 24 
82 89 82 78 74 71 72 69 68 73 71 66 67 66 61 62 72 67 66 71 71 67 74 64 64 75 68 63 65 62 59 55 53 57 59 66 66 72 80 76 65 65 69 61 54 59 61 63 67 55 52 61 62 66 67 81 89 74 70 83 100 115 116 100 89 83 77 76 83 86 75 79 87 86 80 82 90 93 93 86 85 96 107 102 99 106 109 101 105 115 110 100 96 100 98 100 94 101 121 128 126 131 127 124 125 132 145 148 154 154 157 163 162 150 147 149 152 152 154 147 151 156 159 159 159 160 164 161 159 159 156 152 152 159 158 160 158 157 162 158 158 157 167 167 163 159 164 170 167 165 166 166 173 170 162 159 160 160 162 166 166 166 164 162 165 159 156 162 164 161 156 149 147 155 155 154 157 160 149 154 154 152 146 144 148 149 147 146 147 144 140 143 140 136 132 123 115 116 112 110 125 123 119 123 136 146 141 143 151 157 148 144 147 149 152 146 141 143 137 124 121 135 147 156 167 162 153 131 114 130 153 172 179 160 133 116 122 92 68 55 67 62 40 44 38 19 11 12 17 19 23 27 22 26 16 14 14 14 14 17 15 16 17 17 17 17 17 17 17 17 17 17 17 17 17 17 17 17 18 20 20 21 21 22 23 22 20 20 20 20 20 22 23 25 27 24 24 26 29 25 
92 96 85 78 72 75 76 72 75 75 71 69 66 59 57 62 62 59 61 67 67 67 71 75 75 81 73 70 67 59 58 57 57 66 65 65 72 84 81 77 65 68 66 64 57 64 69 59 60 59 65 76 70 68 75 86 84 74 81 98 100 93 89 82 89 83 71 76 86 84 73 74 70 78 84 83 86 89 100 97 96 101 112 118 112 111 110 106 102 109 111 109 101 101 100 107 100 105 115 117 120 129 125 125 129 135 139 152 158 155 154 162 164 155 149 148 151 150 149 150 158 159 162 160 159 157 161 161 157 155 151 154 161 164 165 161 160 160 167 165 163 167 173 168 163 163 164 167 166 164 165 172 180 173 167 167 168 165 165 164 168 167 162 158 162 160 158 160 167 166 157 149 147 153 150 148 151 155 152 152 154 158 150 144 152 153 145 144 144 144 145 143 137 143 146 138 123 112 109 108 119 121 114 115 124 129 129 128 135 146 150 143 148 148 153 155 143 136 134 129 123 106 104 126 149 157 168 164 146 127 118 137 173 173 153 135 136 113 80 49 65 86 65 48 54 35 14 13 12 17 22 30 25 27 17 14 14 15 16 17 15 14 14 16 17 16 14 14 16 16 15 14 14 14 14 14 16 17 19 21 21 22 20 20 21 21 22 21 20 21 21 22 23 23 26 26 25 26 27 24 
88 92 86 78 71 78 79 75 78 75 72 67 66 60 55 60 55 57 62 63 67 75 78 80 78 75 73 76 73 59 57 59 60 66 61 66 80 80 63 67 68 70 69 78 74 72 73 63 61 60 76 81 67 67 76 91 102 95 91 84 70 71 72 67 76 80 70 82 90 81 76 74 75 83 90 90 94 102 117 127 121 116 118 121 113 108 102 107 107 114 119 114 103 99 101 101 106 112 118 121 120 126 139 147 138 142 147 153 159 159 154 155 156 153 151 151 153 153 147 152 158 159 163 161 161 155 156 160 156 153 153 156 164 165 170 165 158 161 165 168 166 167 168 164 168 171 167 168 168 167 167 168 173 171 172 173 174 173 173 171 175 170 165 164 169 171 166 160 161 164 163 159 157 158 156 153 147 143 148 154 157 158 151 146 146 152 149 147 146 147 148 149 139 133 136 143 145 135 126 120 120 126 124 125 118 114 115 117 110 113 126 124 131 148 161 157 147 145 136 128 134 123 95 90 109 127 153 174 179 167 130 115 144 162 163 143 140 127 92 51 40 66 82 68 71 71 45 27 21 19 25 28 22 33 22 13 14 17 17 17 15 13 13 15 17 15 13 13 16 16 13 13 13 13 13 13 16 17 18 20 20 21 19 18 20 20 24 22 21 22 23 23 23 23 24 27 27 27 27 23 
80 85 80 76 77 82 83 79 79 73 74 68 66 64 59 66 61 64 65 61 63 76 81 77 78 74 70 70 71 68 62 62 62 63 56 70 73 65 58 65 69 73 73 79 75 68 63 60 61 61 79 86 64 64 72 87 106 90 69 64 63 70 68 70 74 72 77 88 88 85 88 88 88 100 112 116 107 97 101 111 106 102 109 111 101 107 112 108 104 108 111 111 106 103 99 97 106 108 108 116 124 128 139 145 141 142 152 154 159 161 158 158 156 154 152 152 153 150 151 159 157 160 162 160 160 158 156 160 157 156 157 157 163 165 168 164 160 163 166 171 165 163 167 170 177 178 171 168 169 170 171 172 175 176 178 178 172 169 175 175 172 165 167 175 176 172 169 167 168 170 172 172 165 161 162 160 159 153 152 152 154 157 156 159 156 153 153 153 148 150 150 147 144 136 137 140 139 138 133 128 128 133 130 130 130 135 129 120 111 117 123 125 125 128 145 148 151 170 166 149 144 141 129 105 97 98 112 138 163 189 181 133 110 128 155 161 137 118 110 70 28 28 46 49 48 58 49 25 22 21 22 28 22 27 22 12 15 17 16 16 15 13 13 15 16 16 13 13 16 15 13 13 13 13 13 13 16 17 17 17 17 18 16 16 19 20 23 22 21 22 22 22 22 22 25 27 26 26 27 23 
80 85 79 77 80 80 82 78 74 71 76 74 73 71 64 68 63 69 68 65 65 71 71 72 78 77 70 63 66 70 65 65 64 70 60 66 61 56 60 71 70 79 73 70 67 66 65 64 62 64 80 82 60 68 77 91 107 83 61 62 62 73 69 72 81 75 84 81 73 71 81 91 88 95 99 100 88 81 90 91 89 88 95 104 106 112 117 113 112 106 100 103 104 104 98 100 99 104 111 121 131 133 139 139 139 147 156 156 157 158 158 157 155 158 157 154 152 156 157 157 156 158 161 162 162 160 159 160 159 159 159 160 164 164 167 164 164 168 173 174 169 168 168 171 178 180 177 174 176 177 177 175 175 175 172 172 168 167 172 173 169 165 168 177 179 170 171 174 174 177 180 177 172 170 169 160 161 161 157 156 157 158 155 158 156 155 155 157 151 152 154 152 151 143 138 133 136 141 144 139 128 122 122 134 142 151 139 126 123 137 142 142 144 141 145 148 142 156 169 164 154 129 125 134 116 96 87 85 112 157 182 173 129 105 114 137 156 133 116 94 41 21 22 25 23 37 46 26 12 17 17 24 22 22 22 14 13 13 13 13 13 13 13 13 15 17 16 16 14 13 13 13 13 13 13 13 16 17 17 17 17 17 16 16 18 21 21 23 24 22 22 21 20 22 26 27 26 26 26 24 
84 91 82 76 74 79 82 77 75 71 70 72 75 74 66 67 65 65 68 74 69 68 65 67 76 75 70 64 61 65 69 72 66 72 62 62 58 53 63 77 70 73 72 68 63 63 62 61 60 70 69 72 80 82 79 76 86 75 66 64 63 76 76 75 81 81 82 76 70 72 80 86 83 80 77 80 86 88 91 85 89 100 113 124 111 100 105 114 111 95 101 101 94 96 96 100 102 111 122 133 141 143 145 140 138 144 153 155 155 157 157 152 148 151 150 151 154 160 159 157 158 155 162 162 159 161 163 165 165 165 166 168 169 169 167 164 171 174 176 176 176 176 174 175 175 179 182 179 177 179 178 175 180 177 168 170 171 170 171 171 168 166 166 167 175 175 175 176 176 178 179 176 174 177 178 168 161 155 157 161 158 157 158 160 156 152 152 154 148 148 147 146 145 139 133 130 135 144 152 147 138 130 118 122 130 134 132 130 137 147 146 140 145 148 153 152 143 148 162 167 165 153 130 126 121 107 96 78 77 96 131 160 165 134 109 107 140 151 129 108 61 24 15 16 15 17 40 41 20 10 17 26 19 21 26 17 11 11 12 13 13 13 13 13 15 18 17 16 14 13 13 13 13 13 13 13 16 17 17 17 17 17 17 17 18 21 21 23 25 22 22 24 23 24 26 27 27 25 24 22 
80 86 82 78 74 78 79 76 76 74 69 70 69 69 65 66 64 61 67 76 73 76 71 68 70 70 67 64 69 72 68 68 61 67 60 66 65 61 73 78 67 67 69 66 61 61 62 59 61 73 66 76 79 67 63 63 70 77 74 58 64 75 79 82 80 77 75 76 67 68 83 86 79 71 76 82 88 86 88 91 97 94 105 116 105 94 102 115 103 87 94 101 96 97 102 113 120 133 141 146 144 142 141 137 142 149 145 142 146 154 155 155 158 159 158 155 159 160 156 159 160 157 161 162 162 164 166 171 172 170 169 169 174 177 175 176 177 175 174 177 178 180 179 185 185 185 186 183 181 180 178 178 181 178 173 175 176 178 176 175 174 171 168 163 169 172 173 173 174 173 173 171 169 173 174 171 166 158 155 157 147 143 148 153 156 151 151 152 148 149 153 156 148 142 134 127 129 137 148 151 147 146 142 133 128 128 131 140 141 145 148 148 148 145 145 146 144 151 157 163 162 166 166 151 125 114 113 103 76 61 83 121 163 170 147 107 105 126 132 120 100 59 22 17 14 12 22 35 30 13 14 19 19 18 24 24 21 16 12 14 15 15 14 14 16 16 16 16 14 13 13 13 13 13 13 13 16 16 15 15 15 17 18 17 18 21 22 23 24 23 23 25 26 25 25 27 25 26 27 22 
80 85 85 82 76 79 82 81 76 76 73 65 61 62 62 61 61 68 67 66 68 72 72 64 63 68 66 65 75 77 71 70 65 65 59 67 66 65 71 67 65 64 64 64 62 62 60 59 66 73 71 67 61 59 61 64 66 74 65 62 78 84 75 72 69 77 75 81 82 79 88 79 79 76 74 77 85 89 93 97 112 108 107 109 110 113 108 96 86 88 94 105 113 110 116 130 140 147 145 145 142 141 142 141 143 132 125 138 150 152 151 155 163 160 157 159 165 160 158 158 160 165 167 165 165 165 167 170 170 168 168 169 173 179 180 180 176 173 174 175 170 169 171 172 174 173 171 168 168 169 173 179 181 182 180 180 184 186 186 184 181 177 175 171 170 169 171 174 173 174 175 176 171 168 167 171 173 170 168 169 158 145 138 140 146 146 150 155 154 153 155 156 151 147 141 131 126 127 133 138 145 147 145 142 141 141 131 142 149 146 144 145 144 147 149 149 151 150 150 155 158 160 168 172 154 128 114 117 104 82 79 93 127 167 167 142 121 122 133 126 105 77 44 30 19 19 26 33 33 23 19 15 16 14 16 21 23 21 18 15 15 16 16 15 17 15 16 16 14 13 13 13 13 13 13 13 17 15 13 14 16 19 20 18 18 21 23 23 25 28 28 27 27 25 24 27 25 26 28 23 
84 92 85 81 75 75 80 85 77 74 69 60 61 60 60 59 61 67 65 63 64 63 68 67 67 73 75 71 69 69 68 64 67 64 61 72 72 70 71 65 63 60 60 61 63 69 64 66 78 80 68 56 51 52 58 62 62 66 61 69 72 73 67 72 73 92 87 77 76 77 80 70 72 79 76 77 89 98 99 104 113 113 120 121 114 105 92 76 79 93 101 106 115 122 129 131 136 136 137 138 142 141 140 143 147 138 137 154 161 157 158 159 160 159 160 165 165 162 160 158 160 165 165 163 159 158 167 167 163 159 159 160 163 162 165 163 167 167 167 165 164 168 166 164 167 171 172 168 168 168 164 160 168 176 176 173 176 179 182 186 184 181 181 179 175 175 172 173 174 171 171 176 177 172 169 171 169 165 172 175 173 165 154 151 152 150 151 151 147 148 151 151 151 150 151 150 138 132 136 140 146 148 143 138 139 143 136 140 138 140 146 148 150 155 155 155 161 164 162 162 159 157 160 166 168 167 145 118 108 106 102 97 104 134 165 172 155 129 122 131 112 79 59 39 23 20 30 36 30 27 22 17 14 11 13 15 14 14 17 24 26 18 16 14 17 16 16 16 14 13 13 13 13 13 13 14 17 15 13 16 21 20 20 18 18 21 23 23 23 25 25 26 26 25 25 27 25 26 28 23 
81 91 87 81 77 81 81 82 78 76 71 63 60 58 61 61 62 65 66 69 69 62 64 75 75 77 81 76 64 64 65 68 71 66 65 76 73 72 71 69 65 64 64 67 68 74 70 79 86 73 56 50 50 55 59 61 61 57 57 62 60 63 67 79 74 82 81 73 74 75 70 74 89 87 76 95 113 113 107 107 116 130 137 134 119 85 75 84 94 98 100 107 119 126 131 131 137 135 135 131 136 142 146 150 154 157 154 162 163 161 162 159 157 159 158 162 164 166 166 169 166 167 163 162 155 151 159 162 160 154 155 160 166 167 166 159 163 164 164 164 166 172 173 173 174 174 174 173 174 173 172 170 172 174 171 166 164 166 168 177 181 181 181 181 177 180 182 176 175 167 167 170 169 171 172 172 168 164 166 168 170 170 172 168 165 160 158 158 155 152 151 150 154 154 154 153 149 146 146 147 146 142 140 142 132 124 133 141 137 138 139 138 146 153 153 156 154 161 165 168 162 160 162 166 169 178 175 154 131 108 97 89 83 101 131 165 176 144 117 129 116 83 65 47 27 19 20 35 41 27 16 17 16 14 15 16 16 15 13 24 33 23 20 15 16 17 16 16 16 16 16 16 14 15 16 16 17 15 14 18 22 20 20 19 19 20 22 23 23 23 23 23 23 24 26 27 26 26 26 19 
80 90 91 85 85 88 84 81 76 72 75 70 62 56 62 61 58 60 65 69 69 65 63 75 81 80 80 82 66 67 65 72 71 69 72 80 72 71 73 67 62 65 69 74 75 77 74 84 83 63 52 49 53 56 52 57 57 52 49 57 59 65 67 78 82 92 98 90 79 74 65 70 104 102 90 113 121 118 127 137 143 150 150 128 98 76 81 101 108 106 112 124 136 135 132 135 137 134 139 145 149 151 155 160 164 168 163 166 165 161 160 161 158 158 155 157 161 163 164 167 167 172 163 160 160 160 159 162 161 156 156 166 170 169 167 166 170 173 173 172 170 172 174 171 175 176 176 177 177 176 178 180 181 186 183 176 174 172 170 169 169 166 169 177 182 187 188 181 178 166 159 161 166 166 166 166 168 172 170 169 167 160 162 164 165 165 163 162 158 156 156 152 154 155 154 151 150 148 146 144 147 144 142 151 138 121 141 143 135 134 137 133 142 150 155 159 156 156 158 157 156 161 164 167 171 169 170 168 159 131 103 92 79 85 98 121 168 167 121 110 123 91 64 53 32 15 14 24 39 31 17 16 16 14 16 17 16 16 14 15 17 16 18 18 20 20 18 13 14 17 17 17 15 15 17 16 15 16 16 18 21 20 20 20 20 20 22 23 23 23 23 23 23 24 26 27 27 27 25 19 
91 95 87 84 88 85 79 79 75 77 80 74 70 63 60 57 57 57 62 64 70 74 70 71 77 75 76 78 68 70 66 68 73 81 82 78 74 75 74 68 63 72 81 77 66 68 70 78 73 56 54 57 60 60 54 54 52 53 57 59 57 63 74 82 80 90 90 73 55 56 62 78 110 116 112 120 115 127 145 158 155 156 152 109 82 85 98 105 114 115 120 127 140 139 135 135 138 145 152 159 160 164 169 171 171 171 164 164 163 159 156 154 151 153 155 159 162 163 162 162 165 164 160 161 156 155 155 157 157 159 159 163 163 165 168 177 175 176 178 179 176 173 174 176 179 183 183 184 187 187 184 182 186 190 185 180 181 177 179 177 176 171 167 164 162 173 181 187 190 182 170 164 168 165 161 162 165 169 168 166 167 162 160 154 154 157 167 171 164 161 159 153 153 155 157 154 148 149 151 151 149 144 139 154 152 136 144 139 123 126 135 128 133 137 145 150 156 159 156 156 155 160 160 159 160 162 169 169 160 148 122 99 88 72 76 83 131 171 153 106 119 117 84 49 38 25 14 17 30 33 20 16 17 15 16 16 15 17 14 14 13 13 16 16 19 22 21 15 14 17 17 17 15 14 17 16 15 17 16 16 20 21 21 20 20 20 22 23 23 23 23 23 23 23 24 25 25 25 24 21 
91 93 88 88 91 88 80 81 77 82 81 76 78 71 62 59 62 63 70 71 77 72 69 69 77 75 78 76 76 78 65 68 75 77 82 82 75 68 65 69 73 81 79 71 61 70 73 80 83 68 60 59 60 62 67 60 56 54 67 71 69 79 84 75 67 73 73 55 46 60 77 97 115 129 129 131 122 146 159 162 163 157 119 80 83 97 104 107 116 119 125 130 131 130 136 145 157 166 169 171 171 172 168 164 161 158 156 158 161 159 157 156 159 163 169 169 169 173 168 167 167 159 157 160 158 158 156 156 159 161 163 165 166 169 168 172 167 169 171 172 169 165 167 167 173 179 179 177 179 181 177 179 182 179 177 176 175 174 178 177 176 179 178 171 161 159 156 168 179 190 188 183 177 170 166 165 165 167 167 168 165 162 163 162 159 155 153 162 170 165 154 152 155 155 159 156 150 150 146 148 155 149 139 141 152 151 151 151 140 133 135 131 132 135 142 148 156 158 153 160 158 158 156 159 160 162 169 167 161 162 149 123 103 90 85 81 89 128 171 136 107 119 88 45 40 42 15 12 32 51 35 16 18 17 17 16 15 16 15 15 14 13 15 15 15 16 18 17 15 17 17 17 17 13 17 17 16 17 15 15 18 22 23 21 20 20 22 23 23 23 23 23 23 23 23 23 23 23 24 23 
87 95 92 89 87 86 81 80 78 81 81 80 84 75 67 68 68 65 68 70 76 70 72 73 73 70 76 80 80 77 70 73 74 74 78 78 73 64 60 65 78 83 74 69 63 74 80 88 100 73 56 58 63 62 64 60 60 60 71 72 62 67 64 56 57 72 85 64 75 97 106 108 114 134 141 147 148 162 163 169 168 127 79 76 93 102 108 117 119 126 130 139 141 146 157 164 176 175 169 162 155 155 156 156 161 159 159 163 166 164 167 170 172 176 183 184 182 183 179 179 175 169 170 173 170 168 169 169 166 164 167 168 168 172 173 172 169 173 170 169 172 170 172 172 174 174 179 181 183 182 179 183 181 178 178 177 176 178 182 177 175 182 182 179 173 172 166 167 158 164 175 187 190 186 179 172 173 170 164 169 166 162 164 162 161 160 155 150 158 166 164 160 160 157 154 151 147 146 144 147 157 160 153 137 139 146 154 155 149 144 139 134 135 138 146 149 145 144 144 157 156 155 161 161 164 165 168 167 167 162 160 150 127 101 96 100 90 82 125 159 115 109 94 60 46 47 28 10 27 41 27 15 17 16 17 17 17 14 16 18 17 16 19 18 16 12 12 15 15 16 17 17 17 15 15 17 16 16 15 15 18 22 23 21 20 20 21 22 23 23 23 23 23 23 23 23 23 23 24 23 
84 96 93 84 84 88 85 84 80 78 77 80 82 75 73 72 71 72 72 72 75 73 78 80 75 74 70 76 81 77 76 79 72 73 71 68 76 75 71 75 83 78 72 74 79 79 77 87 83 62 61 66 62 64 67 68 70 68 60 62 53 53 54 45 47 64 84 82 100 101 101 100 109 125 136 142 155 165 171 174 146 91 75 87 101 111 120 119 119 134 143 157 159 163 173 173 169 154 147 147 153 157 161 165 166 166 165 172 175 173 176 180 183 187 190 192 189 187 185 184 182 178 177 183 180 177 180 179 177 172 173 175 174 178 184 183 180 183 179 177 186 184 189 192 186 180 186 190 188 185 182 186 188 186 187 185 185 184 185 178 180 187 187 185 180 182 179 178 169 159 162 173 179 184 190 183 181 176 171 173 174 167 168 164 164 162 162 157 148 153 161 169 172 162 155 148 147 150 149 147 143 149 157 148 137 142 150 147 149 151 149 143 133 129 140 152 148 145 146 157 159 150 148 152 164 164 162 164 171 173 163 155 147 108 87 86 92 75 90 153 145 115 105 71 59 50 39 17 20 26 17 13 14 16 17 17 17 16 17 17 17 17 17 17 17 16 14 15 15 14 19 20 18 16 16 16 15 16 17 16 18 22 23 21 20 19 19 20 22 23 23 23 23 23 23 23 25 26 26 23 
86 95 91 88 86 91 90 85 81 78 77 76 73 68 75 75 73 80 80 77 77 77 77 76 79 85 80 80 80 80 78 80 73 75 73 69 73 73 71 75 81 78 82 84 86 76 78 87 75 68 68 69 75 69 74 78 75 63 57 62 49 46 51 49 43 51 81 91 86 93 102 107 120 122 133 147 160 167 173 147 93 75 88 93 108 120 116 122 137 155 162 170 173 167 158 149 146 151 155 160 165 171 176 180 180 179 184 189 187 186 186 185 189 194 195 195 194 197 195 192 191 189 190 190 189 190 189 190 189 185 186 189 186 188 191 192 194 194 191 195 201 196 196 200 198 195 198 200 198 198 194 196 193 198 204 202 201 196 196 189 192 194 194 195 189 191 192 189 184 177 174 169 161 159 173 182 184 186 182 179 176 173 173 174 173 172 165 164 156 150 150 154 166 171 166 152 147 151 153 152 145 145 158 156 144 140 145 144 145 149 150 145 135 136 143 148 147 151 156 160 160 157 155 151 155 157 157 164 164 173 171 158 159 140 110 93 99 78 67 117 156 130 115 96 71 41 34 27 28 32 21 18 14 16 17 17 17 17 17 17 17 17 17 19 20 19 16 15 16 13 19 21 18 17 17 16 14 16 19 20 20 25 26 23 20 20 20 23 24 23 23 23 23 23 23 23 25 27 27 23 
85 94 90 92 87 91 91 84 81 79 77 74 70 67 72 71 69 72 73 79 81 80 82 76 77 83 90 88 83 77 74 77 76 77 81 73 69 78 77 81 83 78 78 78 72 70 92 97 74 73 74 76 96 82 81 91 87 71 71 77 61 49 47 49 48 71 95 94 88 99 101 101 117 134 160 179 179 175 160 109 75 82 91 97 113 120 122 146 163 175 174 169 163 153 145 148 154 166 171 177 179 185 189 191 193 194 196 198 199 196 190 187 185 192 195 196 199 203 200 194 192 190 192 191 196 200 197 197 197 197 198 199 200 207 204 198 202 201 196 198 199 196 200 203 203 201 203 204 203 206 206 206 200 198 202 203 204 205 209 203 201 200 197 196 193 195 191 188 189 188 180 175 175 167 160 162 169 180 187 188 183 178 166 168 176 178 172 173 172 165 156 146 154 164 171 162 154 145 144 147 148 146 156 159 157 144 144 143 140 143 148 146 135 140 139 145 152 155 151 155 158 161 162 155 148 151 155 162 161 167 174 168 164 157 147 123 106 83 67 92 148 150 120 119 91 46 36 38 42 45 27 19 14 16 17 17 17 17 17 17 16 15 17 19 21 20 14 14 12 13 19 21 18 17 17 16 15 16 20 23 25 28 29 25 19 19 23 26 26 23 23 23 23 23 23 23 24 25 25 24 
82 91 94 95 87 89 86 82 81 80 77 74 71 71 73 74 69 65 62 70 78 79 83 74 72 81 89 87 86 80 72 72 77 74 79 74 73 82 76 79 69 65 71 72 62 64 88 96 86 78 77 87 100 90 77 77 67 62 77 79 71 62 55 56 69 95 95 99 111 112 118 130 147 165 170 179 178 159 109 78 82 94 98 96 113 140 158 173 174 165 153 146 146 153 156 162 169 182 188 193 192 192 194 195 193 191 186 183 181 177 172 168 166 174 174 175 182 186 185 179 176 174 177 181 187 190 187 186 186 187 189 189 189 189 186 178 177 176 171 169 169 171 179 182 181 177 175 179 182 184 188 187 189 190 194 191 187 185 191 192 198 207 207 205 204 198 196 195 192 189 185 184 185 179 172 169 163 157 168 179 181 185 176 167 167 175 179 180 178 170 160 151 149 152 159 160 164 153 142 139 147 149 152 158 162 153 149 148 138 138 147 147 142 144 143 146 152 158 160 164 158 158 157 157 151 148 154 157 157 160 168 165 165 162 154 143 133 107 91 97 127 155 128 132 116 66 53 43 38 42 30 18 15 16 17 17 17 17 17 17 16 14 17 17 19 20 13 13 12 16 21 21 18 17 17 17 16 17 19 22 26 27 27 26 20 19 23 26 26 23 23 23 23 23 23 23 23 23 24 24 
82 91 89 89 87 89 86 83 81 80 74 70 69 69 66 69 69 66 68 72 74 76 81 78 76 79 85 92 88 83 74 69 69 62 67 72 76 77 66 69 63 64 59 55 55 59 67 68 82 82 78 84 80 63 59 70 63 61 72 72 68 56 55 76 98 108 102 110 127 137 148 165 173 173 164 167 165 124 74 77 86 94 99 114 141 166 169 164 146 136 146 153 160 173 177 184 188 194 194 195 188 179 174 173 169 162 162 164 165 167 167 167 167 166 164 165 168 163 165 168 164 165 165 164 167 169 166 164 164 164 168 170 168 164 161 169 171 174 174 173 173 175 180 183 179 172 170 172 175 179 182 180 178 176 181 182 186 179 170 168 171 179 189 201 207 205 203 202 196 191 191 194 194 190 184 181 179 171 168 167 169 171 177 177 167 163 174 184 183 170 164 162 152 153 151 150 167 165 158 146 144 146 149 151 156 158 157 155 144 139 147 149 152 150 148 146 149 152 150 158 156 155 154 155 155 152 155 154 157 148 162 173 159 156 161 157 153 138 125 127 118 147 143 135 127 57 46 43 31 29 33 24 15 16 16 16 17 17 17 17 16 14 17 17 19 19 13 12 14 16 17 20 18 17 17 17 16 16 17 19 22 23 24 25 24 22 24 26 26 23 23 23 23 23 23 23 23 23 23 22 
86 92 84 90 89 87 87 86 87 85 74 68 67 64 62 61 69 74 78 81 79 77 76 74 83 85 83 86 76 72 76 70 63 65 80 70 73 76 60 65 62 65 58 54 61 67 66 61 63 78 86 73 62 51 53 69 68 64 59 65 60 53 65 94 106 110 118 120 130 153 161 164 170 168 163 164 146 96 73 80 85 96 123 157 170 164 143 140 142 149 168 170 177 187 187 187 182 176 171 172 166 161 161 166 169 173 172 176 181 177 177 180 184 181 179 179 179 178 177 173 170 171 173 175 178 179 175 173 176 178 175 179 181 180 175 182 184 186 191 191 191 189 188 188 185 182 185 187 190 194 192 192 192 188 189 189 189 188 182 179 177 172 167 167 174 183 192 200 202 201 196 199 201 195 192 189 186 183 182 176 170 162 164 173 170 165 162 175 187 182 176 172 161 160 155 147 154 161 166 159 153 147 148 147 153 160 158 151 153 150 149 148 146 149 148 143 149 148 145 151 151 150 159 157 156 155 160 165 164 150 156 165 165 155 149 154 153 145 148 152 121 120 144 127 120 60 31 43 40 18 25 27 13 12 13 16 16 17 17 17 16 16 16 16 16 16 14 11 14 16 16 19 18 17 17 16 12 11 14 18 21 20 21 20 22 24 26 26 27 24 25 26 26 26 26 25 23 23 23 19 
86 89 89 92 87 86 88 84 88 91 78 73 66 65 67 66 72 72 72 75 79 82 82 76 81 88 83 82 77 72 78 76 68 70 76 59 67 76 64 73 65 58 60 66 70 61 59 65 61 85 105 64 59 61 58 63 58 58 53 64 72 81 87 98 98 102 122 137 140 150 156 158 168 169 169 152 103 72 81 84 88 124 163 176 158 135 136 151 169 174 179 180 179 172 169 167 165 164 167 173 176 176 177 180 181 178 174 180 182 180 180 184 190 186 185 185 183 186 183 179 178 175 176 182 184 185 184 185 189 190 184 185 189 192 189 186 183 182 185 187 187 186 186 190 189 190 190 193 196 198 195 195 189 189 190 195 201 199 196 194 195 194 191 183 176 168 166 172 183 194 196 193 197 196 198 195 195 191 190 183 178 172 169 167 160 166 165 159 160 175 186 181 170 161 156 145 148 152 160 164 161 150 147 140 141 151 154 151 155 158 159 151 137 140 148 146 147 150 146 146 150 146 154 153 154 159 169 164 158 153 155 160 161 159 146 149 146 136 144 146 134 126 150 142 129 92 47 35 55 25 16 28 16 11 13 15 16 17 17 17 17 17 16 13 12 13 14 11 14 17 16 16 16 16 17 16 13 13 14 18 21 19 21 18 22 25 26 27 27 25 26 27 27 27 27 26 23 23 23 23 
80 91 98 92 85 85 87 83 82 79 77 77 73 72 69 71 75 75 73 75 78 76 76 79 80 79 72 82 88 82 74 79 71 61 61 60 65 66 60 67 63 57 59 61 55 51 57 63 64 79 85 52 53 55 54 55 51 55 60 80 97 99 90 94 104 118 124 133 141 149 158 161 160 161 157 112 67 70 85 89 122 162 172 153 138 142 160 171 176 173 166 162 158 161 167 173 178 180 178 180 182 181 185 180 179 180 182 188 185 189 190 192 193 185 186 187 187 187 186 184 184 181 181 185 186 186 187 188 190 187 185 183 188 193 187 182 181 178 178 181 181 182 186 193 188 189 185 184 187 189 188 191 189 194 195 194 199 199 198 199 202 201 199 199 194 188 180 169 168 169 170 171 171 177 185 197 200 197 196 191 185 184 178 170 165 165 167 159 147 148 173 184 176 163 153 142 147 149 153 157 161 156 152 143 140 143 154 156 153 153 157 151 143 139 146 146 147 152 151 148 148 146 149 151 154 155 162 161 163 161 153 153 158 168 158 149 144 122 121 131 130 146 167 157 143 123 100 46 55 43 17 25 17 11 13 15 16 16 16 17 16 15 15 12 11 12 15 14 14 15 15 13 13 15 17 16 16 16 16 18 21 20 20 18 20 23 24 25 26 24 25 25 25 25 25 25 24 24 25 24 
79 93 97 92 85 87 87 83 82 80 85 81 76 76 73 78 75 72 71 69 74 77 79 80 77 73 70 78 85 85 84 86 67 58 61 64 68 63 58 58 60 72 73 61 51 54 62 65 71 85 84 59 61 54 54 62 69 76 78 95 104 101 95 104 123 143 127 132 153 154 153 156 146 150 137 77 59 78 90 116 159 161 138 135 147 163 172 168 155 148 148 155 167 171 174 176 176 182 181 181 185 185 185 186 188 190 191 191 189 193 193 193 193 187 186 184 183 182 182 183 183 184 185 185 184 186 187 187 190 188 188 189 190 193 191 185 185 182 182 183 182 191 199 200 195 195 193 193 196 194 189 186 186 191 193 193 197 196 192 193 196 197 199 209 206 195 189 183 181 177 168 163 156 158 157 170 185 194 198 199 194 189 185 179 174 174 169 164 160 151 151 164 176 172 163 155 155 151 148 152 156 156 157 155 151 145 150 154 153 154 153 148 151 144 143 143 147 151 152 153 151 154 147 150 156 155 160 163 161 166 162 152 148 159 162 151 148 130 95 96 119 142 165 165 153 131 116 76 72 65 27 24 16 13 13 13 14 14 16 17 15 13 13 12 12 13 17 17 13 13 13 13 13 15 17 17 17 17 17 18 21 20 20 19 19 22 21 23 23 23 23 23 23 23 23 23 25 26 26 24 
79 95 96 94 92 95 94 89 86 84 89 84 78 77 80 83 76 70 68 65 70 76 80 82 80 71 73 76 82 81 75 75 68 66 67 70 69 64 61 62 61 63 67 63 62 77 87 91 96 89 96 97 82 55 56 71 83 85 94 112 111 109 109 119 134 150 141 142 154 148 138 144 139 131 99 62 68 84 105 143 157 131 124 151 161 164 154 144 144 152 161 174 183 177 178 181 182 189 189 192 195 191 189 191 196 194 192 193 195 196 196 198 200 195 193 186 185 186 187 191 192 191 189 189 188 190 191 191 194 195 195 197 197 195 194 188 188 186 186 189 190 196 199 196 195 194 196 199 202 203 201 198 198 199 197 200 200 197 193 191 190 191 194 201 204 201 203 195 186 180 176 177 171 171 166 161 160 164 178 193 199 196 195 190 186 183 173 171 168 156 157 161 162 174 176 169 170 166 152 148 151 155 160 155 152 142 144 154 153 154 153 148 154 150 144 138 136 145 146 152 153 152 143 147 152 153 155 157 158 166 172 166 153 154 163 161 155 147 115 86 93 115 147 162 162 148 127 77 63 81 54 52 25 12 13 12 11 11 15 17 15 13 13 13 13 12 13 14 12 13 13 13 13 15 16 16 17 17 17 18 21 20 20 20 23 26 25 22 21 22 23 23 23 23 23 23 25 26 26 24 
74 92 94 96 98 97 93 90 92 90 84 80 80 79 79 77 71 70 67 68 72 72 69 73 73 67 72 78 81 80 68 76 73 72 71 70 62 59 61 68 71 65 57 65 68 77 85 86 90 80 87 107 94 76 80 89 87 86 95 104 108 117 120 122 135 148 150 140 139 145 149 148 142 112 65 61 77 103 138 149 131 120 141 156 153 141 137 146 158 167 176 187 190 189 187 191 196 197 193 195 196 193 191 186 189 190 192 194 198 200 199 201 201 197 195 191 191 191 193 192 192 194 198 197 194 197 198 199 202 201 200 200 197 194 194 191 190 191 193 197 198 199 198 200 201 201 202 202 204 205 208 206 206 208 210 210 207 210 210 205 202 197 196 194 195 194 198 194 189 185 181 179 182 183 178 170 167 160 162 168 177 195 201 199 194 186 181 177 169 160 160 158 153 158 173 178 179 179 165 148 149 152 162 163 162 146 139 148 149 153 156 150 151 151 151 139 132 141 145 150 155 155 155 145 148 148 146 147 159 164 175 170 161 156 157 164 163 155 142 104 88 77 113 152 162 151 136 106 71 81 65 64 45 22 15 13 11 11 15 17 15 13 16 14 13 12 12 13 14 15 15 13 13 12 13 15 16 17 17 17 18 18 18 18 20 24 27 24 22 23 23 23 23 23 23 23 23 23 24 24 
75 89 90 96 99 97 92 89 94 93 86 84 78 78 75 72 67 67 68 71 70 69 63 62 65 66 72 77 77 78 72 78 72 68 66 71 64 58 59 76 84 78 73 72 63 60 52 56 71 81 85 82 85 87 83 92 101 104 103 112 122 121 121 131 144 147 140 118 122 144 154 146 134 95 61 67 94 142 158 132 122 135 147 138 127 132 151 168 177 183 187 193 195 197 189 189 189 192 189 188 189 190 189 191 197 197 193 192 196 195 194 197 195 189 185 185 188 192 194 191 190 194 195 196 198 200 201 200 200 203 201 199 196 194 196 195 193 194 197 200 203 206 205 207 207 206 201 200 201 199 204 202 200 200 206 209 210 216 219 216 214 211 207 204 200 193 191 189 192 192 187 181 184 179 178 177 174 166 166 162 158 169 184 196 198 189 187 184 175 165 159 157 159 154 156 171 182 185 179 164 152 143 154 165 169 156 147 150 146 148 158 153 146 147 155 146 140 136 140 143 148 157 167 152 150 149 146 149 159 161 169 166 164 159 147 151 165 165 164 135 106 85 98 133 146 162 145 122 97 101 83 68 60 32 23 14 11 12 16 17 16 15 15 13 13 13 13 13 15 17 16 13 13 11 12 15 16 17 17 17 16 17 17 18 21 24 28 25 23 23 23 23 23 23 23 23 23 23 24 24 
85 97 94 97 97 93 93 93 93 92 88 88 77 76 72 69 65 69 71 66 69 73 67 63 68 74 72 72 73 75 65 67 69 69 66 72 80 73 57 61 70 67 79 74 52 55 55 63 73 74 70 66 63 59 57 89 110 113 112 113 111 103 115 129 143 139 132 127 135 141 142 130 100 69 60 80 121 160 137 118 127 134 128 127 137 155 171 186 192 197 194 188 187 184 178 177 177 185 188 189 190 194 196 196 198 196 192 191 193 190 189 190 190 189 189 187 185 186 188 182 181 183 187 186 188 191 192 190 187 190 185 180 179 179 181 181 179 180 182 187 195 199 197 200 203 206 206 210 210 203 204 203 198 191 190 190 189 189 198 207 210 214 213 211 211 208 203 196 193 194 192 187 182 176 178 173 169 167 170 165 160 153 152 169 189 192 189 185 181 172 164 167 168 164 156 158 172 185 189 181 165 148 147 154 166 165 157 155 145 144 153 156 148 143 155 154 149 137 140 144 144 147 165 170 162 148 150 152 154 161 166 162 166 166 154 147 152 165 175 155 117 92 83 115 111 147 157 145 124 116 114 84 75 41 29 19 15 11 15 15 16 16 13 14 13 13 13 13 14 15 15 13 11 11 12 14 15 15 15 16 18 23 24 23 25 27 28 26 24 23 23 23 23 23 23 23 23 23 25 24 
87 100 102 99 94 90 87 90 91 91 91 89 80 76 68 64 62 67 67 65 71 75 70 71 75 72 70 73 70 76 62 58 61 60 56 61 72 69 62 55 61 60 61 67 56 55 64 72 68 59 54 54 52 56 74 106 109 103 98 90 87 101 132 139 131 117 124 134 138 135 130 110 78 60 65 103 150 140 112 124 122 119 126 140 157 171 182 191 187 182 177 167 167 172 173 176 182 187 191 192 191 196 199 195 193 193 197 199 199 191 190 192 192 192 192 190 189 189 188 190 192 190 190 188 188 187 188 186 186 184 182 183 183 185 181 181 181 180 180 180 183 182 178 177 185 190 189 192 192 190 194 195 197 193 190 189 187 181 182 180 179 183 188 196 201 203 202 198 197 198 198 196 192 186 184 180 176 173 172 167 169 170 158 153 166 182 191 190 186 176 167 167 168 171 168 156 159 176 193 188 174 157 151 148 157 163 162 159 151 152 144 150 152 144 144 152 150 140 139 141 141 137 145 159 166 161 161 154 147 159 167 162 171 180 170 154 148 154 168 166 134 109 86 112 90 127 144 122 134 131 114 86 93 69 35 19 25 19 13 13 13 13 13 16 16 13 13 13 13 11 14 14 10 12 12 13 13 13 13 15 18 23 25 24 26 27 27 26 27 26 26 23 23 23 23 23 25 26 27 25 
89 98 98 95 91 89 87 90 91 91 94 92 84 78 65 60 61 60 67 75 74 75 69 73 77 70 76 86 70 72 69 56 58 54 50 50 55 54 51 51 60 68 58 60 61 56 60 80 71 50 54 61 66 85 93 93 92 92 89 92 98 120 127 123 119 116 114 129 134 132 125 97 60 56 83 136 150 111 111 124 119 126 144 156 168 171 172 171 163 159 167 171 179 186 184 187 190 190 191 192 192 197 199 194 196 196 200 203 202 192 190 192 191 191 190 192 193 193 192 192 193 193 194 191 189 187 187 187 192 191 193 195 190 193 188 188 188 187 187 186 188 185 182 181 185 192 191 194 194 191 193 193 198 199 198 199 201 195 191 188 184 178 173 173 175 179 184 187 196 195 197 199 198 193 194 194 190 181 176 173 170 164 163 163 160 158 166 177 181 176 171 164 164 169 173 165 159 166 181 182 178 160 151 148 147 157 161 157 155 156 147 150 156 148 147 148 144 144 142 139 145 149 140 148 164 173 175 160 146 151 168 169 166 171 173 163 156 149 154 166 152 120 90 119 78 113 153 100 95 129 133 93 72 80 79 60 37 27 16 12 13 13 13 16 16 13 13 13 13 11 13 14 12 10 12 12 13 13 13 15 18 20 22 22 26 26 24 22 26 27 26 23 23 23 23 23 25 26 27 25 
92 99 94 91 90 91 92 94 93 92 90 87 82 78 72 62 66 65 69 76 74 79 79 80 77 69 77 84 67 61 66 56 58 49 45 47 48 51 45 47 56 75 68 58 62 68 68 88 74 54 75 87 83 86 83 87 87 93 102 115 115 116 108 105 109 109 120 125 127 141 119 75 52 67 109 149 126 99 108 123 139 153 162 165 163 154 149 154 157 171 180 185 186 189 188 189 190 187 188 193 194 197 199 199 200 201 204 202 198 195 196 196 189 188 189 191 194 196 199 196 194 192 193 194 192 191 194 196 200 200 199 195 189 190 189 189 192 189 186 186 188 192 196 197 197 198 198 203 203 201 204 207 210 205 200 201 202 202 204 203 196 187 179 181 176 171 173 171 179 183 188 194 194 190 196 198 195 187 182 175 170 165 167 167 164 158 153 156 163 176 181 167 160 163 168 170 168 163 158 169 179 169 157 151 148 153 162 161 156 154 159 157 155 146 146 147 144 150 151 148 149 157 146 137 142 163 169 167 160 151 160 169 169 169 171 166 161 155 146 164 168 143 104 118 72 96 153 110 71 72 97 114 99 77 70 93 89 56 21 12 13 14 16 15 14 13 14 14 13 12 12 14 16 12 10 11 12 13 13 15 18 21 23 22 25 22 21 20 22 21 19 21 23 23 25 25 25 26 28 25 
93 100 94 91 90 88 90 91 92 95 94 88 82 79 75 67 74 74 73 73 70 73 78 81 83 81 81 75 65 55 56 59 60 46 46 46 46 46 43 43 45 65 81 65 66 84 68 65 67 73 93 94 84 91 96 105 95 102 117 123 116 106 108 112 113 113 121 112 126 135 101 58 60 95 132 127 104 104 117 147 163 167 160 149 137 136 147 166 173 181 181 188 189 189 190 192 193 192 196 200 201 203 201 199 200 206 209 204 199 199 197 197 194 188 187 192 198 198 197 195 194 193 194 197 197 200 201 203 205 201 198 195 192 193 192 192 196 190 184 189 191 197 200 200 199 201 203 205 206 205 207 210 210 206 201 201 205 204 203 206 200 190 185 186 181 177 177 177 177 177 170 163 171 179 187 193 199 197 192 183 178 175 174 169 169 168 164 160 152 159 173 173 165 162 160 161 170 169 153 155 173 179 169 162 155 151 158 164 163 162 167 159 150 147 143 147 145 146 147 149 143 150 153 138 123 142 158 164 168 166 157 163 169 168 168 166 172 168 155 159 171 164 136 134 89 91 152 131 75 46 54 77 97 109 84 54 67 89 63 32 17 13 13 11 14 12 12 13 12 13 12 14 18 14 12 12 12 13 13 15 17 20 24 25 26 23 22 22 23 23 20 22 23 24 26 26 24 26 29 25 
88 94 89 90 90 87 88 90 92 97 100 95 85 80 75 70 71 70 73 71 68 66 69 74 76 77 84 84 64 50 54 73 70 46 47 47 45 40 41 37 39 50 71 83 76 86 90 82 90 94 91 92 100 117 111 113 104 112 117 107 111 111 115 123 122 114 109 106 124 120 86 59 88 117 127 106 109 123 143 163 167 159 134 128 140 151 157 170 173 173 174 184 187 188 192 198 199 198 201 203 204 203 201 198 195 198 196 197 199 200 196 194 193 186 185 193 199 197 195 193 195 192 192 194 194 198 196 198 200 199 195 192 189 190 190 188 191 186 189 191 190 195 195 195 199 203 207 206 205 207 211 211 209 208 209 212 212 209 203 203 203 196 195 195 185 183 182 181 182 183 177 162 158 168 173 179 189 197 200 196 189 183 182 175 173 169 167 166 159 150 153 167 175 174 166 161 166 169 163 154 164 178 175 170 164 156 151 156 162 163 162 158 154 151 150 152 146 147 150 149 145 148 154 155 135 125 148 164 167 172 163 159 165 164 165 165 176 170 159 148 157 163 154 150 112 90 140 130 74 44 47 61 62 90 121 100 54 45 63 71 52 24 14 11 13 10 10 10 11 12 11 14 17 16 15 12 13 13 13 15 17 17 24 29 30 25 25 25 26 27 24 23 23 24 25 25 24 25 28 25 
88 94 88 90 93 92 89 94 97 98 95 89 89 83 74 70 66 65 71 71 68 65 64 66 67 63 69 75 66 55 53 72 75 48 47 51 53 48 45 39 38 45 66 99 118 96 113 114 107 98 98 113 110 104 103 118 117 114 111 112 109 117 129 129 125 106 96 110 131 117 74 71 115 118 98 94 116 141 167 174 152 124 119 143 160 164 163 168 170 167 170 183 189 189 192 191 192 194 197 194 193 195 193 189 188 194 192 196 197 197 196 196 193 190 189 192 195 196 200 196 194 189 189 191 189 192 191 192 196 200 197 196 192 191 196 193 195 191 191 194 196 199 198 201 208 210 210 210 210 213 217 213 214 211 210 215 216 215 211 208 206 205 205 201 192 191 191 185 182 186 185 174 173 171 168 170 166 172 185 191 191 190 187 183 179 169 163 163 164 161 154 154 170 178 174 167 163 168 170 163 160 173 175 165 157 153 148 150 155 157 154 151 149 149 148 149 148 146 144 143 140 143 149 154 151 136 144 158 161 165 168 165 166 162 160 162 176 177 167 153 152 161 164 153 124 107 133 136 86 40 45 59 54 52 73 112 110 61 31 55 86 62 32 18 17 13 10 10 10 10 10 12 13 15 13 9 12 13 14 16 16 15 20 27 31 24 24 24 27 28 26 27 28 26 23 23 23 23 25 25 
87 93 96 95 94 94 93 96 98 97 91 84 85 82 77 73 65 63 71 77 78 68 69 71 72 63 62 62 63 61 53 63 68 56 56 56 56 67 67 54 43 49 75 97 141 109 118 115 92 77 95 107 96 104 117 128 130 115 112 120 113 129 135 117 108 106 103 119 136 113 73 95 113 96 85 105 138 165 171 148 119 117 139 153 158 164 169 175 178 180 178 183 189 188 183 183 193 199 200 197 191 192 196 195 191 192 189 193 194 193 188 190 190 187 189 193 196 197 201 197 194 194 192 191 191 193 190 194 196 198 198 197 195 196 197 191 194 196 195 199 203 206 205 208 213 214 214 214 214 216 218 214 217 215 213 212 216 217 219 217 214 212 212 206 197 195 195 190 189 192 190 185 183 174 171 174 170 161 163 171 173 187 192 190 189 176 164 162 164 165 162 154 156 173 181 173 166 169 173 170 163 159 164 167 159 152 150 147 151 154 153 154 153 152 151 152 150 147 145 152 146 139 149 153 157 154 146 150 153 154 170 175 172 164 157 161 174 181 182 163 152 155 159 164 129 109 131 149 109 51 42 46 48 45 47 53 85 94 56 27 48 65 62 39 22 15 14 14 11 10 10 12 13 13 12 12 12 13 14 16 17 18 19 21 25 23 21 21 23 25 22 24 25 24 22 22 23 23 24 25 
81 89 96 94 93 93 91 95 98 94 89 87 83 81 82 76 67 65 73 75 82 80 81 76 76 64 62 62 61 68 55 61 58 47 49 53 60 67 59 55 61 61 68 72 103 90 108 111 102 109 117 131 137 137 137 136 128 106 108 119 126 130 113 96 89 99 109 115 106 78 73 118 107 87 97 132 161 166 139 110 112 133 153 163 164 168 172 182 184 186 185 183 190 191 186 189 197 200 200 201 199 197 198 198 198 198 200 201 200 199 193 190 191 190 192 195 194 194 196 193 189 194 192 189 190 191 191 200 200 202 199 196 196 200 202 196 195 198 202 208 210 210 210 211 211 211 210 210 208 209 208 204 209 209 208 208 212 213 213 214 214 212 210 210 208 207 206 201 196 193 193 190 188 184 179 172 178 174 166 160 153 162 179 190 193 182 168 163 165 169 170 166 157 160 172 175 175 173 174 172 168 154 152 167 168 159 154 147 148 150 155 160 161 156 154 156 154 152 148 147 146 142 152 153 154 155 151 155 161 155 167 176 178 172 162 160 168 171 182 178 157 149 145 158 137 103 124 147 126 78 41 28 29 42 65 47 43 62 51 44 41 32 58 50 26 13 13 13 13 11 11 12 13 12 12 13 13 13 13 14 14 17 17 17 23 24 21 19 19 22 23 23 21 20 21 21 22 23 24 24 
84 94 96 92 93 91 89 92 95 93 92 93 87 83 82 76 68 68 73 70 78 83 86 84 88 75 65 57 58 69 57 54 47 40 39 45 53 52 52 67 79 73 76 78 94 95 105 117 129 134 128 123 132 135 130 134 134 120 121 126 126 111 88 80 84 99 104 99 84 60 87 117 87 89 122 155 158 134 116 119 136 151 166 173 172 174 175 187 188 190 191 188 196 196 191 190 197 199 203 202 201 200 200 203 206 201 205 204 202 201 195 192 192 193 194 194 195 196 195 192 193 198 192 187 189 192 196 201 201 203 201 199 201 201 201 193 193 198 198 198 197 198 203 203 199 198 198 198 194 193 191 190 190 191 191 194 194 190 188 193 197 199 198 203 205 204 205 202 202 199 198 195 195 193 190 183 186 181 174 163 159 159 159 168 186 187 179 173 164 167 170 167 163 155 159 170 177 174 167 162 161 152 148 162 172 167 161 156 150 149 155 158 158 156 152 155 154 150 148 151 147 142 145 147 152 149 153 155 161 167 167 173 179 177 162 154 160 167 179 184 165 158 152 155 155 127 121 136 113 93 50 27 29 40 65 66 31 22 27 42 69 52 48 62 43 21 13 10 12 13 13 13 13 13 13 13 13 13 13 13 13 18 19 19 25 27 22 19 18 21 24 27 24 22 22 22 22 23 24 23 
87 102 98 92 93 93 90 89 90 92 93 90 88 86 79 73 68 69 72 70 72 73 76 76 83 88 89 69 57 60 56 56 46 38 49 60 64 76 77 73 80 88 98 103 112 116 118 116 128 142 155 149 141 141 142 149 153 138 134 126 108 94 80 79 94 108 101 100 90 65 99 96 77 108 150 154 128 106 119 135 153 168 179 180 181 182 180 192 192 194 197 195 201 203 195 189 198 204 207 202 201 200 203 207 208 208 210 207 206 205 198 197 199 199 195 194 197 196 195 192 190 194 192 187 187 192 200 201 200 202 200 201 204 202 197 188 187 187 185 187 190 189 196 195 194 198 201 202 199 199 202 202 202 201 199 197 193 192 192 186 180 180 184 187 185 188 194 199 205 205 204 202 202 200 198 189 185 181 181 176 169 164 161 160 160 175 188 179 167 163 169 176 178 165 155 160 175 179 170 161 162 158 154 158 165 165 164 154 151 152 155 155 156 156 153 154 154 151 153 152 145 143 140 143 152 154 153 158 163 169 159 160 176 182 172 169 163 165 169 175 172 152 154 158 156 148 121 122 116 107 83 43 41 48 40 47 49 31 20 20 35 65 74 60 55 42 21 9 10 13 12 12 13 13 13 13 13 13 12 12 14 19 21 23 28 29 23 19 18 21 24 28 27 25 24 24 23 23 22 19 
87 101 97 92 94 98 97 92 90 91 90 86 87 86 77 71 70 72 74 67 64 69 71 61 62 74 95 100 84 73 69 64 65 61 73 71 72 86 88 83 96 113 118 121 119 131 139 141 148 152 154 155 152 164 163 157 152 137 127 112 101 95 92 88 99 103 98 102 80 71 100 81 92 136 155 130 111 118 139 150 160 179 185 180 182 185 188 192 187 189 196 195 198 200 197 198 203 206 210 206 206 206 207 210 210 212 212 210 210 210 201 201 206 205 198 196 199 197 195 195 195 192 192 191 192 199 203 203 196 193 195 199 200 195 198 197 193 191 193 199 202 198 200 202 205 206 206 203 203 206 205 204 205 203 206 209 206 206 203 200 195 193 194 189 180 177 182 185 190 195 203 207 207 207 205 195 183 178 179 179 178 171 167 165 156 162 178 182 173 163 168 178 180 171 159 156 163 178 178 172 170 168 162 157 160 168 165 159 151 153 160 155 153 154 154 151 153 151 151 150 150 150 147 142 148 154 149 159 169 170 154 151 172 176 170 170 169 165 169 178 183 161 146 145 151 142 146 139 126 99 103 67 45 43 30 28 47 40 20 17 20 24 56 76 63 59 56 16 6 11 11 11 13 14 13 13 13 13 11 11 14 15 20 26 29 29 25 22 20 20 21 24 25 24 23 23 22 24 22 19 
89 100 94 92 94 98 98 92 91 91 92 91 86 80 76 74 74 73 76 75 68 69 68 63 62 65 76 93 110 113 104 91 89 99 101 81 75 73 75 84 115 132 130 139 132 149 157 137 121 108 96 96 96 111 118 134 135 116 112 113 115 109 103 92 97 99 105 108 75 78 87 77 120 153 129 107 115 139 163 172 175 189 185 174 167 170 174 170 165 173 182 180 184 181 181 187 196 200 198 202 207 207 209 212 212 210 209 209 208 209 205 203 206 205 199 197 198 193 190 189 189 189 193 191 193 200 201 198 196 191 193 196 197 196 200 200 198 199 203 204 202 202 206 208 211 211 207 199 203 204 201 204 209 211 212 212 215 213 210 207 199 198 199 197 196 193 190 183 176 172 179 190 194 199 203 200 192 186 180 178 180 180 173 169 165 155 159 177 177 173 172 177 175 175 169 165 161 167 179 179 169 171 167 159 153 167 169 171 162 154 159 155 156 153 153 156 154 152 148 153 155 157 155 154 155 158 156 161 169 175 164 152 159 166 171 170 172 164 159 170 185 173 150 135 135 134 150 154 140 95 92 79 59 58 44 28 31 37 26 17 18 23 24 58 85 60 60 46 15 10 12 11 14 14 13 13 13 13 13 13 11 14 20 27 30 29 25 22 21 22 22 21 21 21 22 22 22 24 22 19 
94 98 93 91 92 96 96 89 89 88 90 90 83 77 74 74 76 76 73 72 71 71 70 68 64 59 60 60 75 92 94 100 98 103 106 91 81 74 79 104 124 132 143 169 172 162 138 100 84 80 73 76 78 83 90 110 107 97 106 107 116 114 99 91 93 98 111 102 72 84 79 86 132 140 108 107 128 153 170 180 179 181 168 159 154 154 159 157 156 162 173 177 186 185 186 194 199 193 188 192 199 198 201 207 211 209 207 206 204 199 197 199 202 201 200 199 199 194 188 185 186 186 192 193 191 195 196 197 193 190 196 202 199 197 199 193 192 197 199 200 196 202 208 207 207 204 199 193 201 204 209 207 206 207 203 205 206 199 200 200 200 200 203 200 204 204 204 201 192 181 174 173 175 179 189 198 197 193 189 182 177 175 172 176 172 159 156 160 169 176 169 171 169 176 174 175 170 160 170 179 176 178 171 160 149 156 171 172 170 159 156 161 164 159 155 158 157 150 148 153 156 162 156 152 151 154 170 175 172 176 173 162 153 160 170 173 169 166 156 158 176 183 167 149 139 137 138 143 159 119 88 76 50 55 47 26 18 24 24 16 18 25 30 26 58 78 59 46 37 17 15 10 11 14 15 14 13 13 13 13 11 15 21 26 28 28 28 25 25 27 25 21 21 23 25 24 21 23 23 19 
94 96 92 91 90 92 93 88 91 88 86 83 79 75 72 72 74 72 68 65 66 67 65 61 57 53 50 48 50 49 51 57 71 83 86 78 74 77 92 118 132 161 181 191 158 121 120 113 98 78 68 78 80 76 72 66 72 79 88 96 105 109 91 87 97 103 117 99 69 80 73 102 121 107 104 117 144 167 179 179 165 156 148 150 155 157 168 171 171 175 183 193 196 197 200 204 206 200 196 198 205 205 203 204 208 208 207 207 207 200 199 199 199 196 197 199 202 197 188 189 191 190 196 198 195 198 199 198 190 190 197 204 200 193 197 194 195 203 202 205 203 199 195 194 199 203 200 198 200 199 198 196 194 185 184 189 187 178 186 188 188 190 195 197 201 207 207 208 205 200 191 187 182 167 165 174 187 199 200 190 184 181 175 165 168 166 162 160 162 171 169 175 170 168 172 177 171 165 163 172 179 181 175 165 154 148 161 168 175 175 166 163 165 163 158 156 158 148 150 152 154 157 156 155 154 155 167 179 179 176 173 169 155 155 165 177 176 173 167 153 157 177 175 153 131 127 136 122 135 157 114 64 58 43 43 37 27 13 16 16 19 13 22 31 33 46 70 63 42 22 18 18 11 14 17 16 13 13 13 13 13 19 25 28 27 27 28 26 22 22 24 21 23 25 27 26 21 23 24 19 
87 97 91 91 89 89 94 92 94 90 85 80 76 71 68 70 73 65 64 62 60 60 60 58 59 56 54 52 51 45 44 45 60 70 69 71 72 84 106 136 153 180 182 147 104 93 101 98 91 81 89 104 98 77 66 68 79 75 69 79 94 103 94 86 88 101 114 89 71 74 80 120 110 104 107 129 154 173 174 151 141 147 152 159 173 177 182 187 195 201 203 206 205 204 206 206 208 202 199 202 208 210 210 208 208 208 208 208 206 206 206 204 197 192 192 197 201 197 187 186 187 187 194 196 196 204 197 194 194 198 199 202 202 194 193 195 197 201 200 197 189 187 192 199 203 200 196 196 196 195 192 198 200 194 198 199 193 188 195 191 189 188 184 183 187 191 194 205 202 204 199 200 192 175 171 167 167 179 192 197 194 191 183 171 165 169 166 162 159 164 170 182 176 169 174 179 173 176 165 165 181 187 179 172 162 148 151 169 179 179 169 160 160 162 162 152 154 151 152 149 148 158 162 160 151 158 162 173 178 181 179 175 167 163 165 172 181 184 179 158 146 161 172 167 138 116 134 122 96 145 154 85 69 39 28 31 29 19 15 19 21 15 16 28 42 35 54 92 78 43 15 13 10 14 16 15 13 13 13 13 13 16 22 26 26 26 26 23 21 20 19 19 22 24 26 26 21 23 24 18 
87 98 94 92 86 81 86 90 93 88 83 80 75 70 66 66 71 64 59 58 58 55 63 65 62 59 60 57 52 46 45 54 73 80 74 80 89 106 135 162 162 157 131 91 86 95 79 65 63 91 112 99 88 83 84 90 89 82 74 83 93 88 89 89 92 113 117 80 69 71 95 115 106 111 116 144 153 154 140 134 151 160 160 163 174 180 184 189 203 212 209 208 210 208 207 205 209 206 200 202 206 206 211 211 209 206 209 208 206 206 204 203 199 194 196 198 200 201 188 183 186 190 195 197 197 199 197 198 199 197 198 204 203 195 192 199 200 193 184 184 185 192 203 208 207 198 195 199 200 201 200 200 209 208 209 210 202 202 209 203 201 200 195 193 192 188 191 191 184 190 191 197 195 194 191 181 174 170 174 186 197 203 191 175 167 172 169 169 166 165 169 177 175 172 170 175 172 170 164 161 175 186 180 175 165 154 151 166 178 176 166 160 156 157 161 154 157 157 152 151 144 150 162 166 157 155 163 170 174 182 185 181 179 169 160 161 169 181 180 170 148 148 170 176 156 124 125 123 88 96 149 134 78 43 24 27 27 26 24 22 22 22 21 17 31 37 53 80 95 84 39 15 12 12 13 13 13 13 13 13 13 14 16 20 22 22 25 24 21 20 19 18 20 23 23 23 22 22 22 17 
89 99 99 96 90 86 88 90 92 88 86 83 79 75 67 61 64 66 58 53 53 51 60 67 65 58 63 58 47 46 53 63 78 90 96 101 111 140 166 181 159 116 81 71 99 103 92 90 71 87 96 89 84 92 102 101 89 85 79 87 84 74 79 89 105 126 122 82 62 64 93 102 112 115 125 149 139 131 130 155 165 163 171 179 174 172 184 184 186 200 208 211 214 209 205 202 201 202 197 198 206 207 209 206 209 210 211 209 205 204 205 204 199 195 199 200 201 198 188 186 192 195 194 192 191 194 196 197 197 197 204 204 199 193 191 192 196 194 189 188 193 200 206 205 205 203 196 197 197 198 201 203 212 203 200 200 201 210 212 206 207 207 202 197 200 200 200 199 197 190 186 186 186 192 198 187 182 179 171 172 188 205 195 180 177 173 172 177 168 163 171 172 172 173 165 169 172 170 171 163 159 176 185 178 168 160 157 159 170 178 169 163 161 157 153 149 154 153 150 151 152 142 159 166 164 158 160 176 180 180 190 186 177 165 148 159 165 167 175 169 155 140 154 176 166 146 139 132 110 80 104 145 128 66 26 23 29 31 26 16 15 20 20 15 20 16 36 64 73 95 76 37 13 10 13 13 13 13 13 13 13 14 16 18 18 18 22 20 19 19 19 17 20 22 23 23 23 23 22 17 
92 101 102 98 94 91 89 90 93 90 86 84 81 77 68 61 58 66 60 52 50 51 57 78 74 58 56 52 45 55 64 69 72 72 85 125 146 166 185 173 119 69 60 77 119 118 107 107 90 98 84 83 98 109 112 113 105 97 93 96 89 86 84 90 112 134 119 84 60 66 79 99 115 123 141 141 125 147 157 161 159 168 184 194 188 178 175 173 165 168 198 207 211 206 202 195 186 190 191 190 196 203 206 203 207 206 206 206 205 202 203 203 198 194 196 197 197 189 184 190 190 188 191 188 186 195 195 197 200 202 205 202 198 195 193 189 197 195 192 193 196 200 199 198 202 203 195 193 192 195 200 198 194 185 189 183 190 208 209 207 205 203 206 209 208 203 204 208 205 202 198 190 177 172 185 190 191 186 176 170 177 202 200 187 177 169 171 171 166 164 168 169 168 173 171 169 167 171 174 164 152 162 179 179 174 165 159 158 160 172 173 165 167 161 158 154 157 154 147 148 153 147 155 164 170 163 162 172 186 179 183 191 180 172 158 157 167 160 161 160 156 148 139 161 170 154 154 143 129 97 83 102 139 122 58 36 31 30 17 8 10 12 12 17 20 19 24 43 54 80 88 63 32 12 13 11 12 13 13 13 12 12 15 16 17 17 19 18 17 20 19 18 19 21 22 23 23 23 21 17 
92 103 100 94 92 93 91 92 94 93 89 86 82 79 71 64 59 65 67 63 55 54 57 78 69 56 51 53 52 56 64 72 62 59 98 147 166 188 159 105 73 65 77 102 119 97 73 86 104 101 72 81 105 113 110 109 106 93 92 95 89 92 93 107 129 143 114 76 55 65 78 111 121 135 140 126 132 162 162 151 155 167 182 192 176 159 155 142 132 122 145 160 170 180 193 190 181 186 185 181 186 199 204 203 207 203 201 202 203 200 198 197 196 196 197 198 199 192 189 193 192 185 189 191 188 192 192 195 196 195 197 199 199 198 191 184 189 193 192 190 194 197 194 196 202 192 179 180 186 189 187 182 184 189 195 189 191 202 203 210 206 209 212 212 209 206 207 209 204 204 201 198 189 179 171 176 195 192 186 177 167 180 194 191 183 177 172 169 170 174 173 171 164 164 171 170 163 164 167 169 162 160 171 179 178 169 163 164 161 164 167 166 169 164 162 157 150 154 156 161 158 158 159 163 177 165 163 166 168 168 173 181 182 178 165 146 151 158 154 155 151 147 137 145 167 161 144 132 130 129 113 94 97 119 109 52 25 27 22 12 9 10 10 11 14 25 37 35 43 69 72 56 45 18 8 10 13 13 13 13 12 11 13 16 17 17 17 17 17 20 19 19 20 20 21 24 24 24 20 18 
91 102 96 87 87 95 95 94 95 92 87 89 92 84 72 67 65 65 65 58 55 59 62 74 66 57 56 60 56 59 64 65 60 82 112 150 177 167 109 64 64 86 107 120 96 69 58 77 96 101 87 100 102 109 107 104 103 91 87 84 80 85 104 136 143 142 114 77 58 61 78 121 129 132 116 121 146 158 144 137 147 156 163 165 134 108 107 92 77 71 76 91 106 129 144 164 176 177 169 175 185 193 199 199 202 201 201 198 198 198 193 190 191 193 193 200 201 190 187 192 192 187 195 195 192 193 188 191 194 194 196 199 197 198 192 185 179 185 188 185 186 186 180 184 188 167 160 171 173 168 156 151 163 173 175 180 183 179 179 191 197 208 211 211 207 202 203 203 199 203 204 201 201 195 177 169 180 184 187 182 171 162 178 188 179 177 172 166 172 178 174 169 166 163 171 173 162 164 173 178 173 167 170 179 178 175 171 168 165 168 168 165 165 171 163 157 150 150 153 161 161 160 159 165 181 172 153 159 164 166 175 179 182 183 171 158 148 154 158 150 153 156 148 138 153 171 163 127 100 114 133 116 89 81 113 95 38 18 20 21 17 16 16 17 11 15 30 32 20 40 66 61 57 43 13 11 12 13 13 13 12 11 13 16 17 17 17 17 17 20 19 19 20 20 21 24 25 24 20 18 
86 92 85 85 89 96 97 97 96 90 88 92 95 89 79 72 66 65 67 56 54 57 58 72 75 63 55 59 59 60 53 49 82 100 119 163 150 101 81 70 67 79 90 117 84 53 72 95 88 110 121 107 99 108 96 90 92 84 78 71 76 91 115 144 147 149 108 65 56 58 86 125 135 121 102 140 160 147 131 117 104 104 97 100 88 82 89 83 75 72 73 81 92 113 110 114 139 158 160 171 181 184 191 197 198 195 193 192 196 194 192 193 194 195 193 198 198 186 185 190 191 186 193 189 183 192 188 191 198 199 200 201 193 194 192 186 174 175 178 178 178 175 171 176 172 134 141 155 141 124 115 115 119 113 113 123 117 118 139 168 186 200 197 195 191 179 180 175 180 195 196 194 199 200 186 182 170 169 191 192 183 168 169 181 178 177 180 175 174 179 177 165 168 171 170 168 166 168 174 171 172 170 170 179 182 182 180 172 166 166 167 165 162 170 161 155 158 153 147 156 164 163 162 171 184 182 160 151 156 169 180 182 181 182 171 158 152 152 154 149 152 156 153 143 136 159 172 148 99 82 115 131 108 71 72 101 95 44 23 19 23 28 32 31 18 15 23 33 28 19 44 68 59 57 28 13 12 13 13 14 15 15 14 18 19 19 21 22 20 20 19 19 20 20 22 23 24 23 20 18 
82 87 81 84 89 97 98 95 88 83 88 89 87 83 80 75 68 70 71 65 58 53 56 71 93 82 55 59 65 55 47 58 99 114 142 161 107 70 77 84 68 71 87 108 74 55 94 86 63 101 118 89 99 107 95 94 84 65 62 70 85 108 123 136 147 151 111 63 58 60 97 134 132 103 105 151 158 134 106 76 59 52 46 44 46 67 88 96 104 99 99 106 113 125 125 108 112 130 149 171 181 184 186 191 192 193 192 188 193 195 195 194 193 193 192 193 193 184 189 188 186 186 189 186 182 190 189 191 200 203 199 199 192 188 187 186 175 171 170 169 173 169 162 166 145 124 141 126 96 85 104 115 106 88 85 84 92 104 115 150 168 177 168 162 154 141 141 137 149 171 174 173 185 193 193 196 176 163 180 197 195 182 169 178 185 180 183 183 179 176 179 172 168 173 168 162 164 167 168 167 173 169 163 169 179 183 184 175 166 160 157 159 164 167 160 157 159 154 150 152 158 162 162 171 176 179 176 161 160 162 177 183 179 183 181 171 167 160 150 148 144 139 148 147 134 136 163 166 130 82 85 107 105 85 72 80 126 116 62 38 35 40 33 28 23 22 24 29 35 28 24 49 53 50 38 22 13 13 12 12 12 15 14 18 20 20 22 23 21 20 20 20 20 20 22 23 24 22 21 18 
78 87 82 84 89 95 97 98 92 88 89 86 83 82 77 72 71 75 72 72 62 53 63 63 88 91 59 60 64 56 67 88 108 137 156 130 83 71 61 77 83 83 106 95 65 79 107 74 79 114 113 102 104 100 105 107 82 61 66 77 99 119 122 139 160 144 114 74 61 56 102 136 116 86 129 160 149 123 93 69 46 32 32 31 29 38 49 64 84 108 130 131 133 143 150 142 125 121 137 157 169 177 182 192 190 192 193 188 192 197 196 196 197 196 193 191 188 180 189 188 187 187 187 187 186 190 195 193 196 202 198 197 190 186 186 185 178 169 163 165 176 171 161 158 130 132 138 114 96 98 132 124 99 90 92 98 118 115 101 129 151 157 150 136 113 103 104 104 106 111 115 124 149 165 190 195 186 176 167 185 196 187 174 171 182 182 185 187 181 178 181 174 171 172 170 165 165 168 171 168 166 168 164 164 177 178 177 167 160 161 156 154 157 162 158 157 157 155 154 150 154 163 170 170 160 166 175 162 171 166 164 177 179 179 177 175 168 159 155 155 150 138 140 152 140 132 146 162 155 120 80 96 93 85 87 85 91 116 115 75 47 37 24 13 18 25 21 18 27 38 26 29 38 40 40 29 14 12 11 11 11 14 13 16 17 19 23 22 20 21 21 20 20 20 22 23 23 22 22 21 
78 86 82 84 89 91 92 93 91 90 87 84 80 80 76 70 69 75 73 71 66 54 53 53 73 86 68 67 67 57 68 91 119 152 155 95 61 51 58 70 78 92 121 107 89 103 104 92 104 111 128 127 126 113 102 94 73 70 80 92 113 121 131 152 158 133 106 70 59 52 97 120 97 89 151 167 145 109 84 55 37 37 36 31 30 32 38 54 67 94 129 143 145 145 154 158 147 136 139 149 162 173 180 189 193 194 195 194 196 198 195 192 191 192 194 195 188 186 192 189 188 189 189 188 187 189 194 194 194 197 195 194 189 186 185 182 178 170 160 168 184 171 165 163 144 140 138 135 128 120 139 137 116 112 120 124 119 104 94 111 127 136 135 117 92 92 99 99 94 87 97 104 103 125 165 178 188 189 168 170 194 199 185 170 175 184 188 188 181 177 180 176 171 172 170 167 169 165 168 167 162 167 168 162 173 173 168 166 163 161 156 154 153 160 157 157 156 156 154 155 154 161 170 172 165 166 174 169 162 166 163 164 170 174 171 176 176 165 155 153 159 152 137 144 138 137 139 146 153 153 105 102 101 74 87 98 86 80 117 104 52 38 51 42 31 24 23 23 17 32 42 35 38 45 55 41 19 10 12 13 13 13 13 13 15 18 23 22 21 22 22 20 20 20 22 23 23 23 24 23 
78 84 83 84 88 88 85 84 86 89 84 81 77 76 73 66 65 69 68 61 66 62 53 52 59 78 78 85 89 83 88 103 136 163 131 61 52 60 86 77 77 105 115 98 78 89 111 123 101 118 132 138 145 119 100 86 70 74 86 106 113 125 147 154 152 136 104 67 58 57 101 96 73 92 152 152 123 87 65 40 40 48 55 49 45 42 49 67 80 102 129 147 154 154 159 164 164 156 149 150 163 176 188 194 196 196 194 194 193 192 189 188 190 190 194 196 186 191 192 186 185 187 188 187 188 192 192 196 193 191 193 193 186 183 181 179 173 170 167 174 186 170 169 166 153 139 146 154 152 156 169 164 134 125 124 111 94 82 91 93 90 94 100 109 108 114 120 128 118 106 107 109 96 103 139 165 186 191 178 164 183 204 197 182 173 179 184 188 180 175 176 179 172 171 170 167 168 166 168 167 165 171 172 163 170 167 160 164 166 164 155 154 156 160 157 158 160 156 152 154 154 160 168 175 178 173 176 180 170 170 168 166 172 169 164 168 179 181 172 153 149 152 147 142 137 137 136 148 153 159 137 113 114 77 57 63 82 100 108 110 86 67 69 67 51 26 24 33 27 23 38 46 56 50 50 55 45 15 12 13 13 13 13 13 15 18 20 22 23 22 22 20 20 21 22 22 22 22 24 23 
75 82 83 82 87 91 91 86 85 87 85 86 81 78 74 67 63 63 62 57 63 66 65 57 59 69 68 66 70 86 105 115 143 155 101 55 62 84 87 64 72 112 121 92 71 98 134 141 117 138 130 153 146 115 107 85 71 81 90 100 106 132 153 148 154 157 111 77 64 60 97 79 72 124 173 134 84 62 48 40 49 56 64 67 71 64 67 88 102 114 140 154 155 162 161 167 175 165 160 158 158 175 190 197 198 195 196 191 192 193 187 188 195 196 195 191 189 192 187 182 185 187 188 187 186 190 194 197 192 194 193 192 186 182 177 177 172 176 180 182 183 171 174 174 153 139 156 165 164 177 185 171 143 133 132 136 125 105 103 89 78 86 96 110 119 130 142 146 139 137 139 133 114 112 133 172 194 196 190 172 172 193 194 186 170 173 183 186 177 176 173 180 177 172 167 163 161 163 166 169 170 171 173 169 166 168 167 164 162 162 155 152 158 160 154 156 161 160 158 155 157 159 169 175 181 185 186 185 180 180 178 173 179 176 165 161 165 173 177 165 153 153 147 147 142 140 127 137 144 147 143 128 104 79 82 73 67 82 98 95 102 81 79 71 62 33 21 23 37 39 45 53 55 44 39 49 70 30 13 14 14 14 15 17 18 18 19 20 20 20 20 21 22 21 20 20 20 23 24 19 
78 84 84 86 89 92 88 82 82 85 86 90 84 78 75 70 66 65 64 61 58 58 71 65 53 52 51 47 53 60 95 113 138 126 86 59 66 77 60 50 68 113 125 79 72 117 148 138 122 137 134 154 124 106 107 88 81 83 88 102 115 134 146 149 154 143 105 82 62 56 74 67 88 149 172 116 67 81 76 65 72 71 68 82 100 102 103 111 119 115 139 159 154 161 166 170 177 170 166 167 162 176 193 200 201 197 199 194 193 193 190 192 199 200 200 192 188 192 190 183 183 187 188 192 190 192 195 195 194 196 190 188 186 183 177 171 171 181 181 183 186 184 187 185 163 154 173 187 177 181 179 167 157 149 154 159 132 101 95 93 96 118 135 142 142 142 148 152 158 168 168 163 147 141 132 167 192 201 200 189 176 182 198 196 176 164 178 190 180 174 167 178 181 178 166 161 160 159 161 170 173 168 174 177 171 174 176 169 159 161 161 156 158 158 153 154 156 161 160 154 154 161 164 163 169 180 183 183 179 177 182 179 178 178 172 161 153 164 161 161 165 158 148 147 144 145 136 123 122 134 139 134 119 83 81 94 81 64 85 83 99 100 69 49 46 49 46 32 42 46 56 59 62 61 47 34 71 58 14 12 12 14 16 17 15 16 19 20 20 20 20 22 23 23 23 23 21 23 24 19 
80 91 88 91 93 91 84 79 80 81 83 85 81 78 75 71 69 69 66 64 59 57 60 59 55 48 50 58 59 61 103 129 139 95 74 53 55 55 45 47 63 98 99 56 85 129 144 109 113 143 151 140 95 104 98 79 82 82 96 107 112 135 138 142 147 129 106 82 55 54 65 65 99 144 143 106 91 106 89 77 76 80 83 92 113 128 130 128 137 144 140 148 159 164 170 171 177 177 169 173 172 180 193 199 196 194 199 199 197 195 194 196 199 201 201 195 189 189 189 187 185 182 183 189 192 194 196 195 196 197 199 192 187 182 179 175 182 188 184 185 190 195 199 196 183 178 185 192 188 191 186 175 169 158 150 136 115 106 109 135 152 167 166 163 157 155 156 161 169 182 185 184 176 172 158 169 186 199 209 206 187 175 196 203 187 163 163 187 183 172 169 176 183 181 162 158 162 161 160 164 167 168 175 180 180 180 177 172 160 161 165 160 159 158 154 154 152 156 160 158 154 159 164 162 167 178 186 185 187 182 181 178 171 175 176 170 157 161 161 154 157 154 151 145 137 139 146 136 123 133 141 117 130 116 72 77 75 58 72 83 94 103 68 43 39 33 51 57 55 38 40 38 44 63 60 50 56 67 25 11 10 12 16 13 13 13 17 18 18 18 20 21 22 24 26 25 22 22 23 19 
80 93 91 92 95 88 79 79 80 80 80 87 85 79 76 72 69 67 66 63 58 58 51 51 57 45 52 68 73 87 112 137 126 71 68 48 48 42 44 47 58 86 76 64 111 142 114 75 108 155 164 132 98 107 85 83 92 83 98 116 114 129 125 136 149 145 122 88 54 49 55 59 106 139 129 123 103 92 85 82 79 99 117 129 141 149 146 141 132 147 150 151 163 165 171 174 179 181 177 182 183 186 191 193 192 196 200 201 199 196 198 197 200 201 199 190 185 188 185 188 188 187 193 194 195 195 200 198 197 198 199 196 192 184 181 181 186 192 195 196 198 199 206 206 201 205 200 196 198 201 184 170 167 160 156 150 144 146 151 174 172 161 157 172 173 174 178 182 181 187 192 196 188 187 180 178 185 191 199 202 198 181 182 199 196 170 156 177 179 170 171 179 184 176 158 156 168 171 166 167 170 172 175 179 177 176 166 165 164 167 168 161 158 160 157 154 155 156 162 162 163 163 164 165 173 180 185 187 188 183 177 180 176 177 173 167 162 161 165 157 140 140 145 146 147 137 135 138 126 121 133 125 113 111 105 79 75 62 48 61 66 80 79 57 37 24 22 25 41 52 51 40 38 53 45 48 46 67 52 17 12 13 15 13 15 14 16 17 17 18 20 18 20 23 24 24 23 23 23 19 
73 86 87 92 94 89 80 79 81 81 84 91 87 83 80 75 69 64 63 59 57 58 51 51 57 48 60 82 94 120 133 139 121 77 67 48 42 31 52 52 55 88 77 87 130 134 69 67 120 167 152 126 108 97 84 95 95 86 98 115 115 117 130 150 161 152 128 94 59 54 52 68 123 144 133 122 103 93 92 98 107 138 151 158 164 170 169 169 153 153 157 158 164 170 174 178 183 184 181 185 191 196 191 187 189 198 202 201 200 200 201 197 203 207 201 191 186 191 191 186 187 193 199 199 199 199 203 200 194 197 198 198 199 191 182 188 192 200 207 205 201 201 212 213 207 209 207 204 207 209 192 176 169 172 173 174 175 178 182 190 179 170 173 191 191 193 188 183 177 180 178 184 183 192 196 190 188 185 186 196 200 187 173 183 195 176 154 171 182 169 169 173 178 175 159 160 180 176 168 171 179 177 178 183 181 180 166 162 168 172 171 165 162 163 160 154 153 152 154 153 160 167 166 167 178 186 187 193 193 188 179 178 175 176 173 168 158 152 157 158 145 136 133 130 139 139 131 123 124 118 117 131 121 99 104 93 53 61 59 50 42 64 85 71 41 25 15 12 14 26 43 55 46 55 47 37 30 52 69 36 18 18 16 18 19 18 17 17 18 20 17 15 17 20 20 21 22 23 22 18 
66 80 86 90 91 91 85 83 87 87 90 92 85 85 81 76 72 68 66 63 60 57 53 52 58 62 78 89 81 116 138 146 135 107 88 71 53 44 68 54 63 108 101 105 138 117 70 96 138 162 132 123 118 96 84 95 93 92 101 108 112 115 151 157 158 141 123 93 60 51 49 78 132 153 142 127 128 117 115 131 146 158 161 164 167 172 179 181 171 162 159 162 167 174 175 179 183 180 183 186 192 196 189 186 193 201 200 199 199 202 202 200 206 211 201 191 191 193 192 189 190 197 201 201 200 203 204 199 197 201 198 198 203 198 184 191 194 204 207 205 205 207 216 214 210 213 211 207 204 202 196 190 191 188 175 186 190 192 193 194 197 200 196 200 199 199 195 192 188 190 181 185 196 199 208 201 199 191 188 191 199 196 174 169 189 185 160 167 179 166 169 172 176 171 159 170 189 176 166 170 181 181 183 186 185 184 172 166 167 170 169 167 164 161 157 157 157 151 150 149 156 162 167 174 179 185 192 195 197 196 190 185 180 176 171 172 165 155 153 149 152 150 144 131 127 138 139 128 126 127 116 114 127 117 97 101 67 39 69 65 29 46 83 79 58 39 15 20 27 21 15 23 24 34 42 46 38 41 58 56 37 28 22 22 23 22 21 19 17 17 16 17 19 20 22 25 24 23 22 18 
61 80 89 88 90 92 85 85 93 91 89 91 87 86 82 74 71 74 73 70 67 63 60 60 72 76 64 72 95 127 121 125 110 97 92 79 67 75 93 70 84 122 106 103 135 106 104 122 146 145 128 131 126 92 83 94 94 98 106 112 123 133 157 162 161 145 122 86 61 54 46 82 140 156 144 136 136 132 138 159 175 173 166 164 165 166 182 182 179 173 168 169 171 175 177 177 181 183 186 184 190 190 182 182 194 202 200 199 199 201 202 202 209 208 200 196 194 194 192 192 194 201 200 201 202 200 199 200 204 207 204 203 204 205 190 191 198 205 205 202 204 207 211 212 210 211 210 204 201 197 197 198 192 189 189 197 196 203 204 203 207 208 203 202 200 199 195 191 182 187 189 180 188 196 202 197 201 191 189 197 200 200 187 171 184 190 171 165 180 170 168 170 174 168 164 176 188 179 170 170 177 182 183 188 189 182 171 170 166 169 173 166 159 156 153 155 161 158 152 153 157 157 162 171 179 183 188 190 196 197 195 189 180 178 173 169 166 159 160 151 156 160 154 142 134 134 130 135 140 137 126 116 123 141 125 100 99 59 45 79 43 31 57 81 88 73 34 34 43 27 13 13 12 13 14 32 42 41 49 65 57 36 26 24 24 24 24 22 18 17 17 19 20 19 20 23 23 23 24 24 
67 87 95 88 88 92 86 85 88 87 86 87 87 84 81 74 71 77 73 70 70 67 68 74 84 70 57 79 104 123 122 118 109 101 80 43 42 66 76 54 75 106 91 105 140 122 128 130 142 128 130 121 105 74 77 94 95 97 105 122 140 157 158 158 163 155 126 89 57 44 46 93 144 148 148 141 133 134 156 172 182 176 174 173 169 164 178 183 180 178 175 176 176 176 179 176 181 186 187 184 190 186 178 178 193 200 199 199 200 200 203 204 209 203 198 199 199 201 199 197 197 200 201 199 199 199 200 201 207 210 211 213 211 204 192 193 203 207 202 198 198 205 204 208 205 205 209 206 203 201 199 201 196 200 201 205 205 209 209 205 208 203 200 202 207 202 196 191 186 189 195 185 184 192 191 190 188 186 191 197 196 193 194 175 177 191 179 161 179 171 169 170 174 168 165 169 180 181 174 169 177 183 188 192 187 174 167 173 170 165 169 168 162 160 157 152 155 157 150 148 154 159 165 162 170 184 186 183 185 186 186 189 184 177 171 166 162 154 151 151 156 152 147 140 142 139 137 138 140 137 128 125 121 134 134 114 100 95 63 72 72 49 53 72 95 87 47 28 35 34 17 13 11 12 11 19 26 25 32 49 52 39 27 27 29 28 27 25 21 18 17 19 20 19 18 21 22 23 24 23 
75 86 93 89 89 92 88 87 86 87 89 87 85 82 81 77 76 79 75 74 71 71 76 80 79 57 56 79 103 125 118 108 119 112 100 75 73 104 93 54 87 118 94 120 144 138 128 132 131 112 128 115 91 75 78 90 89 89 107 140 161 172 166 158 160 149 118 91 66 45 53 109 143 139 146 145 142 152 167 180 183 176 175 175 172 166 173 185 181 175 175 180 180 176 180 176 175 182 184 189 191 181 180 183 192 197 199 201 203 199 204 203 205 199 194 197 200 202 202 202 199 199 200 198 200 203 207 204 206 210 212 213 215 209 197 196 204 206 203 197 194 205 203 201 204 200 197 199 199 198 194 198 199 208 208 213 213 209 202 200 207 199 196 195 204 206 200 197 194 193 195 189 185 192 193 191 188 183 193 198 197 196 195 181 168 181 181 157 163 166 170 171 171 166 170 172 175 178 173 171 184 187 187 184 184 177 173 172 169 166 167 171 168 168 164 154 152 159 159 153 154 157 163 168 178 188 187 185 182 177 175 179 179 169 162 155 150 147 145 149 146 141 142 143 146 140 147 151 145 136 130 131 131 127 135 129 102 89 104 91 83 73 53 36 58 93 68 17 16 33 21 11 10 12 13 13 15 18 21 30 38 36 24 20 22 22 23 24 23 20 17 19 20 20 19 20 22 23 23 22 
81 88 93 89 88 92 88 87 86 87 85 87 89 87 82 79 80 83 78 78 76 82 81 88 78 64 69 75 93 110 102 83 95 84 82 73 78 112 84 48 94 127 89 121 140 137 112 140 134 122 145 115 88 83 84 92 90 96 115 143 159 168 167 164 161 143 111 96 76 49 63 115 137 137 144 149 154 171 169 177 177 175 180 185 189 180 175 182 186 180 176 182 184 179 180 176 168 174 182 188 185 177 180 185 192 197 199 201 203 199 203 201 201 196 197 200 202 201 202 205 202 200 202 205 208 206 207 210 210 212 211 209 213 211 203 196 198 203 205 197 198 202 199 198 199 197 196 196 197 191 190 198 199 208 209 213 213 209 201 199 200 199 201 204 204 205 204 204 201 200 198 198 190 189 201 195 191 183 183 190 192 193 195 184 166 170 183 161 156 165 170 171 176 172 172 176 173 174 165 167 184 181 181 178 174 172 165 164 168 169 172 171 173 172 167 160 162 166 162 155 152 154 165 166 169 178 182 185 185 181 182 183 178 169 159 154 151 152 149 148 140 136 141 142 137 130 127 135 131 141 138 128 130 135 137 132 127 100 102 134 123 82 72 36 29 78 111 64 23 32 39 18 10 12 12 12 12 15 18 24 27 34 39 26 22 21 21 21 21 20 17 19 20 20 20 20 21 22 22 18 
85 93 94 91 88 91 86 87 86 89 84 84 84 83 81 81 82 85 82 82 84 86 81 93 83 81 72 72 105 108 92 72 81 67 62 60 62 89 63 37 84 132 86 122 139 134 130 152 130 136 156 116 96 99 100 103 100 112 115 134 151 161 160 159 162 145 107 101 82 50 72 109 127 146 155 158 166 180 176 172 178 181 187 201 204 188 173 177 184 182 179 184 186 182 177 173 171 170 173 180 177 174 177 182 188 191 197 201 201 197 200 199 197 194 200 205 205 200 201 206 203 202 207 207 208 208 208 211 213 216 213 211 211 205 203 198 198 201 202 200 202 201 197 195 191 191 192 194 192 190 195 199 195 206 210 210 209 211 208 205 203 201 203 206 204 202 208 208 206 204 197 201 197 182 191 194 186 182 180 181 184 188 196 188 177 166 181 171 154 162 167 167 169 172 170 177 176 174 167 169 184 180 174 177 174 174 165 164 172 174 171 173 180 171 168 171 172 167 156 159 157 155 172 172 165 169 173 181 184 185 187 189 185 177 161 155 153 154 152 148 141 134 132 126 134 132 116 114 116 132 137 135 130 129 126 132 138 126 84 80 118 94 88 72 28 42 100 112 51 28 42 24 13 13 12 12 14 17 18 22 24 28 43 37 24 19 20 20 20 20 19 19 20 20 20 20 20 20 21 18 
82 92 90 90 90 89 84 84 86 91 87 83 80 80 81 82 82 86 84 84 87 81 85 98 88 81 64 74 114 114 83 81 84 74 53 48 58 92 80 49 92 139 95 130 137 127 149 144 134 141 154 123 103 94 86 97 106 106 109 140 157 157 158 158 157 145 110 97 73 47 75 111 134 150 153 151 165 178 182 178 182 185 190 202 195 182 178 183 183 182 179 183 187 187 178 175 179 179 177 170 167 167 170 180 186 189 190 197 202 200 197 195 199 199 205 203 201 199 203 205 204 206 211 210 209 209 209 210 214 217 214 213 211 204 200 196 199 196 196 199 197 196 195 195 192 192 191 191 192 192 198 199 199 202 207 206 209 212 209 206 205 205 206 207 203 204 206 202 205 206 198 203 203 186 187 190 190 189 187 181 191 195 191 188 183 163 168 170 143 153 165 165 167 176 172 175 174 170 172 174 178 179 175 180 182 186 177 173 172 175 168 168 182 181 176 177 172 173 162 164 160 155 162 176 169 161 168 180 189 187 178 179 177 175 164 154 160 160 150 148 153 143 131 126 139 138 123 102 96 109 120 128 127 121 122 132 135 131 113 70 66 93 116 107 59 24 62 104 88 43 37 34 21 16 15 14 14 16 17 18 21 19 23 32 28 20 19 20 20 20 20 20 20 20 20 20 20 20 20 18 
80 89 85 87 93 91 86 80 80 84 87 82 79 81 81 82 82 86 84 84 87 80 87 102 81 70 62 82 109 110 78 99 104 95 67 52 56 83 87 72 109 144 112 142 135 117 142 120 134 134 133 109 95 85 79 97 96 91 112 148 153 148 161 160 156 148 118 93 61 45 77 116 143 152 158 155 165 177 183 188 185 187 196 191 183 184 185 184 185 182 179 176 180 185 182 178 181 182 180 173 168 165 169 180 184 190 190 195 202 200 193 194 202 201 205 204 203 200 201 203 206 207 206 207 209 210 209 212 214 214 213 212 210 204 202 196 191 193 194 191 190 190 192 196 192 191 191 188 192 194 196 198 202 200 201 201 207 207 201 207 206 201 199 201 202 205 203 197 202 205 200 203 201 194 192 195 195 189 186 186 190 192 189 185 186 171 165 169 148 160 172 172 170 168 171 172 171 168 171 167 167 174 175 173 177 180 181 182 175 169 171 164 174 181 177 176 171 177 171 169 162 151 153 169 175 161 164 179 191 189 173 172 168 169 163 153 158 153 150 154 158 158 159 150 146 144 141 123 98 97 107 120 125 119 117 134 137 127 134 108 66 66 118 119 84 53 51 66 87 60 17 21 19 11 9 10 10 12 16 17 17 18 17 22 28 29 21 20 20 20 19 19 20 19 20 20 20 20 20 18 
79 89 87 87 97 99 89 84 82 80 81 83 84 82 83 84 81 87 90 87 82 74 82 94 77 67 66 69 75 88 57 81 101 91 63 61 74 91 89 84 131 139 105 149 144 131 142 123 138 134 126 103 89 85 90 95 86 95 115 141 148 153 161 156 149 135 124 103 58 48 78 111 146 153 163 160 162 178 182 187 189 190 193 185 183 182 182 182 181 177 175 175 177 183 186 181 179 179 178 174 171 164 165 170 173 181 190 195 192 194 192 196 201 202 206 204 203 203 203 206 207 207 208 208 211 213 211 214 212 208 207 207 207 204 202 199 192 190 189 184 184 188 191 193 189 191 192 185 186 188 192 193 196 199 199 200 201 200 199 203 206 202 200 206 205 203 206 200 200 204 204 204 201 199 197 195 197 193 186 189 184 181 189 185 185 180 164 169 155 156 170 167 164 158 173 178 175 175 172 162 168 167 169 172 177 177 179 182 178 167 175 175 169 179 182 177 168 171 171 172 166 155 158 167 182 177 171 175 186 189 188 179 174 172 158 153 158 161 166 168 165 158 158 155 146 152 156 149 131 103 99 113 115 110 118 129 137 137 133 127 95 65 98 142 99 77 67 47 58 86 34 16 23 14 5 7 8 11 18 20 16 16 17 17 25 33 28 23 21 20 17 18 21 18 19 20 20 20 20 17 
77 88 94 92 98 96 84 84 85 82 82 83 84 82 83 84 81 87 96 97 82 72 81 86 79 60 59 54 60 88 50 55 83 75 50 51 69 92 92 78 124 121 86 143 152 146 135 127 135 134 122 99 89 89 97 93 90 100 115 133 141 152 157 155 149 136 133 104 53 54 84 117 148 154 161 162 172 188 189 184 190 192 190 187 181 174 173 176 174 170 171 167 161 170 175 180 177 175 174 170 168 163 162 165 173 177 181 184 181 187 192 191 196 202 206 204 204 206 206 203 203 206 209 208 211 213 209 210 210 207 202 198 198 199 194 189 190 184 185 189 188 193 192 191 188 191 193 190 188 182 184 187 188 185 185 189 195 196 192 189 202 200 194 194 194 197 205 204 198 200 202 207 204 203 200 190 194 195 192 190 184 181 185 179 178 178 163 153 151 147 166 163 163 164 176 181 179 179 176 164 168 172 173 170 178 183 182 182 177 169 173 180 168 173 182 181 174 169 170 166 170 165 160 167 183 184 182 184 189 187 191 181 175 177 165 165 170 167 169 176 178 169 164 159 157 156 162 164 162 132 96 98 117 108 112 122 123 142 129 129 126 96 75 109 121 89 74 56 41 86 81 38 19 17 9 11 12 14 19 20 16 16 16 15 21 30 31 27 23 21 17 18 21 18 19 20 20 20 20 17 
79 88 95 100 100 94 86 85 84 83 80 80 82 80 81 84 83 83 91 104 81 64 73 85 83 56 52 55 54 89 44 45 76 74 49 40 41 57 75 67 110 116 90 131 145 138 118 119 119 125 110 91 87 89 92 85 87 99 114 123 131 151 150 154 154 142 124 88 45 61 100 138 155 159 161 167 185 195 192 188 193 191 186 187 180 172 169 162 159 153 161 159 152 162 167 179 176 175 175 171 165 158 158 157 161 167 173 181 180 181 184 184 191 200 205 205 205 207 208 202 200 205 209 208 213 213 207 205 206 205 198 196 194 193 191 186 186 184 183 186 189 197 194 189 187 190 191 187 182 174 173 179 179 177 177 176 179 178 181 177 179 174 173 175 176 185 190 198 194 194 202 205 202 205 202 192 194 196 197 196 191 189 189 187 180 175 167 151 155 146 161 167 169 172 170 173 177 176 181 183 176 182 182 174 179 184 182 184 180 174 174 179 171 168 173 177 177 173 176 164 169 171 160 157 173 177 182 189 191 190 190 190 188 183 176 174 178 173 169 167 173 177 181 173 163 153 159 165 165 161 133 103 126 124 109 121 120 132 128 129 124 117 102 95 125 122 84 69 57 69 101 79 67 42 25 17 17 18 18 16 16 14 14 13 14 24 30 31 29 26 23 17 19 20 20 20 20 20 20 17 
79 89 90 92 96 90 86 82 80 79 75 77 80 79 80 83 84 85 87 99 84 67 66 82 87 59 48 55 52 94 58 57 68 63 47 44 41 44 65 73 121 129 107 124 140 134 109 111 109 129 110 93 88 84 78 80 89 97 110 116 133 145 151 166 156 133 107 71 41 68 106 143 154 166 166 176 187 196 192 193 196 192 185 181 172 160 156 161 160 149 139 138 138 149 155 166 171 173 176 172 162 158 161 157 155 159 164 174 171 168 173 177 186 198 205 206 204 204 206 202 200 203 208 210 210 206 205 205 205 205 201 200 196 193 194 190 185 184 184 185 191 194 188 188 188 188 188 187 181 171 166 169 171 171 168 165 164 160 154 152 151 147 153 158 163 169 174 181 181 185 194 197 201 210 206 198 190 195 198 199 199 190 185 184 184 177 170 161 153 144 153 161 166 174 168 166 172 181 182 186 178 183 184 175 177 180 185 187 180 173 177 176 175 171 176 177 179 174 183 173 171 177 177 166 172 183 186 188 191 191 190 193 195 189 179 174 185 185 178 176 173 173 180 186 173 156 148 149 156 163 159 135 116 110 105 113 117 117 123 124 124 125 127 119 110 125 113 101 92 70 99 96 91 93 41 18 16 16 16 14 15 13 13 12 14 18 25 33 29 30 32 23 19 20 19 20 20 20 20 17 
79 89 87 82 84 85 82 80 78 77 71 75 77 77 79 83 83 84 88 93 78 71 63 70 84 59 46 50 45 82 86 67 49 47 47 49 47 42 60 84 125 137 123 118 138 148 109 112 104 123 109 91 80 71 69 87 94 99 108 119 146 142 149 161 145 118 99 64 43 75 111 143 154 169 170 185 190 195 193 195 197 192 183 172 163 150 143 152 150 147 138 135 127 128 138 141 155 160 166 168 166 159 155 155 154 154 154 161 158 156 165 165 177 195 203 204 200 200 204 202 201 202 207 211 207 200 205 204 202 202 198 197 194 192 195 193 188 186 185 187 190 192 188 185 186 186 183 180 173 166 158 157 153 152 151 148 152 148 138 122 107 109 129 132 126 140 157 164 166 177 183 185 195 207 206 206 198 201 198 197 200 195 183 177 181 179 174 166 150 144 148 155 166 177 167 163 170 183 182 184 180 183 183 174 177 182 183 183 176 171 177 175 178 180 181 180 180 175 185 181 175 184 186 180 177 184 183 184 180 182 188 196 201 205 201 185 176 188 190 191 183 176 175 182 176 169 152 140 148 157 161 153 129 100 96 105 115 121 121 115 123 131 147 140 126 105 100 124 101 86 101 107 55 77 70 30 17 12 14 13 15 13 13 14 15 15 18 26 29 28 27 29 30 24 20 20 20 20 20 17 
81 90 85 84 83 81 81 81 82 77 71 75 73 72 75 79 80 83 88 87 68 61 58 66 85 65 47 53 50 66 79 58 39 41 51 51 44 41 67 81 112 134 118 112 132 143 102 98 92 122 111 86 75 77 89 101 97 100 107 124 150 138 139 147 140 116 92 56 45 85 121 145 159 168 170 190 197 194 189 189 185 175 165 159 166 159 153 153 152 153 155 154 144 135 135 128 138 150 159 163 169 167 158 158 151 150 144 148 151 152 156 152 167 191 198 202 197 197 204 206 206 206 208 208 207 207 206 202 201 199 198 196 191 191 190 191 188 189 186 184 186 189 189 188 188 186 185 177 166 159 148 147 140 135 133 122 131 132 122 114 106 111 117 121 115 115 124 136 154 167 174 172 181 201 208 208 205 204 200 193 194 199 190 176 171 170 173 171 155 146 148 156 168 178 170 166 174 185 185 186 184 185 183 174 173 178 183 182 179 176 175 173 180 187 180 175 173 174 182 178 167 178 183 182 180 181 182 186 182 185 191 196 203 209 209 201 179 178 191 198 194 187 175 172 170 168 167 157 152 149 161 164 153 128 98 101 105 114 126 116 122 128 145 156 145 138 118 134 119 88 67 94 97 57 79 82 60 26 18 12 11 13 14 13 13 13 16 19 25 29 26 31 35 31 26 22 21 20 21 18 
87 92 85 86 84 81 80 81 82 78 72 72 75 74 72 73 74 76 81 80 62 56 52 59 76 66 50 59 51 60 71 52 33 35 51 49 39 44 66 71 87 126 113 114 120 115 93 82 87 108 103 88 87 93 97 104 100 99 101 120 138 138 140 146 138 115 80 48 44 91 124 148 165 164 170 186 194 195 189 183 174 160 159 169 176 166 153 149 152 147 152 155 149 155 160 148 150 158 156 160 166 171 172 172 159 154 138 139 148 149 147 147 163 183 192 201 195 193 201 208 210 208 208 209 208 207 204 201 201 199 199 197 191 192 188 188 184 187 189 182 183 186 186 185 185 183 183 177 166 160 150 141 136 137 143 138 152 153 143 147 147 145 149 152 152 134 114 114 132 144 156 162 172 188 201 203 205 201 199 189 192 194 187 177 172 164 162 167 162 149 142 150 160 172 170 172 176 183 181 182 181 185 186 180 176 177 184 184 183 181 177 172 176 187 182 173 166 174 181 183 173 170 174 177 185 178 181 189 179 184 198 197 196 203 203 205 197 181 183 194 195 194 184 172 168 163 165 166 153 145 151 160 155 148 127 112 108 111 122 119 110 119 132 147 156 156 153 151 145 120 81 74 108 63 22 42 59 48 30 16 13 17 17 15 13 13 19 19 20 25 26 24 26 33 34 29 25 24 23 19 
91 95 85 82 79 79 79 80 78 75 70 72 77 76 74 74 74 75 81 77 63 59 56 57 62 60 56 67 46 52 66 48 34 30 44 59 50 64 91 98 97 133 123 126 119 103 104 87 92 110 106 98 95 93 93 96 94 94 102 119 131 138 147 148 117 100 73 44 53 97 128 154 166 159 167 185 194 191 187 176 162 160 173 185 169 151 138 142 146 142 145 149 141 144 147 147 150 160 158 153 158 165 175 175 173 166 142 139 143 143 144 135 150 168 184 195 196 197 201 208 213 209 208 209 207 205 202 200 202 199 197 196 190 186 184 184 180 184 187 187 184 185 182 180 180 182 185 184 171 163 158 154 155 161 170 165 160 152 144 147 150 145 151 153 158 164 148 119 104 113 138 157 161 173 190 197 203 199 196 186 188 191 179 178 180 166 154 159 165 151 140 150 155 164 165 169 173 179 179 182 178 183 183 183 181 180 186 186 186 181 177 177 178 183 185 180 164 167 176 182 181 177 176 173 180 182 182 192 190 182 193 197 194 195 194 197 201 190 180 181 189 192 189 184 171 168 161 162 156 143 142 153 155 151 142 120 111 114 121 127 118 105 119 126 145 155 159 157 154 155 128 83 77 84 31 12 21 40 51 35 15 16 16 15 14 16 21 20 18 19 20 18 19 24 29 34 33 30 22 17 
87 91 84 84 80 79 81 78 73 71 70 70 70 72 75 79 76 73 77 71 61 59 60 59 53 55 66 67 45 45 56 55 50 51 61 84 66 68 84 101 110 131 126 130 108 80 89 89 98 110 107 104 91 95 102 96 93 97 104 124 136 128 140 143 112 91 63 43 67 107 127 157 164 157 165 187 199 186 180 164 158 172 179 179 144 127 123 130 139 147 148 152 152 149 143 137 137 143 147 150 157 164 173 179 178 175 162 150 140 129 132 127 138 156 176 190 193 197 202 203 206 210 211 208 204 201 197 195 195 191 190 195 192 188 183 181 182 186 183 186 183 184 179 176 180 185 181 175 167 166 169 167 166 160 158 148 139 141 147 152 152 153 153 154 150 155 159 144 113 109 131 148 143 150 176 190 196 193 194 193 190 196 192 192 189 175 163 157 159 154 146 148 155 165 164 163 171 177 177 184 178 181 176 180 179 182 186 186 192 187 177 177 180 180 179 184 174 164 164 179 182 181 179 171 171 179 187 183 193 188 183 186 190 193 195 196 201 200 187 171 165 178 186 193 184 171 161 152 157 151 140 142 156 152 155 136 117 119 135 130 129 114 121 134 140 130 139 155 168 166 158 128 85 88 61 21 13 20 34 45 29 15 12 12 15 17 17 17 18 19 20 20 20 20 24 28 36 45 36 24 
80 84 81 87 81 79 82 75 70 69 69 67 64 68 73 77 76 75 71 64 60 60 61 55 50 52 59 56 44 41 54 66 60 55 57 66 57 57 60 82 101 126 137 139 102 80 82 93 99 110 117 105 95 96 93 92 89 94 110 131 136 126 142 147 119 87 55 37 67 113 130 159 164 157 165 188 198 185 169 155 160 173 164 141 122 123 119 121 137 151 153 150 154 152 152 147 146 148 152 155 153 155 162 180 188 179 166 160 149 129 120 115 116 135 165 184 192 194 195 196 199 203 204 205 202 198 195 191 186 182 185 189 185 184 185 188 189 187 180 181 178 183 177 171 177 177 173 172 174 175 173 174 169 145 132 131 137 142 141 147 143 149 157 169 161 155 160 163 146 115 110 122 129 126 149 174 190 193 194 192 183 190 190 185 188 180 166 162 164 162 146 144 155 164 165 170 177 176 177 188 179 175 177 183 183 184 183 182 186 184 168 165 172 184 177 178 177 165 158 174 177 181 180 177 171 174 184 190 194 192 187 181 185 191 196 196 196 191 190 186 172 164 170 192 201 192 177 166 168 163 147 132 148 145 157 162 148 127 134 123 133 129 125 137 131 109 109 119 142 159 159 160 130 96 96 61 22 12 15 20 24 23 19 13 14 17 19 21 20 20 20 20 20 21 23 22 26 34 37 33 
78 81 76 80 79 80 81 74 69 67 66 64 65 68 69 72 77 75 71 65 63 61 58 53 52 53 51 49 42 34 48 60 51 40 43 52 50 49 63 91 109 127 141 147 104 89 75 84 91 102 112 95 91 90 90 89 84 100 125 139 131 125 152 154 115 80 47 36 64 104 131 162 162 156 168 189 192 176 156 159 154 150 142 122 109 108 117 126 132 139 146 143 142 145 152 150 153 150 153 152 153 152 153 167 182 185 179 172 154 130 118 115 108 120 151 172 184 188 187 192 200 201 203 205 207 201 198 194 184 178 182 188 188 188 190 190 189 185 179 176 171 177 176 165 166 164 166 172 181 180 175 161 136 125 115 120 140 150 150 157 155 159 158 164 165 163 162 157 153 139 131 126 130 118 123 155 185 192 193 189 174 179 183 183 185 178 163 157 158 162 149 143 153 160 160 168 175 179 180 186 177 176 183 184 185 181 180 178 181 176 165 167 166 180 183 178 179 172 165 172 166 176 180 181 171 172 176 183 191 189 187 186 187 189 191 190 191 184 187 193 193 174 158 166 191 201 192 181 178 176 155 138 138 126 140 160 172 154 146 133 134 129 121 132 132 110 109 110 107 114 120 136 158 151 151 109 65 37 23 15 14 18 21 22 17 15 16 21 20 19 20 20 20 20 20 20 21 26 29 30 
78 81 74 73 78 82 81 72 66 63 65 63 65 67 62 67 74 70 66 64 61 58 57 55 50 49 41 44 41 28 35 48 46 39 42 52 49 44 54 88 118 135 139 142 99 86 83 89 90 99 107 90 81 78 78 76 83 106 124 134 131 127 149 149 107 73 42 37 70 106 131 160 164 159 173 186 191 173 160 163 151 135 124 113 108 99 98 100 94 90 93 93 95 103 132 148 149 147 148 143 153 156 152 153 171 187 193 189 166 139 118 113 100 101 129 154 172 183 187 195 199 199 201 198 202 203 196 193 187 182 186 190 191 193 191 186 180 176 174 167 163 163 166 161 164 163 167 161 162 156 134 118 102 112 111 126 142 147 160 179 182 184 183 187 183 173 161 156 153 158 155 140 127 126 118 134 167 186 191 192 180 174 175 179 182 181 165 159 154 157 151 144 153 162 164 162 168 182 179 176 171 179 179 175 181 177 177 177 183 172 160 164 169 176 182 176 179 178 177 176 169 175 180 181 179 180 178 168 182 191 183 180 187 185 186 186 184 178 178 179 186 186 175 164 173 182 197 192 183 185 163 147 144 127 124 135 149 152 151 148 139 132 122 124 134 132 118 114 109 96 94 89 117 156 175 164 130 77 42 26 17 15 17 21 22 21 19 16 18 19 20 20 20 20 20 19 19 21 24 23 
73 77 71 70 76 80 78 69 64 62 64 65 69 71 65 65 66 70 67 66 61 56 54 53 47 45 36 39 39 26 29 37 42 40 40 49 51 46 46 79 102 120 137 131 99 83 93 84 76 94 102 86 72 71 77 81 89 101 121 132 138 137 144 136 104 71 42 40 76 109 129 158 168 156 171 180 172 166 164 148 128 111 101 104 101 84 78 88 108 120 126 120 111 110 107 98 106 140 155 147 147 148 148 145 160 181 189 191 183 153 116 115 105 95 122 148 170 180 187 195 197 195 198 194 197 200 195 192 185 179 186 192 195 191 189 181 171 167 163 156 155 158 168 179 181 171 169 164 147 125 104 103 101 101 91 87 81 84 99 111 118 141 170 194 197 186 164 163 157 156 155 152 129 127 148 148 155 176 186 187 182 174 171 179 183 179 168 167 163 158 155 147 152 164 171 167 163 180 178 172 176 183 179 172 174 174 177 183 184 172 157 151 162 171 177 177 181 181 182 179 171 168 181 182 180 179 184 180 176 184 187 183 188 187 183 184 182 171 171 169 170 180 183 181 176 169 176 186 184 182 174 158 152 141 130 135 127 126 145 157 154 145 127 120 130 143 141 119 117 106 100 86 86 118 143 154 170 147 99 57 25 15 16 15 17 20 22 18 19 22 20 20 19 18 19 19 19 19 21 19 
68 75 71 72 76 79 73 65 66 65 65 66 68 72 68 62 62 68 68 65 62 56 52 50 47 41 32 34 39 32 28 30 40 47 47 48 43 34 37 76 92 99 141 130 95 90 90 71 73 89 90 81 65 72 84 92 87 97 129 134 132 138 150 128 93 72 43 43 78 106 133 164 173 155 173 189 165 159 150 137 112 97 94 89 85 95 118 152 187 203 206 201 191 185 170 134 100 112 131 148 154 139 136 142 149 169 181 185 186 163 118 104 104 88 113 145 171 180 186 193 196 194 198 197 200 197 194 189 179 179 186 189 194 193 185 172 161 159 152 145 146 155 164 175 172 158 158 153 128 108 103 105 94 78 68 72 80 91 88 68 55 68 97 123 139 169 168 166 156 150 152 151 153 140 150 159 153 169 183 187 181 174 170 174 178 174 165 158 162 154 150 145 148 159 171 171 161 174 174 173 181 181 176 168 167 170 176 183 177 169 160 148 160 173 176 177 177 181 181 181 176 169 177 184 182 176 183 189 181 179 187 195 197 191 185 182 185 179 165 155 158 160 160 164 176 173 161 166 183 192 184 173 164 151 133 118 126 112 114 134 149 159 142 125 138 137 145 142 129 115 104 91 79 87 111 116 122 154 154 129 74 31 16 17 18 18 17 22 21 25 20 20 19 18 19 20 20 20 21 21 
66 77 74 72 75 73 70 66 69 69 70 68 67 69 64 60 59 64 64 62 61 57 51 51 48 41 35 35 41 39 30 28 35 46 47 46 39 37 45 87 103 98 145 124 100 94 76 65 78 94 92 83 69 82 94 100 88 109 139 130 130 141 150 123 92 76 47 46 80 103 137 162 167 155 172 182 158 145 133 127 101 84 76 87 120 155 179 201 216 220 216 192 165 152 138 129 123 127 117 120 146 145 125 130 140 156 169 176 183 174 134 96 98 82 100 141 172 180 186 193 196 196 200 199 197 193 190 184 178 184 189 188 189 185 175 161 152 152 145 146 154 153 154 159 158 153 146 134 130 129 112 99 98 111 130 156 177 187 171 134 111 117 126 79 53 76 109 139 146 137 146 146 160 160 149 163 151 156 179 193 185 172 172 171 177 176 170 157 157 153 153 152 150 155 168 172 166 172 171 172 176 183 180 172 170 175 179 179 179 176 164 149 165 175 168 170 175 177 180 180 178 176 181 181 180 180 184 190 189 179 174 183 196 196 186 182 181 179 173 166 162 155 146 144 155 160 160 158 164 180 188 187 172 162 153 128 136 133 101 106 118 145 151 131 139 142 130 143 152 135 118 108 78 63 78 108 96 81 109 137 131 79 35 26 21 21 20 20 16 21 24 22 20 19 20 19 19 19 21 19 
71 81 77 76 76 68 66 66 66 66 65 64 68 66 60 61 61 63 61 61 62 58 52 47 44 40 38 39 42 40 32 30 38 40 37 40 41 40 45 78 101 100 145 120 99 78 67 63 86 95 92 78 72 84 91 106 98 119 142 130 134 146 157 117 99 88 55 51 83 110 138 158 161 156 175 173 156 143 116 105 87 76 88 128 170 195 204 216 221 211 172 126 98 87 76 79 84 110 133 125 116 128 142 135 124 138 155 163 182 185 149 94 93 85 90 133 170 179 186 196 199 199 198 196 195 187 182 185 183 185 188 190 187 183 172 151 149 148 144 150 159 153 146 155 149 134 127 126 130 128 119 135 163 186 197 208 204 183 159 132 127 138 135 79 56 42 53 88 126 140 147 139 142 158 155 160 134 137 170 186 190 183 179 178 185 185 181 175 169 160 157 153 152 159 168 166 162 174 175 172 172 176 173 170 172 171 174 175 178 176 165 151 162 166 170 171 178 172 179 179 178 180 184 181 180 186 186 187 189 186 171 172 183 195 192 187 183 179 180 179 171 163 154 147 145 146 149 156 159 156 167 183 183 176 160 150 147 139 115 101 105 123 138 139 138 142 132 128 148 156 146 129 88 59 63 86 112 71 63 83 113 127 88 42 21 20 24 22 18 18 22 22 24 24 22 18 17 20 21 17 
77 89 82 77 76 70 64 61 60 60 60 60 65 64 62 63 61 63 61 61 60 55 48 43 40 36 35 34 33 35 32 37 38 34 36 36 40 40 48 67 91 117 150 112 92 77 77 74 95 99 93 74 75 88 97 108 101 119 140 141 141 156 153 106 96 88 52 43 78 116 135 148 153 158 174 165 160 147 102 87 76 91 126 163 193 208 212 219 211 170 110 75 54 49 43 45 49 69 105 132 132 115 141 160 134 125 134 150 169 175 152 96 87 83 88 125 163 178 190 202 205 204 200 196 195 186 182 184 184 184 186 190 185 178 165 146 150 146 145 147 151 150 140 142 138 128 132 132 128 128 148 180 197 205 207 195 157 118 94 73 70 73 80 72 65 65 86 80 85 118 141 138 131 150 160 156 136 140 164 182 191 184 176 172 177 180 177 176 175 166 162 156 162 166 166 165 161 174 174 169 168 170 171 168 168 163 166 170 174 173 166 158 162 164 167 167 181 178 180 180 176 181 188 188 181 181 183 184 187 191 184 178 178 189 191 186 186 184 180 175 177 171 165 160 149 146 143 146 156 161 157 156 158 163 155 144 146 135 130 119 100 109 121 130 139 153 148 129 124 153 164 142 118 84 63 59 94 108 70 54 56 104 133 97 42 22 24 22 20 19 18 18 21 22 23 24 24 23 24 22 
77 93 86 75 74 72 65 60 62 63 61 60 63 63 63 62 62 64 62 62 61 55 46 41 38 34 31 29 29 32 37 38 29 27 36 37 32 33 57 78 92 129 156 109 80 81 84 76 84 99 92 73 77 86 91 98 107 118 135 154 153 166 146 106 91 89 57 47 89 133 143 148 157 166 168 144 149 141 95 79 80 121 148 169 195 207 209 211 179 116 75 52 37 35 41 64 50 45 78 115 140 146 140 143 149 145 134 137 159 166 149 95 89 83 93 131 165 179 190 199 199 195 194 193 188 181 180 180 180 183 188 190 183 171 155 145 154 156 154 154 155 149 139 135 135 142 140 134 139 157 179 195 197 203 199 154 99 71 49 35 30 33 36 43 58 83 132 122 63 69 107 131 134 146 157 156 156 156 160 182 189 184 179 176 178 179 177 178 179 169 160 154 163 164 163 166 160 170 173 172 168 163 169 175 169 161 160 164 171 171 166 164 164 170 170 162 174 179 187 187 176 177 188 190 186 181 182 181 187 189 186 189 188 187 190 185 187 191 180 165 170 172 174 176 164 146 143 138 146 154 154 155 156 164 160 146 142 132 125 133 112 110 125 125 141 154 162 154 123 128 148 150 139 118 75 50 61 101 91 63 44 50 86 111 90 43 26 21 17 19 19 17 19 22 23 25 25 24 23 21 
79 89 83 76 73 73 68 62 63 62 60 60 61 63 63 62 63 64 64 64 62 56 48 41 38 33 30 28 30 33 36 31 32 40 45 41 28 34 54 79 93 136 157 110 63 75 88 81 81 98 88 67 83 91 87 89 109 116 138 157 164 167 144 112 93 88 55 52 97 140 144 154 162 170 168 151 157 133 98 79 88 137 143 158 189 203 206 200 142 84 57 42 34 37 88 180 119 45 69 111 138 183 196 172 143 154 159 144 146 159 151 97 90 85 99 135 162 175 181 189 187 186 187 186 183 179 179 179 176 177 182 185 175 162 148 149 165 167 160 160 160 151 151 152 153 150 132 132 147 171 186 195 199 198 175 116 76 48 23 21 32 33 23 28 42 64 97 132 112 77 86 116 132 144 151 157 157 156 154 170 182 181 176 167 169 175 181 185 184 172 159 155 157 157 160 167 164 169 176 180 177 165 163 173 170 165 162 163 165 162 158 166 168 162 172 171 170 165 181 193 178 168 176 186 190 186 185 182 186 187 184 189 191 193 194 187 185 189 181 168 166 163 165 173 174 160 152 145 145 145 142 146 153 159 165 171 170 158 143 140 134 128 149 155 169 151 149 161 140 126 121 144 144 125 98 62 51 61 90 91 64 45 44 64 104 96 53 23 16 18 21 19 17 21 23 23 23 23 24 23 
80 88 83 79 76 74 72 68 65 59 57 57 59 63 63 64 62 62 63 63 59 56 50 42 38 33 30 28 30 33 33 32 33 45 47 43 41 45 46 75 107 156 160 106 53 75 81 76 80 97 93 80 89 90 84 83 109 125 148 163 169 157 132 109 93 89 59 60 101 135 137 149 160 171 164 161 169 135 111 103 118 147 141 152 181 197 202 188 119 76 49 35 31 38 87 175 126 55 62 105 137 188 214 207 144 127 171 172 151 153 155 101 89 85 108 144 166 174 180 185 182 182 185 185 186 182 180 179 177 178 175 181 175 163 153 166 187 182 170 163 158 158 166 161 153 141 138 155 168 184 188 196 205 196 156 99 69 36 20 46 134 107 31 26 34 54 74 126 165 135 99 93 119 142 150 165 169 164 158 164 177 180 177 166 162 169 178 178 175 174 170 166 158 155 155 160 161 171 181 181 182 176 169 171 171 171 166 156 151 153 158 166 167 155 173 176 177 160 164 185 181 176 170 175 183 186 188 181 180 180 180 186 185 192 189 184 185 194 189 171 160 156 152 160 173 167 162 164 156 145 141 137 143 142 146 156 172 174 162 147 135 143 155 148 165 153 140 148 149 142 123 127 147 138 122 89 63 54 72 87 78 56 49 39 59 98 93 48 21 17 22 22 17 19 22 22 22 23 24 22 
79 88 83 78 72 71 69 67 67 62 57 57 58 61 61 61 62 63 64 63 59 57 50 42 38 33 30 27 30 34 32 32 26 29 35 47 73 62 40 77 109 160 157 98 53 71 76 74 78 93 98 92 93 94 86 81 109 136 153 172 168 152 117 98 94 93 68 65 106 137 136 150 161 167 156 162 166 144 127 134 157 161 150 144 167 187 198 191 118 75 52 36 30 32 40 58 53 53 64 103 145 196 211 192 139 107 147 179 161 152 158 104 85 85 118 151 166 174 181 180 182 183 180 181 183 180 179 180 179 178 179 183 179 166 155 179 198 196 187 181 175 177 176 165 160 153 162 171 173 180 182 192 200 190 147 92 62 33 22 45 159 139 39 26 32 50 71 120 176 184 136 87 107 135 146 159 166 163 155 162 167 170 170 167 159 157 169 178 184 186 180 172 163 160 157 161 159 173 185 183 186 186 179 176 173 170 160 152 146 151 165 167 165 159 173 172 173 169 164 183 179 177 170 170 180 179 184 182 177 174 174 178 179 182 183 184 182 190 190 177 164 156 152 153 166 167 163 166 169 157 148 136 129 131 138 135 139 152 164 159 150 150 155 142 133 131 130 137 138 137 127 120 127 137 136 112 86 60 50 43 44 52 48 42 30 58 101 85 41 21 25 24 20 21 20 20 22 23 23 19 
78 84 78 74 68 67 64 63 64 60 56 57 58 60 60 57 58 62 63 63 61 58 47 41 38 33 30 28 33 33 31 31 25 26 29 37 57 49 46 89 99 154 149 92 73 69 78 80 84 95 106 101 93 93 82 79 110 137 156 161 155 155 114 88 91 96 75 69 114 144 139 155 156 155 146 164 166 152 151 154 165 167 148 128 148 173 185 182 133 80 59 39 32 32 30 32 32 48 77 115 158 201 197 167 133 111 119 156 161 163 162 100 78 90 128 156 166 173 181 180 182 181 175 177 181 182 181 177 173 171 176 182 175 163 158 184 197 196 193 194 190 186 171 153 167 166 168 179 181 169 173 187 194 188 156 102 61 32 23 22 46 47 25 23 30 43 69 129 187 194 161 111 115 135 147 142 138 154 159 161 164 168 172 172 161 163 179 187 193 190 175 164 162 163 163 163 159 170 184 188 186 184 178 176 173 166 155 157 160 159 167 166 164 164 171 171 171 171 169 184 180 171 170 170 184 183 178 177 173 172 171 172 172 177 175 173 173 181 185 171 164 157 156 149 154 163 163 166 176 159 152 150 142 132 130 132 136 142 145 145 157 157 160 149 129 124 128 127 119 120 137 136 115 125 135 125 113 81 47 35 31 54 50 42 39 38 77 104 68 37 26 21 21 23 20 20 22 23 23 19 
77 81 75 71 65 67 61 60 60 56 57 57 59 60 60 58 59 60 62 65 64 58 48 43 39 35 30 31 34 31 28 29 27 25 26 35 48 41 71 96 97 161 147 77 85 78 82 85 86 91 111 108 93 87 73 64 97 128 153 163 163 163 115 88 89 100 75 71 118 148 141 158 160 150 145 172 179 170 171 157 154 161 144 121 142 169 178 182 153 101 77 58 48 46 36 32 45 86 100 125 155 185 172 137 115 111 127 148 161 167 140 83 78 106 135 154 161 166 175 177 181 183 177 176 177 179 181 178 174 172 174 175 166 161 158 176 193 196 195 194 185 168 143 131 157 160 153 171 195 166 172 186 198 196 176 124 87 42 24 18 17 18 18 23 34 59 79 141 179 171 150 138 141 147 158 144 131 158 168 162 164 168 174 173 168 178 185 179 181 183 168 160 156 157 160 158 161 173 183 183 181 183 173 168 166 167 165 162 165 166 168 166 164 165 171 173 171 169 172 187 187 174 177 175 181 186 181 180 181 179 175 180 171 166 166 168 165 167 176 170 163 159 159 152 147 158 163 166 176 163 149 153 153 149 143 133 137 146 147 140 141 146 158 154 140 124 126 130 122 107 123 149 136 115 119 117 123 111 77 50 42 37 40 40 34 40 54 84 84 49 28 26 25 22 19 18 21 22 22 21 
71 77 73 72 65 68 60 59 58 55 57 55 59 61 61 60 61 59 61 66 63 57 50 45 41 37 33 36 34 30 32 33 32 28 30 41 47 63 84 87 102 160 151 86 71 75 97 97 80 76 103 112 97 86 76 67 89 121 151 164 165 146 95 86 95 103 82 74 117 143 131 149 166 157 150 172 186 173 171 144 137 148 148 130 134 154 167 180 173 140 95 82 71 63 51 50 88 160 149 148 155 163 151 125 118 137 153 151 155 153 108 78 89 126 152 159 163 166 171 172 177 183 181 179 176 178 180 179 178 178 171 163 161 159 157 175 192 198 193 193 177 152 145 139 144 143 134 132 153 145 151 161 174 182 180 134 106 68 42 27 21 20 20 30 48 72 100 150 159 150 139 140 148 160 173 167 157 169 167 165 165 167 176 181 178 183 184 178 178 178 167 161 162 162 160 159 167 172 178 181 177 172 168 168 168 168 169 172 169 167 161 158 163 158 160 169 170 172 171 183 192 171 175 181 179 175 177 181 182 182 177 178 170 157 158 164 165 158 163 170 159 157 165 161 147 151 157 159 170 164 149 154 147 147 149 145 140 144 154 157 144 133 131 142 156 146 132 126 119 106 107 127 149 124 108 114 117 117 105 67 42 31 21 33 34 30 45 59 88 74 35 30 33 30 26 23 21 22 24 23 
72 79 72 73 66 66 60 59 57 55 54 52 56 60 60 58 57 59 63 63 59 54 48 44 41 36 36 41 35 30 34 35 35 31 37 57 67 97 86 83 121 158 145 102 61 81 95 92 76 71 102 110 90 78 68 71 93 120 144 162 165 138 87 85 101 95 85 87 121 135 122 143 164 161 162 176 192 165 149 125 124 136 152 153 143 144 152 160 169 168 130 101 93 93 92 103 134 177 178 171 163 152 141 137 142 163 166 156 162 138 91 83 106 139 157 161 165 168 168 166 170 177 180 181 177 177 180 178 179 180 177 170 164 157 160 175 189 195 186 184 171 158 160 154 148 146 139 128 137 148 147 151 150 151 159 132 98 75 68 55 57 43 38 53 68 82 122 149 148 149 150 145 146 157 168 174 167 164 167 169 170 167 172 177 178 179 178 179 180 173 169 161 166 169 169 170 173 173 176 177 174 170 172 178 175 169 174 176 168 165 159 158 159 156 161 164 166 174 173 175 192 173 169 183 184 173 175 182 180 175 175 172 168 162 158 154 159 159 159 163 156 158 162 161 154 151 148 146 157 159 152 155 146 147 142 140 137 138 144 157 161 159 134 118 132 158 154 129 119 117 113 94 110 132 113 110 114 112 122 101 59 34 17 16 32 31 29 37 67 91 50 23 28 31 31 28 23 22 24 23 
73 82 74 70 67 63 60 59 57 56 53 52 53 57 56 52 52 58 62 59 57 54 46 42 38 37 39 40 37 33 34 33 32 34 65 99 103 99 72 61 129 152 139 104 56 88 71 75 80 73 98 103 86 77 67 78 91 107 132 151 155 131 88 85 104 91 81 99 139 144 124 139 164 165 171 179 183 147 122 103 101 121 150 150 146 146 146 145 153 152 149 139 135 147 155 165 175 183 189 186 177 164 141 141 161 179 180 165 157 111 78 89 121 147 153 162 167 170 172 170 170 174 176 178 175 172 176 175 174 174 179 174 163 151 156 166 174 177 169 168 168 167 165 162 152 141 139 143 148 151 153 154 148 143 146 136 120 101 93 83 123 108 80 94 103 120 142 145 143 145 142 144 150 156 161 173 170 168 175 174 176 167 168 167 170 173 173 178 178 177 179 178 177 175 170 170 171 175 174 171 172 172 171 176 174 171 180 177 167 153 154 156 151 155 166 162 158 174 175 166 184 181 170 177 178 170 168 174 176 172 173 168 157 158 153 151 154 161 153 150 155 153 157 159 157 156 151 148 142 142 148 154 149 150 137 125 127 131 135 143 156 173 168 143 127 147 157 147 134 120 111 96 80 100 119 109 116 118 116 117 91 51 26 16 18 29 26 24 43 89 81 28 18 21 25 26 27 26 26 24 
71 78 73 67 62 61 61 59 57 56 50 49 49 53 52 51 51 59 61 58 57 55 47 44 40 41 41 42 41 37 39 42 47 65 117 128 85 57 48 56 118 134 131 98 55 77 55 69 79 71 86 101 90 83 67 76 83 98 131 139 146 117 80 83 104 92 83 113 157 156 134 141 162 165 183 181 168 134 111 102 94 106 127 126 127 135 148 146 154 157 165 162 157 167 178 182 183 185 186 182 167 154 143 156 183 194 196 186 149 89 76 99 130 151 154 158 165 172 171 174 176 174 176 176 174 173 176 176 171 170 175 173 165 155 159 162 171 168 164 168 170 170 166 158 154 140 136 149 156 149 145 141 145 152 147 130 123 138 141 122 130 137 140 151 152 157 150 142 135 139 137 143 154 159 158 162 161 165 166 170 178 167 166 168 166 169 176 182 181 182 182 182 179 174 165 163 164 172 170 168 170 169 171 178 177 169 176 174 166 148 153 158 161 158 163 163 158 177 183 166 183 185 169 173 178 177 173 176 176 172 175 173 163 158 151 151 148 149 153 149 155 157 149 147 152 156 155 147 143 140 141 150 155 149 146 135 129 125 126 126 140 158 159 160 143 134 138 145 146 135 118 106 77 69 107 129 125 135 118 101 97 81 46 17 15 24 24 18 21 57 91 50 18 15 20 23 26 27 26 22 
70 75 71 65 58 59 59 55 53 54 49 47 47 51 49 49 51 55 58 56 55 52 47 44 41 39 35 39 44 37 36 43 62 94 107 98 57 56 45 63 133 136 129 102 72 62 45 62 71 67 84 108 96 88 77 79 80 96 135 134 143 111 81 89 105 91 84 114 156 152 133 146 161 171 191 170 138 126 115 119 112 104 104 109 115 122 132 130 146 155 159 152 156 149 151 161 166 166 168 162 146 150 163 178 191 201 199 176 127 83 76 99 125 144 153 157 162 170 174 175 175 179 178 179 177 176 173 172 168 166 171 177 169 159 158 157 173 179 174 169 163 160 154 148 150 149 146 150 147 150 145 137 144 147 128 118 122 138 156 156 156 163 170 163 153 162 147 141 130 127 133 144 156 158 153 154 157 159 160 163 165 164 167 169 169 170 174 184 183 182 180 182 180 177 170 166 169 172 167 163 168 175 179 182 178 170 177 176 165 151 158 155 164 159 163 169 167 172 183 164 182 187 168 172 187 189 178 177 176 172 170 164 163 154 150 154 147 142 155 161 158 157 156 155 156 153 150 142 140 140 143 138 153 150 150 154 149 141 132 111 113 138 149 160 160 147 132 128 144 148 129 114 90 65 74 114 132 140 126 93 84 104 82 25 10 19 23 23 16 27 71 79 30 16 16 20 24 24 25 19 
72 76 70 62 56 55 55 48 46 49 48 47 49 54 50 48 50 51 53 54 53 51 49 47 44 39 34 40 44 45 49 61 100 96 70 67 46 56 46 74 153 141 119 104 82 45 45 60 71 69 77 92 90 84 72 63 64 85 135 132 139 97 73 90 105 89 89 116 151 146 122 139 164 173 172 140 114 123 125 133 131 122 109 106 103 100 103 107 122 133 140 130 138 136 139 145 157 164 148 142 151 165 174 181 179 190 180 137 105 85 78 93 120 143 160 171 169 174 176 172 169 171 169 170 175 177 171 169 168 167 174 180 171 169 162 156 161 170 179 176 161 150 144 139 138 147 151 153 145 140 138 143 145 139 119 114 116 120 136 154 165 171 162 134 134 147 131 136 135 136 135 124 133 145 146 146 156 161 156 152 156 160 162 163 169 172 176 183 185 183 179 182 179 175 168 168 179 180 167 166 172 175 180 183 178 178 178 169 158 158 168 158 163 164 164 167 176 170 180 166 180 188 176 171 181 191 181 176 180 175 164 151 152 155 147 151 159 147 145 154 160 156 158 153 156 161 157 151 147 151 156 143 148 153 149 153 153 153 152 134 111 108 125 148 162 159 144 122 127 148 141 122 102 79 69 83 119 138 130 102 77 93 101 54 15 14 18 23 17 19 42 85 51 16 15 17 22 23 27 22 
74 80 70 59 53 52 51 44 43 45 45 44 46 56 57 50 49 50 53 53 53 55 54 50 46 40 35 38 55 78 75 83 95 64 54 45 46 37 37 81 137 130 121 102 67 32 44 55 65 73 77 81 79 77 66 62 65 80 125 129 137 88 68 91 101 83 92 115 141 140 113 121 156 161 140 111 117 134 138 144 148 142 127 115 113 103 103 110 114 120 132 128 132 130 140 148 154 151 143 157 164 166 167 169 166 165 142 105 96 80 73 93 131 154 167 176 176 180 183 181 176 173 175 168 169 174 170 168 168 172 177 180 176 178 168 163 161 161 173 177 165 154 146 142 142 145 152 158 152 145 137 132 130 136 132 127 122 123 122 124 142 143 123 113 128 140 137 141 148 149 138 128 127 146 153 147 150 159 160 148 145 148 152 152 160 168 178 184 185 183 180 182 174 170 168 168 177 176 164 168 172 175 178 182 180 181 177 165 160 167 170 164 161 161 167 170 173 171 184 170 175 187 184 173 180 185 180 178 181 180 173 154 138 149 151 146 147 148 147 150 160 154 159 161 155 155 162 160 153 151 152 146 149 156 155 158 155 150 152 149 127 107 97 110 142 157 154 136 118 127 146 142 116 86 59 66 85 124 124 114 90 81 96 91 39 15 13 17 19 20 20 60 79 28 17 15 17 19 25 24 
72 78 70 59 50 48 50 46 45 45 44 44 42 43 50 48 47 49 53 53 54 56 47 46 43 37 37 49 71 69 63 80 66 62 56 38 42 42 48 104 149 124 128 101 56 36 49 54 67 88 84 77 76 78 66 66 72 80 107 135 129 82 66 87 93 80 93 110 128 133 114 116 143 148 123 110 129 145 153 154 152 144 137 130 131 127 127 132 132 133 138 135 137 148 151 152 163 158 164 176 173 168 169 167 153 142 110 86 82 72 72 95 135 151 160 169 171 177 184 181 177 174 176 169 167 166 166 168 166 174 176 177 179 183 176 167 159 163 170 176 176 163 145 144 145 147 150 156 161 163 152 150 141 138 136 131 130 135 144 138 136 128 120 125 138 143 148 153 155 145 142 145 134 145 158 154 157 161 162 155 145 145 146 145 150 160 175 185 181 183 183 182 171 172 174 171 168 164 159 165 171 174 179 179 175 175 175 170 167 166 163 165 158 157 164 166 170 174 182 172 173 186 184 174 177 176 173 182 179 179 179 164 144 137 148 150 142 144 154 152 150 151 158 162 164 156 161 171 171 168 159 152 145 146 149 154 155 150 157 155 145 135 116 94 103 144 156 148 133 115 126 142 127 103 61 50 56 91 121 116 107 89 93 95 65 21 11 13 19 20 18 35 81 47 20 17 17 18 21 23 
67 75 69 59 49 45 47 43 43 43 43 44 41 39 46 47 47 49 53 54 56 54 46 47 38 35 45 56 53 54 69 67 53 66 43 37 37 42 52 114 149 123 141 122 62 40 53 52 62 88 80 68 76 89 70 55 58 78 93 134 109 68 61 84 93 86 95 105 130 144 134 123 132 139 114 119 146 157 159 158 150 138 141 143 147 146 132 138 150 146 148 150 157 164 160 164 175 171 172 176 172 167 168 160 144 121 86 83 76 70 78 104 137 143 151 162 168 174 180 182 176 174 177 172 170 167 165 168 168 172 172 176 181 181 177 171 158 162 168 172 177 174 160 155 145 147 145 152 158 164 164 171 166 167 163 152 148 149 153 149 146 146 139 137 149 148 151 153 155 153 157 153 148 155 160 161 164 163 162 161 150 146 152 151 150 156 168 178 175 177 179 180 175 175 169 167 164 163 165 173 176 176 176 177 170 170 171 170 172 167 161 162 158 158 161 160 165 169 175 175 176 180 183 175 175 177 162 172 169 165 173 163 161 151 151 154 152 144 141 148 149 145 150 157 169 153 148 166 172 175 175 167 158 147 138 144 150 148 156 152 147 145 128 124 106 118 143 155 153 132 123 131 129 114 92 53 47 54 112 122 115 92 83 75 79 50 18 14 18 19 20 22 60 67 28 19 19 20 20 19 
64 70 65 57 49 44 43 40 40 40 42 42 40 37 42 45 45 48 51 53 53 50 49 49 41 46 51 51 53 61 62 51 57 55 46 43 34 33 60 117 129 112 143 128 64 41 47 42 53 80 84 69 65 86 71 55 55 80 91 127 105 63 61 82 96 95 103 112 134 147 140 130 127 126 114 125 149 161 164 168 155 140 148 152 155 150 136 142 153 154 158 167 171 169 177 182 179 173 169 175 169 163 162 158 143 111 88 83 74 73 84 114 141 140 149 166 174 178 181 183 175 171 175 172 171 171 167 168 172 172 169 169 177 180 174 180 172 169 172 173 170 173 166 157 156 162 152 148 152 157 166 172 171 177 180 174 169 163 161 155 151 154 156 158 165 160 155 151 155 162 161 161 163 165 160 162 165 162 161 159 152 144 146 156 155 153 160 170 172 171 168 169 168 166 167 173 173 166 169 180 176 170 167 172 166 165 167 168 167 165 166 158 147 154 152 152 164 175 175 174 176 175 180 173 174 177 158 162 168 154 162 161 160 158 157 150 150 150 145 142 151 149 127 124 149 164 165 168 164 159 166 164 166 168 163 153 152 147 150 155 154 150 116 111 123 118 117 144 154 142 127 131 137 121 109 73 59 53 91 116 109 95 86 70 62 70 37 15 17 19 19 22 42 76 40 19 20 20 20 17 
61 65 59 53 46 43 40 38 39 40 40 40 39 37 41 42 41 47 49 52 48 46 54 58 53 53 48 50 51 50 51 65 77 48 48 39 30 34 103 133 127 94 126 116 61 37 47 40 46 57 69 65 59 79 65 51 60 83 94 137 124 68 58 76 89 93 106 126 140 150 144 130 126 126 117 128 146 163 171 171 165 165 165 157 155 148 145 151 153 163 166 177 180 179 180 179 176 165 160 168 165 160 152 142 128 104 88 80 74 72 87 124 143 145 156 172 177 178 182 182 176 170 170 169 168 171 171 169 172 170 159 165 171 167 160 177 180 174 172 179 176 171 172 164 164 176 169 155 144 145 155 161 168 178 186 186 188 177 172 168 164 163 171 167 166 167 160 154 159 166 168 168 169 165 165 164 165 162 159 157 158 153 148 156 158 159 162 172 179 177 172 168 170 171 177 185 182 168 170 180 175 170 164 164 162 162 161 164 162 169 168 157 147 153 157 153 158 177 175 171 175 174 175 172 174 171 159 155 167 151 151 158 159 150 151 152 162 159 161 153 140 150 141 117 121 145 158 161 159 151 148 152 161 167 170 168 162 154 152 149 151 159 138 104 103 128 119 128 150 153 145 137 139 136 117 85 62 66 85 111 108 105 99 76 49 58 59 22 14 17 17 22 31 69 52 22 21 23 22 19 
61 65 57 49 43 40 36 36 39 39 39 39 39 37 40 42 41 47 54 57 50 49 54 52 48 48 47 50 45 43 48 81 66 38 37 40 34 47 109 111 119 91 123 108 56 36 47 40 41 45 55 62 62 71 64 53 60 81 86 120 113 68 64 74 83 91 114 141 151 160 152 130 127 121 104 126 146 163 171 173 171 164 156 153 157 155 158 165 170 183 180 183 185 181 173 167 163 158 162 166 172 162 149 139 133 109 86 77 74 73 93 129 145 150 168 180 181 182 184 182 176 168 167 164 162 164 167 169 170 157 149 170 167 161 163 172 177 182 180 180 179 178 176 172 175 178 172 166 154 153 149 151 161 171 178 181 187 181 184 184 178 175 177 172 169 167 161 163 170 177 176 171 167 169 172 163 159 154 155 158 162 157 158 161 161 164 171 180 186 182 177 169 168 177 178 178 172 169 168 170 171 171 171 167 163 166 160 163 160 163 161 155 158 160 157 153 155 181 176 168 171 171 169 167 169 167 155 150 160 154 146 157 162 158 152 153 162 169 162 139 131 135 143 134 117 117 134 155 159 151 146 146 153 156 155 160 166 160 151 152 153 159 157 143 115 119 125 112 137 162 159 144 138 148 128 103 75 67 92 111 115 114 115 93 56 46 68 51 20 17 17 21 23 51 64 29 21 26 21 18 
65 65 56 50 46 42 38 36 37 37 37 37 37 37 38 40 40 46 55 60 54 55 50 42 48 47 42 40 41 41 50 71 40 36 33 37 39 69 102 106 103 77 111 115 66 38 45 40 41 44 44 56 65 67 64 54 62 72 78 99 82 56 60 76 92 98 120 144 153 161 153 126 130 119 93 119 145 164 173 176 171 153 155 159 165 171 179 187 190 187 175 170 170 165 155 155 149 154 163 164 165 153 150 152 135 102 82 76 74 76 101 140 159 160 175 180 178 180 184 182 177 172 165 160 158 161 163 169 171 164 162 172 166 161 161 170 175 181 181 178 181 184 177 176 182 177 171 171 166 165 155 148 149 157 165 167 175 181 186 184 179 177 178 178 175 173 169 173 178 176 174 167 166 171 170 158 153 145 154 164 164 160 167 166 165 165 168 176 186 183 185 181 182 183 176 166 165 164 163 166 171 170 171 169 171 174 164 164 164 163 164 155 154 158 159 157 153 171 173 168 170 168 159 155 157 163 150 148 152 153 147 154 160 163 159 164 163 166 151 124 136 134 118 117 104 99 115 140 154 157 159 152 146 149 154 157 156 160 160 158 157 159 153 156 147 119 118 119 127 153 164 148 131 134 125 113 100 69 94 109 114 120 114 99 57 42 59 73 34 17 16 17 20 35 67 41 24 29 24 19 
66 62 52 51 47 45 42 38 37 37 37 37 37 37 37 37 37 44 53 60 59 58 47 40 45 37 34 34 40 38 53 55 36 36 34 44 43 82 105 116 85 63 97 131 80 45 46 42 46 49 40 53 64 68 68 61 64 59 71 87 68 50 53 73 90 98 121 144 159 171 154 133 147 130 101 129 150 158 165 166 168 157 160 167 178 185 178 173 171 171 165 163 164 160 154 162 156 159 167 161 161 162 168 160 122 90 78 77 74 81 109 146 161 166 175 172 173 172 177 177 173 168 162 156 156 162 166 166 171 176 175 176 172 169 169 175 172 161 172 179 184 187 185 182 182 180 172 175 178 177 170 162 143 144 157 155 160 169 180 183 182 178 176 172 170 168 165 167 167 165 163 165 168 170 159 142 142 148 161 170 176 170 173 176 176 171 164 171 185 183 187 184 188 182 174 164 165 164 162 167 169 162 160 163 168 167 163 162 164 164 160 157 155 156 159 157 150 165 168 165 171 166 153 152 158 167 148 142 145 149 145 145 153 159 158 166 171 163 148 141 143 148 128 113 93 77 81 104 130 143 155 159 156 149 140 144 141 141 148 150 155 163 157 154 156 142 128 132 123 140 159 160 141 121 119 112 106 71 70 73 73 108 106 102 69 41 43 66 53 16 13 16 20 26 62 64 32 26 24 22 
59 60 53 50 46 47 43 39 37 37 37 37 37 37 36 35 34 43 53 65 60 45 40 41 41 32 33 37 39 37 55 42 35 41 54 48 46 106 125 111 63 56 90 131 82 53 45 35 41 52 46 45 59 71 70 75 66 48 58 60 57 46 49 66 81 91 119 147 163 157 134 144 163 135 106 142 164 159 148 152 164 165 163 167 170 169 162 159 162 162 165 164 162 151 144 146 150 168 171 160 163 178 179 155 112 84 79 76 72 88 118 148 162 167 171 172 172 164 170 169 169 164 161 153 152 161 172 171 176 182 175 174 176 176 176 176 179 167 175 182 189 192 193 188 183 185 182 185 184 180 176 173 158 151 156 147 147 151 158 167 178 184 186 185 178 167 161 162 162 162 159 162 167 167 149 130 136 144 155 169 175 175 174 179 178 172 164 169 184 180 181 180 181 179 173 167 163 159 164 165 166 163 166 168 162 159 161 160 158 158 157 157 155 156 158 159 155 162 160 168 171 164 159 157 157 159 144 141 141 150 147 140 141 149 149 156 162 152 153 158 148 147 136 123 96 79 77 90 106 107 116 140 157 158 153 153 144 131 129 143 151 153 154 149 153 152 140 138 129 140 154 165 153 131 127 121 114 92 68 72 70 101 114 111 80 46 44 49 66 29 11 14 19 22 45 74 45 30 27 24 
52 56 53 48 43 46 41 37 37 37 39 39 39 37 34 34 34 41 47 72 64 43 39 42 40 33 31 36 37 42 57 46 49 64 60 39 58 109 119 99 53 48 77 112 78 59 46 39 38 46 45 37 46 66 68 80 61 41 49 45 44 42 45 62 82 96 129 155 149 130 128 155 160 136 121 149 163 153 139 143 158 163 160 160 159 156 162 170 169 170 177 176 169 147 125 131 158 173 168 169 185 195 181 145 102 79 78 75 74 105 131 149 165 170 176 180 168 158 162 161 164 164 162 155 152 157 168 170 174 178 170 166 170 170 170 173 181 182 182 186 195 197 197 196 193 194 190 189 189 191 188 189 177 163 169 168 164 163 160 162 159 161 170 182 185 182 180 181 185 180 179 183 175 166 148 135 147 145 142 156 169 175 168 171 172 173 164 167 182 179 183 185 181 179 168 162 156 155 166 165 164 164 164 169 159 160 161 158 154 152 152 154 151 153 156 159 157 156 158 172 164 161 157 155 155 154 145 141 142 152 146 144 138 144 146 149 160 161 169 170 168 159 152 143 98 73 84 92 98 97 94 115 140 148 149 149 159 146 139 146 147 142 150 147 153 155 147 137 128 137 153 163 159 143 131 128 122 118 85 70 65 90 122 120 86 53 48 32 57 55 17 12 16 19 28 67 53 30 25 24 
52 52 47 46 46 47 41 37 36 37 39 40 40 37 34 33 37 38 43 72 54 45 42 39 37 32 31 36 36 46 48 52 62 65 48 40 80 110 112 86 50 38 70 116 79 58 46 39 36 42 42 32 35 58 58 65 53 43 46 44 39 38 42 57 82 116 146 147 135 135 148 161 158 146 144 151 152 146 153 166 182 188 186 182 180 181 183 188 185 189 189 181 174 164 129 131 163 172 176 177 194 196 171 127 89 76 77 74 88 125 142 152 165 170 176 180 173 164 164 163 166 161 157 155 155 156 164 167 171 173 169 167 170 170 169 176 180 186 186 186 189 197 200 200 197 198 193 190 194 195 190 192 187 180 189 184 187 187 181 182 176 174 170 166 161 162 167 174 180 178 184 189 185 176 157 145 157 155 153 156 164 174 171 162 161 160 153 160 171 176 180 180 178 175 166 159 148 144 157 165 164 164 161 164 165 164 159 158 152 154 151 147 148 151 159 158 154 153 156 161 159 164 152 148 154 156 149 142 146 150 137 143 137 140 146 145 148 157 171 172 176 172 164 158 117 72 96 123 117 99 76 87 117 135 148 153 163 152 150 151 155 153 157 153 153 158 154 153 139 131 152 161 164 154 130 126 131 135 104 78 66 73 113 128 108 71 55 29 33 66 39 15 16 17 21 54 56 33 27 24 
51 52 47 46 47 45 41 37 34 34 37 39 39 37 36 34 36 35 46 75 48 44 44 43 39 33 34 35 37 51 52 65 75 56 44 72 121 105 91 68 48 35 67 116 84 50 48 42 33 38 37 33 40 62 51 52 55 48 43 44 41 40 41 54 84 126 140 140 142 145 156 159 157 160 159 146 141 155 174 186 193 189 189 190 193 195 193 193 192 188 184 177 169 167 156 154 169 182 181 183 199 191 161 112 83 76 71 73 103 133 140 153 162 166 168 175 174 169 166 165 163 158 156 154 153 158 161 161 164 166 165 169 174 174 171 175 179 184 188 188 186 189 193 198 200 202 198 195 194 193 190 191 187 179 188 191 191 186 181 183 182 190 189 182 164 164 168 167 164 163 167 165 169 177 175 163 166 163 159 157 159 161 172 177 164 143 152 167 164 162 165 169 171 170 165 151 131 133 147 158 164 163 163 162 166 164 157 156 153 152 148 142 146 156 164 159 153 154 154 149 152 165 156 147 149 151 152 148 149 152 143 143 137 133 137 144 146 150 160 170 180 184 179 165 139 98 107 153 161 131 74 45 80 109 125 141 156 155 147 136 136 148 155 155 152 156 155 153 156 135 146 155 163 164 137 129 139 153 127 90 77 68 101 132 120 92 64 35 25 53 61 24 17 17 23 42 53 31 28 21 
56 56 48 47 46 42 39 35 34 33 33 36 38 37 36 34 33 35 45 67 53 41 46 49 40 37 39 36 42 55 57 59 54 43 48 111 130 79 82 57 43 37 65 94 76 50 48 43 35 39 35 38 45 65 48 41 50 46 39 39 41 38 38 52 83 111 136 141 135 142 163 173 173 172 157 146 149 165 177 185 186 187 188 191 191 192 189 187 184 180 182 176 166 163 166 163 174 186 186 191 199 184 159 107 80 73 69 85 121 144 152 155 158 165 167 174 178 177 171 168 163 158 156 152 153 157 152 155 161 163 163 169 171 171 173 174 174 176 182 190 188 185 191 198 200 203 200 197 196 197 189 181 178 173 174 189 191 191 194 195 188 194 196 194 189 196 186 179 176 178 180 163 154 162 174 178 180 170 158 158 158 154 158 179 176 158 164 171 172 172 166 172 178 173 163 149 134 139 147 153 161 165 166 163 164 161 155 154 152 151 154 152 148 154 155 157 157 157 155 157 160 160 153 153 148 151 155 150 151 158 144 135 139 140 131 132 156 163 160 163 174 183 181 169 151 121 121 164 175 157 100 40 45 87 92 103 134 155 164 154 133 136 152 156 152 153 152 146 148 143 136 150 159 167 151 139 140 151 155 122 94 83 101 131 134 117 85 45 27 32 64 40 17 18 20 33 61 36 28 22 
53 51 45 46 44 40 36 34 33 32 31 33 36 36 35 32 30 33 45 63 54 39 39 39 35 33 36 37 51 54 50 43 39 42 78 123 86 65 68 43 38 37 64 96 83 65 47 38 37 41 30 32 44 60 48 42 53 50 36 37 41 36 36 58 90 108 143 131 127 155 181 191 183 166 160 157 164 172 178 181 178 183 189 188 188 186 182 181 183 179 176 173 175 178 170 160 177 188 192 197 192 177 155 104 77 71 78 105 134 148 154 155 154 165 171 169 171 175 175 170 164 163 161 158 154 152 151 155 156 156 162 167 168 168 174 175 171 176 181 188 188 187 192 199 199 201 203 199 201 203 198 188 176 166 169 183 194 198 197 194 193 193 197 201 196 192 184 190 186 184 189 182 164 154 165 180 188 177 167 176 168 169 168 169 168 169 167 164 168 180 180 179 182 183 177 171 160 152 153 156 161 166 166 162 161 159 158 154 159 161 160 155 145 152 160 161 160 157 155 157 169 163 156 160 149 154 158 153 151 163 150 124 132 138 126 128 156 173 168 165 163 162 165 161 152 130 124 161 174 169 127 77 68 93 87 96 109 120 142 161 158 139 138 152 153 155 159 153 142 150 143 148 155 168 159 150 148 134 149 153 115 89 96 122 144 127 102 56 40 25 50 62 24 18 16 23 56 43 26 24 
50 51 46 44 41 40 37 33 30 30 29 31 34 34 34 33 31 32 43 67 53 39 36 34 34 33 36 40 54 49 37 31 38 58 113 102 62 69 51 39 39 47 67 92 77 65 43 33 40 45 35 32 56 73 46 41 52 46 37 39 43 38 38 56 86 121 148 131 140 177 191 185 164 158 173 173 177 181 188 188 178 178 182 182 187 179 179 183 180 178 176 177 184 184 167 164 182 194 193 190 183 166 144 101 76 76 97 126 144 153 157 159 156 167 171 166 167 171 168 167 171 171 162 159 153 156 149 154 152 155 164 166 170 167 170 176 171 175 178 186 186 186 191 198 201 200 205 206 206 206 206 200 189 179 179 186 200 202 199 198 205 198 189 193 192 196 193 186 182 184 186 192 186 167 164 170 182 183 180 185 181 183 180 174 165 170 169 162 152 164 180 186 182 178 173 172 163 154 158 162 168 170 164 163 157 157 165 162 167 165 155 147 145 152 162 161 152 154 156 156 164 160 158 152 149 156 158 154 152 161 152 125 127 133 128 139 152 162 163 168 165 164 167 161 153 140 132 159 169 167 146 128 115 87 77 112 119 107 107 131 162 160 151 152 156 155 162 164 158 151 148 154 156 164 164 154 150 132 132 161 142 100 88 120 153 133 116 82 52 29 30 66 36 16 17 21 44 46 23 26 
50 51 46 43 41 37 34 31 29 29 26 28 31 33 34 33 31 33 40 66 52 36 34 33 33 34 36 40 47 38 39 39 46 102 121 60 62 62 39 40 44 66 78 76 70 57 42 28 35 40 43 40 63 94 44 33 46 45 40 39 40 38 38 49 80 133 139 131 162 191 188 172 162 167 178 182 182 191 193 180 173 175 180 188 188 181 181 183 179 180 184 186 189 183 174 181 193 198 194 191 179 157 128 92 78 92 117 137 150 154 159 160 156 167 167 164 161 166 165 167 172 172 163 164 154 157 148 149 153 155 158 165 170 166 167 172 168 171 174 180 183 182 182 188 197 199 206 211 211 210 205 203 200 194 196 195 199 197 193 195 198 195 186 183 184 192 196 187 181 191 192 192 187 180 174 169 173 183 186 190 191 194 185 180 177 177 170 172 166 165 167 177 182 179 173 169 159 152 159 163 168 170 163 166 156 151 164 175 168 152 151 150 150 156 159 153 145 145 149 157 160 167 154 141 142 150 158 151 149 157 153 140 122 127 134 144 152 159 160 163 170 171 168 162 152 137 132 160 165 159 145 143 134 90 70 105 124 124 108 84 125 160 159 146 152 164 165 163 164 162 157 156 161 162 170 159 148 141 126 142 157 127 95 121 154 140 119 112 77 43 25 62 63 20 17 21 36 50 25 24 
46 49 43 41 38 33 30 28 27 27 26 28 31 33 34 33 32 34 38 52 43 33 31 33 33 34 38 43 46 39 45 49 68 125 87 49 62 54 40 44 46 52 68 76 68 47 39 32 33 37 49 47 53 99 40 29 41 43 39 40 40 37 39 49 84 134 132 133 173 187 173 171 179 183 183 187 183 190 186 175 175 180 187 193 189 185 184 185 187 184 185 185 183 181 183 189 198 203 192 183 167 141 106 79 80 107 135 146 159 166 164 163 159 167 171 172 169 171 168 170 172 167 161 163 157 158 155 140 147 155 157 160 169 168 165 168 170 173 173 174 178 184 191 193 192 196 201 205 204 205 203 204 203 199 202 201 202 202 197 197 197 198 196 190 189 194 196 189 179 182 192 196 192 196 194 184 176 178 182 198 195 197 192 188 189 184 175 177 177 178 169 169 171 172 174 171 159 150 157 162 164 168 164 156 152 151 170 178 161 152 155 152 154 154 149 148 147 144 150 147 149 153 134 143 147 157 165 160 150 146 140 143 132 138 154 159 157 159 165 163 164 163 159 158 148 126 127 164 166 144 113 112 131 107 52 71 117 140 134 87 96 140 159 161 151 160 163 165 166 164 161 159 163 159 173 165 150 145 135 131 154 139 104 119 146 151 124 116 88 55 35 53 80 30 16 20 28 54 31 24 
38 44 40 37 34 32 29 27 27 27 27 30 32 33 34 34 34 34 38 47 42 35 33 35 35 35 41 50 51 41 44 55 90 93 53 47 52 48 43 50 46 46 69 76 64 48 41 36 35 43 52 43 56 129 51 28 30 33 34 41 39 34 37 46 81 118 129 153 177 168 167 178 186 192 196 195 186 188 182 183 185 189 191 193 190 189 190 187 192 189 189 186 183 184 185 195 203 201 176 177 161 124 89 77 95 127 149 157 168 172 168 165 164 164 170 172 174 174 167 170 173 165 163 159 158 156 157 146 144 150 156 159 171 176 168 170 179 183 177 172 177 183 190 188 185 190 191 197 195 199 202 202 201 200 199 200 199 201 205 206 206 206 203 194 193 191 191 190 191 183 186 198 198 199 199 196 183 180 186 199 201 201 201 197 192 190 186 181 179 182 183 180 170 161 166 176 166 155 159 155 147 160 167 157 158 157 169 165 151 152 158 155 153 155 151 146 142 136 146 138 139 138 129 145 142 156 169 165 153 137 130 136 137 152 167 172 174 175 180 179 171 164 157 148 137 110 113 144 142 118 100 115 126 130 73 50 95 144 154 129 95 105 142 165 164 160 165 166 170 166 163 163 164 161 174 170 156 139 149 140 139 151 124 124 133 156 133 110 101 62 40 44 83 42 14 16 22 49 38 24 
33 37 34 34 32 30 28 27 27 26 26 29 32 33 34 34 34 34 34 43 44 38 35 39 40 37 44 52 50 42 45 74 95 75 53 46 38 41 47 61 51 54 71 70 56 47 44 42 38 45 58 38 49 143 66 28 28 30 33 42 39 31 34 43 79 101 127 163 165 162 177 187 193 189 198 197 184 180 182 187 195 196 194 196 191 191 195 194 192 185 185 184 188 191 191 198 201 185 145 163 150 109 85 91 120 143 155 168 172 170 176 175 175 170 170 172 173 171 169 170 169 165 165 155 156 154 152 149 149 146 155 158 165 172 172 176 179 188 188 180 177 175 180 186 190 192 191 197 199 198 197 196 198 204 202 205 201 202 211 208 206 206 205 199 197 199 199 197 201 191 186 193 194 199 200 199 194 187 189 193 199 207 209 201 196 192 191 188 181 178 183 190 181 159 155 168 169 162 157 153 149 154 156 153 158 159 163 157 148 150 155 155 152 154 145 128 130 125 132 124 125 121 123 141 143 152 164 157 154 135 123 118 138 158 169 174 186 188 189 186 178 172 164 153 141 113 121 147 145 132 128 134 115 137 130 61 68 123 166 168 136 94 112 154 173 169 170 168 176 172 167 162 167 174 175 170 165 141 144 153 138 145 138 133 121 147 136 100 106 69 43 44 86 73 26 15 18 41 45 24 
33 35 33 34 33 28 25 27 27 26 24 28 30 33 34 34 34 33 33 39 44 42 34 41 48 42 45 52 50 40 57 91 71 64 52 39 35 39 35 52 55 65 55 45 38 39 39 40 51 74 92 58 48 133 75 26 28 31 35 46 40 31 34 40 65 92 143 161 151 168 184 189 194 190 199 201 190 187 189 186 195 197 199 195 188 192 196 198 193 183 184 185 190 192 197 196 192 180 152 149 125 95 81 107 131 143 160 171 173 172 173 171 174 175 172 176 176 166 169 168 159 163 162 152 152 155 150 148 147 144 152 159 161 165 172 177 180 190 199 196 186 182 181 181 184 189 190 195 201 201 198 196 197 203 204 204 203 202 208 205 203 201 203 202 198 204 206 204 201 194 192 198 197 199 199 200 203 197 196 193 193 203 208 198 194 197 195 193 188 181 172 178 186 172 161 164 163 161 157 158 156 153 155 155 152 156 156 152 149 154 156 156 152 150 142 134 137 133 130 123 122 121 119 134 143 155 156 141 141 112 92 84 127 158 171 178 191 198 198 192 184 177 170 162 144 121 142 160 160 141 135 138 117 132 157 99 68 88 140 179 174 127 104 132 171 176 173 170 175 173 157 157 165 174 174 170 169 146 136 148 147 135 147 146 124 143 149 103 94 81 42 40 76 89 38 18 20 38 50 22 
32 35 32 32 31 27 25 27 27 26 23 28 29 33 34 34 34 34 35 41 48 47 37 35 37 38 45 50 41 47 99 96 62 52 50 39 52 46 36 56 71 69 51 36 31 32 31 29 50 97 105 47 39 131 90 28 25 33 42 43 39 35 37 42 60 94 154 162 157 176 188 184 186 195 203 203 198 196 192 180 191 197 196 186 190 192 192 195 189 186 191 194 191 194 197 189 179 172 151 126 111 87 90 125 139 149 172 180 177 176 176 174 182 177 175 181 179 169 173 174 160 162 168 156 151 151 152 151 143 137 145 153 158 160 170 173 177 187 202 205 197 192 183 176 174 182 188 191 193 194 198 202 202 201 200 200 200 202 207 206 205 202 205 205 197 202 211 206 199 195 195 204 205 202 198 199 204 204 203 202 196 196 202 198 195 196 193 193 192 189 172 168 179 179 167 161 157 156 156 159 160 157 152 153 158 159 155 153 152 158 160 151 143 144 142 137 138 135 128 116 114 117 117 135 141 157 151 128 130 108 107 95 121 161 179 189 193 199 199 193 185 179 177 169 149 142 168 175 162 133 124 149 133 140 167 142 86 75 101 165 190 174 133 123 160 178 179 172 175 177 161 151 162 168 177 175 176 158 144 136 147 148 147 156 134 143 162 130 94 102 51 34 65 93 50 26 20 34 55 25 
32 33 30 29 28 25 23 25 24 24 25 28 29 33 34 34 34 36 38 43 46 41 38 37 35 43 46 49 45 84 106 63 64 59 42 37 49 35 44 69 66 52 46 38 31 31 35 37 41 81 101 39 29 125 103 31 23 34 42 38 38 37 40 42 61 104 153 161 166 181 189 182 186 200 201 194 200 198 186 173 194 196 175 149 181 194 191 192 184 187 195 193 193 193 190 186 174 162 145 133 111 92 117 139 147 159 167 173 173 177 179 179 183 175 177 184 181 177 180 180 165 164 172 161 158 155 160 152 143 131 143 150 156 157 166 168 175 186 199 207 202 199 191 186 176 176 190 192 191 195 196 200 201 202 200 198 197 200 204 205 210 208 208 209 203 202 206 205 208 203 203 203 202 202 205 205 207 205 207 209 204 196 192 187 196 197 192 192 194 191 177 170 171 178 174 165 157 157 161 160 160 160 154 148 161 162 157 158 155 150 155 153 143 146 144 137 134 125 121 110 103 104 124 145 150 160 137 113 137 144 155 134 130 160 184 196 197 199 201 197 188 179 176 168 149 155 179 182 156 116 107 145 148 140 161 167 102 76 72 134 176 199 167 138 151 182 185 175 176 177 171 157 164 167 181 181 178 159 150 136 144 158 143 161 149 154 166 151 106 109 68 39 58 92 66 31 23 38 66 32 
31 31 28 27 24 23 23 23 23 23 26 27 27 32 34 32 31 32 34 38 48 44 39 41 37 39 41 52 80 97 70 45 60 70 49 53 46 37 61 65 50 37 38 42 32 31 41 41 47 111 102 30 27 107 105 34 27 35 34 29 34 38 40 41 63 119 156 167 176 179 187 189 197 205 195 193 201 199 185 176 195 200 169 131 167 189 189 190 184 185 191 192 194 187 183 175 164 151 147 135 89 97 135 152 154 166 163 162 165 178 178 179 187 187 188 189 185 187 187 181 175 172 175 171 166 161 163 153 144 127 136 148 155 159 163 160 163 167 188 205 205 209 207 203 190 182 195 200 195 196 197 200 201 202 200 199 194 192 199 199 204 208 209 211 206 199 202 199 205 207 207 202 192 190 199 207 210 208 208 207 204 197 196 191 195 200 197 192 194 195 182 176 170 170 174 166 161 161 162 153 154 162 156 156 157 155 154 152 151 151 157 162 152 149 151 139 133 123 112 107 100 108 134 148 157 153 121 110 163 179 179 158 142 162 184 194 199 203 202 201 193 181 176 163 142 161 186 174 127 71 79 127 149 140 158 181 133 96 83 129 147 195 188 150 135 171 190 181 183 182 176 166 167 164 176 179 172 152 141 139 129 150 154 165 156 160 172 163 122 110 79 51 53 85 82 37 26 34 65 37 
32 31 27 24 22 22 23 22 22 22 22 23 25 32 34 33 33 33 31 34 43 44 34 37 43 41 42 69 109 78 44 42 46 45 44 50 43 43 57 51 38 32 38 40 32 33 40 39 48 114 82 32 32 84 111 46 33 36 34 30 35 41 38 39 64 124 145 164 184 176 184 194 200 208 197 201 205 202 197 195 199 203 188 169 174 179 183 187 185 185 190 192 188 182 175 160 154 152 154 111 75 112 145 156 158 168 169 172 175 187 187 186 188 185 186 192 192 194 194 184 178 176 181 180 173 165 158 152 147 133 126 137 146 156 155 154 154 156 180 196 199 210 213 210 202 190 192 192 189 191 196 198 200 202 201 199 197 197 200 200 200 204 207 208 208 206 208 203 201 205 207 203 191 181 190 205 206 208 213 207 202 200 202 198 191 196 198 196 195 193 184 178 170 165 170 171 165 157 157 144 147 157 163 163 153 151 154 151 156 158 162 159 150 143 146 138 131 115 107 107 101 119 142 152 161 144 116 125 173 188 188 176 162 173 184 188 193 198 198 202 202 195 188 171 147 169 191 176 126 60 66 115 163 156 162 184 164 109 94 129 151 176 202 163 126 157 196 190 182 183 183 172 174 171 178 183 177 157 134 138 119 147 162 168 158 166 175 168 127 116 85 56 48 77 96 48 28 27 56 42 
33 34 29 26 23 23 23 21 20 20 18 20 23 29 32 32 35 35 31 33 38 45 33 40 50 39 59 84 82 66 54 47 34 29 37 36 35 41 48 39 31 32 38 35 33 40 41 34 34 73 54 30 35 61 98 55 39 38 35 36 37 41 38 36 62 112 133 173 197 179 184 199 201 202 199 202 208 202 202 202 198 201 191 182 179 174 177 187 188 186 192 190 184 175 162 158 165 168 153 86 78 124 149 160 168 174 176 183 183 189 188 192 192 189 192 195 197 197 194 189 187 185 184 185 184 174 165 158 153 136 128 142 147 153 150 150 148 159 179 186 194 207 215 217 211 199 197 193 193 192 194 197 201 202 203 204 202 203 201 201 202 203 202 202 207 207 210 210 203 203 210 206 201 195 197 203 197 208 214 205 201 201 200 203 197 195 195 199 199 191 188 185 174 164 166 174 165 153 154 142 146 153 164 163 151 148 154 155 156 158 158 152 147 145 143 135 126 116 108 101 100 126 143 152 161 143 124 140 174 187 188 178 170 176 183 187 192 196 198 203 209 205 194 171 150 181 193 176 151 93 72 97 166 164 159 180 192 133 101 104 151 150 191 174 136 149 193 195 185 183 186 176 177 176 183 183 182 162 131 135 117 130 156 170 154 171 188 181 139 123 93 61 44 63 102 59 29 24 50 46 
35 34 30 27 24 23 23 21 20 19 17 20 23 29 31 29 31 33 30 33 40 46 34 38 48 47 57 63 56 58 71 51 32 38 42 40 39 40 42 32 30 35 39 34 36 40 38 30 23 27 26 27 34 60 104 64 40 35 36 37 36 39 40 38 59 96 132 183 194 176 188 203 202 198 201 203 211 204 203 203 195 193 181 175 184 180 181 187 183 185 189 185 181 170 166 171 181 187 139 72 92 136 155 169 179 184 181 186 187 189 189 193 195 197 200 198 197 194 189 186 188 187 185 185 185 178 171 159 152 138 125 142 149 147 149 148 144 157 170 178 190 201 208 213 214 209 207 201 196 193 194 196 201 202 204 205 202 200 203 202 206 204 202 202 201 197 202 206 204 203 208 209 206 203 201 203 197 209 212 207 200 200 200 203 204 197 192 195 199 194 185 181 178 168 164 167 162 151 154 145 144 158 162 161 152 144 149 156 153 152 151 150 148 148 149 136 122 120 114 108 111 130 145 151 156 144 137 145 173 186 189 183 178 177 183 188 190 192 197 203 208 204 193 168 153 191 190 170 178 138 96 99 156 179 160 175 198 159 100 74 139 149 164 178 152 148 186 198 191 186 191 186 181 179 187 187 185 168 149 148 129 128 156 171 151 170 195 193 157 131 105 77 51 52 105 70 32 24 47 58 
32 32 30 28 25 23 23 21 20 19 18 19 22 27 32 30 29 30 30 32 43 53 48 47 54 53 45 44 48 54 53 31 36 59 54 44 41 42 43 34 32 39 45 37 37 38 37 29 25 26 26 33 36 46 96 66 37 31 31 34 34 38 42 41 57 92 145 189 178 179 195 203 196 197 203 202 201 198 203 201 196 190 185 183 184 182 187 186 184 184 181 178 179 174 180 182 187 188 121 68 105 143 160 174 186 189 179 186 194 198 198 199 197 199 198 195 192 191 193 194 190 187 186 185 182 172 163 158 154 145 133 144 154 152 147 143 142 151 151 168 189 197 196 199 209 214 213 210 205 197 196 198 200 202 202 202 201 203 205 202 203 202 203 203 204 199 201 203 205 206 206 208 206 204 199 205 207 211 209 208 206 202 200 197 203 199 193 194 196 197 187 178 178 171 166 167 165 155 157 154 149 169 163 154 149 146 151 152 154 153 150 147 151 149 140 130 124 124 122 112 111 129 147 156 153 146 149 148 173 188 193 188 184 179 181 186 190 191 198 205 207 202 190 169 165 194 183 164 182 176 144 121 145 192 165 175 200 171 105 64 111 163 146 182 171 154 177 196 195 193 193 187 186 184 186 191 187 173 162 159 150 137 148 165 157 170 196 196 174 143 121 89 68 56 104 75 34 24 44 70 
30 30 30 27 24 23 23 21 20 20 20 20 21 26 33 34 31 29 32 32 43 57 59 70 71 59 44 41 61 57 43 39 49 55 46 40 37 45 45 33 36 52 47 35 34 37 36 29 28 28 29 33 31 49 84 60 33 29 28 33 33 38 42 41 55 94 150 180 168 189 202 202 191 202 205 202 198 200 205 201 196 189 187 192 186 180 188 187 185 181 179 177 178 177 187 191 195 174 92 68 122 152 164 176 186 187 178 188 194 201 202 206 204 204 203 198 196 194 197 199 195 192 186 183 179 173 165 158 155 149 139 145 155 154 147 142 143 148 145 157 180 195 197 196 203 212 213 211 209 204 201 196 199 202 202 200 201 203 206 204 202 202 200 199 200 200 202 204 205 205 202 202 203 207 198 202 210 210 208 206 208 204 201 199 202 201 198 196 192 199 195 180 173 171 169 166 167 153 148 149 144 164 164 154 145 147 150 148 154 156 150 150 153 144 127 124 123 120 116 102 110 134 152 158 155 153 156 151 172 188 197 192 188 182 179 187 192 192 199 208 209 206 193 170 176 196 177 164 179 194 175 152 133 182 182 175 200 190 136 65 76 154 135 166 183 159 177 198 201 203 200 187 191 189 188 193 190 178 158 160 160 146 138 155 151 163 197 196 179 156 138 86 73 55 102 75 33 24 36 68 
30 30 28 24 22 22 23 22 20 19 19 20 21 26 32 35 34 32 34 35 40 55 67 75 52 41 43 64 67 61 68 53 46 39 33 30 33 44 43 36 55 62 38 29 27 30 31 29 30 31 32 39 46 70 81 63 34 28 31 36 36 38 42 42 52 87 150 175 172 187 204 203 196 207 205 201 201 206 201 196 192 187 186 190 186 183 188 186 185 183 178 178 176 183 197 201 202 155 68 69 127 159 171 179 183 183 180 191 198 201 201 207 205 205 207 203 204 204 201 200 200 196 188 186 179 174 168 156 156 154 142 146 155 155 150 142 149 149 145 149 171 187 200 199 196 200 211 215 214 208 204 201 201 203 204 203 202 202 202 201 201 201 196 199 205 202 200 205 204 202 205 204 201 208 203 202 207 210 208 204 202 203 200 201 203 204 202 196 192 198 200 184 168 170 169 160 165 158 149 146 142 148 152 150 145 146 146 142 152 154 149 151 145 139 130 126 123 121 115 98 112 137 155 158 154 157 159 156 178 196 198 191 186 182 179 186 192 194 199 208 208 205 192 170 177 186 167 176 181 197 186 163 143 177 198 178 199 202 164 84 58 139 138 149 188 156 177 198 201 200 208 198 193 193 193 197 195 180 151 154 159 153 143 160 151 164 195 191 176 160 143 87 79 58 112 84 34 24 32 70 
28 29 27 26 26 26 26 24 20 18 19 20 21 25 28 32 34 32 34 37 38 68 82 53 35 38 69 90 65 48 45 35 35 31 28 26 29 35 39 43 53 50 42 35 29 26 28 30 30 31 39 55 56 55 58 63 36 26 31 38 38 40 44 44 51 79 141 164 175 185 207 200 196 208 201 196 197 202 192 188 188 186 182 189 189 189 186 182 187 185 181 179 182 191 202 205 197 134 61 73 127 159 170 178 185 186 187 195 201 201 202 208 204 204 206 205 204 206 203 199 199 201 197 191 186 179 170 161 159 151 145 154 158 158 151 143 149 149 148 148 160 173 185 196 198 195 202 207 213 212 208 207 208 206 205 202 200 202 203 198 201 203 202 201 201 202 202 199 201 202 205 204 204 210 207 205 203 208 207 202 198 204 200 198 197 197 201 192 192 191 190 183 168 168 168 159 167 160 148 149 144 142 150 149 149 146 145 143 154 155 145 143 144 139 129 124 121 121 116 104 122 139 155 158 159 160 160 162 186 209 205 194 183 184 184 189 193 196 201 207 208 203 188 168 181 175 157 177 188 195 199 171 154 177 208 190 199 209 178 113 61 108 136 132 191 158 179 201 203 206 211 205 196 199 201 197 191 176 153 153 158 147 137 160 155 162 194 189 171 161 148 99 88 64 115 94 34 23 27 67 
26 28 27 27 27 27 27 25 20 17 19 20 21 24 28 31 34 32 34 38 47 74 67 35 30 43 69 58 44 38 32 32 31 27 24 23 26 29 38 47 36 26 33 44 45 35 35 38 40 42 61 69 53 46 43 57 40 28 32 38 37 41 45 40 50 74 133 161 183 191 209 193 192 202 194 198 200 197 189 182 179 183 183 186 187 187 185 183 185 183 184 185 189 196 201 200 181 115 57 69 124 154 166 175 185 193 195 196 201 203 205 210 210 206 206 210 211 210 209 203 202 201 196 190 188 183 173 164 165 152 144 159 163 159 156 151 156 156 155 149 152 159 171 189 201 197 195 203 210 214 212 210 210 207 206 207 206 202 208 208 205 204 202 202 201 202 201 192 195 200 206 209 208 210 208 205 203 211 210 204 200 202 203 198 193 194 202 194 193 189 185 182 173 169 168 162 165 159 149 148 145 141 150 150 150 152 152 152 152 154 144 142 149 141 131 122 124 129 123 122 141 140 155 157 163 163 161 162 193 217 209 196 189 188 189 190 198 203 204 209 214 206 185 170 178 169 169 180 197 191 198 192 170 181 208 202 197 208 190 141 73 66 134 125 179 171 187 205 205 209 209 202 198 206 205 193 191 180 161 162 162 148 135 149 149 157 191 196 176 163 154 115 91 63 114 102 31 19 22 63 
28 28 26 27 26 25 25 24 21 17 17 19 19 23 27 30 32 31 34 41 56 57 44 31 39 56 47 34 38 38 31 34 30 28 24 26 30 33 35 39 39 28 30 41 44 47 43 48 57 65 71 59 50 53 37 51 47 33 34 37 37 44 46 38 48 71 124 153 182 190 202 192 198 195 191 206 203 195 191 185 182 183 183 184 186 183 180 185 183 183 189 191 196 200 199 194 168 114 59 65 120 149 158 177 191 194 196 198 202 206 207 210 212 206 208 215 212 208 208 206 203 200 193 186 181 179 176 164 159 155 157 166 168 162 166 165 166 160 156 145 142 153 167 187 200 196 192 198 205 212 213 213 210 205 203 205 207 205 209 210 206 205 203 201 201 205 205 198 197 195 198 204 206 207 206 207 202 202 207 204 200 199 202 198 196 194 193 191 191 190 189 182 174 163 166 165 168 162 151 148 147 138 144 149 144 155 157 151 150 154 148 143 149 144 137 120 126 129 124 129 141 135 158 162 164 162 160 163 198 220 212 198 191 190 192 192 201 205 207 213 211 199 179 181 179 177 189 191 202 199 198 207 186 180 202 210 206 211 199 168 107 49 122 125 156 185 195 211 207 208 208 201 200 206 200 195 195 182 164 171 168 159 151 158 152 147 181 201 177 166 159 111 86 72 103 98 29 19 22 59 
29 28 25 27 26 23 23 22 23 24 21 18 17 24 26 29 30 30 37 50 50 39 40 44 53 48 35 31 31 31 28 32 32 35 32 29 29 33 34 36 43 37 33 35 34 41 41 52 67 61 43 44 49 42 32 49 52 37 35 37 39 46 47 40 44 70 117 149 168 187 194 188 198 195 197 204 197 190 190 183 176 176 184 184 187 182 178 185 186 188 193 196 198 200 197 177 136 113 72 65 108 142 151 175 189 191 197 201 205 205 205 208 210 205 211 214 211 214 212 208 202 199 195 187 181 176 175 165 158 155 162 166 170 174 176 173 171 161 154 147 142 150 168 179 188 196 188 188 197 209 213 216 215 210 207 207 207 207 208 208 203 205 206 202 200 205 207 203 199 197 198 198 198 203 208 209 202 198 203 197 194 196 199 198 198 195 186 190 192 192 191 185 178 163 167 173 176 168 151 140 144 142 131 145 146 160 160 150 149 153 148 144 154 141 135 121 128 125 127 131 132 130 154 163 167 163 164 167 201 215 210 199 190 192 197 200 203 205 207 213 209 190 168 180 177 187 198 198 204 214 201 205 201 178 197 209 213 211 208 184 136 69 115 133 130 186 201 214 212 216 213 204 204 206 196 201 197 177 160 167 162 163 156 158 151 143 182 205 176 167 161 115 80 77 101 94 28 20 25 57 
29 28 25 27 26 23 22 22 22 22 20 19 21 30 27 30 30 31 40 46 43 37 47 57 51 35 32 30 27 28 26 32 36 34 31 27 26 29 31 33 36 35 35 33 41 44 53 57 49 36 32 44 46 32 28 42 54 37 34 36 39 46 47 38 41 74 118 159 169 191 188 183 192 197 194 192 187 185 189 185 180 179 183 183 187 183 182 186 193 193 194 198 198 196 188 149 113 117 90 67 91 128 150 170 178 186 186 192 200 202 201 207 210 206 210 209 207 212 211 210 201 196 194 186 178 173 174 168 159 156 161 169 177 181 179 175 172 165 158 158 152 146 156 165 176 191 188 179 186 201 208 212 213 214 212 210 210 210 207 206 204 205 208 206 204 200 203 205 204 203 201 192 191 199 207 208 202 198 204 197 195 200 196 197 200 198 186 185 190 189 186 180 177 165 164 174 175 162 154 143 141 147 135 144 147 161 156 152 149 153 152 151 152 133 130 129 135 129 129 134 131 127 143 154 158 162 165 172 204 211 207 198 193 192 195 200 206 209 211 211 208 189 170 173 153 178 199 204 201 212 210 206 212 189 197 212 212 203 215 190 155 94 109 139 133 186 205 214 215 218 214 203 202 208 200 205 202 180 159 153 143 153 168 172 160 157 187 204 178 164 159 122 84 93 120 102 34 21 29 60 
28 28 26 27 26 21 20 20 20 19 19 19 21 29 29 36 36 37 42 38 41 45 51 46 36 31 32 32 32 33 32 35 41 33 27 26 29 29 29 28 25 27 35 42 46 42 38 34 34 30 36 49 45 26 22 36 54 36 31 35 41 45 47 37 42 75 117 155 169 192 185 187 192 198 195 188 183 186 179 173 180 183 180 181 186 185 185 188 193 196 198 198 197 195 165 111 107 119 98 72 84 113 140 159 171 181 176 184 194 198 200 206 206 203 206 207 204 204 202 202 197 193 190 182 174 173 174 166 155 156 165 173 182 187 185 182 176 170 162 164 156 142 143 159 172 180 191 179 180 192 198 205 209 212 213 212 210 209 208 208 207 208 209 208 206 197 198 204 206 202 201 190 185 196 204 205 199 193 201 202 199 197 192 196 197 196 188 187 193 191 191 185 177 173 165 171 170 166 156 144 142 145 142 150 156 160 155 151 147 151 150 144 144 134 133 137 138 130 126 133 128 126 141 149 153 159 161 181 206 205 202 195 191 193 193 195 203 212 213 208 203 186 171 162 124 152 189 203 203 205 219 212 214 205 193 206 205 200 217 198 170 117 107 128 143 183 210 217 215 217 211 201 198 206 201 206 210 186 164 151 125 131 158 179 152 151 183 204 174 160 161 135 98 98 131 113 48 30 35 68 
26 28 27 27 26 23 23 23 23 22 20 20 20 25 26 32 42 47 40 33 38 49 43 32 26 25 26 31 35 33 32 39 43 37 29 31 36 33 27 29 26 31 38 38 33 29 27 33 35 33 47 65 43 21 25 39 48 36 29 38 40 41 44 34 43 76 115 151 170 191 182 188 193 195 191 184 177 191 173 166 175 180 181 184 189 188 187 192 196 197 200 198 194 185 133 88 110 120 105 85 80 97 126 146 164 176 173 179 188 191 194 198 197 199 200 200 200 197 193 189 188 188 185 178 169 171 170 167 161 164 170 178 182 188 193 189 184 182 172 168 159 144 141 159 163 171 194 193 178 176 188 200 205 208 212 212 209 209 209 209 209 209 209 209 207 202 199 199 198 200 201 194 189 201 207 206 196 191 200 202 200 196 199 202 195 193 191 190 191 188 187 187 184 178 167 166 167 164 147 141 141 141 148 156 162 157 152 149 147 154 151 143 141 138 135 135 135 140 127 132 127 125 145 151 154 154 164 190 200 198 191 185 186 193 198 200 203 209 213 209 197 175 168 155 127 132 173 191 203 210 225 221 213 214 194 195 187 196 209 201 176 144 123 134 152 183 212 220 220 220 213 201 202 209 204 204 212 187 166 161 127 121 145 182 145 146 178 202 173 162 167 135 100 105 143 116 56 44 43 78 
26 28 26 25 25 26 26 25 24 24 20 20 19 22 24 28 37 46 44 40 43 52 37 29 24 26 28 29 28 28 31 44 46 39 32 31 35 34 32 35 33 35 35 27 25 28 32 42 38 39 51 60 34 23 28 39 39 37 30 42 41 40 41 36 42 70 106 151 176 190 174 185 193 192 188 178 178 191 171 170 174 178 184 189 192 193 192 195 196 196 198 196 189 170 100 72 107 114 105 94 87 87 107 130 153 173 177 173 182 188 192 194 198 199 196 192 193 192 190 187 184 183 179 174 165 166 167 167 171 174 175 178 181 186 193 191 187 186 176 169 162 148 140 158 161 167 189 199 185 170 174 191 197 205 211 213 208 209 209 208 207 209 207 208 208 205 203 203 199 202 203 199 198 201 203 203 200 192 197 200 200 198 198 198 196 195 193 188 193 191 189 188 181 177 169 164 165 164 155 143 134 132 148 161 158 150 151 151 150 151 147 139 138 140 135 135 136 141 136 133 123 127 141 139 145 145 158 178 183 181 174 172 177 185 194 196 201 205 205 200 185 166 167 157 149 149 163 184 205 213 222 223 218 213 200 189 176 193 204 201 164 147 140 132 148 187 211 218 222 223 214 196 201 209 204 197 208 190 165 166 131 123 149 182 140 139 167 203 175 165 168 128 95 110 146 110 54 47 48 84 
24 26 23 23 23 26 27 25 23 22 20 20 20 23 26 29 34 40 45 46 51 56 42 30 24 26 27 27 28 31 40 55 51 43 34 33 37 36 34 34 32 30 28 29 35 39 40 43 40 43 42 47 30 28 32 37 32 39 37 45 44 42 39 36 42 72 111 152 171 180 161 179 191 187 182 173 180 185 173 175 175 177 187 191 190 194 198 201 200 197 196 194 184 154 85 71 110 114 106 100 96 87 89 112 140 157 170 173 176 184 190 194 191 188 189 183 184 187 186 178 174 175 168 166 162 164 168 169 172 175 177 180 182 185 192 193 189 189 180 168 157 146 140 153 166 177 192 201 198 187 168 176 188 198 205 211 208 209 209 206 206 211 208 208 208 206 203 206 203 201 204 203 200 201 202 203 200 191 195 197 195 195 195 195 197 199 194 187 192 193 189 190 178 179 172 172 166 162 160 152 144 135 142 156 151 148 152 153 153 154 147 143 144 141 138 140 137 137 140 130 124 136 136 136 140 128 145 169 177 170 158 159 167 182 195 193 196 202 197 187 166 158 174 180 140 142 154 168 197 212 219 220 222 217 210 193 178 188 196 193 152 134 144 129 148 190 214 221 223 224 215 202 207 202 194 189 206 197 169 166 122 104 129 172 133 122 151 205 183 168 168 113 88 121 157 101 51 43 46 79 
22 23 22 23 23 26 27 25 23 22 20 20 21 26 29 30 31 34 42 49 48 49 42 31 30 31 31 32 37 44 59 60 48 45 38 37 38 34 33 33 29 26 29 37 40 40 38 37 38 38 39 50 38 33 31 32 30 42 42 43 42 38 36 34 45 78 113 150 170 173 160 178 185 180 175 176 183 178 176 182 183 182 191 195 195 198 201 204 204 200 199 192 176 147 86 65 100 112 98 88 84 89 87 94 114 137 158 168 171 173 178 186 184 181 183 178 177 180 180 176 168 164 157 155 156 159 164 164 162 168 172 174 177 180 182 185 185 187 182 170 155 140 141 147 167 178 187 194 201 197 173 161 175 193 200 207 207 206 206 204 206 212 210 207 206 206 203 205 206 200 204 210 204 201 200 204 198 190 195 199 193 192 193 194 191 192 193 185 191 196 190 190 180 178 169 174 164 159 160 152 146 141 145 149 147 148 153 152 152 153 147 145 138 137 143 138 131 142 143 133 128 137 131 138 140 131 159 180 187 180 170 156 159 184 199 201 195 196 190 174 158 162 183 205 164 133 138 159 184 203 209 223 219 216 210 192 172 185 194 193 154 133 153 130 155 205 222 223 225 225 210 201 210 199 195 195 209 204 172 165 143 126 138 173 128 106 146 197 182 167 169 104 81 123 159 92 53 44 44 74 
19 23 21 23 23 27 28 27 23 21 20 20 21 27 30 29 31 34 41 49 44 44 37 30 30 33 34 36 40 48 51 44 39 38 36 37 39 37 34 32 32 30 34 36 32 32 33 32 33 35 42 48 36 27 31 34 38 46 42 43 42 37 39 40 53 82 109 143 172 171 167 177 178 176 174 178 179 166 169 181 186 188 193 197 201 202 199 202 203 200 197 187 173 155 102 54 69 97 94 79 60 69 81 91 102 122 149 164 168 166 167 173 173 173 180 178 175 174 173 174 164 158 157 156 154 151 147 143 136 129 128 129 142 157 172 180 180 183 179 170 156 139 137 148 168 180 187 188 195 196 188 166 161 184 198 206 205 201 203 203 204 207 208 204 206 208 204 204 208 200 200 211 208 200 197 203 198 191 193 201 194 189 193 195 190 189 190 184 190 197 189 188 181 169 165 172 163 160 159 153 140 137 144 142 145 148 154 152 162 158 149 149 139 137 143 139 132 143 146 134 130 140 131 143 147 152 173 183 192 192 184 166 157 178 200 207 199 191 179 159 157 170 193 216 206 159 127 145 163 197 194 211 218 212 209 197 179 188 184 192 179 151 158 132 157 210 225 227 227 227 206 198 209 201 193 194 213 215 174 151 148 138 134 169 112 88 139 192 184 170 168 97 80 114 148 75 49 48 53 86 
18 24 22 23 23 25 26 25 24 21 20 20 20 25 27 26 29 33 41 44 46 53 41 32 28 30 33 37 40 47 42 38 40 33 32 33 34 33 30 32 40 33 35 31 28 26 26 27 29 35 47 49 32 25 36 45 68 59 42 44 41 34 43 44 62 91 117 140 166 170 169 180 176 166 168 174 170 162 172 183 186 190 196 200 201 201 201 201 201 199 195 184 171 166 124 58 42 74 106 112 71 48 58 83 101 111 136 153 163 165 165 166 160 161 167 164 169 168 163 163 161 162 163 158 148 126 103 89 92 88 85 86 82 100 140 159 166 172 176 171 154 135 134 157 172 183 192 188 194 196 195 186 158 159 184 200 202 202 201 195 196 197 204 203 206 206 202 203 206 202 199 210 207 200 197 200 196 190 187 196 195 192 192 190 188 184 188 187 181 186 188 187 182 168 166 172 164 163 159 152 138 139 145 141 144 147 150 151 160 154 142 146 142 135 139 139 137 139 143 130 129 140 140 151 156 175 186 188 191 193 192 183 159 169 198 208 200 183 159 147 162 171 192 196 215 201 152 139 138 184 201 192 209 213 206 201 177 171 175 194 197 160 158 129 176 219 223 227 228 226 209 205 206 206 190 187 211 221 185 161 140 128 130 158 111 77 126 186 185 168 161 83 84 103 134 64 43 43 61 94 
21 25 23 23 23 24 24 23 23 20 19 20 20 23 25 25 26 31 41 38 42 50 37 35 36 38 38 37 37 38 34 33 33 32 32 33 33 30 29 32 44 36 33 28 25 25 25 31 35 37 39 40 31 30 50 94 111 65 47 43 33 33 45 43 58 91 120 144 169 169 166 182 172 161 164 172 170 173 180 182 187 194 199 204 202 199 200 202 202 200 197 183 170 171 149 103 70 55 81 115 95 56 42 48 80 101 120 138 156 158 158 161 157 159 156 152 158 160 160 159 161 161 148 132 128 132 136 137 146 160 170 168 148 132 131 133 149 162 171 166 146 128 131 157 179 185 192 188 194 195 195 196 171 152 160 184 193 200 200 195 195 198 205 203 203 202 201 203 205 205 201 202 201 200 197 195 192 190 188 191 190 192 189 186 192 192 189 178 147 157 185 188 184 177 174 172 165 164 159 149 140 138 145 147 150 152 152 150 151 154 144 138 141 141 137 139 142 140 143 128 130 139 146 160 170 187 198 199 197 202 200 186 161 167 197 201 184 162 148 159 163 168 202 188 190 211 193 166 146 154 202 188 186 207 204 201 184 176 177 171 173 159 161 127 196 226 225 228 228 223 211 204 198 208 189 181 208 214 176 156 142 111 118 141 114 79 112 183 184 163 152 78 89 109 120 61 46 42 74 96 
23 26 24 23 23 27 27 22 20 17 19 20 22 26 26 26 26 31 38 35 38 41 30 30 30 32 31 30 32 37 36 30 28 35 36 34 32 28 27 29 42 44 30 25 25 26 33 43 38 33 27 32 42 55 80 116 88 48 44 38 28 35 45 42 55 89 126 151 172 162 165 182 169 161 166 170 171 181 175 178 190 196 199 204 205 203 203 202 199 199 194 180 170 168 163 148 127 95 83 91 86 66 51 32 45 77 104 122 139 148 153 151 147 148 144 147 150 153 156 156 142 129 123 135 165 188 189 188 189 193 197 202 199 180 167 159 159 154 151 142 129 142 160 176 182 188 189 188 192 188 194 196 183 168 151 170 189 196 203 200 201 204 206 204 203 203 202 203 206 202 199 196 196 196 195 190 191 191 187 190 189 186 187 190 192 193 190 172 130 141 185 191 184 181 180 174 167 163 157 150 144 137 138 144 152 155 157 157 153 147 143 131 131 140 137 143 143 143 147 133 131 131 149 169 182 196 205 209 208 208 204 191 167 170 195 183 157 149 162 174 156 152 187 202 184 190 214 204 171 136 179 196 173 186 203 192 189 184 179 160 166 163 153 123 205 224 223 228 228 221 208 204 202 208 192 177 205 213 172 149 131 112 105 139 129 104 109 177 176 168 138 81 95 135 115 65 50 43 83 88 
23 26 25 23 23 27 27 22 20 17 19 19 22 26 27 26 27 29 35 33 36 34 28 27 27 25 27 29 29 37 51 47 40 39 35 29 33 37 33 33 48 53 33 32 33 35 39 35 23 24 24 37 73 89 95 83 48 44 45 32 27 35 45 42 54 87 127 152 178 167 161 182 170 157 159 164 167 177 175 185 192 195 199 204 205 203 203 202 197 194 184 171 170 168 170 163 153 144 136 119 98 82 69 37 24 38 68 99 123 133 141 143 142 143 140 142 144 147 149 136 111 113 152 178 189 194 190 188 192 192 193 196 198 189 176 170 166 152 140 134 138 164 182 187 183 191 186 187 184 182 187 192 189 181 156 155 177 190 200 201 201 204 206 204 204 206 205 204 206 202 199 196 193 193 193 190 190 188 184 189 190 184 186 186 185 190 192 184 155 156 186 191 184 182 181 177 170 161 154 149 140 131 136 145 151 150 153 152 144 143 144 136 139 146 138 142 143 140 136 131 133 129 156 179 193 202 205 207 210 211 205 194 174 172 176 153 147 169 183 173 155 156 174 203 196 183 205 226 207 165 164 186 182 168 196 192 198 192 180 156 158 157 145 131 213 226 230 229 227 221 208 204 202 204 188 176 205 220 171 151 124 114 104 130 127 118 127 175 169 168 133 94 113 145 85 51 47 53 91 73 
18 24 26 25 26 27 26 22 20 17 17 17 19 25 27 26 27 28 33 35 36 32 29 27 27 25 27 27 27 32 46 64 69 57 42 34 29 36 42 39 48 53 42 47 52 47 39 36 36 48 74 95 103 94 89 64 54 45 40 30 31 38 44 41 50 86 128 151 172 167 162 181 174 157 152 161 161 172 179 189 194 199 200 204 205 202 200 200 198 193 182 174 169 155 161 171 167 149 150 146 132 111 97 55 34 27 32 55 91 112 131 139 137 137 136 134 130 131 135 136 137 152 174 186 190 190 175 177 184 183 183 186 185 176 169 165 159 146 142 155 170 183 187 185 187 190 187 183 179 182 189 192 188 184 174 160 157 180 192 196 201 203 203 202 201 205 210 206 202 196 197 197 192 190 186 185 181 184 182 185 189 187 184 178 176 189 193 191 174 172 187 190 186 190 186 177 170 155 147 145 135 130 134 144 158 155 151 153 151 146 145 146 147 149 138 140 143 141 134 129 121 128 170 189 198 201 203 205 208 209 204 191 170 161 157 149 170 186 180 158 151 163 171 193 194 189 194 211 222 206 173 161 179 159 173 192 198 198 181 148 148 155 138 152 218 227 231 229 228 224 210 204 204 204 180 174 199 219 169 154 135 113 111 137 133 124 139 174 166 170 128 105 131 129 70 47 47 65 100 57 
22 26 26 27 27 28 25 23 20 17 17 17 18 25 28 25 28 26 30 34 35 33 29 27 26 25 28 26 29 29 30 40 62 89 72 51 33 29 33 36 41 45 44 48 59 67 64 73 98 133 145 111 85 99 90 77 59 40 35 31 34 37 40 40 48 87 128 150 165 170 160 165 163 158 147 163 169 170 178 193 193 198 203 204 203 197 197 200 194 183 175 174 154 144 160 180 183 170 160 146 141 139 148 117 91 72 51 46 63 77 98 120 125 129 135 134 134 144 154 169 178 179 177 175 181 183 172 168 167 174 174 181 184 177 171 167 162 162 169 179 181 182 180 177 188 189 187 183 179 184 192 190 186 186 185 173 148 167 186 193 201 203 201 202 199 201 203 200 199 195 195 192 190 189 184 178 154 166 184 187 190 185 187 185 184 190 194 193 185 181 182 183 182 186 183 176 171 152 148 147 133 129 140 148 156 155 153 151 148 141 144 149 147 146 140 146 148 143 136 129 122 138 179 196 200 198 201 204 208 208 206 192 168 155 162 171 186 193 176 147 138 163 175 190 183 191 196 201 216 217 200 177 170 166 156 186 198 197 179 146 141 152 141 183 219 228 229 229 228 220 207 196 202 205 175 165 188 217 175 161 153 120 91 134 124 121 148 175 170 169 134 121 141 112 79 54 50 78 96 44 
26 27 26 26 27 27 25 23 20 17 17 17 18 24 27 26 27 26 28 31 33 32 28 27 26 26 27 27 29 27 27 28 33 60 74 77 71 54 39 34 31 32 33 34 49 69 89 123 127 100 75 54 80 127 115 85 48 39 33 30 35 34 37 40 49 89 118 140 165 172 160 164 153 154 147 161 169 175 179 194 195 199 203 200 200 198 197 199 194 171 163 173 165 157 153 171 179 180 183 175 164 154 144 136 130 125 117 103 89 71 79 99 117 127 135 144 149 161 178 187 191 182 162 157 175 178 175 161 165 175 172 178 182 180 169 165 171 176 181 185 185 182 182 178 184 185 182 184 180 187 192 192 191 197 190 185 163 162 177 188 196 201 198 201 198 197 195 194 196 193 192 193 190 189 182 179 161 167 183 187 187 185 187 186 187 189 191 189 186 183 184 185 182 178 177 175 170 152 149 148 134 131 147 146 149 151 154 157 152 140 144 148 149 145 145 154 151 144 138 129 126 148 184 200 202 197 198 203 206 208 207 196 172 160 172 179 187 188 171 146 139 164 174 192 173 176 196 197 208 219 216 211 199 187 158 167 192 190 174 155 149 155 135 194 221 229 229 229 227 213 203 189 199 204 171 164 182 213 173 142 134 124 93 116 113 121 167 182 172 154 136 136 130 88 75 50 54 86 74 33 
26 28 27 25 26 27 26 25 20 17 19 19 19 22 25 26 27 27 29 30 31 32 27 26 27 26 27 26 27 27 27 27 26 28 39 62 108 129 107 78 54 43 46 56 73 83 97 103 78 57 67 83 112 122 101 69 40 34 32 31 34 34 36 41 55 98 128 149 169 171 163 160 147 147 149 159 168 181 182 193 199 197 196 198 201 199 193 192 185 164 164 166 157 147 148 166 165 149 163 175 167 161 141 140 155 154 168 158 151 141 149 157 164 167 172 176 173 177 182 184 179 160 144 148 176 184 171 149 167 175 167 160 167 178 173 167 175 177 176 182 189 190 189 188 189 188 186 184 176 191 192 190 183 189 183 186 176 160 152 167 175 190 192 195 195 196 196 195 196 195 195 195 192 190 186 185 179 182 189 189 186 183 180 181 183 191 190 188 186 185 188 188 186 175 172 171 165 153 150 146 131 125 139 141 150 155 154 153 153 149 147 145 151 146 146 155 148 143 134 122 123 148 179 197 202 197 195 200 203 206 205 194 170 159 177 178 182 174 153 137 138 159 173 188 169 160 182 180 187 202 221 213 212 212 179 162 188 189 174 165 156 158 124 201 226 226 230 227 222 207 196 190 203 206 175 168 181 209 165 130 128 116 108 111 110 126 170 176 161 143 145 146 112 68 62 50 71 93 53 30 
26 28 27 25 26 27 26 25 20 17 19 19 19 22 25 26 27 27 29 30 33 35 29 27 27 27 27 27 27 27 27 27 27 27 28 27 48 84 114 126 123 96 76 75 82 82 100 104 105 114 134 128 92 68 66 58 37 30 29 34 31 34 38 36 52 99 128 152 168 171 166 158 154 148 152 164 174 184 184 188 194 197 195 198 199 192 190 190 178 170 166 166 168 159 164 165 162 158 165 172 150 140 153 156 161 154 163 157 164 173 185 186 183 186 189 192 190 182 170 170 159 150 161 164 172 177 164 158 179 177 176 162 159 169 179 181 182 180 173 181 191 189 185 193 192 188 187 179 165 185 191 187 180 185 178 173 173 170 136 145 168 182 191 187 191 193 193 195 196 195 195 195 194 194 187 182 176 181 189 187 187 184 181 187 188 195 194 189 189 190 189 188 186 174 172 172 170 156 150 146 133 125 134 140 152 158 152 150 144 144 154 149 153 147 143 148 145 141 128 121 127 150 174 191 201 197 195 201 205 204 201 191 163 151 177 177 170 154 142 140 141 163 175 175 169 159 165 162 171 192 211 223 206 200 198 174 176 178 176 175 159 160 149 214 227 222 223 220 216 211 198 194 209 209 182 164 167 214 173 134 125 94 98 100 105 151 182 175 161 145 141 130 84 50 44 52 99 98 42 26 
24 27 25 23 24 24 24 22 20 18 18 17 18 21 25 29 28 27 28 30 33 35 30 27 27 27 27 27 27 27 27 27 27 27 28 27 27 30 46 76 110 127 133 147 152 127 122 116 108 99 82 61 49 48 58 55 33 26 26 32 31 37 40 41 61 103 129 154 172 178 164 158 155 146 151 162 174 180 185 184 191 198 201 202 197 185 188 183 172 170 168 164 163 161 173 161 158 177 184 175 163 160 163 172 170 160 161 169 173 180 189 186 187 188 179 177 179 162 150 161 152 135 142 157 161 170 169 169 178 172 173 164 151 162 170 173 178 176 168 176 179 172 172 183 185 186 184 176 161 176 188 188 184 183 183 179 172 174 160 156 164 170 176 175 186 192 192 194 195 192 193 193 193 192 186 178 173 176 185 185 186 179 176 187 186 189 189 186 191 193 190 186 187 181 179 174 169 156 148 144 132 128 135 139 154 160 155 151 142 143 154 146 152 154 148 148 145 140 125 116 125 151 169 185 194 198 200 202 204 201 197 191 171 156 169 169 156 141 134 134 153 180 180 162 154 161 158 155 161 184 192 214 215 179 181 192 171 165 176 179 161 156 181 219 225 224 219 213 208 208 197 194 212 212 186 158 154 211 176 137 115 85 93 101 115 163 174 168 154 140 123 98 54 32 30 79 118 77 38 32 
23 27 25 23 23 23 23 21 20 19 17 17 18 21 25 30 29 27 27 30 30 31 28 27 27 27 27 27 27 27 27 27 27 27 27 27 27 27 26 30 36 42 54 75 88 77 64 49 38 28 28 40 43 47 57 46 31 27 25 31 31 38 42 45 67 100 126 157 170 180 169 158 148 140 145 153 166 173 184 185 190 192 200 201 191 188 185 171 171 181 164 150 129 150 168 168 178 188 191 180 167 163 165 175 180 173 171 176 180 187 189 183 187 191 180 173 175 154 138 148 160 155 150 154 160 179 172 171 185 179 171 168 150 162 166 168 172 174 167 174 174 171 172 176 172 174 180 182 176 180 189 187 185 184 181 178 170 162 165 154 136 161 173 176 187 192 191 191 193 190 191 191 190 187 183 178 177 178 182 181 180 179 181 186 188 188 182 183 192 195 192 184 185 180 180 178 172 155 147 150 138 136 148 146 156 158 153 148 144 149 155 151 151 152 149 149 147 143 129 117 134 159 168 181 188 196 198 199 203 201 193 185 168 156 160 156 140 135 129 140 173 186 163 144 144 160 162 161 176 182 176 185 211 187 160 194 189 163 170 176 164 155 198 220 222 221 215 208 209 203 191 193 213 211 184 156 164 206 168 129 107 78 90 123 153 172 160 157 151 131 113 75 38 24 40 104 96 46 33 30 
23 27 25 23 22 22 22 21 19 18 17 17 18 21 25 29 28 26 26 30 27 27 26 27 26 26 27 27 27 27 27 26 26 26 27 27 27 27 28 28 24 22 25 29 31 28 27 25 25 22 35 53 53 50 49 39 26 29 27 30 31 38 42 42 58 92 124 162 163 178 174 157 142 132 138 150 160 164 177 187 190 190 195 194 180 176 171 172 171 180 160 160 149 168 176 173 172 178 172 170 180 181 179 178 181 169 177 181 183 188 193 187 188 188 182 176 174 157 141 133 160 174 166 166 172 180 175 174 195 192 179 179 156 162 171 174 169 168 176 179 173 173 173 169 162 161 171 179 183 181 187 183 178 181 180 174 159 157 160 144 138 164 177 184 190 190 191 190 189 189 190 190 188 185 181 179 181 179 182 182 181 180 181 185 188 191 188 190 193 193 191 184 183 179 177 174 168 153 144 147 141 136 151 153 157 154 152 146 142 151 150 149 148 145 149 147 148 143 132 117 145 170 174 178 182 191 195 196 202 200 191 178 158 152 149 133 122 136 140 150 165 162 136 130 143 148 148 169 179 172 172 166 184 190 163 167 190 171 170 172 170 174 210 219 217 213 210 204 204 197 190 196 214 210 176 142 174 202 161 130 111 86 112 150 162 164 165 158 142 106 88 55 29 28 68 95 59 34 33 26 
23 27 25 23 22 20 20 19 17 14 16 17 18 21 24 28 26 23 24 27 25 26 28 27 24 25 27 27 27 27 28 26 24 26 27 27 27 27 27 27 26 26 26 24 26 30 28 25 24 20 35 45 41 41 43 33 20 25 26 29 32 39 42 38 50 88 124 163 165 172 176 161 140 127 137 154 160 172 182 179 182 188 195 190 181 171 166 175 168 171 166 167 172 182 182 163 157 174 178 184 197 192 184 180 183 170 175 176 179 185 187 182 179 179 177 176 171 153 151 146 163 171 172 175 178 187 188 179 187 189 181 185 165 163 176 182 183 173 176 186 183 181 176 172 168 155 149 151 161 167 170 168 161 156 164 174 172 168 157 153 161 143 165 185 183 185 193 194 189 188 189 188 188 186 182 182 181 179 181 180 180 177 176 187 191 188 188 191 193 193 190 183 183 182 174 170 164 154 147 144 141 138 147 155 156 156 155 147 148 153 149 152 145 141 146 145 143 138 130 120 155 179 177 174 173 178 185 193 197 197 188 171 151 146 140 121 126 151 141 138 160 151 117 124 134 133 136 158 164 165 167 163 169 184 176 146 164 176 175 177 177 189 205 204 205 202 198 197 198 194 189 202 219 208 164 118 159 184 146 131 120 106 129 156 156 160 166 157 112 92 87 45 25 48 80 70 45 33 30 25 
23 26 25 23 22 20 20 19 17 14 16 17 18 21 24 27 26 25 26 25 24 26 29 28 24 25 27 27 27 27 28 26 24 26 27 27 27 27 27 27 26 26 26 24 26 29 24 22 23 24 41 40 32 34 40 34 21 22 22 29 35 36 34 35 49 87 129 166 171 171 182 170 140 134 141 154 155 181 185 173 170 179 191 185 191 175 166 166 157 153 148 158 173 170 177 156 161 181 188 193 195 194 187 173 178 179 176 173 170 175 177 176 174 170 173 178 177 153 157 161 174 178 181 184 187 192 191 181 173 176 180 181 177 171 183 190 188 185 181 188 192 193 187 182 181 169 152 149 157 156 155 166 167 152 153 162 175 175 161 170 176 140 145 174 181 185 192 194 189 190 187 188 188 183 178 180 183 184 181 177 176 178 179 184 185 187 188 190 190 190 186 179 180 179 169 165 159 152 147 144 140 134 138 149 154 152 146 145 154 152 144 153 151 145 146 153 139 130 117 121 161 190 190 181 175 174 179 190 193 194 186 167 156 152 136 125 136 129 113 136 155 142 129 147 138 142 152 141 150 161 164 170 168 173 177 163 156 166 168 171 184 194 194 194 205 203 189 184 194 200 199 208 222 204 159 109 140 166 140 121 117 126 153 157 162 171 166 138 88 94 70 35 52 76 66 43 33 29 30 24 
21 23 24 23 22 21 21 20 18 17 17 17 18 22 23 25 25 25 27 24 23 26 28 27 26 26 27 27 27 27 27 26 25 26 27 27 27 27 27 27 25 24 23 22 24 26 22 22 23 33 46 36 29 27 32 35 25 24 27 33 35 32 28 31 43 77 129 167 173 174 182 170 138 135 140 155 157 183 187 177 169 170 178 178 188 164 153 150 157 156 150 170 176 165 164 151 165 186 189 191 186 189 187 175 174 175 171 170 172 180 180 179 181 174 173 180 177 161 164 171 175 176 177 183 189 192 192 190 179 176 178 167 168 160 170 187 180 187 187 189 194 195 186 185 190 191 178 162 162 165 167 172 175 165 153 154 167 170 168 180 192 163 144 160 185 190 188 190 192 192 190 188 184 179 181 181 181 186 182 178 170 174 179 183 188 189 187 185 189 188 187 182 181 178 171 168 165 155 144 137 134 128 142 151 159 148 144 149 153 147 143 151 156 150 151 156 142 137 116 128 172 196 200 188 178 176 181 191 191 191 184 168 159 151 133 127 123 106 127 161 154 151 159 171 167 168 161 151 146 150 155 163 160 154 160 162 144 141 162 172 192 189 186 194 200 199 177 165 194 210 209 205 217 192 141 101 146 169 150 122 130 154 171 159 176 178 153 120 94 78 62 72 79 66 43 31 30 28 30 28 
23 23 24 23 23 23 23 21 20 19 17 17 18 22 22 21 21 22 24 27 25 26 28 27 27 27 27 27 27 27 27 27 27 27 27 27 27 27 27 27 25 23 22 20 23 26 24 24 25 40 53 45 38 28 29 33 29 38 47 39 33 30 29 31 40 74 125 162 175 171 182 168 144 145 144 148 153 176 177 163 156 159 165 172 178 160 153 152 168 188 184 185 175 163 170 177 171 184 189 189 187 190 180 168 175 174 170 173 174 182 185 180 182 179 174 185 180 169 170 177 173 173 171 187 197 195 188 190 192 193 184 174 169 175 170 185 183 184 186 186 196 199 189 180 168 182 178 171 174 175 178 174 162 149 158 172 175 172 173 178 187 176 163 159 178 182 188 189 192 192 194 190 187 186 183 182 185 186 178 179 167 169 180 184 188 185 191 186 189 187 186 183 179 177 170 167 165 153 141 138 137 132 147 158 154 145 149 152 157 146 146 150 156 149 150 146 145 136 119 141 184 201 205 194 186 180 175 185 189 187 185 171 159 154 148 164 165 154 160 168 162 171 181 179 165 154 137 120 107 122 140 152 146 143 152 160 147 145 170 189 190 181 191 196 196 187 164 166 194 210 205 193 205 185 129 101 143 155 157 165 179 168 158 161 162 141 124 91 70 62 71 81 56 38 35 29 31 29 29 29 
29 25 22 22 23 23 23 21 20 19 17 17 19 23 23 23 23 22 22 28 25 25 27 26 27 27 27 27 27 27 26 26 27 27 27 27 27 27 27 26 24 23 23 21 23 26 27 27 29 41 63 64 51 41 46 55 53 53 48 36 31 25 27 30 40 78 124 157 168 174 180 161 146 146 141 135 144 170 169 157 157 161 164 159 178 180 164 153 162 174 183 186 177 168 177 185 163 177 192 181 189 192 178 175 184 183 174 169 173 187 187 176 184 186 182 186 181 168 173 184 177 181 179 194 196 194 186 185 186 194 189 181 170 180 174 188 189 184 182 183 195 193 185 183 162 169 183 182 181 184 186 180 174 159 155 160 177 169 170 177 185 190 183 165 156 171 187 190 190 194 193 188 188 185 179 185 187 182 177 175 170 173 177 185 189 187 189 185 188 185 183 181 173 173 172 162 157 153 141 137 133 128 140 154 147 143 146 159 161 148 149 149 152 151 146 143 145 125 120 155 195 209 208 199 194 190 179 178 186 183 180 170 166 158 138 132 141 160 160 157 169 171 155 161 159 148 133 125 116 123 142 156 146 144 155 174 173 166 173 178 175 183 191 192 188 162 149 160 191 211 209 189 198 170 130 124 159 184 194 193 179 162 159 137 113 91 75 62 52 49 46 42 32 32 30 28 31 29 29 29 
28 26 21 21 24 23 23 21 20 20 19 19 20 23 23 22 23 23 22 23 21 23 25 24 27 28 30 28 27 26 25 25 28 27 27 27 28 28 27 25 25 26 26 25 23 22 24 24 25 37 60 65 51 47 55 66 57 41 33 27 25 21 24 28 40 98 127 150 166 178 184 162 144 144 141 139 145 163 163 165 170 156 162 152 167 186 168 139 160 170 169 172 167 153 160 175 156 164 176 173 183 189 184 181 176 175 175 170 174 183 175 171 183 184 189 188 176 170 182 185 185 188 187 195 194 192 186 185 186 198 195 191 183 175 169 185 183 180 183 180 189 187 175 180 175 167 179 178 175 182 179 174 185 172 165 153 167 169 179 175 172 185 184 175 150 159 176 189 189 190 189 187 187 184 181 183 180 178 177 179 176 180 179 186 188 188 186 181 185 185 183 181 175 173 168 158 153 150 140 133 129 130 140 150 144 151 143 154 157 149 156 154 151 151 148 146 141 125 122 156 196 212 212 208 202 195 182 175 181 181 181 173 171 162 139 138 145 151 157 145 129 115 93 112 159 170 166 164 157 156 157 161 162 164 172 180 175 171 169 174 178 183 185 178 166 148 132 141 184 206 206 181 186 172 174 188 196 191 175 153 150 151 121 99 84 48 34 44 37 34 31 30 33 34 31 28 29 29 29 25 
21 25 24 23 21 22 23 21 20 20 20 20 20 23 23 22 23 23 23 22 21 23 25 24 27 28 31 28 27 26 25 25 28 27 27 25 25 24 24 26 27 27 27 28 26 23 26 29 28 35 52 57 38 37 44 56 42 29 27 24 21 21 24 28 33 87 122 145 167 173 183 164 148 151 142 151 155 168 177 172 167 157 160 157 170 186 181 161 168 170 171 177 176 157 163 177 158 159 177 185 185 186 185 183 173 154 162 176 185 177 169 179 184 187 188 184 174 181 190 188 189 188 193 193 193 191 182 177 185 198 194 180 173 171 170 180 177 183 189 182 187 195 180 165 157 165 175 174 178 184 184 182 189 170 165 171 170 151 167 173 173 178 184 190 177 172 178 189 188 189 189 187 188 184 179 180 182 181 179 185 183 184 180 186 188 186 181 178 185 187 186 179 173 170 166 161 153 148 137 127 124 131 143 150 142 151 148 155 158 149 156 160 159 151 141 140 138 127 127 160 197 214 212 207 200 194 187 181 181 182 183 174 165 150 139 154 150 138 123 92 70 85 86 74 123 173 185 191 184 178 172 164 160 167 172 177 172 172 181 184 186 184 174 147 133 125 112 140 172 198 198 187 195 196 203 202 180 144 112 99 99 103 93 73 42 27 29 31 28 32 33 34 32 31 31 28 29 30 28 21 
23 23 23 23 21 21 22 24 22 20 20 20 20 22 24 25 24 22 23 22 22 22 23 24 27 28 28 27 27 27 26 27 28 27 27 26 24 25 26 28 28 27 27 28 27 24 26 30 29 34 41 48 34 33 40 49 40 33 25 21 20 22 23 27 30 61 110 142 168 172 180 161 151 151 137 146 145 157 174 180 162 156 163 150 168 184 175 172 165 166 173 181 187 169 161 174 171 169 182 196 188 186 187 186 182 167 163 169 169 161 170 182 184 189 186 178 169 183 191 185 190 195 195 188 189 187 175 178 185 187 189 179 163 158 166 187 178 180 191 178 179 191 191 175 161 163 171 178 187 182 185 193 186 181 174 176 175 153 166 166 164 162 174 188 185 160 156 180 190 190 189 188 187 184 180 180 183 182 181 180 179 183 181 186 185 185 186 184 184 186 187 180 173 168 165 158 146 140 131 131 128 135 147 148 143 145 153 162 156 153 156 156 152 145 141 137 127 123 131 164 200 219 216 210 202 192 189 184 177 177 179 168 155 138 143 166 151 111 82 69 59 62 64 54 64 130 176 183 181 178 175 172 162 172 174 178 179 178 188 186 177 167 153 126 107 97 94 134 157 184 188 185 181 170 160 163 149 110 74 63 64 67 60 43 28 27 24 23 27 32 34 33 29 29 32 29 25 29 29 23 
24 24 23 23 22 21 21 26 24 21 20 20 20 21 24 25 23 21 22 23 23 23 23 24 27 27 27 27 27 27 26 27 26 26 27 27 25 26 27 27 26 27 27 27 27 25 25 28 29 31 32 42 38 33 40 48 43 30 20 20 20 22 23 26 29 50 103 140 168 176 183 168 156 147 138 137 143 158 160 171 154 137 152 143 160 173 164 171 170 154 174 184 181 177 154 163 179 173 184 199 192 188 184 188 173 163 148 153 168 166 175 185 189 183 178 171 168 187 182 171 182 180 184 184 183 175 160 171 179 177 185 187 168 164 172 184 174 171 184 180 175 178 182 166 152 161 178 181 175 179 185 191 187 193 187 181 162 157 174 167 161 159 171 177 180 161 146 168 183 185 191 190 184 182 180 177 180 182 183 181 179 182 183 185 184 188 189 189 189 188 184 181 177 174 168 156 142 141 134 129 132 134 141 147 140 140 154 159 156 161 160 149 150 148 144 138 116 119 139 166 192 212 213 208 204 192 193 185 170 176 177 163 146 140 161 161 135 113 96 87 84 64 59 79 100 125 159 170 171 169 162 157 156 165 165 163 166 166 171 174 162 163 150 116 96 91 89 112 132 153 159 154 142 122 114 143 138 80 42 33 41 42 29 24 24 22 23 28 34 34 33 32 34 36 35 29 24 30 31 26 
24 24 24 23 22 21 21 25 23 21 20 20 20 21 24 23 20 19 22 23 23 23 23 24 27 27 27 26 26 27 24 23 24 26 27 27 24 25 25 24 24 27 26 27 28 25 25 27 27 28 24 35 41 36 38 34 28 20 18 20 20 22 22 23 25 53 102 124 156 177 188 167 152 156 141 133 145 164 162 165 142 123 143 144 152 151 171 178 163 141 165 188 181 177 152 163 172 179 190 198 185 163 156 167 152 153 150 169 181 176 181 190 193 187 180 172 172 190 187 184 179 158 164 175 174 179 169 176 179 181 183 182 168 173 185 183 162 159 175 178 176 173 173 181 169 169 184 192 175 179 188 190 190 184 183 181 154 145 155 168 167 162 182 176 168 159 150 159 168 169 183 184 185 187 184 181 182 180 180 181 179 182 185 184 185 186 188 184 190 186 180 176 171 172 169 160 148 141 135 128 127 137 142 147 136 140 157 159 157 165 160 152 151 147 138 134 117 120 139 159 169 196 205 206 204 193 192 184 163 164 168 157 128 128 136 104 83 92 98 113 132 100 84 103 127 146 163 168 163 163 163 160 157 154 158 159 160 167 170 164 154 158 136 92 92 88 82 90 106 133 162 158 141 97 98 143 117 54 28 33 37 28 20 19 18 24 31 32 31 33 33 34 35 34 33 31 30 33 30 24 
26 28 26 23 21 20 20 20 20 20 21 22 22 22 23 22 22 22 23 23 23 23 23 26 27 27 27 26 26 27 24 23 24 27 29 28 23 23 26 25 22 28 31 28 29 25 24 24 26 30 23 34 45 40 31 23 18 17 19 20 20 20 20 21 22 50 94 112 153 178 192 168 152 169 141 133 145 161 166 163 138 123 134 142 153 138 169 181 171 161 167 185 176 168 153 178 177 187 186 190 174 151 155 164 172 171 170 188 191 188 189 193 194 194 187 188 187 186 189 185 177 169 181 186 175 167 171 180 186 187 174 155 153 176 188 183 165 168 171 164 165 165 174 188 181 171 179 196 187 179 188 191 188 171 158 179 159 139 150 167 157 146 183 180 179 169 164 167 175 165 174 182 187 189 187 186 183 178 180 182 181 180 178 186 185 181 183 181 188 188 177 173 173 168 159 155 144 135 137 136 134 133 135 145 144 152 158 153 152 157 150 148 146 147 137 132 120 131 145 125 111 164 190 200 199 193 188 178 159 157 157 134 94 86 78 49 32 37 47 73 102 88 80 84 87 124 176 194 183 165 157 149 150 152 163 165 157 158 158 155 155 153 112 74 79 76 74 81 99 132 160 160 134 85 115 142 91 41 32 44 36 27 23 22 25 32 36 33 29 34 31 33 36 32 34 36 34 34 30 23 
26 28 26 24 21 20 20 21 23 23 23 23 23 23 23 23 23 23 23 23 23 23 23 26 27 27 27 26 26 27 26 27 27 27 29 28 23 22 24 27 23 30 35 28 30 30 25 26 30 35 36 41 44 37 24 20 20 20 20 20 20 20 20 19 21 39 79 108 147 172 192 170 154 172 157 142 150 162 164 152 139 140 144 154 164 143 153 167 169 172 176 173 158 164 180 193 176 174 172 186 186 177 172 159 173 182 173 192 192 183 181 187 184 191 186 184 176 179 181 168 171 185 187 184 174 167 175 179 184 178 157 146 167 180 177 169 175 181 176 151 146 155 167 181 188 177 181 189 183 187 180 185 186 179 158 175 166 145 171 186 171 146 175 167 182 185 161 162 184 182 176 179 187 189 187 186 187 184 181 181 181 181 177 185 184 189 186 184 188 187 181 176 177 166 151 148 137 130 131 124 126 130 137 143 145 156 160 162 156 151 145 145 148 150 141 126 115 128 142 85 51 112 171 191 197 194 184 171 155 149 130 93 73 60 43 31 35 39 42 50 44 34 37 47 67 101 118 126 157 186 187 155 129 131 145 149 140 138 149 159 164 148 89 56 52 59 71 97 96 121 157 151 103 76 134 125 62 37 37 38 27 27 25 25 29 30 34 37 33 34 31 30 33 29 29 32 32 34 31 25 
25 27 24 23 21 21 21 22 24 24 23 23 23 23 23 23 23 23 23 23 23 23 23 25 26 27 27 26 28 28 28 28 29 29 28 26 23 22 22 25 25 27 27 24 24 28 29 30 31 38 45 36 32 33 24 21 20 19 18 18 18 19 20 19 22 29 64 105 141 164 185 163 153 170 162 144 152 163 161 149 141 135 134 147 159 151 133 147 151 155 165 164 152 155 174 179 166 163 171 192 192 187 173 159 167 183 173 192 196 184 178 179 184 185 181 173 157 169 164 158 179 191 183 175 169 168 157 169 179 163 150 170 188 189 176 160 176 184 163 143 152 149 153 159 173 174 182 186 161 173 181 185 178 176 164 181 183 153 168 181 178 157 177 173 185 186 174 171 185 191 180 176 185 187 185 184 186 182 177 180 179 179 179 186 185 186 182 181 186 183 179 178 174 160 152 146 140 139 134 125 124 127 138 144 142 152 159 164 154 147 148 148 149 145 137 123 120 137 136 58 22 57 129 172 187 190 180 163 151 133 90 50 40 32 26 27 35 38 35 38 27 27 33 46 57 58 53 65 89 117 156 178 169 158 156 155 159 162 160 151 144 113 67 51 51 57 67 93 77 103 143 130 79 89 126 93 41 31 32 29 26 31 32 31 31 30 31 31 30 31 31 29 29 29 29 32 33 34 32 25 
25 27 24 23 23 23 23 23 23 23 23 23 23 23 23 23 23 23 23 23 23 23 23 24 26 28 27 27 29 30 30 28 30 31 28 24 23 23 23 23 24 27 26 25 22 19 20 24 29 37 36 33 28 31 29 19 14 11 15 17 17 19 20 20 22 27 58 101 133 152 179 166 152 157 154 144 152 161 158 155 155 130 114 140 150 168 137 136 143 148 145 151 161 145 154 158 166 166 173 188 181 183 173 151 154 177 180 183 194 187 161 168 190 177 177 168 162 163 158 158 181 181 166 169 168 165 155 166 179 164 161 186 191 183 181 167 156 166 159 157 161 146 162 171 172 163 181 178 139 154 179 190 183 171 157 183 191 166 168 172 187 181 178 165 181 180 171 173 187 181 180 174 179 183 186 185 185 181 175 179 176 170 175 179 181 181 182 181 180 182 178 175 170 152 153 150 142 137 137 135 125 132 133 135 146 153 165 164 150 147 153 149 145 144 134 125 127 140 128 56 21 22 64 129 170 174 165 140 118 81 45 28 24 25 22 21 24 27 29 32 25 25 30 31 33 33 35 49 75 80 91 119 141 147 153 151 153 149 138 120 95 60 36 39 48 49 62 86 71 97 131 113 70 93 99 60 33 28 27 27 26 28 29 27 29 32 35 32 28 28 31 30 28 29 27 28 32 36 33 25 
29 30 26 23 23 23 23 22 22 22 22 23 23 23 23 23 23 23 23 23 23 23 23 23 26 28 27 27 29 29 30 28 30 31 28 25 23 23 23 23 24 26 26 25 22 19 19 21 24 31 26 28 27 26 34 28 17 14 16 17 17 19 20 20 22 24 50 94 128 148 166 160 160 146 146 145 152 162 158 161 168 153 124 122 112 137 139 138 138 154 138 118 149 138 145 154 156 161 163 166 171 191 185 154 148 151 165 177 182 175 152 160 185 179 176 162 172 171 158 152 161 165 149 165 181 185 172 160 167 174 176 179 164 149 172 157 141 158 170 181 162 147 167 180 171 162 180 169 158 168 167 179 176 178 166 180 188 168 174 168 184 190 184 173 176 179 171 166 175 177 186 183 181 184 185 183 182 178 177 178 172 170 180 182 180 181 182 183 178 182 181 173 164 152 158 155 149 145 144 138 122 130 130 133 148 160 173 160 151 151 152 152 145 142 129 125 132 139 116 73 29 13 22 59 104 117 105 81 61 39 31 24 25 23 19 19 23 25 27 27 25 23 23 23 29 30 29 37 48 56 74 93 106 114 118 111 111 105 92 79 56 31 27 31 30 41 61 62 55 84 117 109 94 91 67 37 28 25 26 27 28 27 26 28 27 28 33 32 29 28 31 30 28 31 30 28 34 38 37 29 
32 34 32 29 26 23 23 21 20 20 22 23 24 26 26 26 26 25 23 23 23 23 23 23 23 25 27 27 27 27 27 27 27 27 27 26 26 25 23 23 23 23 23 24 22 21 22 22 23 27 26 30 26 21 27 29 21 16 16 17 17 19 20 20 20 22 42 81 116 148 162 146 169 155 147 144 151 166 167 165 171 157 129 118 107 119 133 131 133 122 119 118 147 142 145 153 152 155 161 168 176 186 179 138 134 131 142 166 160 157 145 147 160 162 167 152 154 154 148 141 130 151 163 170 170 155 145 159 174 166 144 155 140 141 157 144 146 137 158 182 163 152 164 169 174 179 166 159 178 182 169 175 165 175 173 175 186 169 167 176 186 182 186 184 172 170 185 187 184 184 183 178 170 178 186 185 185 183 179 176 172 172 180 186 184 182 184 186 182 182 180 171 151 146 157 147 147 140 136 138 134 131 135 139 147 166 176 163 158 155 153 152 145 141 131 128 138 137 104 78 36 14 12 17 31 41 38 31 31 31 32 26 26 24 21 21 23 24 26 26 25 23 23 25 29 31 29 30 35 41 52 83 111 93 74 58 57 59 58 48 32 26 27 28 27 43 52 40 41 72 108 108 98 71 46 26 19 22 25 30 34 30 28 29 27 27 33 33 32 28 29 30 29 30 32 32 32 32 36 31 
32 35 33 30 27 23 23 21 20 20 22 23 24 26 27 27 27 25 23 23 23 23 23 23 23 25 27 27 27 27 27 27 27 27 27 27 27 26 23 23 23 23 23 24 22 19 18 18 20 23 22 27 23 20 19 21 21 16 16 17 17 19 20 20 20 22 41 74 106 144 161 150 169 163 146 137 149 167 172 163 163 158 142 135 129 119 131 115 139 113 88 100 146 147 142 147 139 143 156 165 157 161 171 146 119 125 143 162 146 144 125 136 132 144 161 156 152 128 121 141 126 134 161 178 171 152 147 170 166 130 129 136 125 146 150 135 150 140 150 156 147 124 123 134 155 163 148 147 167 175 163 167 154 166 184 180 183 153 153 170 178 184 183 173 176 167 170 179 180 193 190 181 176 183 189 189 188 183 180 181 174 172 177 186 184 178 181 180 180 179 173 168 161 156 153 145 149 142 133 130 132 135 146 146 152 169 174 161 157 158 158 151 142 141 132 134 144 127 100 84 59 25 14 15 18 21 23 24 27 32 30 23 26 25 22 21 23 23 26 27 25 23 22 21 24 28 30 29 29 27 31 43 52 40 38 38 39 37 36 30 25 26 27 27 27 30 29 30 41 68 90 91 65 41 33 28 24 30 28 31 36 32 28 28 30 30 33 34 32 28 29 30 30 31 34 34 32 31 36 31 
31 36 33 30 27 24 22 20 20 20 21 21 23 26 27 27 27 25 23 23 23 23 23 23 23 24 25 25 26 27 27 27 27 27 27 27 27 26 23 23 23 23 22 22 21 18 17 17 18 20 21 24 20 19 21 19 17 19 18 17 17 18 18 19 20 20 27 64 107 134 154 155 163 165 140 132 150 166 173 174 170 161 153 152 145 117 122 109 124 121 88 80 136 146 131 120 139 131 130 147 146 139 155 167 138 126 124 138 137 133 122 115 121 139 146 150 156 135 122 129 139 138 150 168 172 169 160 164 149 139 142 111 116 145 132 116 138 127 137 144 127 114 115 121 150 136 142 144 160 173 169 169 163 162 189 184 169 153 161 167 173 178 182 180 180 180 178 176 171 181 184 185 182 185 195 193 184 181 179 182 177 176 182 186 182 177 178 175 177 176 173 171 163 160 160 153 151 141 130 124 119 129 147 147 159 168 172 162 155 159 161 149 139 138 127 130 138 114 102 97 90 45 27 29 34 24 21 24 23 24 22 23 27 26 23 22 23 23 24 25 24 23 22 22 23 23 29 27 24 21 26 27 26 27 30 32 30 28 31 28 24 26 27 26 26 26 30 32 42 54 58 61 40 29 28 32 30 30 27 28 35 30 29 31 29 28 31 30 32 30 29 30 30 27 29 31 33 34 34 31 
31 38 33 30 27 25 22 20 20 20 20 20 22 26 27 27 27 25 23 23 23 23 23 23 23 23 23 23 26 27 27 27 27 27 27 27 27 26 23 23 24 23 20 20 20 18 17 17 19 20 21 21 18 19 20 18 17 17 17 17 17 17 17 19 20 20 24 56 100 114 144 163 172 169 144 139 150 166 182 188 177 168 160 156 142 116 111 117 111 98 87 67 98 116 123 96 132 127 120 110 122 117 132 148 125 135 137 114 125 124 111 112 140 139 134 139 139 135 128 117 120 125 136 151 149 130 132 144 130 125 121 116 118 136 133 143 156 135 154 145 112 128 154 136 151 135 149 145 164 164 161 161 159 159 173 169 152 161 159 160 165 175 186 182 180 179 177 176 156 158 172 186 179 178 188 183 178 180 181 183 176 174 182 184 178 181 177 172 175 174 175 172 166 166 163 158 153 140 128 117 117 133 147 153 163 168 172 162 156 157 159 148 138 136 132 132 131 102 97 95 88 49 49 52 49 26 22 24 23 23 23 25 28 28 25 23 23 23 23 23 23 23 23 23 23 23 24 24 23 21 25 27 24 24 27 27 24 24 27 26 24 27 27 24 26 28 31 30 34 38 39 38 30 23 24 29 30 28 27 26 32 29 27 30 27 25 28 27 30 29 26 28 30 26 27 31 34 35 31 29 
31 37 33 31 27 25 22 20 20 20 20 20 22 26 26 26 26 25 23 23 23 23 23 23 23 23 23 23 26 27 27 27 27 26 26 26 27 26 23 23 24 23 20 20 20 18 17 17 19 20 19 18 15 18 19 18 17 17 17 17 17 17 17 19 20 19 23 43 94 112 138 152 164 168 149 138 141 156 171 182 181 176 164 159 149 104 90 121 114 90 88 84 89 81 87 77 111 133 130 120 99 88 99 124 119 105 112 100 115 124 114 116 131 108 93 93 77 96 100 94 96 102 101 125 134 109 117 127 99 91 112 141 143 130 147 157 151 152 137 119 98 111 133 132 152 153 158 154 168 155 128 129 135 153 155 158 149 159 174 161 145 176 190 181 183 189 176 180 166 161 172 183 178 176 182 179 178 178 180 178 177 181 180 180 176 179 177 175 172 175 175 172 170 173 168 156 155 146 134 117 118 137 141 156 169 171 175 165 160 154 151 144 137 136 135 135 127 96 94 90 69 44 43 33 27 20 22 24 23 23 23 25 28 28 25 23 23 23 22 22 23 23 23 23 23 22 20 20 21 24 24 27 24 22 23 24 21 21 26 25 24 26 27 22 25 31 30 24 23 28 32 30 27 25 26 26 27 30 31 28 29 29 26 28 26 24 33 37 33 30 27 27 31 30 26 30 33 31 29 29 
29 33 35 33 30 28 24 21 20 20 20 20 20 24 24 23 22 24 23 23 23 23 23 23 23 23 23 23 26 27 29 29 27 28 28 27 27 26 26 26 25 20 18 19 20 18 17 17 18 20 19 19 17 20 19 17 17 17 17 17 17 17 17 19 20 20 23 34 91 121 139 151 161 174 150 131 132 148 166 180 187 182 173 161 160 138 102 123 126 100 100 97 89 61 57 76 100 123 127 107 89 70 68 91 108 89 93 80 80 89 92 120 139 99 86 82 75 76 96 89 86 98 92 119 137 94 100 98 80 107 131 142 159 140 132 136 156 169 131 133 124 130 126 125 136 147 139 148 139 90 102 127 131 157 137 121 134 162 181 170 149 177 184 185 179 185 180 171 172 176 179 187 185 182 187 184 180 181 179 175 175 181 180 181 173 174 176 177 174 179 177 170 167 169 166 156 155 142 119 120 126 143 151 167 177 173 169 164 165 154 153 149 137 134 131 133 107 85 86 73 51 42 31 20 19 18 19 22 23 23 23 23 24 26 26 24 23 23 22 22 25 24 25 26 26 24 22 22 22 25 21 24 23 21 22 23 22 22 23 23 23 26 26 24 26 33 30 28 27 27 26 27 25 24 26 25 25 28 32 31 30 32 30 33 30 27 31 32 32 32 32 33 32 30 30 33 33 31 32 30 
31 35 37 34 31 28 25 22 20 20 20 20 20 23 23 25 24 26 23 23 23 23 23 23 23 23 23 23 26 27 30 30 28 31 32 29 27 27 27 27 25 19 18 19 20 18 17 17 18 21 19 20 17 20 19 17 17 17 17 17 17 17 17 19 20 20 22 30 78 115 136 150 152 173 156 128 129 150 172 180 183 184 182 172 166 158 133 126 138 107 96 104 104 78 69 69 78 66 85 75 68 53 50 76 97 88 93 84 70 85 79 105 122 94 91 92 106 100 113 118 96 94 106 124 131 99 114 106 105 120 130 132 160 147 126 141 137 131 120 127 100 94 98 106 117 130 128 140 134 116 122 135 144 130 119 128 137 171 174 172 171 186 184 171 172 176 180 170 168 180 185 188 186 183 186 182 177 179 175 176 175 178 179 182 174 176 179 179 178 175 171 167 168 170 163 156 150 140 118 117 128 143 166 174 175 177 169 165 165 155 150 142 132 133 134 125 92 94 81 55 37 29 21 20 19 18 19 22 23 23 23 23 23 26 27 24 23 23 23 21 26 25 26 27 27 25 23 22 22 24 21 24 23 22 23 23 23 23 23 23 24 27 24 23 29 32 30 30 30 30 28 29 28 23 25 27 26 30 29 29 26 27 28 32 30 27 29 30 30 30 34 35 32 29 30 36 37 37 39 38 
33 36 37 34 31 29 27 24 21 20 20 20 20 25 24 26 27 26 23 23 23 23 23 23 23 23 23 23 25 27 30 30 28 27 27 27 26 25 26 27 24 19 17 18 17 18 17 17 18 19 18 19 19 20 19 17 17 17 17 17 17 17 17 19 20 19 20 26 76 118 144 156 152 172 165 131 114 132 164 176 184 188 189 193 187 180 164 148 137 125 94 81 84 86 79 65 66 50 59 74 48 22 51 99 110 92 87 108 109 83 80 112 122 114 102 97 97 76 74 104 107 99 105 111 117 107 110 112 126 117 118 128 150 133 129 135 116 108 127 139 105 92 104 116 113 107 100 117 129 106 90 134 137 107 118 166 162 177 168 147 146 165 180 165 172 184 184 167 164 174 181 184 186 185 185 180 174 177 173 174 178 175 178 180 175 178 181 180 179 175 173 174 173 170 163 156 155 146 117 115 136 152 170 177 175 176 174 171 162 151 145 136 132 133 135 117 88 88 62 43 32 24 21 22 21 20 19 23 24 24 24 24 24 25 26 26 24 23 24 23 25 24 25 25 25 23 23 22 22 23 22 24 21 21 23 22 22 22 22 22 26 30 24 22 30 32 30 29 27 32 40 37 32 27 26 25 27 34 32 29 26 28 27 29 28 27 28 30 29 27 32 33 31 32 32 32 35 39 37 31 
32 35 34 34 31 29 29 28 24 21 20 20 21 27 26 26 27 25 23 23 23 23 23 23 23 23 23 23 24 27 28 28 28 26 26 27 26 24 26 27 23 20 17 16 14 17 17 17 17 17 17 18 21 20 19 18 17 17 17 17 17 17 17 19 20 19 21 22 71 119 140 160 145 156 168 140 106 112 151 169 179 182 194 202 196 194 181 174 139 131 124 113 87 81 82 83 72 64 64 68 42 28 79 119 110 104 107 116 131 94 102 127 130 139 132 126 124 99 75 80 88 102 102 103 115 105 105 105 125 128 132 129 142 136 130 132 129 120 133 140 117 104 104 112 111 112 101 101 112 76 105 120 96 114 132 136 123 156 144 123 136 161 182 179 179 176 179 164 169 177 179 186 189 189 185 185 178 177 173 174 181 177 182 180 175 178 181 183 180 176 176 176 176 174 169 154 146 144 124 124 146 164 171 175 174 173 177 170 162 154 148 135 135 134 128 105 85 61 32 21 19 20 21 24 24 24 21 24 26 26 25 24 24 24 27 29 26 24 26 26 25 23 22 22 23 23 23 23 22 23 23 23 21 21 23 22 22 22 21 23 25 29 27 25 27 29 30 29 26 32 40 33 24 21 21 21 19 25 33 34 28 30 31 30 26 28 31 34 33 26 29 30 28 29 30 31 33 36 37 30 
32 35 34 34 31 29 29 28 24 21 20 20 21 27 27 26 27 25 23 23 23 23 23 23 23 23 23 23 24 27 29 30 29 27 27 25 25 27 26 27 23 20 17 16 14 17 17 17 17 17 17 18 21 20 19 18 17 17 17 17 17 17 17 18 19 19 23 22 46 111 134 159 149 157 168 150 118 109 138 157 172 181 193 203 200 198 192 188 167 153 145 133 97 76 82 103 91 82 79 70 58 64 108 127 115 120 122 125 138 129 127 139 141 150 153 143 143 134 106 88 86 110 127 130 129 126 113 103 139 145 137 137 151 140 133 142 146 143 138 127 115 129 116 108 113 122 120 101 105 94 100 65 61 81 100 102 114 139 118 131 160 170 181 183 183 169 163 150 166 172 178 184 188 189 184 183 178 177 173 172 178 179 183 183 179 174 176 183 183 180 180 180 175 169 164 151 139 137 116 115 152 169 172 181 179 172 179 166 160 150 141 131 137 137 118 94 84 45 20 19 20 19 20 20 20 22 21 24 26 26 23 20 21 24 27 29 27 24 26 27 24 23 22 19 23 25 23 23 23 23 21 21 24 23 21 23 22 22 20 23 22 23 26 26 24 24 29 30 29 30 30 26 22 22 22 22 23 29 35 34 28 27 27 30 29 30 31 33 33 26 36 39 32 30 27 27 32 36 37 29 
32 35 34 33 30 27 27 27 25 19 21 22 23 28 30 27 27 25 23 23 23 23 23 23 23 24 25 25 24 24 26 27 27 27 27 27 28 29 26 27 24 20 17 18 18 18 17 17 17 17 17 17 18 17 17 17 17 17 17 17 17 17 17 17 17 17 20 20 28 84 126 155 160 166 174 164 137 114 131 157 172 185 191 200 201 200 197 195 183 170 161 141 110 93 99 105 97 98 94 81 77 98 136 142 130 131 135 134 128 131 129 141 144 148 156 147 145 148 135 123 108 120 143 152 137 136 119 112 145 162 153 153 159 149 139 145 149 135 127 126 128 143 130 118 119 115 100 75 55 56 84 43 42 86 118 119 134 148 121 132 164 176 175 180 184 178 166 163 169 169 177 181 187 189 181 176 175 177 176 174 176 181 185 182 187 185 183 182 184 185 182 182 175 166 159 153 145 132 107 118 161 171 179 185 182 174 176 164 153 142 135 129 139 135 101 73 51 25 19 20 18 19 20 19 20 21 22 23 25 25 24 20 23 26 25 26 28 27 26 27 24 23 22 21 23 25 25 25 23 23 22 22 23 23 21 22 21 23 23 25 26 28 27 27 27 22 27 31 29 26 25 24 20 23 25 27 27 28 30 31 28 27 27 28 27 28 27 27 28 28 36 39 37 37 32 28 33 38 35 31 
32 35 31 29 29 27 27 27 25 19 21 23 23 29 31 27 27 25 23 23 23 23 23 23 23 25 27 26 26 26 26 27 27 29 29 29 30 29 27 27 24 20 17 19 20 18 17 17 17 17 17 17 17 17 17 17 17 17 17 17 17 17 17 17 17 17 19 20 22 56 116 155 162 159 178 175 144 123 111 149 174 184 192 197 198 197 195 191 188 177 169 160 146 123 104 88 101 125 111 77 65 101 133 139 133 133 143 137 118 129 136 144 147 149 143 146 149 146 137 130 121 133 145 145 141 142 144 150 157 161 154 154 152 149 149 150 149 138 136 141 148 145 133 126 132 111 63 39 26 29 71 54 43 83 119 129 132 148 142 146 165 185 180 187 185 180 165 155 162 175 183 186 186 189 184 179 176 172 174 177 180 186 187 181 185 186 182 183 185 184 184 184 177 165 157 153 144 126 105 134 170 176 182 182 178 173 170 167 154 146 135 131 140 117 69 35 22 19 19 19 17 19 21 19 19 21 23 22 22 22 22 22 22 22 22 24 26 25 26 28 23 23 23 25 26 26 27 26 23 23 23 23 23 23 23 21 21 24 27 27 29 31 28 23 25 24 30 34 28 22 20 22 22 23 25 28 27 27 26 28 30 28 27 27 27 27 27 27 28 31 34 31 32 33 31 31 31 33 40 45 
31 34 29 25 28 27 27 26 24 20 21 23 23 27 30 28 26 25 24 24 23 22 23 23 23 25 27 27 28 28 27 27 27 30 30 29 29 28 27 27 25 21 18 20 19 18 17 17 17 17 17 17 17 17 17 17 17 17 17 17 17 17 17 17 17 17 19 19 22 45 102 142 160 160 178 178 146 128 104 134 172 188 195 196 196 196 199 197 193 186 176 167 163 145 110 92 114 133 99 49 66 125 146 146 134 133 144 140 125 135 140 148 151 145 125 136 145 142 149 139 135 149 153 149 152 154 155 155 162 161 151 150 152 160 167 158 154 154 155 148 154 145 135 135 125 77 39 31 30 42 59 58 83 121 128 140 150 155 158 152 150 175 180 174 173 169 143 128 157 179 187 191 192 188 184 181 174 167 170 174 177 181 182 186 184 185 183 185 186 184 187 185 175 167 161 155 143 119 104 143 167 181 180 179 177 172 165 164 148 142 131 135 128 78 36 18 17 21 20 19 17 19 22 19 17 20 21 20 18 20 20 25 20 19 21 23 23 23 26 26 24 24 24 27 29 29 27 25 23 22 22 23 23 22 23 22 23 25 25 23 27 30 28 26 30 29 31 32 25 20 19 22 25 24 26 27 25 27 26 28 34 33 35 30 28 27 26 27 30 32 29 24 25 27 26 27 29 35 46 46 
29 32 29 26 27 27 27 25 23 22 23 23 23 24 28 29 24 25 26 26 24 21 23 23 23 25 27 27 27 27 27 27 27 27 27 27 27 27 27 27 26 23 21 21 18 17 17 17 17 17 17 17 17 17 17 17 17 17 17 17 17 17 17 17 17 17 19 20 20 27 74 132 158 165 168 175 154 135 113 120 162 190 195 198 198 199 201 199 194 190 184 174 172 164 134 109 124 132 94 50 94 137 153 152 136 140 147 146 138 144 152 156 154 145 131 143 161 162 159 142 146 163 157 152 151 153 153 155 156 156 155 150 148 154 161 162 162 163 160 147 146 139 133 135 114 59 40 35 45 63 61 65 116 145 134 148 170 166 150 149 141 156 167 149 161 165 139 136 167 181 185 187 189 185 178 174 171 169 171 175 179 180 181 186 185 188 188 188 189 189 189 182 172 168 165 160 143 112 120 160 174 185 181 179 179 172 169 166 149 140 131 128 87 37 22 17 19 22 21 17 17 19 22 21 18 17 17 17 16 21 22 24 22 23 24 24 24 25 28 24 25 26 27 28 27 26 26 24 25 23 22 22 22 21 25 25 26 26 27 26 27 29 29 30 31 30 25 22 20 22 25 26 27 26 28 26 24 26 31 34 37 30 33 30 30 29 29 31 32 30 28 26 26 28 31 32 34 43 54 54 
31 31 27 27 26 26 26 25 23 23 22 22 23 24 28 29 24 25 26 26 24 21 23 23 23 25 27 27 26 26 27 27 27 27 27 27 27 27 27 27 26 23 21 21 18 17 17 17 16 16 16 17 17 17 17 17 17 17 17 17 17 17 17 17 17 17 19 20 20 18 44 115 150 169 167 173 169 155 131 107 139 175 190 199 199 199 198 195 193 191 183 176 176 180 166 141 134 130 89 73 126 137 154 152 141 149 153 152 150 152 153 153 154 161 160 160 170 167 161 130 130 167 165 162 154 146 153 166 164 156 157 149 152 161 163 162 167 171 165 151 139 138 133 130 103 58 56 59 66 73 79 104 134 139 141 141 143 142 140 158 160 154 158 153 156 154 137 150 174 183 192 188 182 182 177 170 167 165 171 180 182 182 185 183 186 188 189 191 193 192 189 182 175 171 163 156 134 106 138 173 186 187 188 184 178 165 166 163 147 134 126 86 35 15 19 17 19 22 21 17 17 19 22 21 18 19 21 20 19 19 22 21 23 27 28 28 28 28 28 24 25 26 27 28 22 20 25 27 29 27 24 22 22 24 29 28 27 27 26 26 27 29 29 28 27 27 24 21 20 22 25 26 26 28 32 30 27 25 26 28 33 29 31 32 30 29 29 27 26 28 30 29 32 30 31 38 53 55 61 64 
32 30 28 26 24 23 23 23 23 22 21 20 21 25 28 28 25 24 23 23 23 22 23 23 23 25 27 27 26 26 28 29 28 27 27 28 29 28 27 27 26 23 21 22 19 17 17 16 14 13 15 16 17 17 17 17 17 17 17 17 17 17 17 17 17 17 19 20 22 21 34 98 140 167 168 169 177 167 151 115 123 159 190 198 199 198 198 196 191 191 186 181 179 183 176 152 132 111 69 85 138 140 152 150 150 160 155 153 148 152 151 153 161 176 172 170 173 171 153 124 134 167 160 156 152 147 155 165 162 151 145 139 152 162 164 159 168 173 161 153 141 139 132 120 83 69 76 73 70 75 109 143 143 131 137 139 136 146 162 173 168 156 151 153 152 150 142 162 179 186 194 192 186 182 180 169 162 163 170 177 180 182 188 186 185 187 190 189 189 189 189 183 175 171 165 152 122 108 154 180 191 186 187 181 176 165 161 153 141 126 101 47 18 15 17 15 17 21 23 20 19 20 20 18 17 17 16 20 22 21 22 21 23 28 29 27 27 27 27 28 28 25 26 26 25 21 24 29 26 26 25 19 20 24 30 31 26 25 23 22 26 27 26 28 30 27 23 22 21 20 22 23 23 29 29 29 26 24 23 23 31 34 30 32 32 31 29 30 28 24 24 26 31 34 37 44 59 66 75 66 
32 30 27 23 20 22 23 23 23 22 20 20 20 25 28 28 26 23 23 23 23 23 23 23 23 25 27 27 26 25 29 30 29 27 27 28 30 29 27 27 26 23 21 23 21 18 17 16 13 13 14 16 17 17 17 17 17 17 17 17 17 17 17 17 17 17 19 20 20 20 26 65 126 161 158 167 180 178 166 134 106 143 186 188 193 193 197 201 196 188 171 167 180 186 176 150 139 107 52 89 138 142 152 150 152 159 155 157 149 150 151 154 170 184 170 159 143 144 137 139 152 160 156 156 153 153 158 162 160 148 143 147 160 167 166 160 156 161 160 158 151 148 131 105 73 85 81 77 85 95 136 157 155 149 150 145 150 171 182 184 173 165 157 151 153 153 145 160 174 187 194 191 185 179 176 169 165 167 171 176 181 185 190 188 186 191 192 187 189 187 188 184 174 171 162 146 120 128 167 182 190 191 186 171 173 167 166 161 144 104 54 21 16 19 19 17 19 22 24 21 18 17 17 16 17 17 17 22 23 23 23 23 23 25 27 25 27 27 27 30 30 25 26 27 27 23 21 24 22 26 29 22 20 21 24 25 22 22 21 21 26 26 25 28 31 27 23 22 21 22 23 22 26 33 27 26 22 24 25 23 29 31 27 28 31 34 33 32 31 25 24 28 29 29 42 52 65 83 101 87 
31 29 26 21 19 22 23 22 22 21 20 20 20 25 27 26 25 23 23 23 23 23 23 23 23 25 27 27 26 26 29 30 29 27 26 28 29 28 27 27 26 24 23 25 23 19 17 16 14 13 15 16 17 17 17 17 17 17 17 17 17 17 17 17 17 17 18 19 18 18 22 42 102 147 156 170 183 189 174 157 109 121 176 190 195 193 193 197 193 180 165 165 181 187 176 154 132 91 46 84 132 141 152 155 161 166 158 165 154 151 153 153 166 173 156 148 125 138 151 151 157 164 157 154 151 157 159 161 157 146 142 151 168 177 167 158 159 157 150 144 142 140 123 96 74 94 89 94 113 127 146 152 158 161 164 155 164 187 191 192 189 178 166 154 156 155 148 163 178 188 188 185 183 178 174 169 167 169 169 176 184 189 192 189 189 194 192 187 190 186 187 183 175 176 163 139 124 152 174 181 187 195 186 166 166 163 167 153 121 65 24 19 21 20 20 19 21 24 24 21 20 20 19 17 17 20 21 23 23 22 23 23 22 24 24 24 27 26 27 30 30 26 26 26 25 25 19 20 21 26 30 25 21 24 24 22 20 20 20 21 26 26 25 26 28 26 23 21 20 25 31 28 27 26 26 36 32 32 27 25 26 28 23 23 29 34 34 31 28 27 31 35 29 32 56 55 67 81 92 85 
28 28 26 23 21 22 23 21 20 20 20 20 20 23 23 22 23 23 23 23 23 23 23 23 23 25 27 27 26 26 28 30 29 26 25 27 27 27 27 27 26 26 26 25 22 18 17 17 16 16 16 17 17 17 17 17 17 17 17 17 17 17 17 17 17 17 17 17 17 18 21 32 76 136 155 163 181 195 188 170 130 103 157 187 192 194 197 194 191 185 179 181 187 192 186 170 135 80 40 80 140 144 154 158 162 165 161 170 161 155 157 155 156 164 158 149 131 148 166 164 162 168 156 146 148 158 160 166 155 142 138 150 169 165 156 155 156 154 140 133 134 131 113 90 84 110 114 122 138 145 147 148 156 163 165 164 180 192 193 196 196 184 171 159 159 153 149 162 178 187 189 188 185 177 171 166 161 170 171 179 186 189 192 190 189 192 192 191 189 187 184 178 179 179 157 126 131 167 172 180 183 187 174 166 167 166 157 117 67 31 21 20 19 17 18 19 19 20 22 22 22 19 17 18 18 22 22 23 22 22 23 23 23 26 26 25 28 25 23 26 30 30 26 23 23 25 24 26 30 23 24 22 22 25 22 21 22 22 21 23 27 27 24 24 26 27 23 17 18 24 29 29 24 22 27 39 36 35 28 26 26 28 23 20 27 29 27 28 29 38 32 34 39 51 73 67 80 73 66 72 
26 28 26 23 21 22 22 21 20 20 20 20 20 23 23 22 23 23 23 23 23 23 23 23 23 25 27 27 27 27 28 30 29 26 25 27 27 27 27 27 26 26 26 25 22 18 17 17 17 17 17 17 17 17 17 17 17 17 17 17 17 17 17 17 17 17 17 17 17 19 22 26 48 110 150 154 174 190 196 181 158 110 138 176 189 195 198 194 192 190 189 193 194 196 190 175 136 76 38 66 137 155 162 164 165 163 168 171 161 149 153 160 155 166 160 149 146 155 160 149 144 155 150 143 150 157 156 161 146 142 137 147 166 159 150 154 150 145 135 125 121 122 103 88 93 104 114 131 143 144 145 150 160 168 167 171 190 196 196 197 195 183 169 163 159 154 155 163 178 184 187 186 182 176 169 167 162 171 175 182 187 189 191 190 189 191 192 194 193 189 182 180 182 176 152 128 149 174 175 183 187 184 170 170 163 146 117 70 32 22 24 24 23 21 21 20 19 19 22 22 22 19 17 18 18 22 22 23 22 22 23 23 23 26 27 25 28 25 23 25 30 30 26 23 23 23 26 26 28 24 26 22 22 25 22 21 22 23 24 27 29 27 24 24 26 27 24 22 23 24 25 26 25 24 24 34 32 29 28 27 27 29 25 29 32 29 24 24 26 36 29 40 53 59 70 71 71 65 88 86 
24 26 24 23 22 22 20 19 19 20 20 20 20 21 21 22 23 23 23 23 23 23 23 23 23 25 27 27 27 26 26 28 27 26 26 27 27 27 27 27 24 23 25 25 22 18 17 17 17 17 17 17 17 17 17 17 17 17 17 17 17 17 17 17 17 17 17 17 18 18 22 24 27 70 136 152 168 188 196 189 170 125 119 161 185 193 196 195 194 195 199 199 198 197 188 168 127 67 38 62 136 159 167 165 163 164 171 168 160 151 154 162 160 173 160 155 153 152 150 134 134 150 155 142 151 158 153 144 133 141 137 148 172 163 161 167 161 154 136 129 119 114 101 94 89 102 125 137 143 143 149 157 162 169 174 182 195 197 198 198 193 185 175 164 157 151 158 166 180 186 187 184 179 173 166 163 162 173 176 179 183 187 193 197 194 190 192 195 193 188 184 185 179 168 141 132 174 181 185 191 191 178 170 170 149 111 64 32 19 21 24 28 31 26 22 18 17 18 18 18 17 17 18 18 20 23 22 22 21 22 27 25 24 29 28 26 27 26 27 30 31 29 28 24 23 21 25 23 20 22 24 20 20 21 19 23 24 28 29 28 26 25 24 23 25 27 29 29 30 31 30 28 28 26 23 27 29 30 28 26 30 30 24 31 33 30 25 25 24 24 31 56 63 56 68 86 83 94 123 101 
24 25 23 23 23 22 18 18 19 20 20 20 20 20 20 22 23 23 23 23 23 23 23 23 23 25 27 27 27 26 25 28 26 26 27 27 27 27 27 27 23 22 25 25 22 19 19 19 17 17 17 17 17 17 17 17 17 17 17 17 17 17 17 17 17 17 17 17 19 17 20 21 22 43 109 143 159 183 195 192 174 145 106 135 181 190 195 198 200 201 201 199 199 197 189 170 122 57 31 53 135 155 158 162 161 161 163 166 164 163 160 164 157 165 164 168 162 157 160 155 160 164 164 146 154 156 150 139 131 140 142 153 174 164 173 188 182 151 124 121 122 111 111 107 113 131 141 144 147 150 153 157 162 169 175 182 194 198 197 194 190 190 182 165 157 149 159 170 184 189 186 183 178 177 175 163 162 175 180 185 188 185 191 196 193 191 191 193 192 189 191 189 179 163 131 143 187 188 191 193 184 165 165 154 112 56 28 20 21 23 24 26 30 28 22 20 19 19 19 19 19 19 19 20 23 24 21 23 22 21 25 26 26 31 28 27 27 27 29 32 30 26 26 25 26 24 22 23 24 20 21 22 22 23 22 29 32 37 31 25 23 26 26 25 27 27 29 29 26 28 34 33 27 22 18 21 27 33 30 24 28 24 22 26 29 29 27 27 25 29 56 76 69 66 66 75 86 114 127 94 
24 25 23 23 23 22 19 18 19 19 19 19 19 20 20 21 22 23 23 23 23 23 23 23 23 25 27 27 27 26 25 28 26 26 27 27 27 27 27 27 24 23 25 25 23 22 22 21 18 17 17 17 17 17 17 17 17 17 17 17 17 17 17 17 17 17 17 17 18 17 18 20 22 24 72 136 155 171 188 193 184 162 114 113 170 191 196 202 206 205 201 198 198 196 190 177 132 59 30 48 131 155 158 169 169 167 169 174 163 162 164 168 163 163 166 163 166 171 160 150 162 174 168 153 168 164 138 139 139 141 147 154 165 174 189 196 184 136 124 116 116 108 115 129 148 148 144 140 142 153 156 157 164 173 179 187 196 200 196 195 190 188 183 171 160 149 162 174 186 193 193 190 184 179 174 163 167 177 182 188 189 190 194 194 192 192 189 192 192 188 191 185 170 154 128 162 194 196 195 192 185 168 150 100 52 25 23 23 24 26 25 24 26 26 22 22 23 22 22 22 22 22 22 23 25 25 22 24 23 20 22 25 29 30 28 26 26 26 23 25 25 24 24 27 28 26 20 20 23 21 23 25 24 26 32 30 31 35 27 23 23 30 32 26 27 26 29 30 25 25 26 29 29 25 23 23 25 25 24 21 25 24 29 27 27 26 27 26 30 47 80 87 80 87 72 73 80 104 118 91 
26 28 24 23 23 22 22 21 20 19 17 17 18 19 20 20 23 24 23 23 23 23 23 26 26 26 27 27 27 26 25 28 26 26 27 27 27 27 27 27 26 26 26 26 26 24 23 22 20 19 19 19 19 17 17 17 17 17 17 17 17 17 17 17 17 17 17 17 17 17 18 23 24 23 45 112 149 166 182 190 193 178 142 103 151 188 196 203 206 203 200 199 199 197 191 180 139 62 37 60 141 166 169 172 167 168 168 169 164 165 159 161 170 156 150 149 156 164 146 130 144 164 161 157 170 163 146 145 141 137 153 174 185 190 185 185 170 134 132 124 113 115 133 152 159 148 141 137 141 154 153 152 160 174 184 191 195 197 196 195 188 189 186 175 164 154 165 179 184 189 193 193 185 177 171 163 167 177 183 189 192 193 190 193 196 192 191 191 191 192 189 180 162 138 127 171 191 198 195 189 181 164 120 55 27 23 23 25 27 24 26 26 25 23 22 24 27 24 23 23 23 23 23 23 23 25 26 25 23 22 23 25 28 27 27 25 26 28 24 24 26 26 23 22 24 22 19 18 23 22 21 24 24 24 33 29 26 26 28 28 29 37 37 27 27 26 31 28 24 25 25 30 31 24 26 28 27 23 25 26 26 28 30 28 26 28 29 33 52 70 89 87 85 109 103 94 79 109 132 103 
26 28 25 23 23 23 23 21 20 19 17 17 17 19 20 20 23 24 23 23 23 23 23 26 26 27 27 27 27 26 25 28 26 26 26 26 26 27 27 26 26 27 27 27 27 25 23 22 20 19 19 20 19 17 17 17 17 17 17 17 17 17 17 16 16 16 16 16 16 16 17 21 21 20 25 68 125 153 176 183 188 184 166 107 121 176 195 202 206 203 199 197 197 197 194 183 149 75 42 61 129 169 179 182 194 197 182 174 166 165 163 165 168 150 138 138 151 171 167 145 141 148 153 154 165 154 153 148 143 134 152 171 179 185 167 182 182 142 127 117 99 118 152 160 155 147 137 141 140 153 152 155 162 174 188 195 198 197 191 187 183 189 187 174 164 160 161 173 180 187 190 189 183 180 168 159 164 174 185 194 196 195 192 192 193 191 192 191 188 192 186 181 158 123 144 181 195 198 197 188 163 115 63 31 24 22 23 25 27 24 26 26 25 23 23 24 28 24 22 23 23 23 23 22 23 25 27 26 23 23 23 25 28 27 27 28 33 28 27 27 28 27 23 21 22 18 19 21 24 22 20 26 30 30 29 27 25 25 26 26 26 28 26 25 24 28 31 26 26 26 29 36 31 28 24 27 28 23 26 27 27 28 30 27 23 24 35 58 68 62 78 86 80 91 112 102 82 114 122 101 
26 28 27 25 23 23 23 21 20 19 18 18 18 18 20 22 22 23 25 25 25 25 24 24 24 25 27 27 27 26 23 24 24 24 24 24 25 27 27 25 25 27 27 27 27 25 23 22 18 18 18 19 19 17 17 17 17 17 17 17 17 17 16 15 14 14 14 14 14 16 18 19 20 23 22 38 93 134 160 173 182 189 182 136 100 160 191 200 204 202 200 199 199 198 199 187 153 81 42 44 96 158 178 187 205 205 197 185 165 165 175 177 175 165 158 149 156 174 174 166 153 144 160 160 156 148 145 137 141 141 155 167 173 178 171 191 191 144 122 107 90 124 148 153 144 140 138 142 138 144 151 165 176 183 193 195 196 195 190 184 182 188 187 177 165 159 163 172 183 189 187 188 179 176 166 162 169 181 190 198 199 196 198 195 193 192 193 193 190 187 176 170 151 131 166 190 200 199 194 177 119 54 28 25 26 26 24 24 26 25 24 24 24 25 25 25 27 24 22 23 23 23 22 21 23 24 27 26 25 25 25 26 29 31 32 28 32 30 31 29 26 24 24 26 28 21 19 21 23 22 22 28 31 29 26 27 28 25 23 22 24 32 32 29 25 27 28 28 31 34 34 37 31 35 28 23 26 25 22 21 21 24 32 30 25 29 47 68 67 63 67 91 96 70 96 111 116 119 102 96 
28 27 29 27 24 23 23 21 20 20 20 20 19 20 23 21 22 25 26 27 27 27 25 25 26 25 27 27 27 26 22 22 24 23 23 23 25 28 28 25 25 27 27 27 27 25 23 22 19 19 19 19 19 17 17 17 17 17 17 17 17 17 16 14 13 13 13 13 13 15 18 20 20 22 21 26 64 115 153 174 185 191 187 169 104 127 181 198 203 202 201 200 199 195 196 187 152 76 36 34 73 141 164 181 205 199 191 184 172 159 169 175 168 168 173 168 170 173 156 152 152 139 138 151 154 147 144 135 133 138 159 170 178 165 172 178 156 129 113 100 93 132 146 143 135 138 139 139 141 147 157 171 182 189 196 196 190 192 192 185 186 189 189 182 177 165 164 176 186 191 189 191 183 173 160 162 175 185 191 195 198 197 196 195 195 194 196 191 193 189 179 157 136 150 180 194 200 196 184 130 59 27 24 23 23 26 25 25 26 26 23 23 24 26 27 27 27 24 21 24 23 23 22 22 23 22 27 27 27 27 28 27 33 39 38 30 29 31 28 27 23 23 29 29 26 22 21 24 25 25 28 32 26 26 26 24 24 23 22 23 24 29 26 25 27 26 24 24 25 29 28 39 36 33 30 25 23 24 21 22 22 24 30 33 31 39 50 61 74 78 77 96 107 90 100 106 113 112 105 101 
28 28 29 27 24 23 23 21 20 20 20 20 20 24 26 20 24 28 27 27 26 26 26 28 28 27 27 26 26 27 22 22 24 23 23 24 25 28 28 25 25 27 27 27 27 25 23 22 22 22 21 20 19 18 17 17 17 17 17 17 17 17 16 14 13 13 13 13 14 15 18 20 20 20 20 20 36 79 135 172 181 187 189 184 129 99 168 198 202 201 201 200 199 193 191 186 149 72 34 29 57 133 168 175 194 184 169 173 179 159 155 164 165 169 173 166 158 162 144 145 166 151 129 139 157 153 159 140 136 140 160 171 184 171 161 147 126 114 101 100 106 137 143 137 137 139 134 135 139 154 164 175 185 192 195 195 193 192 191 188 190 192 189 186 180 159 160 176 185 191 192 196 194 176 157 157 175 190 191 193 196 199 195 195 197 194 194 191 192 189 177 147 124 166 189 197 199 189 140 66 33 25 21 20 20 22 26 27 26 25 24 23 24 26 26 26 26 23 21 24 23 23 23 24 21 22 27 27 26 26 27 27 34 38 31 28 29 31 27 31 30 28 29 28 22 20 23 26 29 29 29 31 27 29 26 21 25 28 25 23 22 25 29 27 27 26 28 27 26 28 29 35 32 33 29 22 20 22 22 24 24 26 30 32 38 50 57 57 76 79 72 79 93 106 110 101 118 121 108 98 
30 31 29 27 24 23 23 22 22 22 21 20 22 26 26 23 28 30 27 26 24 23 23 25 25 26 27 26 26 27 23 24 24 26 26 26 26 27 27 26 27 28 28 27 27 26 23 21 22 23 21 20 20 19 19 19 19 19 19 19 18 17 17 16 16 16 16 16 16 16 17 21 21 20 20 20 22 47 102 157 182 189 191 190 161 99 146 192 201 201 201 203 201 197 193 189 154 73 32 26 41 110 158 169 180 172 160 168 174 164 154 158 165 170 175 163 148 141 140 153 175 164 141 127 146 147 147 135 137 146 162 181 196 187 168 144 114 104 97 102 124 141 137 134 134 134 131 140 153 162 167 180 184 188 189 194 194 190 188 192 195 195 191 187 181 166 167 179 182 188 193 196 191 168 156 161 178 192 193 197 198 199 198 198 197 193 190 188 186 182 165 132 138 185 200 201 195 147 71 33 26 22 21 26 25 25 26 25 23 23 25 26 25 23 23 24 23 20 22 25 23 23 22 24 24 24 27 26 24 26 28 26 34 33 27 26 29 28 26 31 32 28 26 26 22 22 21 23 27 28 28 28 28 32 31 28 28 28 28 25 23 26 28 25 28 27 30 28 25 24 28 31 28 32 28 22 23 26 27 22 21 22 26 38 60 68 65 69 70 70 76 69 76 96 118 116 132 128 104 91 
30 32 29 27 24 23 23 23 23 23 23 23 24 26 26 24 25 26 26 26 24 23 22 21 21 25 27 26 26 27 26 27 27 26 27 27 27 27 27 27 25 25 25 26 27 26 24 21 22 23 21 20 20 20 20 20 20 20 20 20 19 17 17 17 17 17 17 17 17 17 17 18 18 19 20 20 19 26 62 122 171 180 188 195 186 117 126 189 198 201 204 204 202 200 198 195 170 89 34 27 49 122 167 175 180 180 173 175 181 171 165 167 162 159 174 172 158 137 135 152 167 160 152 134 136 141 138 137 136 148 166 188 194 193 171 147 123 116 104 107 139 145 140 136 134 134 133 139 154 163 170 188 187 189 189 188 193 192 191 194 196 195 192 186 184 172 168 179 186 193 195 193 186 169 155 163 178 190 195 197 198 199 199 199 197 193 190 186 179 171 150 130 170 195 202 198 154 74 30 28 25 22 24 30 24 27 27 24 23 23 26 27 25 23 23 24 22 19 22 25 23 23 23 27 27 26 27 26 24 26 30 27 30 30 29 28 28 28 28 29 29 25 22 25 27 27 27 35 36 33 28 25 24 25 28 29 25 25 27 26 24 27 27 25 28 25 26 28 27 22 26 34 34 37 33 26 24 27 28 22 21 22 34 58 77 85 85 76 59 55 95 92 88 97 102 114 131 110 106 96 
30 33 30 28 27 25 25 25 25 25 26 26 26 28 28 25 25 25 26 27 26 23 20 21 21 26 28 28 29 28 28 29 29 27 27 27 27 27 27 27 26 25 25 26 27 26 25 24 23 23 22 21 21 20 20 20 20 20 20 20 19 18 18 16 14 14 16 17 17 17 17 17 17 18 19 19 19 20 32 73 142 172 188 194 193 135 110 177 197 200 204 203 199 197 196 196 183 111 40 27 40 109 161 175 183 188 191 185 177 170 167 169 170 157 170 183 162 142 141 163 161 160 156 150 146 151 141 136 140 153 169 187 190 187 156 139 129 122 106 113 147 142 138 136 128 130 143 153 155 167 173 186 186 184 183 177 189 194 190 193 196 194 192 192 192 179 169 181 191 197 196 192 184 163 143 163 183 190 196 197 200 200 200 200 198 194 188 184 173 161 140 149 189 198 193 151 77 32 25 26 25 25 24 25 19 21 25 26 25 24 24 24 23 22 24 25 24 23 24 25 24 22 22 27 28 27 25 27 27 27 28 25 26 27 30 32 34 33 30 29 26 22 23 26 29 30 35 50 49 41 29 23 24 24 25 25 22 23 27 26 25 28 28 28 29 26 27 30 31 29 29 30 28 34 34 27 28 26 25 23 23 35 53 69 87 101 89 61 54 74 110 115 109 106 98 100 110 110 116 103 
29 34 32 30 29 27 27 27 27 27 27 27 27 30 29 27 27 27 27 27 29 27 25 27 28 30 32 32 31 28 28 30 29 27 27 27 27 27 27 27 27 27 27 27 27 27 27 26 23 23 23 23 22 20 20 20 20 20 20 20 20 20 19 18 15 13 16 17 17 17 17 17 17 16 17 17 19 20 20 48 114 167 187 191 195 156 105 161 196 200 203 204 201 198 197 198 189 134 50 28 33 93 149 173 182 187 186 175 171 176 170 172 186 170 167 176 157 140 139 159 152 158 157 154 139 140 149 143 146 152 168 186 178 162 133 134 136 125 103 116 143 137 132 131 127 135 153 169 174 182 184 186 186 178 168 169 189 194 192 193 196 194 195 196 195 190 178 185 194 196 197 193 179 152 140 169 187 193 197 200 201 201 199 199 197 192 185 182 173 153 136 174 199 186 133 66 31 25 27 26 26 28 24 23 22 24 26 26 27 26 23 23 22 23 26 27 27 27 27 27 26 25 24 26 27 26 24 26 27 30 27 25 25 27 30 32 34 32 30 30 26 22 27 30 30 36 34 35 35 36 32 27 30 30 31 28 26 24 25 28 32 33 33 34 30 27 27 27 25 24 26 30 30 39 37 36 35 26 24 28 35 54 56 66 81 94 89 69 77 108 113 117 118 114 94 107 108 104 108 103 
29 34 32 30 30 27 27 27 27 27 27 27 27 29 29 27 27 27 27 28 32 34 33 34 33 34 34 34 31 28 28 30 29 27 27 27 27 27 27 27 27 27 27 27 27 27 27 26 24 23 23 23 22 21 20 20 20 20 20 20 20 20 20 20 18 16 17 17 16 16 16 17 17 15 14 15 18 19 17 28 79 158 182 187 195 179 112 137 186 202 203 203 201 199 198 194 189 149 57 27 34 98 151 172 180 183 182 180 191 187 173 179 184 175 168 169 160 143 150 164 151 146 142 150 140 131 143 134 147 154 180 197 182 160 134 128 129 120 101 127 144 137 128 129 129 144 159 172 190 190 189 189 187 174 148 156 185 194 196 197 196 195 195 196 195 196 187 187 194 196 196 192 177 149 145 178 191 196 200 202 202 201 197 195 194 189 181 177 166 141 152 192 193 128 53 28 28 28 26 26 26 27 22 22 24 26 24 24 27 26 23 23 23 26 29 27 27 27 26 26 25 27 29 27 26 25 26 25 25 31 31 28 28 27 30 31 32 30 29 30 28 25 30 33 35 41 33 31 33 30 27 23 27 31 31 32 30 25 26 31 36 32 31 32 29 28 32 32 26 25 25 28 28 35 32 35 34 26 28 35 53 81 85 82 85 95 90 62 76 111 124 124 123 125 108 116 111 96 95 98 
29 34 33 33 33 30 29 28 27 27 28 29 29 26 27 30 30 30 32 35 37 38 34 35 32 33 34 34 31 27 29 30 29 27 27 27 27 27 27 27 27 27 27 27 27 27 27 27 26 26 24 23 23 24 22 21 22 22 23 22 21 22 22 20 19 20 20 17 14 13 14 16 17 16 16 16 17 17 17 22 45 127 174 189 196 193 129 110 175 200 206 206 202 196 194 188 191 156 63 28 32 91 147 166 172 181 193 188 193 182 171 181 188 177 169 173 159 147 153 157 155 150 140 153 151 133 139 132 144 151 165 179 177 156 143 136 126 111 110 141 141 139 125 136 142 155 167 175 189 191 190 189 182 161 148 160 186 193 194 197 196 195 196 196 197 197 190 192 194 193 191 187 172 145 150 183 194 197 198 201 202 201 198 195 192 185 175 171 151 132 171 188 130 57 25 23 28 29 25 24 27 25 24 23 21 20 20 25 27 24 23 23 24 27 30 28 27 27 26 25 25 26 29 27 25 24 23 25 28 29 32 30 28 27 29 33 33 32 29 30 26 23 29 39 40 42 35 30 30 26 23 24 28 29 30 29 28 29 27 28 34 33 30 28 28 28 31 29 28 33 30 27 29 38 35 30 31 28 35 46 57 82 100 84 76 98 91 65 92 118 136 138 148 135 130 122 108 103 100 89 
29 34 34 34 33 30 30 29 30 30 30 30 30 29 30 34 38 40 39 42 42 41 37 38 35 34 34 34 31 27 29 30 29 27 27 27 27 27 27 27 27 27 27 27 27 27 27 27 27 27 25 23 23 24 22 21 22 23 24 23 21 22 22 20 20 20 21 18 14 13 13 16 17 17 17 17 17 17 17 19 28 96 158 176 187 193 152 93 155 193 202 204 202 195 191 190 191 159 70 28 31 71 137 162 177 186 188 176 168 165 173 181 185 173 168 174 152 145 154 153 157 158 145 138 135 144 144 138 146 154 163 166 151 139 138 133 122 102 115 138 125 130 125 138 157 172 179 169 175 189 187 183 179 165 166 175 188 192 196 196 196 196 196 196 196 195 193 195 194 193 194 190 172 146 157 185 191 197 198 198 201 202 201 195 187 181 173 160 133 146 170 124 53 24 21 23 27 30 25 24 28 25 24 24 21 21 22 28 27 24 26 27 27 29 32 31 30 29 26 26 27 26 26 27 24 26 25 28 29 28 32 30 26 27 30 32 34 32 29 31 25 25 29 36 31 32 40 37 32 29 27 28 31 30 30 31 37 35 27 28 27 28 29 24 24 26 28 30 31 36 33 30 29 33 31 28 29 30 47 58 60 88 105 90 84 87 78 87 98 97 96 113 146 143 135 125 123 120 109 95 
31 34 34 34 33 32 31 31 32 30 29 30 33 37 37 39 41 46 45 46 47 45 41 41 38 37 34 34 32 30 30 30 29 27 27 27 27 27 28 28 27 27 27 28 28 27 27 27 27 27 26 24 24 24 22 22 22 23 24 22 22 22 22 21 21 20 19 17 15 14 14 14 15 15 15 15 16 17 16 17 16 55 130 164 180 193 172 94 122 180 197 203 200 195 193 194 194 167 79 23 22 54 137 159 179 193 188 185 181 170 182 186 185 171 171 172 148 142 160 148 146 158 151 138 132 153 142 129 143 164 188 177 149 136 127 119 109 103 129 136 133 137 139 149 161 180 183 172 175 185 185 178 177 172 172 184 191 195 198 195 194 194 194 195 197 198 196 194 195 196 197 190 170 147 167 188 193 198 198 197 199 200 199 194 188 180 169 144 128 154 122 56 29 24 22 27 28 29 27 25 29 26 25 25 24 24 25 28 27 25 27 29 26 25 28 30 31 30 26 26 27 26 25 27 25 28 29 29 31 31 32 29 26 29 33 33 33 32 31 31 26 26 27 30 30 29 30 30 31 31 30 31 33 32 32 29 33 30 28 30 26 29 30 28 24 22 25 30 31 30 30 32 27 29 29 27 36 43 55 69 85 100 109 120 102 94 89 111 108 98 91 86 93 99 92 104 131 130 116 100 
32 35 34 34 34 34 34 32 34 34 32 36 42 47 47 46 43 47 47 47 50 48 45 41 38 39 35 34 34 33 31 30 29 27 27 27 27 27 29 30 28 27 27 29 30 28 27 27 27 27 27 27 26 23 23 23 23 23 23 21 23 23 23 23 23 21 18 18 17 17 16 13 13 13 13 13 16 17 17 17 16 27 88 153 177 194 190 121 97 169 194 200 197 195 195 195 197 175 90 26 21 43 124 161 176 192 191 190 194 181 189 185 184 172 156 153 144 142 155 156 148 145 141 146 145 154 147 132 149 174 198 193 163 135 122 109 108 138 150 132 132 138 150 163 168 180 181 177 177 180 180 175 180 179 183 190 191 197 200 195 193 195 195 197 200 199 196 197 197 197 196 185 162 151 177 190 196 199 199 199 199 197 190 187 186 176 159 129 118 101 55 29 28 24 26 31 28 30 36 30 27 26 26 27 27 27 27 27 27 26 25 28 24 24 28 29 30 29 27 27 27 27 27 27 26 26 30 30 33 33 29 24 23 30 34 35 33 30 31 33 33 29 25 28 32 31 28 28 31 32 31 30 30 33 34 30 32 32 31 28 28 34 31 30 26 30 33 32 34 28 27 31 31 30 30 34 52 68 83 93 95 91 103 127 105 103 108 114 113 111 110 99 89 95 88 100 117 117 114 94 
32 34 34 33 33 34 34 34 41 45 45 47 50 53 54 50 46 50 51 51 54 51 47 42 38 39 35 34 33 33 31 30 29 27 27 27 27 27 29 29 28 27 27 29 29 28 27 27 27 27 27 27 26 23 22 22 23 23 23 21 23 23 23 23 23 22 21 21 18 17 16 13 13 13 13 13 16 16 16 17 16 19 51 131 172 193 196 152 89 151 196 200 198 195 192 192 195 179 96 29 24 38 112 165 178 182 187 198 206 193 191 183 174 164 149 152 153 145 149 164 158 145 141 139 141 143 145 144 157 171 191 190 167 139 122 103 117 151 138 127 130 148 163 175 175 176 179 178 174 177 177 174 182 188 190 190 196 199 200 194 192 199 199 200 204 204 202 200 200 201 201 190 161 159 183 194 200 199 199 200 200 194 188 186 183 168 137 104 72 37 32 27 24 24 28 31 29 29 38 30 22 24 26 26 26 27 27 27 27 26 26 28 26 25 27 30 29 28 27 27 27 27 27 27 26 24 30 33 33 33 30 27 25 30 33 35 33 31 32 32 33 32 30 32 35 34 31 31 34 35 35 35 35 34 33 32 34 34 34 30 29 33 31 30 30 35 35 32 33 28 29 35 33 29 35 63 72 78 89 105 98 88 111 116 87 81 110 118 113 120 136 130 96 102 89 108 121 112 110 95 
30 32 34 33 32 34 39 46 57 56 54 57 53 53 55 52 48 51 52 54 56 53 49 43 37 36 34 32 31 29 28 30 30 29 29 29 29 29 27 27 27 27 27 27 27 27 27 27 27 27 27 27 24 21 20 21 22 23 23 22 24 26 26 24 23 22 20 20 18 17 16 16 16 14 13 13 13 13 15 17 17 17 26 88 161 186 193 175 101 121 192 204 200 198 191 189 193 181 115 36 23 31 96 153 169 175 187 205 206 192 183 181 180 175 160 156 154 144 155 165 159 150 145 130 135 140 141 148 162 174 186 179 159 140 129 104 122 157 134 132 148 160 166 174 176 181 183 175 169 179 187 183 179 187 192 192 198 201 201 199 199 203 201 202 204 206 205 202 199 198 199 188 158 172 193 200 201 199 199 198 197 193 189 185 177 144 93 57 34 24 28 28 24 26 28 29 32 31 29 27 25 27 29 27 25 26 27 27 29 29 27 32 31 27 27 29 28 29 29 29 27 27 27 27 27 26 29 32 34 34 31 30 27 27 31 33 33 33 34 31 35 38 35 30 31 29 28 28 28 30 32 35 37 32 27 33 33 31 31 27 25 26 28 29 31 35 32 29 34 34 30 31 29 32 47 78 88 78 82 101 98 98 118 115 80 92 124 119 111 105 111 117 112 132 103 91 106 112 114 94 
31 35 37 38 42 45 53 61 65 64 60 62 58 57 56 54 52 54 55 58 59 56 53 47 40 35 34 35 31 28 28 30 30 30 30 30 30 29 27 27 27 27 27 27 27 27 27 27 27 27 26 25 26 24 23 23 23 23 23 23 23 26 26 24 23 22 20 19 17 17 17 17 17 14 13 13 13 13 15 17 16 17 18 50 135 176 186 183 128 95 171 203 201 197 191 188 185 180 134 45 21 28 92 148 166 171 179 191 186 178 181 187 185 179 168 147 142 146 160 166 157 153 153 130 133 137 140 149 163 171 172 167 154 139 126 107 129 150 135 146 167 166 168 174 179 186 184 178 178 183 191 187 183 190 194 198 201 202 202 200 201 203 202 202 203 206 205 204 201 200 199 179 152 181 199 202 201 199 199 198 196 193 187 182 156 93 48 28 22 21 24 26 24 27 24 26 29 29 22 25 26 28 29 27 24 26 27 27 29 29 27 29 29 28 31 29 27 31 30 29 27 27 27 27 27 27 29 32 34 38 39 32 31 28 30 33 36 39 44 45 38 36 30 27 29 28 30 29 26 28 30 30 33 33 27 30 35 29 28 30 29 28 31 25 28 34 31 29 36 39 30 25 27 42 61 73 81 79 86 97 102 100 108 116 89 115 130 115 113 120 107 124 158 156 135 116 119 103 106 101 
35 41 47 55 62 64 65 68 69 68 65 65 64 62 58 57 57 61 60 60 59 58 54 48 41 40 41 41 33 29 29 30 29 28 28 29 30 29 27 27 26 27 26 27 28 27 28 28 27 26 24 25 27 27 25 24 24 24 24 24 25 26 26 25 24 23 20 19 17 17 16 15 15 13 13 13 13 13 14 16 17 18 18 32 94 164 184 190 160 90 145 196 199 196 195 190 187 184 144 55 21 24 66 129 164 171 175 180 182 186 189 196 195 183 167 140 138 147 161 178 162 155 157 130 126 137 136 147 162 166 163 152 142 131 116 116 140 146 150 171 180 171 166 175 183 185 182 182 189 190 192 190 189 194 196 199 202 203 203 201 201 202 203 203 204 205 205 205 202 201 197 168 157 188 198 202 201 199 199 196 195 191 184 167 112 45 30 28 22 22 23 23 24 28 23 23 25 26 25 25 23 24 25 27 25 27 26 25 27 29 26 26 26 29 36 34 29 30 30 28 27 26 26 27 26 27 29 31 35 40 40 31 34 29 30 36 37 39 40 41 34 32 33 30 31 31 32 35 33 30 31 29 35 39 34 27 35 34 29 30 31 31 30 22 27 38 35 44 50 41 32 32 43 59 74 89 88 87 92 84 89 107 107 101 95 115 112 97 101 128 110 112 129 129 129 127 127 115 94 85 
45 59 66 69 71 72 72 73 72 69 68 68 68 65 63 61 58 63 61 58 57 59 56 47 41 43 44 42 35 31 30 30 29 27 27 28 30 29 27 27 25 28 26 28 31 28 30 30 29 25 25 26 27 28 26 25 26 27 27 27 27 27 27 27 27 25 21 18 17 17 16 13 13 13 13 13 13 13 13 15 18 19 20 21 48 130 180 189 178 98 114 182 190 189 190 191 188 183 152 67 23 22 40 109 147 165 175 183 180 189 193 188 194 189 160 137 143 156 159 171 165 162 158 129 125 143 136 146 165 157 152 149 136 126 115 124 154 162 161 170 173 174 174 180 177 177 185 192 197 193 188 191 194 198 198 197 203 205 206 203 202 202 205 206 206 203 204 204 201 199 186 158 170 194 197 201 201 199 199 194 192 182 169 121 60 29 26 29 23 22 22 23 24 28 26 27 28 29 28 24 27 26 24 27 27 27 25 24 25 26 24 26 28 29 34 32 30 31 31 27 25 26 28 29 26 28 30 30 38 38 31 30 35 33 33 40 37 37 36 37 34 33 30 28 31 33 33 38 33 28 31 35 45 45 40 33 38 36 27 26 29 32 26 23 28 39 37 40 44 35 32 43 66 73 80 83 86 93 88 81 83 118 106 78 85 104 105 98 100 110 92 104 114 122 123 126 141 131 94 70 
64 74 74 76 78 76 75 76 76 73 72 72 71 67 69 69 63 65 66 63 61 63 59 51 45 43 43 41 35 32 30 30 29 27 27 28 30 29 27 27 26 28 26 28 31 29 30 30 29 26 25 27 27 28 26 25 26 27 27 26 26 27 26 26 26 25 21 18 17 17 16 13 13 13 13 13 13 13 13 15 18 19 20 21 29 80 153 188 187 118 92 168 187 189 192 191 185 180 162 80 26 19 27 86 135 162 168 184 184 188 196 185 184 181 162 138 138 151 161 165 164 161 148 130 139 152 147 164 169 156 149 149 137 116 106 122 165 175 166 164 172 180 180 178 175 182 191 196 198 194 190 192 198 202 201 201 206 206 205 203 202 202 205 205 205 204 204 204 201 195 177 161 189 197 199 200 200 201 199 195 190 170 130 69 37 27 29 32 25 24 23 23 23 27 26 26 26 26 24 22 26 26 24 27 26 24 26 28 27 24 23 26 30 33 33 28 27 29 31 27 23 25 31 32 29 29 29 29 34 35 30 31 35 37 39 40 40 43 39 35 33 34 29 31 34 37 35 35 33 36 36 37 41 40 40 37 39 33 27 31 34 33 27 27 26 29 31 28 31 31 40 57 68 72 87 89 97 97 87 84 87 111 98 89 97 105 112 96 104 94 93 117 115 120 142 141 134 135 118 81 
68 75 75 77 79 77 76 80 79 76 73 74 76 74 73 72 67 65 67 67 67 66 61 54 50 44 41 41 40 37 35 31 31 30 28 28 30 29 28 28 28 29 28 27 30 30 30 30 29 29 28 29 29 27 26 26 27 27 27 26 25 27 25 23 23 23 22 21 21 19 16 13 13 13 13 13 13 13 14 16 17 19 20 20 20 41 113 175 189 148 78 137 183 191 192 190 185 181 171 99 33 18 22 65 116 147 163 177 183 182 183 182 173 177 169 142 139 155 166 172 166 156 142 133 141 150 152 169 165 154 146 138 131 119 117 140 167 169 171 174 180 178 173 171 177 190 199 199 196 192 189 193 200 202 202 205 205 203 205 206 205 205 206 204 203 204 205 204 200 186 161 164 195 199 201 202 200 199 193 190 185 136 74 34 27 26 29 30 25 22 24 25 23 26 26 24 26 23 23 24 23 25 23 27 27 27 30 30 30 26 25 26 27 31 33 27 24 29 28 25 25 25 29 30 30 28 27 27 28 31 34 38 40 39 40 39 38 37 35 33 33 35 34 31 32 36 36 35 33 39 39 43 39 36 37 37 36 30 31 33 29 33 32 35 33 32 34 30 36 37 54 68 78 80 84 101 121 116 112 99 106 109 85 95 130 107 88 83 104 92 102 123 119 131 131 125 116 125 119 87 
72 78 79 80 80 80 78 83 80 77 75 77 79 81 76 69 68 70 72 68 68 67 62 55 51 46 43 43 41 38 36 31 31 31 28 28 30 29 26 25 27 30 29 27 30 31 30 30 30 30 30 30 29 27 27 27 27 26 25 26 27 27 24 23 23 23 23 23 22 20 17 16 16 14 13 13 13 13 15 17 17 19 20 20 20 24 78 158 180 170 84 106 175 188 188 187 186 182 180 129 49 20 18 29 75 127 153 168 178 178 178 177 171 179 167 149 147 153 165 168 158 144 140 138 139 151 157 158 157 157 144 130 124 121 124 156 161 164 177 179 178 178 177 184 187 194 201 200 198 194 195 196 201 202 204 207 202 202 205 206 206 206 207 204 203 204 206 202 194 183 159 179 202 202 202 203 200 198 191 179 148 77 38 31 29 28 30 32 27 20 20 24 23 25 28 26 25 24 25 28 26 26 28 30 29 29 31 28 29 30 31 29 28 33 32 29 30 33 28 24 26 24 28 30 29 27 29 30 29 35 38 40 36 33 34 32 33 34 34 37 38 38 37 29 34 33 30 30 32 38 38 40 37 36 37 36 34 31 31 32 28 33 33 34 32 32 42 36 49 54 67 78 101 96 72 83 103 107 124 114 127 126 101 110 136 115 97 88 109 106 114 136 127 127 107 96 109 118 111 87 
74 83 83 83 84 84 82 86 80 77 79 81 81 73 70 71 74 79 75 71 70 65 61 54 49 46 47 44 42 41 37 33 32 32 29 28 28 27 24 24 26 28 28 28 30 31 30 28 29 30 29 28 28 27 27 27 27 26 25 26 27 27 25 24 24 24 23 23 23 21 18 19 19 17 14 13 13 13 15 17 17 18 18 17 18 21 43 125 162 176 102 79 158 182 186 185 185 182 187 161 76 27 18 17 43 112 154 170 176 178 186 182 171 170 162 150 152 156 161 158 147 141 141 146 152 166 169 165 151 146 133 123 120 122 133 160 160 165 173 170 172 179 182 187 191 198 199 198 198 196 201 198 201 202 202 205 205 205 207 206 206 206 207 204 202 204 206 198 177 165 166 194 205 205 205 203 200 196 189 144 82 40 32 30 32 36 28 26 24 18 17 23 23 24 27 26 27 27 27 31 27 26 32 31 30 29 30 27 27 30 33 30 29 34 31 29 29 32 27 25 25 23 26 29 30 26 29 36 35 36 41 42 36 35 35 33 35 38 39 38 33 32 33 33 35 32 34 33 33 38 38 37 31 35 35 34 33 35 35 39 37 34 35 33 31 26 34 41 69 87 85 80 92 84 74 80 94 108 124 121 112 97 108 116 98 99 111 107 99 96 114 146 118 115 104 92 105 115 115 86 
77 88 86 84 84 86 85 89 87 83 83 83 81 73 72 74 76 81 76 74 72 65 63 58 52 49 47 46 44 43 39 36 34 34 31 28 27 26 24 24 25 27 27 29 30 31 30 27 29 30 28 27 27 27 27 27 27 27 26 26 26 27 27 26 26 25 23 23 24 23 20 20 20 19 16 14 13 13 15 17 17 17 17 18 20 20 31 92 142 171 121 56 124 172 187 180 180 185 190 175 105 37 20 20 26 87 146 166 171 178 182 183 187 178 177 165 154 160 163 164 145 140 143 151 161 172 163 152 148 141 128 129 125 124 139 158 165 173 172 173 179 186 191 193 195 200 197 198 198 197 203 201 203 203 203 204 206 208 209 206 207 207 207 204 202 204 201 185 152 154 183 201 205 206 204 200 196 189 152 80 40 27 29 30 32 35 27 23 21 18 20 24 22 22 24 24 29 29 28 31 25 25 31 29 27 26 30 33 28 30 31 30 30 31 30 29 29 33 27 26 25 22 26 30 29 26 27 32 32 39 42 41 39 37 32 31 33 36 37 39 33 37 41 38 38 34 35 38 36 41 41 38 28 28 33 37 36 39 38 41 36 32 35 34 34 28 31 53 71 80 75 69 73 75 97 113 116 109 116 116 90 69 107 130 116 115 122 111 88 92 119 150 132 121 101 97 105 115 116 89 
80 92 88 84 83 85 88 85 90 88 84 84 81 80 82 81 80 83 81 75 68 68 66 61 55 52 51 51 46 39 39 36 34 34 32 28 27 26 21 20 23 27 27 29 30 30 30 27 29 29 28 27 27 27 27 27 27 27 27 27 26 27 27 26 27 25 23 23 24 23 20 20 20 19 16 14 13 13 15 17 17 17 17 18 20 20 20 49 111 162 148 62 86 157 187 186 184 185 187 180 132 58 24 20 20 59 118 151 165 167 174 191 197 187 180 168 153 153 160 170 150 138 154 163 169 171 155 146 148 138 122 127 128 144 160 166 174 184 183 187 190 190 188 190 196 200 197 198 198 195 202 205 207 207 205 204 206 208 209 208 210 210 207 204 203 202 194 179 155 161 193 202 204 206 204 201 192 149 80 40 30 26 28 29 29 28 25 26 24 21 21 23 25 23 21 23 24 25 28 31 28 24 29 29 27 27 30 32 28 29 29 28 28 27 27 25 25 29 27 26 25 26 34 31 25 28 28 30 32 38 41 38 34 32 29 31 37 39 38 41 44 44 43 41 41 36 35 38 42 48 47 41 32 31 39 46 43 40 43 41 30 29 31 35 41 39 38 56 65 70 82 88 82 93 117 112 112 105 125 134 95 91 117 117 123 123 116 98 94 91 101 124 117 106 93 96 109 101 83 70 
86 93 89 84 81 82 86 84 89 88 87 85 82 82 83 84 82 81 77 72 70 72 69 62 58 55 54 50 45 40 40 36 34 35 34 30 27 26 22 22 24 27 27 29 30 28 27 27 27 27 27 27 27 27 27 27 27 27 27 27 26 26 27 26 27 27 26 24 23 23 22 22 22 20 17 14 15 15 16 17 17 17 17 18 20 19 20 27 55 124 158 89 59 130 172 185 184 181 180 181 165 105 43 22 19 37 89 133 157 162 171 192 191 192 178 161 155 154 157 162 151 151 164 169 165 156 148 149 144 126 112 120 136 169 185 186 189 191 189 192 193 191 191 196 198 200 198 199 201 199 205 206 206 206 206 207 208 209 208 206 208 210 209 206 201 200 194 182 171 175 195 203 205 207 207 193 135 73 42 34 28 27 27 27 26 24 22 24 23 21 21 21 27 26 22 22 22 25 28 26 27 26 27 25 27 30 29 29 29 29 30 33 35 32 28 25 23 26 29 27 30 33 35 31 26 30 29 31 34 33 33 34 34 31 31 33 38 38 38 45 52 41 35 39 41 38 35 35 41 46 48 43 35 35 41 46 44 40 44 37 33 31 30 33 40 48 51 66 79 85 93 115 114 122 129 100 98 122 143 139 107 122 136 110 111 113 99 102 120 112 110 117 112 110 97 103 124 95 81 68 
85 90 86 83 83 83 85 83 86 87 90 86 80 81 81 82 81 83 77 74 75 73 70 67 63 58 53 51 48 44 41 36 34 32 32 29 27 26 23 23 24 27 27 28 31 27 27 27 27 27 27 27 27 27 27 27 27 27 27 27 27 27 27 27 27 27 28 24 23 23 23 23 23 22 19 17 16 17 17 17 17 17 17 18 20 19 20 23 31 81 139 109 46 97 155 172 172 175 181 186 182 146 73 26 18 19 64 118 150 158 167 185 187 186 166 154 152 158 159 155 153 152 152 160 162 154 148 144 135 119 116 123 157 186 189 191 193 191 191 194 195 195 195 194 196 200 198 201 201 201 206 206 206 206 207 209 208 208 208 208 208 208 207 203 201 196 190 181 172 188 201 204 207 208 195 134 57 35 35 35 30 29 27 27 26 26 29 27 24 20 18 17 27 32 23 22 23 23 24 22 26 27 28 25 25 29 30 30 30 30 30 33 36 33 30 27 26 27 29 29 31 32 33 31 27 30 32 35 34 31 30 33 37 38 38 37 35 36 38 44 44 33 30 32 35 33 37 34 38 45 47 43 44 41 43 43 41 38 40 34 39 37 33 31 45 76 84 82 91 103 101 111 125 136 126 126 128 134 148 138 118 128 135 108 106 131 112 104 116 110 110 117 119 128 116 123 122 88 96 80 
81 87 84 83 85 83 84 83 86 84 87 87 85 88 87 83 84 84 79 79 79 74 67 63 59 57 53 50 49 45 40 35 32 31 30 28 27 26 23 23 24 27 27 28 30 27 27 27 27 27 27 27 27 27 27 27 27 27 27 27 27 27 27 27 27 27 27 25 22 22 22 22 23 24 23 19 17 17 17 17 17 17 16 16 19 20 21 20 21 55 123 124 50 63 141 159 170 174 179 183 185 169 110 36 19 16 41 100 148 154 170 186 187 183 166 151 147 153 167 168 162 158 163 166 163 155 145 138 125 111 120 142 178 193 193 194 193 191 196 198 198 198 196 192 193 197 198 200 201 202 206 206 206 206 208 209 209 206 209 210 209 205 204 202 198 192 190 178 174 198 204 207 209 187 127 61 33 30 30 34 34 31 28 27 29 29 26 24 24 21 17 16 22 31 31 23 23 27 27 25 26 27 26 24 27 30 30 30 30 30 30 33 34 31 31 29 29 29 27 31 32 32 32 31 27 31 38 39 34 33 33 39 39 37 38 38 35 35 36 40 37 35 34 35 36 33 37 36 38 44 42 38 44 40 45 39 37 31 32 36 43 32 28 36 61 91 101 90 96 108 102 98 134 154 127 126 129 133 131 113 114 129 119 96 102 133 119 96 99 107 117 121 118 128 121 115 103 102 120 98 
80 86 85 85 86 83 83 86 88 88 90 88 86 87 87 85 85 83 80 82 80 76 69 66 62 60 54 49 47 41 36 34 33 34 31 28 27 26 23 23 24 27 27 27 28 27 27 27 27 27 27 27 27 27 27 27 27 27 27 27 27 27 27 27 27 27 27 26 23 21 21 22 23 24 23 20 18 17 17 17 17 18 17 17 20 22 23 22 21 32 84 123 77 39 102 139 158 166 174 177 182 178 144 58 23 15 22 66 132 148 158 175 170 171 167 150 144 155 173 168 161 162 165 173 161 149 143 137 120 113 136 169 184 193 195 195 195 195 200 200 200 199 196 193 190 195 200 200 200 203 206 206 207 208 210 211 211 209 209 207 209 208 206 202 199 194 185 173 184 203 207 206 183 108 50 35 28 26 29 38 37 28 26 29 31 30 28 25 28 24 19 18 23 26 27 23 26 28 27 27 27 27 25 26 29 30 30 30 30 30 30 33 33 30 29 27 30 31 27 30 34 34 32 30 31 42 46 40 42 44 37 38 34 35 41 41 38 34 33 38 36 36 36 36 37 34 37 39 36 40 44 42 44 40 48 40 34 30 35 34 38 34 42 63 97 108 111 100 107 125 126 117 128 134 127 137 135 131 131 121 121 123 115 110 118 134 124 101 98 109 114 118 113 117 111 85 82 94 111 106 
77 83 81 83 89 84 83 88 88 94 96 88 89 88 87 88 88 88 86 84 77 73 67 70 67 63 58 51 47 41 36 37 38 35 31 28 27 26 23 22 24 27 26 24 24 25 27 26 27 27 27 27 27 27 27 27 27 27 27 27 27 26 26 27 27 27 27 26 25 24 24 23 23 24 23 21 21 21 19 17 17 19 21 24 25 23 22 22 21 19 36 90 104 39 55 120 149 159 172 173 176 180 167 96 36 16 15 38 106 145 154 169 167 173 162 145 150 167 177 172 167 165 168 181 160 143 137 124 116 125 158 180 185 190 195 195 196 198 198 197 196 196 196 193 190 194 201 203 203 204 206 205 205 210 212 212 211 209 209 208 209 206 201 198 197 196 182 179 198 207 205 175 105 42 31 35 29 23 26 35 37 28 26 29 30 28 30 27 28 24 19 18 23 25 27 23 26 27 26 27 27 27 27 29 32 30 30 30 30 30 30 33 33 30 29 27 30 29 28 31 31 31 30 31 37 44 40 39 46 48 38 34 38 39 39 42 42 39 40 45 40 37 37 36 36 38 42 39 33 32 35 38 44 38 38 32 32 33 42 34 31 35 66 92 118 113 106 102 96 127 152 129 129 137 129 132 135 140 137 113 124 115 109 124 134 135 121 117 114 124 121 115 106 102 88 81 100 98 93 94 
77 83 81 84 92 90 90 94 88 95 97 90 93 87 87 93 92 88 88 84 74 73 74 74 70 64 59 56 54 44 40 40 38 33 29 28 26 25 23 22 25 27 26 25 25 25 27 26 26 27 27 27 27 27 27 27 27 27 27 27 26 24 24 26 27 27 27 27 26 26 25 23 23 24 25 24 23 22 20 19 18 17 18 21 22 20 20 20 20 20 21 48 95 65 31 84 142 153 165 173 173 177 178 140 59 17 12 22 71 126 153 159 167 181 153 154 162 164 165 176 183 175 168 168 156 139 129 120 124 148 178 187 188 192 193 193 194 198 197 194 194 195 194 193 191 192 198 203 202 205 207 206 207 212 212 212 211 208 208 206 206 206 200 194 191 191 178 190 205 200 149 87 47 31 27 33 30 29 30 33 33 26 26 27 28 26 27 24 23 22 21 20 21 21 25 23 23 24 25 27 27 29 30 31 34 30 30 30 30 30 31 32 32 30 29 28 30 27 29 35 33 31 34 42 42 37 35 38 47 45 38 36 39 37 36 42 47 51 50 47 40 34 35 34 33 36 38 36 37 33 30 36 46 40 33 32 35 32 38 32 35 50 71 91 107 112 111 109 108 130 145 136 123 135 134 127 124 118 111 96 121 114 114 124 132 132 116 113 114 129 128 124 100 83 94 96 87 86 88 74 
79 86 81 82 91 97 94 92 88 90 90 88 89 83 90 96 87 85 83 83 78 75 80 77 73 64 58 59 58 48 46 43 39 34 31 29 26 24 23 21 25 27 27 27 27 25 27 26 26 27 27 27 27 27 27 27 27 27 27 27 25 23 23 25 27 27 27 27 27 27 26 23 23 25 27 26 23 23 21 20 19 17 17 18 20 20 20 20 20 20 19 24 58 80 35 46 109 142 150 169 173 174 181 166 97 31 14 16 37 84 138 161 167 187 156 154 170 183 168 171 184 176 171 164 152 142 131 119 135 172 188 194 193 196 195 195 194 195 195 191 191 191 191 191 193 193 197 201 202 203 205 204 206 210 210 212 211 208 208 207 205 202 199 193 189 186 180 198 187 135 67 37 33 30 32 30 30 32 29 27 32 26 27 29 27 24 27 28 25 22 21 22 28 22 19 22 23 22 25 28 27 30 32 32 32 30 30 30 30 29 29 29 29 30 29 28 31 28 31 34 34 34 38 39 36 34 40 42 43 42 44 43 46 39 39 39 42 45 45 42 37 32 34 36 34 38 31 30 35 32 32 36 36 34 28 34 46 40 38 37 60 73 86 114 115 113 111 120 125 132 126 146 132 134 127 127 120 97 109 124 119 104 115 130 138 130 116 116 121 143 129 119 102 85 96 99 100 90 90 78 
81 88 81 80 89 95 88 78 82 87 87 87 88 88 94 96 84 81 80 83 86 86 85 74 69 62 58 61 57 53 50 46 42 39 35 31 28 24 24 23 25 27 27 27 27 26 27 26 26 27 27 27 27 27 27 27 27 27 27 27 26 24 24 25 27 27 27 27 27 27 26 24 23 23 25 24 22 22 21 20 18 17 17 18 20 20 20 20 19 19 19 18 28 68 51 25 64 125 143 154 164 170 179 182 144 61 19 16 21 44 118 161 156 161 153 165 171 188 176 174 178 166 164 159 146 145 131 127 161 186 194 195 196 198 199 198 196 194 193 190 189 189 189 187 191 193 198 201 201 203 203 202 204 208 208 210 211 208 208 209 206 200 199 193 184 179 188 170 107 57 36 32 31 30 31 29 28 27 26 28 33 28 28 31 30 26 24 22 22 21 22 21 25 22 19 23 24 21 26 28 28 31 33 33 30 29 30 30 30 29 28 27 28 29 29 29 30 29 33 32 33 39 48 40 38 35 47 51 48 44 41 41 49 42 42 37 36 36 35 37 37 39 38 38 37 37 32 27 29 29 31 34 31 32 31 33 36 34 38 51 70 80 95 120 122 121 123 132 131 132 123 129 123 133 118 101 100 90 109 128 121 105 112 125 121 102 105 116 111 131 121 119 94 84 95 89 89 92 85 80 
80 84 79 84 90 88 84 76 74 81 87 92 91 88 92 95 87 81 86 89 83 82 83 78 72 66 65 63 54 52 51 49 44 43 37 34 30 25 26 26 26 27 27 27 27 26 27 26 27 27 27 27 27 27 27 27 27 27 27 27 27 26 26 27 27 27 27 27 27 27 27 27 25 21 22 21 23 24 23 21 18 17 17 18 20 20 20 20 18 17 17 18 18 41 50 26 39 82 121 142 151 163 172 179 167 100 36 18 20 25 84 142 147 150 149 167 162 165 163 169 167 163 157 151 140 133 125 145 181 193 195 196 199 199 200 201 201 199 196 195 192 191 190 187 193 195 197 199 202 205 205 205 208 209 206 208 210 206 206 208 206 201 198 189 182 178 152 87 40 29 30 32 29 28 27 27 26 24 26 30 32 29 27 27 26 23 22 21 21 24 23 22 24 24 24 24 22 23 28 27 30 33 32 31 29 29 30 30 30 30 29 29 30 28 29 30 30 31 33 34 37 47 53 45 42 40 58 56 42 37 38 44 50 40 45 48 47 45 37 36 35 32 33 36 36 35 35 31 31 33 34 32 31 34 34 32 30 37 44 54 65 81 84 89 91 109 122 125 126 131 134 124 124 135 120 113 90 75 113 110 108 104 107 122 135 105 79 99 105 107 100 109 94 90 99 98 93 96 89 77 
77 84 83 87 87 87 88 84 79 81 87 90 95 91 89 94 91 88 89 93 92 85 88 85 73 69 67 61 53 52 53 53 47 43 37 32 29 28 27 27 27 27 27 26 26 26 26 26 27 27 27 27 27 26 26 26 26 26 27 26 26 27 27 27 27 27 27 26 26 27 27 28 25 23 25 24 28 28 27 24 21 17 17 18 20 19 20 20 20 21 21 17 16 20 31 30 23 37 82 124 138 158 167 176 183 152 80 29 20 18 38 105 143 144 144 153 147 142 151 168 155 154 152 137 129 121 142 180 196 199 198 198 199 199 200 201 201 200 196 198 196 193 191 193 196 195 197 199 202 205 205 206 208 209 206 207 210 206 206 205 205 204 199 184 163 131 75 39 30 25 27 29 25 24 25 26 26 24 26 29 29 26 26 26 25 23 23 21 21 24 23 22 26 27 27 25 22 21 25 24 29 33 32 30 29 29 30 30 29 29 30 30 29 30 29 29 29 29 36 41 42 45 50 55 43 43 48 40 33 29 35 44 50 40 46 52 49 43 37 35 34 31 34 39 34 31 35 31 28 34 40 33 28 31 31 31 32 43 57 67 66 88 88 88 88 104 104 106 102 100 107 118 129 132 105 120 100 76 100 106 117 119 103 122 133 119 90 100 110 112 108 119 110 78 73 85 92 83 84 64 
80 90 87 87 87 90 89 87 85 80 84 88 91 91 87 90 89 88 89 92 93 86 89 86 77 77 74 64 56 55 56 54 49 44 37 33 32 30 27 27 27 27 26 24 23 24 24 24 26 27 27 27 26 26 25 26 26 26 28 26 25 26 27 27 27 27 27 25 26 27 27 28 25 24 28 28 27 26 28 27 23 20 18 18 20 18 19 20 20 20 20 18 20 18 20 29 27 23 39 84 125 151 166 181 180 178 136 64 26 19 22 60 113 136 140 146 141 143 144 152 150 150 143 121 115 122 167 197 198 197 198 203 204 201 200 199 199 199 198 200 200 199 197 195 195 195 198 203 204 203 205 207 209 208 206 206 208 208 206 204 202 201 188 151 94 50 33 32 28 26 25 28 26 24 23 24 24 26 28 30 30 25 26 26 25 24 24 20 24 24 22 19 23 29 31 26 24 24 26 26 31 33 33 33 30 29 30 30 29 29 30 30 29 30 30 30 30 33 35 39 37 38 40 43 40 48 44 38 39 33 37 44 50 38 41 46 41 36 35 35 37 35 35 37 35 30 33 33 29 31 31 34 32 29 26 28 36 60 80 90 84 95 84 86 85 101 115 104 100 103 112 121 129 141 129 124 99 113 107 111 125 138 109 105 115 109 107 117 108 109 107 104 96 82 77 90 96 67 63 47 
80 90 91 95 85 85 84 88 91 85 89 93 92 95 91 87 84 85 91 88 87 87 88 88 82 77 68 60 58 60 62 57 49 46 40 36 33 30 27 27 27 27 26 23 21 23 23 23 26 27 27 27 27 30 31 30 25 26 28 26 24 26 27 27 27 27 28 24 25 27 27 28 25 23 25 28 27 27 26 26 25 23 22 22 20 17 19 20 20 20 20 20 20 18 18 22 30 26 26 52 99 141 156 171 176 176 169 115 45 23 16 24 57 105 125 141 142 143 145 140 140 138 127 103 111 152 192 198 198 196 197 204 206 203 202 197 195 198 199 201 202 201 197 197 196 197 200 205 206 204 207 210 210 207 206 206 206 206 204 202 201 193 155 89 43 27 25 26 23 22 25 28 26 22 21 22 23 25 26 27 28 24 27 26 23 23 22 21 24 21 19 19 21 24 23 21 24 26 27 27 29 29 32 34 31 30 30 30 28 29 32 32 32 32 32 33 35 38 37 35 35 37 41 38 35 39 44 42 46 44 47 47 45 38 39 42 39 39 37 35 38 39 38 39 40 31 37 36 30 34 31 33 33 30 27 37 57 80 92 111 103 101 105 102 107 112 108 106 119 130 115 112 120 145 129 95 84 138 107 99 118 119 108 99 117 112 117 122 119 112 90 90 91 81 80 91 94 66 56 43 
81 93 90 91 83 85 88 94 97 91 87 90 91 97 94 86 88 89 88 89 91 95 92 86 79 76 70 60 58 66 69 62 51 49 42 38 34 30 28 27 27 27 26 24 22 23 23 23 26 27 27 27 27 28 29 29 25 25 28 26 25 26 28 27 26 26 27 25 25 27 26 26 24 23 23 25 27 26 25 26 27 24 26 25 20 17 18 19 19 19 19 19 19 18 17 16 21 22 22 27 58 113 148 159 168 164 166 151 86 38 20 17 24 52 78 104 120 130 132 131 133 119 102 102 148 187 198 197 197 198 197 204 206 203 200 197 196 199 198 201 202 201 198 199 199 201 204 205 206 206 210 211 210 207 205 206 207 205 202 201 184 130 80 43 29 25 25 27 25 24 25 28 24 19 19 23 23 23 23 23 24 24 26 25 22 20 20 21 24 19 17 20 24 25 19 17 22 27 26 26 27 28 30 33 30 30 29 30 29 30 34 35 35 35 34 36 41 39 34 34 38 42 41 39 42 39 42 39 35 37 38 41 39 36 37 35 37 39 36 35 39 40 39 35 32 35 38 34 34 37 34 32 30 31 31 43 61 90 109 122 114 104 118 115 121 115 95 103 131 153 127 117 122 130 98 70 88 147 130 112 126 122 111 110 111 102 109 130 134 112 82 88 83 82 79 84 78 64 57 39 
85 99 92 91 89 88 89 90 90 93 92 88 89 98 93 88 88 86 84 87 88 94 91 85 81 80 73 63 58 66 72 68 60 53 46 42 37 34 31 28 27 27 27 26 26 24 23 23 26 27 27 29 29 25 24 25 25 22 25 26 25 25 30 30 26 24 26 26 25 28 25 24 24 26 26 25 27 25 26 29 29 26 26 25 20 17 17 17 17 17 17 17 17 17 17 16 18 21 23 20 28 62 121 152 163 164 170 168 131 70 31 20 15 19 31 44 57 78 88 88 91 84 95 147 191 203 200 199 199 199 199 204 205 204 198 198 199 203 200 203 205 206 205 203 200 204 208 206 209 209 209 209 209 208 206 206 208 207 203 179 120 57 42 31 28 27 24 24 22 23 24 27 26 21 21 22 22 22 23 24 27 24 23 23 22 22 22 20 23 22 19 20 21 25 22 20 21 26 25 26 29 30 28 30 30 29 28 32 33 31 31 31 34 37 34 37 41 41 35 33 36 42 37 36 42 41 38 35 37 41 40 37 38 38 39 36 36 36 37 39 39 32 31 30 28 29 26 25 30 32 31 29 23 32 48 57 68 81 102 94 105 107 122 126 131 109 97 109 134 139 121 119 118 108 79 68 87 131 141 132 135 123 114 106 110 129 127 108 99 104 113 114 86 83 75 68 70 67 59 42 
81 96 92 92 91 86 82 86 84 90 99 97 87 90 84 83 85 87 88 87 92 96 89 84 83 82 71 68 66 64 68 66 67 56 47 45 41 37 32 28 27 27 27 27 27 25 23 23 26 26 27 29 29 28 27 28 28 25 26 26 26 24 25 27 26 24 26 26 25 28 26 27 27 28 26 24 24 26 28 29 29 27 26 24 20 17 17 17 17 17 17 17 17 17 17 16 15 17 20 20 21 30 73 135 155 160 166 162 156 116 73 39 22 17 18 19 23 30 34 41 55 88 144 190 199 202 202 203 202 199 203 203 205 204 198 198 199 202 204 205 206 206 206 203 203 204 206 206 209 209 209 209 209 208 206 203 201 196 160 100 53 31 34 27 28 27 24 23 21 23 23 26 26 21 21 21 22 22 22 24 27 24 23 23 23 23 22 21 21 24 20 19 19 27 30 29 25 27 25 27 29 28 30 30 29 26 28 35 34 30 27 26 29 35 37 36 38 41 40 37 38 41 37 37 38 39 40 40 38 42 45 43 45 46 46 43 44 43 42 40 38 31 30 31 29 26 22 25 27 26 27 35 36 54 68 79 83 80 102 104 116 113 119 134 138 106 95 116 131 134 119 124 120 117 84 60 78 117 130 128 133 123 113 101 97 130 145 101 86 105 111 94 76 75 83 80 71 55 54 45 
81 93 90 92 92 85 80 84 89 91 97 99 88 89 87 86 85 86 88 87 93 88 82 87 83 84 71 72 80 73 71 63 60 55 46 49 48 41 35 30 27 28 28 27 27 26 25 25 24 24 26 29 29 29 29 29 28 26 24 23 24 25 25 27 28 26 26 27 27 27 24 26 28 27 26 24 24 25 27 27 28 27 25 23 21 17 16 17 17 17 17 17 17 17 17 16 14 16 18 20 19 20 36 98 139 154 163 153 158 154 135 101 66 42 33 33 37 40 55 81 113 156 188 200 202 208 210 203 200 199 204 203 203 200 200 200 198 201 204 205 206 206 207 206 206 205 205 207 211 211 211 208 208 206 203 202 187 144 80 43 38 31 33 30 29 26 25 23 22 24 27 30 27 24 25 26 26 22 21 22 27 25 25 25 25 24 21 21 23 25 20 20 22 28 34 34 27 26 26 26 29 30 31 32 30 26 28 36 36 31 28 28 31 35 39 37 38 37 36 36 38 40 39 45 43 40 46 43 43 43 44 42 40 42 47 48 51 42 43 36 32 33 31 29 32 30 25 28 28 27 27 37 55 87 86 83 87 101 112 115 113 104 119 131 137 118 112 134 129 120 108 106 102 94 88 99 104 106 111 116 116 118 117 113 92 116 144 109 95 108 98 93 86 74 74 68 57 55 58 42 
82 91 90 89 93 94 90 90 93 87 85 89 90 94 85 82 81 82 86 92 98 91 86 93 90 87 75 70 78 76 76 68 62 57 49 50 48 41 37 31 28 30 29 29 29 28 27 26 23 23 24 26 26 26 26 26 26 27 27 27 27 27 26 25 27 25 26 27 28 26 24 24 27 25 23 22 21 21 24 27 27 28 25 23 24 19 17 17 17 17 17 17 17 17 17 16 14 16 18 20 19 19 21 53 108 145 162 150 150 161 158 154 144 121 109 114 118 127 150 167 185 195 202 207 209 207 207 203 197 197 199 200 196 195 198 201 203 203 206 206 206 205 205 205 205 206 205 206 209 210 210 205 205 203 196 178 124 69 43 32 35 31 31 28 27 27 26 23 23 25 29 29 27 27 27 27 26 23 22 23 26 27 27 27 26 26 24 24 27 24 22 22 25 27 32 28 20 23 29 27 29 30 30 30 29 25 25 34 37 34 33 33 41 44 38 35 38 34 34 38 38 39 41 46 40 47 56 44 43 42 46 42 37 41 40 39 46 38 43 37 34 36 36 34 32 30 27 28 29 29 29 47 71 97 98 82 100 104 98 108 98 93 114 118 118 112 118 131 116 107 110 131 117 76 87 110 109 117 124 117 107 115 118 107 90 99 108 104 94 103 98 106 112 94 68 51 53 58 50 32 
79 92 94 93 95 94 92 90 91 86 83 88 89 92 88 85 85 85 92 94 95 91 91 99 98 88 77 69 72 79 77 65 59 57 51 49 44 41 38 32 29 30 30 31 31 29 27 26 23 23 23 23 23 23 23 24 26 27 26 27 27 26 26 23 24 24 26 27 27 26 23 24 26 23 20 21 23 23 25 26 27 27 25 25 28 22 17 16 16 17 17 17 16 16 17 16 15 16 18 20 20 19 20 26 64 118 147 146 143 156 158 165 172 172 173 185 185 191 199 196 195 195 202 207 209 208 205 204 198 197 202 200 197 200 198 201 204 204 206 205 205 204 202 202 204 206 205 204 206 207 206 203 200 188 154 99 57 39 36 33 31 28 28 26 25 26 25 25 23 27 31 26 26 27 26 26 26 26 26 26 26 27 27 26 26 26 30 30 28 23 24 25 28 28 30 30 23 28 32 33 37 34 30 25 26 23 22 30 35 34 36 41 46 40 34 32 34 32 34 37 39 39 38 38 42 52 51 43 40 41 41 38 32 36 37 35 37 40 41 38 37 38 36 32 33 33 30 31 31 33 42 73 73 78 102 89 94 96 97 114 109 108 108 94 90 93 108 116 110 111 108 121 94 72 98 125 125 141 145 115 124 130 134 135 113 97 100 93 101 107 92 92 97 82 64 58 62 56 45 31 
77 89 93 94 92 91 87 83 82 85 86 86 85 84 85 89 89 83 91 95 95 92 95 98 100 86 76 76 80 87 83 68 65 67 57 52 46 43 40 36 33 30 31 32 29 27 27 26 21 23 24 23 23 23 23 24 26 26 24 23 22 23 23 21 23 25 26 26 26 23 21 22 23 22 22 22 23 23 24 27 29 27 26 27 32 26 19 16 16 19 19 18 15 15 16 17 16 16 17 19 19 17 17 17 29 74 119 150 152 157 156 163 172 174 178 185 191 199 200 198 199 197 200 202 203 203 203 203 199 198 200 197 198 201 197 198 201 200 203 203 202 197 198 201 205 207 209 205 205 204 201 196 177 131 81 47 38 35 31 31 28 28 27 26 26 24 22 29 28 28 29 26 25 27 24 23 23 26 28 27 27 30 29 26 23 24 30 30 26 23 23 23 25 27 27 30 28 35 34 34 36 29 27 25 26 28 27 30 31 32 41 44 42 34 31 30 31 32 36 37 38 40 40 42 49 48 45 43 42 49 41 39 34 41 40 39 40 40 38 35 34 34 34 31 32 32 32 29 31 41 51 70 67 69 95 107 114 110 113 118 113 117 109 92 91 111 122 138 98 110 128 119 88 72 95 115 126 143 144 123 142 132 132 140 119 107 95 71 122 126 79 87 83 69 57 61 71 50 41 36 
84 96 97 93 92 93 91 84 86 89 88 85 87 82 82 86 88 84 89 98 102 97 101 101 95 80 80 82 84 81 76 65 68 68 59 53 47 41 37 34 30 26 28 32 29 27 27 26 21 23 24 23 23 23 23 24 26 27 26 22 19 22 22 21 22 25 26 26 25 23 21 22 23 23 23 23 23 23 22 22 26 26 27 28 30 26 23 19 18 19 20 18 15 15 16 17 17 17 17 19 19 17 17 17 20 42 80 127 146 150 153 153 158 170 178 168 180 192 195 198 200 197 199 202 200 200 201 203 200 200 199 193 195 198 197 198 199 195 198 198 198 193 195 198 204 208 209 206 205 200 189 161 110 62 42 42 40 35 30 30 30 29 27 27 29 30 27 31 29 24 23 26 26 28 24 23 23 24 25 26 30 28 28 26 23 22 23 23 24 24 21 21 24 27 26 29 29 38 34 32 29 26 30 31 31 31 29 31 32 36 40 41 40 34 31 32 34 34 36 37 40 43 46 47 44 43 41 39 40 44 42 43 42 50 49 45 46 41 35 36 36 36 38 35 35 35 32 25 35 53 62 71 68 70 87 124 141 111 105 116 120 118 105 111 114 127 120 133 110 118 152 118 95 100 118 109 103 124 123 120 123 108 115 123 109 128 114 81 91 111 91 89 81 74 49 48 59 45 38 35 
87 100 97 90 90 94 102 93 92 96 91 84 85 84 81 80 81 79 84 95 104 100 102 107 94 82 87 89 87 80 70 71 73 68 58 53 44 34 33 32 28 25 27 30 29 26 24 24 22 24 25 23 23 23 23 23 24 24 26 22 19 22 22 21 22 24 25 26 25 22 21 21 21 22 23 23 25 25 24 25 26 28 28 30 31 29 26 22 19 18 16 17 16 15 16 17 17 18 18 19 19 17 17 17 20 29 46 100 140 143 150 158 151 158 171 166 182 189 192 195 200 198 198 203 199 197 198 200 198 195 191 192 193 195 196 198 197 188 187 194 196 194 199 201 204 207 210 202 199 178 123 75 52 40 35 34 34 32 30 30 31 30 26 26 28 26 24 27 27 27 24 25 27 27 24 23 23 23 23 25 29 25 28 26 23 26 25 24 29 27 26 27 26 27 30 35 28 32 31 32 30 29 29 29 30 29 27 29 37 43 42 40 36 38 36 34 33 36 39 39 40 45 47 47 41 39 40 38 41 43 38 39 39 44 40 39 47 47 35 36 40 36 33 32 34 33 28 24 44 59 76 83 75 68 82 120 141 103 98 122 130 126 117 117 131 154 149 139 115 102 132 108 93 115 139 124 96 119 125 120 117 125 117 108 93 104 105 96 87 92 80 70 64 63 54 53 48 45 41 31 
84 100 93 87 91 94 96 93 89 93 90 85 82 82 84 88 86 79 85 99 103 100 94 95 86 85 85 87 91 88 75 73 67 55 46 43 35 29 30 30 27 25 28 29 30 26 23 23 23 26 26 23 23 23 23 23 23 23 24 23 21 22 23 23 23 22 21 21 23 21 23 22 21 22 23 24 30 31 29 27 27 29 30 30 30 30 26 25 22 19 16 16 17 17 17 17 19 20 20 20 19 17 17 17 21 24 27 54 94 125 148 155 157 163 167 164 175 185 187 172 177 196 194 194 195 193 190 191 190 182 178 192 188 185 182 183 190 187 186 193 197 199 202 203 204 209 206 195 167 110 58 42 42 39 33 34 33 30 30 32 31 33 30 26 28 27 24 24 26 29 25 26 29 26 23 23 23 23 23 24 27 24 27 26 23 26 26 24 28 24 23 25 23 25 30 35 30 31 30 30 30 30 30 30 28 29 32 36 41 39 44 48 39 43 42 36 33 39 47 47 43 46 46 43 41 44 44 36 40 41 38 42 40 36 31 33 38 41 34 32 35 31 32 38 38 31 35 44 59 65 75 75 95 97 107 114 128 105 105 133 146 133 110 116 130 147 161 152 112 113 128 99 96 107 105 101 99 114 114 119 128 139 106 91 90 101 100 114 104 82 73 58 57 56 53 51 42 43 43 31 
81 97 88 85 94 97 95 87 85 89 87 88 85 83 83 84 82 82 87 91 89 90 90 92 80 82 85 88 86 87 79 69 50 35 31 31 27 26 27 27 25 25 28 29 29 26 23 23 23 26 26 23 23 23 23 23 23 23 24 23 21 22 23 23 23 23 23 23 23 22 24 25 25 24 23 23 28 29 28 27 27 29 30 28 27 26 26 28 28 22 19 17 17 16 17 17 18 19 19 19 19 17 17 17 20 24 23 24 51 106 137 148 159 153 150 165 177 191 186 159 150 178 193 191 194 197 185 180 179 166 163 181 176 175 171 174 179 177 182 187 191 196 199 200 199 202 184 148 91 47 38 38 39 40 35 33 32 30 29 31 31 34 35 29 28 27 24 25 27 28 25 25 27 25 23 23 23 22 23 25 27 24 25 26 26 27 27 26 26 25 26 27 22 23 26 29 29 29 30 29 28 27 27 29 29 30 36 40 36 36 41 43 37 36 37 39 37 42 47 48 45 48 46 41 43 44 46 43 43 43 45 50 44 31 29 33 34 34 34 28 30 31 35 30 27 29 47 65 72 78 87 87 100 97 116 120 116 112 121 134 130 123 107 121 127 127 148 137 117 141 121 108 126 131 116 91 97 124 109 96 112 124 110 89 93 108 101 103 86 69 69 56 50 56 53 44 36 40 42 31 
85 93 91 89 94 97 95 84 81 87 92 90 87 83 83 83 80 88 89 86 84 93 93 86 79 88 89 86 81 74 61 47 34 30 29 28 25 26 27 27 25 25 28 28 26 26 29 28 24 24 25 26 26 26 26 26 26 26 26 26 24 21 24 23 23 23 23 23 24 27 26 26 26 25 23 21 24 27 27 27 27 29 30 27 26 26 28 28 28 23 23 19 16 15 16 17 17 17 17 17 17 17 17 16 19 26 24 23 30 73 125 143 152 149 140 158 176 189 188 175 168 176 186 190 195 197 185 181 178 164 169 175 168 168 163 168 172 168 177 186 191 194 196 198 194 174 114 67 41 35 34 34 35 36 33 31 31 29 25 28 31 34 35 31 28 27 26 27 28 27 24 21 21 21 22 26 26 24 25 27 27 26 26 26 27 27 27 28 26 25 27 26 23 27 25 23 24 26 30 30 30 26 27 28 32 36 40 40 37 44 42 39 39 37 38 42 43 40 40 43 40 40 41 38 39 38 45 46 42 39 41 49 44 38 35 35 33 33 37 32 31 33 43 31 26 36 57 82 92 95 95 91 93 96 104 94 100 118 124 132 138 121 105 115 131 134 120 106 123 148 112 108 130 138 130 106 101 125 115 94 98 108 110 106 105 104 88 82 77 73 70 68 59 69 54 36 38 41 42 32 
86 90 86 91 100 98 94 83 80 87 95 93 91 86 87 87 84 92 92 89 88 95 90 80 80 89 91 77 63 46 35 32 29 29 30 29 25 26 27 27 25 25 28 28 25 26 30 29 27 27 26 27 27 27 27 27 27 27 27 27 25 21 24 23 23 23 23 23 24 28 26 26 27 26 23 21 23 27 28 27 27 29 31 26 25 28 31 27 28 27 26 21 17 16 16 17 17 17 17 17 17 17 17 16 19 26 24 23 24 30 66 101 124 136 133 140 158 175 180 174 166 172 168 174 184 188 185 188 183 177 173 168 173 172 164 162 166 165 174 181 190 189 186 181 155 102 45 34 32 32 34 32 30 30 32 33 33 30 29 33 33 32 34 32 28 27 26 25 25 25 24 21 22 23 24 26 27 26 26 25 26 27 27 27 27 27 27 28 26 24 27 26 23 28 25 23 23 26 30 31 31 25 30 32 35 38 41 45 44 43 37 34 37 38 39 43 44 40 36 39 41 40 43 43 44 43 46 50 44 40 39 41 40 42 40 37 33 31 32 31 33 33 44 32 33 57 62 75 94 106 109 82 80 105 115 97 106 117 125 144 151 139 134 142 139 134 106 89 118 135 108 105 126 132 126 113 105 113 113 99 104 100 90 100 103 88 79 77 72 62 56 64 67 71 51 36 37 40 44 42 
87 94 86 89 97 96 89 84 81 88 98 90 91 86 85 89 90 94 94 91 93 98 92 86 78 80 80 58 42 30 26 27 28 29 30 28 25 26 27 27 26 27 29 28 24 26 30 29 28 30 28 27 27 27 27 27 27 27 27 26 24 22 23 24 24 24 24 24 24 26 25 26 27 27 25 22 24 27 28 28 28 29 30 29 28 26 27 27 29 28 28 26 20 16 13 16 17 17 17 17 17 17 17 16 20 25 22 21 20 19 27 72 86 99 121 136 138 158 164 163 163 163 162 160 167 174 176 172 176 175 165 163 169 170 164 162 161 163 174 172 180 174 157 126 72 42 32 30 29 32 32 30 30 31 30 33 36 31 32 36 33 32 32 31 28 27 26 25 24 24 23 22 23 24 24 25 25 26 23 23 25 25 25 26 27 27 25 26 27 25 27 26 23 25 24 24 24 29 29 27 30 28 28 34 40 41 37 41 40 31 31 36 40 41 40 42 39 40 42 43 46 45 46 45 47 46 44 53 50 44 42 39 38 40 37 36 37 33 32 29 34 36 36 37 53 88 87 81 106 104 103 82 83 105 122 110 123 130 122 122 131 144 140 152 145 111 99 99 123 117 104 113 122 126 138 127 119 117 120 116 117 98 80 89 95 81 89 75 56 51 42 51 65 59 41 39 34 34 45 50 
89 94 86 92 100 92 84 85 80 86 94 86 92 86 79 84 92 93 94 91 89 91 90 86 72 59 48 36 30 25 25 27 27 29 30 28 27 27 27 27 27 31 29 27 24 27 30 29 27 31 29 27 27 27 27 27 27 27 28 26 23 23 23 25 27 27 26 25 28 28 27 27 27 27 26 24 24 27 28 27 26 26 30 33 30 27 27 27 27 27 27 26 19 16 14 15 16 17 17 17 17 17 17 17 21 25 21 20 18 15 21 43 39 71 94 107 110 127 141 151 157 150 151 148 152 155 163 162 169 168 167 166 159 160 160 158 156 162 171 169 169 141 92 54 32 28 30 30 30 31 30 27 29 30 28 31 35 31 32 35 34 33 28 27 27 27 27 27 27 26 25 24 23 23 23 25 25 24 21 24 25 25 27 30 32 30 26 25 28 25 26 26 24 23 23 27 28 31 29 26 26 29 33 38 35 37 34 32 31 32 36 40 41 43 42 44 39 40 43 45 42 40 42 41 42 45 45 47 47 42 38 38 37 38 35 34 37 37 31 26 28 33 39 52 64 91 99 103 103 86 91 90 105 107 108 122 125 135 146 135 117 120 124 133 140 117 108 112 109 86 99 119 126 132 144 135 132 129 125 107 103 99 105 117 101 80 73 67 51 45 40 59 80 54 39 43 38 38 47 43 
88 94 92 101 101 93 93 92 87 91 91 82 87 84 83 80 89 92 90 87 86 98 93 66 47 38 36 32 29 29 28 26 27 29 30 28 27 27 26 26 27 30 28 25 25 29 29 29 27 31 29 27 27 27 27 26 27 27 28 26 24 23 23 25 26 27 25 25 26 26 26 27 27 25 25 27 25 27 26 24 24 26 29 31 30 27 27 27 26 26 26 25 23 24 19 17 16 17 17 17 16 16 17 17 21 25 21 20 19 14 18 17 16 43 62 77 80 92 110 119 137 131 137 147 143 143 153 153 164 161 160 153 146 140 142 144 142 152 154 149 121 75 44 34 29 26 28 30 30 31 30 27 29 30 30 32 33 31 32 35 33 32 25 24 25 26 26 26 26 27 27 27 24 23 25 28 28 25 22 25 28 28 27 28 32 33 30 27 28 26 26 26 24 23 24 31 31 30 28 29 30 42 45 40 30 33 34 32 30 35 41 42 37 39 42 42 37 36 36 42 43 43 40 40 44 43 47 45 40 39 39 41 42 38 35 34 31 32 30 29 32 39 55 67 67 92 102 118 126 105 90 98 117 116 109 115 124 130 127 126 115 118 124 139 149 142 121 114 108 86 95 131 146 139 124 127 125 135 124 104 109 104 118 104 89 82 61 62 58 43 53 63 71 53 42 45 45 46 55 47 
80 93 99 105 98 96 100 97 96 94 89 82 88 89 85 80 91 90 88 87 83 88 66 42 32 31 34 33 33 33 31 25 25 29 30 28 27 26 25 27 28 27 25 26 26 29 30 27 28 29 28 27 27 27 27 26 27 27 27 28 26 23 23 24 26 27 23 23 25 26 27 28 28 28 28 29 27 27 27 26 25 24 23 25 27 27 27 27 25 23 23 24 26 29 26 24 17 17 17 17 15 16 17 17 21 25 21 20 19 16 17 16 16 18 27 37 39 56 75 90 120 108 103 120 129 139 141 137 148 149 147 140 140 124 121 128 122 123 120 87 53 36 33 33 29 29 29 31 32 30 32 30 29 30 29 31 33 31 30 31 32 33 26 25 24 23 23 22 23 24 23 24 25 26 26 27 27 27 27 28 26 26 28 29 30 31 30 29 29 28 26 27 24 27 27 31 26 25 28 34 44 54 45 39 32 38 36 31 28 34 41 39 39 42 45 42 40 39 38 42 42 43 39 38 45 45 44 43 40 37 37 40 38 35 36 35 27 26 29 32 38 56 84 82 72 89 96 118 134 124 114 131 148 140 121 112 114 115 125 140 143 124 123 137 138 137 126 108 97 105 111 131 128 121 107 119 121 133 124 116 121 104 102 90 80 75 62 52 58 52 63 73 50 45 48 44 42 50 58 47 
73 90 99 103 93 88 94 90 88 84 77 77 88 90 91 88 99 94 91 85 67 56 41 33 31 32 34 34 34 33 31 25 25 29 30 28 27 26 24 27 29 27 24 26 27 27 31 27 24 25 25 26 27 27 27 26 27 27 25 25 24 23 23 23 26 27 23 23 25 27 27 29 28 27 25 25 25 23 26 27 26 23 23 24 27 27 27 27 25 23 23 23 26 33 35 34 23 20 19 17 14 16 17 17 21 25 21 20 19 17 17 17 17 16 17 19 21 24 30 37 49 50 55 63 74 101 106 115 120 128 131 123 119 111 110 100 88 69 56 38 32 29 29 29 28 30 29 28 29 25 29 29 29 30 27 27 31 33 33 30 31 35 30 25 22 23 22 21 23 24 23 23 26 27 27 27 26 25 25 26 25 26 29 30 29 27 27 26 26 28 26 27 23 25 24 25 23 26 31 38 48 50 36 39 35 41 39 34 30 33 39 42 47 48 46 41 41 39 43 46 41 47 48 48 42 43 43 39 41 40 33 37 35 39 43 40 32 32 31 37 48 78 113 96 90 93 90 100 108 117 115 127 140 136 129 127 119 128 148 130 125 115 121 120 116 137 132 105 100 119 110 128 113 95 99 108 121 120 119 130 121 103 96 89 73 69 60 48 58 66 71 73 45 43 53 47 43 54 55 45 
77 86 88 99 93 83 85 87 90 87 82 76 86 91 92 89 99 100 83 61 43 32 29 29 30 31 32 32 32 32 31 27 25 27 28 27 26 27 28 28 28 26 25 27 26 24 28 26 23 24 25 26 27 27 27 26 27 27 24 23 22 22 23 23 24 26 25 23 25 27 27 28 28 27 24 24 23 21 23 24 25 24 25 24 25 25 26 26 25 23 22 22 26 35 40 39 28 25 21 17 14 14 14 16 22 25 19 15 16 16 15 16 17 17 16 17 21 21 21 22 23 22 26 30 34 49 48 60 68 78 86 88 91 87 76 58 47 35 26 26 29 28 26 26 27 29 29 28 28 26 27 25 27 28 27 27 29 32 34 34 33 33 32 25 22 24 24 23 24 25 24 24 27 27 27 27 26 24 23 24 26 26 28 30 29 30 32 33 32 30 29 27 24 29 27 22 22 26 34 41 40 36 37 47 43 42 43 42 39 38 40 44 52 49 43 37 36 38 47 49 45 52 61 57 43 44 43 40 41 38 34 35 35 38 39 40 38 36 40 45 66 95 106 109 104 93 99 101 107 118 126 127 128 126 115 122 130 139 167 125 108 114 130 125 109 134 139 110 106 130 134 143 122 125 131 115 119 119 117 111 102 108 90 83 80 72 55 59 68 75 71 52 43 41 55 60 54 64 61 51 
79 85 77 90 94 83 85 86 90 87 90 83 83 89 90 94 97 82 58 39 33 29 27 29 30 30 30 30 30 30 31 30 26 24 27 26 25 29 32 29 27 27 27 28 25 22 24 26 26 26 26 27 27 27 27 26 27 27 25 23 21 22 23 23 23 24 26 25 25 27 26 25 24 25 26 26 24 22 20 22 24 26 28 23 23 23 23 24 23 24 25 27 27 39 42 42 38 31 24 17 14 13 12 20 39 45 33 20 15 12 13 15 17 17 16 16 18 24 40 55 60 55 50 49 48 46 37 37 41 41 43 44 59 76 67 47 32 26 24 25 27 29 27 27 28 27 26 29 29 27 27 26 27 27 28 29 29 28 31 33 34 33 32 28 25 26 26 26 26 26 26 26 27 27 27 27 26 25 24 24 27 27 27 31 27 26 29 29 30 32 32 27 23 28 28 24 25 30 33 34 33 33 37 43 45 47 46 47 46 46 42 42 48 42 37 37 41 45 46 48 44 47 50 47 40 37 39 36 40 38 37 36 36 34 31 29 36 40 51 55 74 91 85 103 112 106 101 101 106 96 103 125 129 128 114 126 127 125 141 110 121 127 118 121 129 146 138 104 91 106 117 133 125 122 120 119 133 114 119 122 95 89 73 79 76 65 58 70 70 77 69 49 39 42 49 59 63 66 64 56 
85 93 81 85 93 89 94 92 92 85 89 93 89 90 90 91 79 51 39 35 32 30 28 29 30 29 29 30 30 30 31 29 26 24 27 26 25 28 29 26 25 26 27 27 25 24 27 29 27 26 27 26 26 27 26 25 27 27 24 22 21 23 23 22 23 22 24 26 27 27 26 25 25 26 26 26 24 22 20 22 25 26 27 23 23 22 21 20 21 25 31 34 31 49 47 52 69 51 33 18 15 15 16 57 101 113 100 66 36 22 15 15 17 17 16 16 17 21 50 88 116 129 132 129 131 133 122 119 119 114 113 105 116 126 94 50 28 24 27 29 30 31 27 27 25 23 25 29 29 27 27 26 26 26 29 29 28 26 28 31 33 32 30 29 28 26 26 27 27 27 26 26 24 24 25 26 27 27 28 26 27 27 26 30 28 27 30 25 26 30 29 29 23 24 25 27 35 36 32 30 31 40 45 37 40 49 44 45 48 48 49 47 45 36 37 41 45 44 41 46 42 43 46 40 42 41 40 36 37 40 39 36 36 33 29 29 33 47 67 76 87 99 99 106 116 109 103 101 92 83 93 117 139 133 126 119 116 117 111 103 130 129 136 137 146 153 139 105 86 88 85 113 133 108 96 110 136 113 105 117 102 95 74 77 68 70 66 71 71 74 58 46 40 41 43 54 66 58 57 54 
82 91 88 87 88 88 93 93 92 87 90 95 89 88 76 61 44 34 34 34 33 33 31 30 29 28 29 31 32 33 29 27 26 26 27 26 26 28 28 24 23 26 27 25 26 27 27 27 26 25 27 25 26 25 26 28 28 28 24 22 23 25 25 23 24 22 22 23 25 27 26 25 24 22 21 21 23 26 24 24 27 24 24 23 24 24 20 20 21 25 32 47 45 59 56 66 83 54 44 28 19 15 25 104 159 173 175 159 116 64 32 22 18 15 16 14 14 16 29 53 100 139 157 169 177 182 181 182 184 182 179 176 160 104 50 28 27 27 28 28 27 28 26 26 24 23 24 27 27 27 27 25 24 27 31 28 27 27 28 28 28 28 27 27 26 24 27 27 27 27 25 26 24 23 24 26 26 26 28 27 29 31 28 28 30 30 30 28 28 29 28 29 23 21 26 32 38 34 28 30 34 42 45 34 37 43 36 36 41 41 44 42 39 37 41 44 46 46 42 44 44 43 46 40 36 38 42 38 39 40 41 40 38 39 32 30 40 73 96 112 113 104 110 109 108 104 107 125 115 107 128 115 140 140 131 125 138 133 118 109 118 113 123 127 148 145 119 109 110 102 90 105 127 105 89 96 95 87 82 90 91 95 90 84 69 84 71 63 73 62 44 45 45 40 52 58 69 67 62 57 
80 90 90 84 89 90 83 94 91 86 93 91 76 65 52 39 31 32 34 34 34 34 32 30 29 28 29 32 33 33 29 27 27 27 27 28 30 30 28 23 23 26 27 24 26 28 27 27 27 24 28 25 25 23 26 29 25 25 23 23 23 26 26 23 24 22 22 23 25 27 26 26 26 24 23 22 20 24 23 25 27 23 23 22 22 22 20 20 22 27 36 52 49 61 64 62 77 63 62 40 22 17 48 138 179 196 201 204 191 153 111 74 47 27 18 16 15 11 13 21 48 87 123 158 170 174 180 181 187 188 173 130 78 36 24 26 27 25 25 26 27 26 24 24 25 26 26 26 27 27 27 26 26 25 27 29 29 26 25 26 27 27 27 27 24 23 29 28 27 27 25 26 27 26 26 26 26 25 28 25 27 30 29 31 32 30 30 31 32 30 32 33 26 24 29 34 37 38 32 31 36 40 42 39 40 46 40 36 39 39 39 39 41 43 42 37 40 44 44 43 42 43 44 49 37 40 50 40 39 40 41 43 38 36 31 37 68 96 103 113 121 110 106 114 123 121 120 114 110 117 138 120 129 122 120 116 138 140 118 110 101 101 93 91 110 107 92 111 141 124 113 122 131 125 109 94 85 83 90 78 90 112 102 93 68 78 79 67 74 52 37 40 43 41 65 63 59 69 66 61 
80 95 95 82 88 93 89 98 90 86 90 88 64 43 35 33 31 33 34 33 32 32 31 30 29 28 29 32 32 32 29 27 27 26 26 29 31 31 29 25 25 26 27 25 26 27 27 27 27 25 27 26 26 26 26 26 23 22 22 23 23 27 26 23 23 22 23 24 26 27 27 27 26 25 24 23 20 24 22 23 25 24 22 20 20 20 19 19 25 41 44 47 53 54 64 67 87 83 72 55 26 26 85 165 190 201 210 213 209 202 193 173 141 104 62 24 17 13 14 14 15 26 55 99 131 156 168 173 184 174 121 51 28 21 20 24 22 22 24 26 27 27 27 27 28 28 28 27 27 27 27 25 26 24 24 29 27 23 23 25 27 27 27 27 26 25 26 27 27 27 26 25 28 28 27 27 26 25 27 26 25 27 26 28 29 28 31 31 29 29 28 27 27 32 34 32 36 41 38 30 32 38 45 42 36 37 41 38 39 39 36 38 42 46 44 40 41 43 44 42 39 43 40 46 41 40 44 45 44 40 37 34 35 38 49 70 84 89 102 108 108 96 88 101 127 131 126 103 108 118 132 114 117 118 119 122 135 136 134 121 106 122 109 100 97 77 92 114 120 121 110 121 132 142 129 113 86 75 88 84 93 92 68 69 58 71 77 73 68 44 34 38 43 43 68 72 59 67 68 64 
80 89 89 83 83 90 93 96 85 84 79 67 41 32 31 33 33 34 34 31 30 30 30 30 29 28 29 31 30 30 29 29 29 26 25 29 30 30 29 29 28 26 27 26 27 27 27 27 28 25 25 26 26 27 26 27 28 25 23 23 24 28 25 22 23 23 24 27 27 27 26 24 21 21 23 22 21 26 22 20 20 23 22 20 20 20 20 22 31 43 45 44 52 43 60 67 74 87 67 49 27 48 134 187 200 205 210 212 211 211 212 210 208 200 166 87 26 16 15 16 16 14 18 31 54 99 136 141 128 91 49 26 27 24 23 23 23 25 28 29 29 29 26 25 26 27 27 27 26 26 27 23 22 23 24 27 24 24 24 25 27 27 27 27 27 26 26 27 27 27 26 24 26 27 27 27 26 24 24 28 30 30 29 31 27 25 30 31 29 32 30 27 31 39 36 29 33 43 42 32 32 33 38 35 36 41 48 42 37 37 39 42 43 51 45 42 44 46 43 41 38 42 41 40 39 36 40 46 46 38 35 35 39 46 65 95 96 98 116 107 94 109 106 102 135 131 133 128 125 138 150 132 124 122 108 112 117 130 150 126 105 123 130 137 107 73 103 120 99 114 108 110 112 132 138 130 97 95 106 114 107 90 68 66 60 61 60 71 64 39 36 43 49 45 65 76 66 67 70 66 
80 87 82 88 89 91 96 90 81 72 53 40 30 32 32 33 33 34 34 31 30 30 30 29 29 28 29 31 30 30 30 30 29 26 25 29 30 30 29 29 28 27 27 26 27 27 27 27 28 25 25 26 27 26 26 27 27 24 23 22 24 28 25 22 22 23 24 27 27 27 26 24 21 21 23 22 19 20 22 20 19 20 23 22 19 20 23 29 40 42 44 43 54 57 70 78 74 89 70 46 28 71 160 197 203 209 212 212 214 218 219 219 213 212 209 169 70 23 15 16 17 20 18 17 20 40 65 80 56 31 24 26 27 24 23 23 23 25 27 29 30 30 28 23 24 27 27 27 26 23 26 26 23 23 22 26 27 28 28 27 27 26 27 27 27 27 27 27 27 25 25 27 27 27 27 26 27 28 26 26 29 29 28 31 28 28 29 28 25 28 27 29 35 34 31 29 33 42 35 29 37 38 35 35 36 35 42 45 41 41 43 45 45 60 46 40 43 44 41 44 42 36 39 41 35 37 37 38 37 32 33 36 38 45 64 94 111 115 128 114 90 93 126 123 125 139 141 117 119 147 138 120 113 119 113 113 108 128 148 137 118 130 132 146 103 75 100 114 98 107 93 91 107 123 131 152 120 96 98 123 108 94 83 75 62 61 63 63 54 37 38 40 48 49 59 71 67 66 72 71 
78 91 91 92 91 94 99 91 73 53 36 30 32 36 33 31 30 31 33 33 30 30 29 27 27 29 29 28 29 30 30 30 29 28 25 27 30 29 27 26 27 27 26 24 28 27 29 28 28 25 25 26 26 25 24 24 23 22 23 22 23 24 23 21 20 21 24 27 27 27 26 23 22 23 23 21 22 23 24 22 20 19 20 19 19 21 27 34 50 55 49 52 56 68 81 91 90 96 74 39 37 111 179 197 203 209 214 216 216 217 210 187 144 135 148 146 101 53 25 19 39 83 68 38 23 24 29 38 32 27 22 25 24 23 23 23 24 25 25 28 30 29 27 25 26 27 27 27 26 22 23 26 25 24 25 26 26 25 27 28 26 26 26 27 27 27 27 27 27 26 26 28 28 27 25 24 24 24 25 25 23 23 27 33 30 33 35 32 25 23 28 34 37 32 30 30 37 41 31 29 37 36 32 33 35 38 43 44 44 42 39 38 42 46 39 41 44 47 43 37 44 45 40 41 38 40 35 34 35 32 32 36 44 62 84 105 113 102 122 117 105 105 140 126 106 121 113 111 121 137 125 130 114 115 125 123 123 114 107 128 124 135 128 114 83 94 109 106 104 93 84 90 104 114 102 140 123 88 95 118 83 67 65 68 62 65 69 56 42 38 41 46 59 60 64 67 65 67 72 73 
78 92 93 93 93 99 91 71 51 36 30 30 30 32 32 30 30 31 33 33 31 30 29 29 29 31 30 27 29 30 30 30 29 28 25 27 30 29 27 25 27 27 26 24 28 27 30 29 28 25 25 26 26 26 26 25 23 23 23 21 23 23 23 22 22 23 24 27 27 27 26 23 23 24 23 21 22 22 22 22 22 20 20 18 20 27 32 38 47 59 58 45 43 67 88 87 87 91 74 31 68 156 193 204 212 212 213 207 186 159 133 96 68 71 87 87 82 78 68 56 116 191 185 152 101 41 26 29 30 27 24 26 22 23 23 23 22 24 27 29 30 29 27 27 27 27 27 27 26 26 26 26 26 25 27 27 26 24 27 26 25 27 27 27 27 27 27 27 27 28 25 24 26 27 25 23 23 23 26 27 23 23 26 30 28 30 33 29 26 26 30 34 33 31 32 32 37 39 36 40 39 35 33 34 38 46 40 37 37 36 38 38 42 40 40 41 42 42 43 42 47 44 34 37 40 38 34 38 40 37 34 40 55 88 100 112 112 102 124 110 106 122 130 122 121 121 102 106 130 128 125 142 107 99 114 118 150 136 92 111 127 122 117 92 69 102 96 95 99 85 85 96 90 103 109 134 131 96 101 104 69 67 55 63 61 64 60 48 38 42 44 49 65 63 63 63 71 80 90 80 
77 85 86 92 91 88 72 49 37 31 30 30 28 28 31 30 30 30 32 32 31 31 31 33 33 33 30 28 29 30 30 30 29 29 26 26 29 29 27 25 26 26 26 25 27 27 29 30 28 25 25 27 27 27 29 27 23 23 23 22 23 24 23 25 25 25 25 27 26 26 26 22 21 24 23 20 20 21 20 21 23 21 20 18 21 34 42 48 48 50 77 58 59 71 74 72 75 80 61 40 111 181 201 212 217 209 179 141 109 88 83 71 71 79 94 94 91 91 87 82 165 210 211 191 117 41 26 27 26 24 25 30 28 29 28 23 25 27 26 27 29 28 27 28 27 27 27 27 27 29 29 27 26 25 27 26 25 24 27 29 27 26 26 27 27 26 26 26 26 25 22 25 27 27 25 23 23 23 26 26 23 24 26 27 26 26 29 27 27 30 31 31 30 32 36 37 37 36 34 38 37 36 35 39 40 45 40 39 37 39 42 41 52 53 41 37 42 41 40 47 40 38 38 36 36 34 37 38 36 32 37 60 80 87 84 101 102 102 117 118 125 143 127 124 125 109 95 97 130 109 116 142 121 111 91 108 128 115 101 118 111 106 108 85 74 101 104 120 119 121 98 79 81 89 101 120 117 94 93 94 72 69 62 71 70 71 60 47 41 44 47 54 68 64 62 62 79 91 98 87 
79 90 91 87 83 68 48 38 34 31 30 30 30 29 30 30 30 30 30 30 32 33 33 34 34 34 32 30 29 30 30 30 30 31 29 26 27 27 26 26 25 25 28 27 27 27 28 31 29 25 25 28 27 26 27 27 23 23 23 22 22 23 27 27 27 27 26 26 25 25 27 21 19 24 23 20 21 23 22 20 20 22 22 21 23 31 38 48 58 56 85 75 74 67 69 76 71 68 45 59 158 204 216 212 184 133 91 85 88 81 70 65 75 82 91 93 91 92 85 93 184 212 185 111 42 25 25 27 26 26 26 28 27 27 31 25 25 30 29 27 27 27 30 30 27 27 27 27 27 28 29 29 27 26 27 26 24 25 28 28 28 27 27 27 27 25 26 25 26 26 24 27 27 27 26 24 24 26 26 26 24 27 28 26 28 27 27 29 30 29 28 28 31 35 39 41 38 37 37 36 37 38 36 43 40 37 38 39 40 47 48 47 46 45 33 34 41 40 33 38 35 38 37 33 35 37 40 37 32 33 44 69 82 77 89 104 80 91 107 115 120 132 121 134 133 113 95 92 115 109 123 142 133 138 114 122 108 89 106 117 95 114 114 79 82 97 111 115 124 122 88 67 81 81 82 96 95 78 86 99 70 62 68 71 68 73 57 43 40 42 50 66 71 65 71 69 79 88 100 96 
78 86 95 86 67 47 35 34 34 31 29 29 29 30 30 30 30 30 30 30 32 33 33 31 31 30 32 33 30 30 30 30 30 31 29 26 27 26 27 27 25 25 28 27 26 26 28 31 29 25 24 24 24 25 24 22 22 23 23 23 22 23 27 27 26 26 26 26 24 25 28 24 23 25 23 20 21 23 22 20 20 22 22 23 25 27 33 46 47 51 70 59 68 80 82 76 67 50 42 112 198 212 210 163 100 62 62 77 89 84 70 64 69 70 76 83 84 86 77 104 197 167 89 38 28 28 26 27 27 27 26 26 23 23 25 22 25 30 30 27 27 27 30 30 27 27 27 26 26 28 29 29 27 27 25 25 27 26 23 23 24 24 26 27 27 25 26 24 26 29 26 24 26 26 27 27 28 27 26 26 24 27 26 22 25 28 33 37 34 29 30 31 32 35 39 39 36 36 37 36 39 42 40 46 43 35 39 43 42 43 41 40 37 36 34 45 42 40 32 37 41 41 38 36 39 40 37 38 37 48 58 66 75 80 98 106 69 87 121 126 121 124 126 124 117 105 106 101 115 129 147 158 127 132 137 136 107 103 123 128 123 128 107 73 90 109 129 108 103 105 88 85 95 85 84 87 110 110 102 106 89 81 77 69 59 58 51 41 43 45 51 65 64 63 69 67 75 85 95 96 
80 88 86 68 47 36 32 33 35 32 28 27 28 29 30 30 30 30 30 30 30 31 30 30 30 29 30 31 30 30 30 30 30 31 28 28 30 27 26 27 25 25 28 28 25 27 33 34 30 25 24 25 25 26 25 23 23 23 23 23 24 26 26 25 25 25 24 24 23 23 25 24 22 23 23 21 20 21 20 20 20 20 21 25 26 30 36 50 45 59 74 77 82 84 76 80 72 48 80 176 213 205 148 72 46 48 59 75 88 94 83 68 67 72 78 83 91 88 80 90 122 68 36 29 26 27 27 27 27 27 26 24 22 22 22 22 24 28 30 29 30 32 31 28 27 27 25 23 25 26 26 26 26 27 24 25 28 25 25 24 23 23 24 26 27 26 26 24 25 29 27 25 24 24 24 26 28 27 25 25 24 24 24 23 27 29 35 39 40 37 32 36 35 33 41 44 38 35 33 34 36 42 42 41 40 37 40 48 39 33 32 33 37 41 40 50 43 37 35 39 40 35 35 39 42 40 34 38 54 74 83 89 94 90 91 109 98 88 109 111 122 125 133 117 126 102 94 92 109 120 139 138 119 123 145 138 115 126 132 131 121 97 72 68 97 104 124 110 75 86 98 92 106 104 97 91 109 107 92 85 76 74 78 70 56 48 42 43 44 46 53 58 62 62 65 69 83 96 105 96 
77 86 69 46 36 35 32 32 33 30 29 29 29 29 30 30 30 30 30 30 30 30 30 30 30 30 30 30 30 30 30 30 30 31 28 29 32 27 26 27 25 25 28 28 25 26 31 27 27 25 25 26 27 27 27 25 23 23 23 23 23 26 27 28 28 27 23 23 23 23 23 24 21 21 23 22 20 20 20 20 19 20 23 24 24 28 41 59 61 53 68 97 88 78 71 70 57 55 135 210 208 146 65 39 46 56 65 77 86 95 90 78 82 86 91 95 95 93 83 60 45 28 29 28 27 27 27 27 27 28 25 22 21 24 23 23 24 28 31 33 31 33 31 28 27 27 26 24 26 24 22 23 26 27 25 25 27 24 27 26 23 23 24 26 28 27 27 26 24 27 27 26 23 23 23 24 28 28 24 25 23 23 23 24 30 32 32 33 41 38 34 37 38 36 34 35 31 35 38 38 37 40 44 40 35 36 39 43 39 34 35 41 42 50 52 46 36 30 32 35 38 34 35 39 39 36 36 43 63 84 96 96 97 100 100 123 126 96 86 97 121 127 147 122 126 105 91 102 116 109 144 131 108 109 133 124 105 114 121 120 121 91 73 80 113 121 116 99 71 79 111 109 94 91 87 86 107 103 78 72 68 59 71 72 59 50 41 44 44 48 59 61 72 69 70 79 95 103 110 98 
71 68 44 36 33 34 32 30 32 29 31 32 32 30 30 30 30 30 30 30 30 30 30 30 30 30 30 30 30 30 30 30 31 31 28 29 29 27 27 27 25 24 27 27 26 22 23 23 26 26 25 26 27 26 25 25 24 23 23 23 23 25 25 24 24 26 23 22 22 22 24 24 22 22 23 22 20 19 20 19 19 19 23 22 23 26 42 49 65 59 68 88 86 89 70 58 50 96 188 212 158 67 34 39 52 65 72 81 81 83 85 86 92 85 83 93 89 72 42 33 31 27 27 27 28 27 27 27 26 28 25 21 22 27 25 23 24 28 33 33 31 30 30 27 27 27 26 26 28 24 21 22 26 26 25 26 28 25 27 25 23 23 24 26 27 27 26 24 23 27 25 25 23 24 23 24 28 26 23 23 23 25 25 25 30 33 29 25 30 34 36 34 35 37 34 33 35 36 35 36 36 38 38 37 37 42 50 48 44 43 47 44 37 40 46 41 40 39 38 39 41 37 38 38 33 33 54 60 69 78 88 102 104 110 117 128 132 121 87 89 109 117 129 104 108 112 111 102 111 101 128 138 122 111 116 104 105 101 101 116 127 93 67 74 101 127 128 106 91 92 118 114 86 84 85 84 98 87 72 74 77 69 67 61 48 41 40 41 45 53 63 62 67 66 70 83 101 106 106 93 
56 45 31 34 33 34 32 30 33 33 33 34 34 33 33 30 30 31 33 33 33 33 33 33 33 33 33 32 30 30 32 33 33 30 29 27 22 24 29 29 26 23 23 25 28 23 21 21 23 26 28 27 26 23 23 24 26 26 23 23 23 24 24 24 24 27 24 21 20 22 24 24 24 23 23 22 19 18 20 17 19 19 21 20 22 30 47 55 67 69 69 82 83 80 70 47 51 151 212 191 91 35 30 39 56 67 78 88 85 81 79 85 92 92 85 80 64 45 28 25 25 25 26 29 31 28 27 27 25 27 25 23 27 29 26 26 26 28 33 31 31 28 27 27 27 27 27 27 27 25 24 25 27 25 26 28 28 27 27 25 24 24 26 27 27 27 26 23 21 23 23 23 24 27 24 24 27 23 21 20 24 30 30 33 31 30 27 25 31 39 36 29 31 33 34 34 39 39 34 39 35 33 35 39 38 41 47 43 36 37 42 42 35 39 40 36 39 44 40 38 37 34 37 36 33 48 80 66 78 96 109 124 133 130 129 130 123 122 111 113 123 122 110 106 104 113 133 118 116 119 118 129 122 105 109 103 110 118 100 115 135 99 89 93 85 117 128 113 102 104 122 101 90 85 86 91 99 77 65 77 71 69 64 58 52 38 45 42 50 61 63 58 61 71 74 81 98 105 107 91 
38 29 29 34 32 31 33 33 34 33 33 33 33 33 33 30 30 31 33 34 34 34 34 33 33 34 34 33 30 30 32 34 33 30 30 28 24 26 29 29 26 23 23 25 28 24 24 24 24 26 28 27 26 23 22 24 26 26 23 23 24 27 27 26 24 27 24 21 20 22 24 21 21 22 22 22 20 18 18 16 23 25 24 22 27 39 56 66 65 88 74 75 71 71 70 36 77 191 210 134 43 30 36 49 72 79 83 85 90 87 84 85 87 87 75 58 38 32 30 26 25 23 23 26 31 29 25 25 27 28 25 22 23 25 22 26 29 27 28 28 31 28 27 27 27 27 27 26 27 27 27 28 28 25 24 24 24 26 27 27 27 27 27 26 26 26 26 23 24 22 22 23 25 28 24 24 27 25 24 23 27 34 33 41 42 39 32 29 32 35 33 31 32 35 39 35 34 35 36 46 42 35 35 45 41 38 38 39 37 42 39 39 37 41 32 26 32 38 36 38 38 33 38 40 41 61 69 64 92 102 115 120 130 130 121 137 135 118 121 141 150 141 124 119 111 110 122 128 127 131 136 132 123 111 91 87 102 131 129 126 105 87 106 110 91 97 105 109 101 105 118 99 90 76 78 86 95 68 60 79 83 71 57 51 51 38 39 39 53 68 64 55 58 71 76 83 103 108 109 94 
28 27 32 34 33 34 35 34 31 31 31 31 31 31 31 32 32 32 34 34 34 34 33 31 31 33 34 33 32 32 33 34 33 32 32 33 31 30 28 26 27 23 22 27 29 28 26 25 25 26 27 27 26 22 20 22 23 24 25 25 26 29 25 23 23 25 25 25 22 22 23 21 21 22 21 19 19 18 19 23 30 28 28 24 33 59 73 88 67 89 85 81 73 69 55 35 130 210 177 74 29 35 53 66 83 81 76 81 92 95 93 91 87 70 46 28 22 27 26 25 27 26 25 26 26 27 26 24 28 27 23 21 22 23 22 25 30 29 28 29 30 29 28 28 28 27 26 25 27 28 26 28 28 24 22 23 23 26 27 26 28 27 23 23 25 24 24 24 26 24 25 25 25 28 25 28 29 26 25 26 29 36 43 46 43 41 31 29 30 31 30 29 31 43 55 38 35 35 42 44 44 47 41 42 39 37 44 46 40 44 43 37 42 53 38 32 33 30 34 38 33 33 36 41 55 74 60 76 102 100 104 100 114 138 133 138 137 131 130 129 145 143 140 130 103 102 112 127 132 143 143 119 119 132 109 105 127 147 132 121 89 93 108 103 107 95 95 108 102 115 119 100 93 85 67 67 81 61 59 74 88 73 57 53 39 34 35 38 56 67 63 57 59 71 83 93 111 113 108 94 
25 28 32 34 34 36 37 35 32 32 32 32 32 32 32 33 34 34 34 34 34 34 32 30 30 32 34 34 34 34 34 34 34 34 34 33 30 27 26 25 27 25 25 29 30 29 27 24 26 27 27 27 26 21 22 24 22 22 26 27 27 31 25 24 23 23 26 27 23 23 23 23 23 22 20 17 19 18 23 30 31 25 31 43 58 85 70 78 73 87 79 82 92 65 39 59 179 202 115 42 37 54 77 84 88 86 81 90 92 87 93 89 71 45 32 27 25 28 26 24 27 28 27 26 24 26 26 25 28 25 22 21 22 23 24 24 30 30 30 30 30 30 28 28 28 27 26 24 27 28 25 27 26 25 24 23 23 26 27 25 28 25 21 22 25 23 23 26 27 27 27 26 25 28 25 28 30 28 31 34 30 34 39 38 34 32 28 28 30 30 32 32 31 37 43 37 37 40 45 41 48 59 53 45 42 39 44 47 43 40 45 42 46 46 34 39 36 28 34 38 30 28 36 57 67 70 66 93 102 95 98 94 112 142 134 128 126 138 136 119 122 135 139 119 88 91 104 107 114 131 130 113 127 133 110 105 128 138 110 103 105 122 135 124 122 117 108 100 91 118 120 87 80 81 70 74 79 74 68 75 81 68 58 53 34 35 37 48 61 62 65 65 68 79 91 100 115 112 110 98 
25 28 32 34 34 35 36 35 35 35 34 35 36 35 35 34 33 33 33 33 33 33 32 30 30 32 33 34 34 34 34 34 33 33 33 31 27 25 26 26 27 27 29 30 30 28 27 26 26 27 26 26 25 21 24 27 23 23 25 26 28 33 28 25 23 23 25 26 23 22 22 22 22 22 19 18 18 18 21 26 36 33 40 65 79 99 90 93 83 86 90 88 79 55 29 104 207 159 59 42 59 75 95 102 97 90 90 97 90 87 81 62 47 34 29 29 26 26 25 24 27 27 27 26 23 26 26 25 28 25 22 21 21 22 22 24 29 30 30 29 29 30 28 28 29 27 26 25 27 28 25 25 23 26 26 23 23 26 27 25 26 25 21 22 25 23 22 26 27 26 26 26 26 27 23 26 31 34 39 37 33 32 34 33 34 32 33 32 30 31 34 37 38 50 39 34 36 38 41 44 52 54 46 43 39 38 39 46 45 37 40 41 44 49 41 39 39 33 34 38 31 34 63 87 74 67 71 85 86 94 97 98 112 130 107 106 121 140 129 113 105 106 127 112 87 87 118 122 123 129 111 97 121 119 96 103 113 117 104 101 103 136 150 148 136 106 97 86 83 121 119 100 92 86 79 86 84 68 64 76 84 74 56 42 31 35 44 61 65 57 63 71 75 84 98 109 114 111 113 98 
28 31 34 34 34 34 34 35 36 36 35 37 38 37 37 36 33 31 31 31 31 31 31 31 33 32 32 35 34 34 34 34 33 30 30 30 29 27 29 29 28 26 27 30 30 25 27 29 29 29 27 24 24 21 21 23 26 26 24 26 28 28 24 25 26 25 23 23 24 23 20 20 20 22 19 18 19 22 22 28 42 43 50 69 70 90 99 87 77 87 99 82 76 50 33 145 195 93 39 56 84 85 96 102 98 91 88 89 83 78 62 41 39 34 27 30 29 24 22 25 27 26 27 25 21 24 23 25 27 24 22 22 19 20 24 26 29 30 29 27 26 26 27 27 30 29 27 26 26 27 26 24 21 23 27 26 24 26 27 23 22 24 23 22 26 26 24 27 27 24 25 28 27 26 25 30 30 30 34 31 37 38 31 32 29 28 31 33 31 32 32 37 46 53 37 33 42 44 38 39 42 43 43 51 44 36 37 43 45 36 35 33 36 63 55 34 33 33 36 38 35 60 90 86 69 88 96 94 104 110 110 122 131 131 113 115 131 141 115 113 130 111 119 108 99 103 119 135 138 126 98 82 104 114 84 100 123 139 129 102 101 128 128 138 136 113 108 94 108 149 124 97 96 92 84 77 76 68 70 73 77 61 50 40 35 35 52 65 70 67 65 70 76 84 100 111 111 113 111 93 
29 31 34 34 33 34 34 34 36 37 41 40 38 37 37 39 37 34 34 34 34 34 32 31 34 32 32 34 32 31 33 34 33 30 30 28 29 30 30 30 28 27 27 31 27 27 25 23 28 29 28 27 27 24 24 24 26 26 24 26 27 25 26 27 27 25 23 23 24 23 21 23 24 23 18 18 21 23 27 33 44 48 65 77 70 85 96 82 81 82 87 77 57 32 48 175 156 49 40 67 97 98 98 91 87 86 84 80 66 51 40 37 36 31 27 30 32 28 23 25 28 25 27 26 23 23 21 25 27 24 23 23 23 23 28 27 27 29 29 26 24 26 30 30 32 30 27 27 26 25 25 26 21 22 28 26 24 26 27 23 22 24 23 23 23 23 26 27 27 26 23 27 29 26 25 32 31 30 35 30 28 30 27 29 26 27 31 33 31 34 34 34 40 37 37 37 42 46 39 35 39 43 39 41 41 40 43 37 37 37 40 39 33 49 43 31 31 34 36 33 44 81 79 74 74 97 113 110 119 124 134 138 146 130 112 120 145 141 106 107 129 107 92 104 109 98 89 128 151 139 114 108 122 123 77 87 124 144 142 107 107 115 128 135 124 121 119 103 114 145 124 84 92 98 76 72 76 80 73 62 70 54 50 36 36 38 51 58 61 63 70 74 88 101 105 107 112 110 98 73 
29 32 34 33 32 34 35 34 35 37 41 40 38 37 35 37 37 37 37 35 34 34 34 32 33 32 33 33 32 32 33 34 33 30 30 28 29 30 30 30 28 27 27 28 26 27 26 26 28 27 26 28 29 26 24 23 24 24 25 26 27 27 28 28 27 24 22 22 23 24 21 22 22 20 18 21 27 31 41 41 49 52 71 83 77 81 87 85 81 77 75 88 55 24 76 187 101 36 54 68 95 99 102 96 90 91 90 75 44 30 30 33 32 28 27 28 28 31 27 27 29 26 27 25 24 22 20 23 24 23 24 26 26 26 28 26 25 27 31 30 28 27 29 31 33 29 26 28 28 26 28 28 24 25 27 26 25 26 29 26 24 25 25 25 24 24 28 27 27 25 21 25 28 25 27 28 27 28 29 29 30 27 25 26 27 27 26 28 29 32 36 38 37 36 42 35 35 39 38 37 42 41 37 34 38 38 40 32 34 38 36 37 35 38 35 32 32 31 31 38 56 78 69 74 77 99 126 133 130 131 139 135 134 124 118 121 144 140 119 134 149 127 100 109 115 111 109 138 146 151 122 116 133 132 105 111 133 129 119 96 107 114 122 116 104 107 112 106 115 119 109 101 105 93 62 68 67 73 74 62 62 52 42 34 39 44 54 57 55 59 71 79 96 112 115 116 118 110 80 45 
29 34 34 34 31 33 33 33 33 34 36 37 37 37 34 36 37 37 38 34 34 34 34 34 34 34 34 34 34 34 34 34 33 32 32 30 30 30 30 30 29 32 30 28 28 27 28 31 29 25 23 25 28 28 24 22 22 23 25 27 27 29 29 28 28 23 22 22 22 24 21 20 20 18 18 23 34 33 51 61 57 61 73 83 87 84 84 95 88 88 82 84 55 25 108 157 55 38 68 80 101 96 92 88 90 87 67 44 30 27 31 29 28 29 27 27 27 29 24 25 27 26 28 23 20 23 23 23 22 21 23 26 27 27 29 30 29 26 30 34 31 28 28 31 31 29 29 30 29 28 31 28 27 27 27 27 27 28 31 28 27 27 27 27 26 25 26 27 27 25 22 26 27 25 27 28 30 31 31 32 31 27 26 28 31 29 26 27 32 34 37 39 41 37 39 35 35 36 34 32 35 40 49 49 40 31 32 31 35 38 38 34 32 32 28 28 31 28 36 62 83 86 71 65 72 102 119 125 129 118 131 123 119 115 112 110 123 120 115 138 144 129 119 111 109 112 122 140 139 140 107 109 129 121 103 123 136 115 99 84 100 130 120 97 101 121 119 109 110 94 91 98 103 88 58 65 59 61 66 65 59 51 37 34 43 56 53 52 61 69 79 84 100 113 113 112 111 100 61 36 
29 33 34 33 30 30 30 31 31 28 31 33 34 37 35 36 37 37 37 35 34 33 34 34 34 34 34 34 34 34 34 34 34 34 34 32 30 30 29 30 28 29 27 30 32 29 28 30 29 26 23 22 26 30 28 24 23 23 25 27 28 28 29 28 27 22 22 23 22 24 21 20 19 19 27 38 43 46 63 80 65 72 78 89 91 87 81 97 88 89 81 66 35 36 137 102 38 52 79 91 94 87 94 94 92 70 38 26 27 28 31 30 29 29 27 27 27 24 21 22 25 22 25 27 23 22 22 22 22 20 20 23 26 26 29 30 29 29 28 30 28 27 28 31 32 29 27 29 29 28 30 28 27 27 26 26 27 30 27 25 27 27 26 27 27 27 24 26 26 26 25 28 28 25 28 28 29 34 37 35 32 28 28 32 35 33 30 27 29 30 32 41 45 39 38 40 37 38 39 35 35 40 52 54 37 32 35 32 34 38 39 39 36 34 31 29 31 32 54 97 116 102 79 68 96 109 107 115 125 106 108 108 118 122 119 113 106 105 121 144 133 119 119 123 128 132 138 150 128 120 104 102 124 111 110 125 124 99 88 95 107 122 104 83 107 127 126 131 115 100 94 87 89 85 63 66 59 60 55 63 65 52 37 34 46 68 60 58 68 73 83 95 106 109 113 110 84 61 40 32 
25 30 30 30 30 30 30 30 30 29 30 30 33 36 36 36 37 37 37 36 38 34 34 34 34 34 34 34 34 34 34 34 34 34 32 31 30 33 30 30 27 29 25 27 30 30 27 27 27 26 25 23 27 33 29 24 26 26 26 29 29 25 27 26 23 21 25 26 22 23 21 17 17 21 37 46 48 60 74 76 57 77 87 100 92 89 91 103 97 80 67 53 26 42 109 56 48 67 88 99 93 92 100 90 68 42 27 30 28 30 35 27 25 27 29 29 29 26 22 22 28 27 26 26 24 23 23 21 19 22 22 20 22 24 27 30 28 29 29 29 29 29 31 31 31 29 27 27 27 26 27 27 29 30 28 25 27 29 24 27 29 28 26 27 25 27 26 28 28 26 23 23 26 26 25 25 27 31 32 33 35 32 28 31 33 33 30 28 29 28 31 38 39 38 39 41 37 42 48 39 32 37 42 40 32 32 36 32 43 37 35 39 36 34 34 32 36 44 66 91 107 100 93 91 116 129 126 128 124 106 98 99 109 121 136 131 112 124 139 141 106 109 115 121 118 121 121 133 111 108 117 107 117 88 108 122 102 76 78 101 110 118 120 110 101 102 113 136 123 100 88 85 86 85 82 84 78 72 55 63 66 42 31 32 47 63 67 67 68 73 82 98 108 106 100 88 53 31 29 29 
25 30 30 30 30 30 30 30 30 29 30 34 37 37 37 37 37 37 37 37 39 34 34 34 34 34 34 34 34 34 34 34 34 34 32 31 30 34 30 28 31 32 27 27 30 30 27 27 27 27 26 23 28 33 29 24 27 27 26 29 29 24 27 26 23 21 27 28 23 23 21 16 20 26 40 42 50 63 74 69 64 79 88 115 104 102 97 84 82 76 67 39 20 35 58 38 60 90 102 101 95 101 89 56 36 29 27 31 27 32 38 29 26 25 29 30 29 26 24 24 27 26 26 25 26 27 27 25 20 20 23 22 21 24 26 31 29 30 30 30 30 29 28 28 29 30 28 27 27 25 27 27 29 30 30 29 30 28 23 29 30 25 26 28 25 27 27 26 26 25 23 23 26 27 27 26 25 26 27 27 31 33 26 26 30 35 33 29 30 29 30 33 31 33 39 41 37 42 44 39 34 36 38 40 39 37 39 34 43 36 33 39 46 39 34 44 63 71 79 81 90 81 71 77 89 108 121 124 116 110 108 121 126 117 137 132 111 132 123 111 93 115 127 126 106 114 117 133 117 111 118 116 116 86 100 104 82 67 78 109 107 117 119 107 95 101 90 112 118 100 84 70 63 67 88 95 86 72 52 59 59 44 34 35 52 68 69 71 71 70 89 109 115 102 71 49 37 34 38 33 
28 31 30 30 28 29 30 28 29 30 31 36 39 38 38 36 35 35 35 37 38 35 35 34 33 32 31 32 34 34 34 34 33 32 30 31 32 34 31 30 32 33 31 29 28 28 27 29 29 27 25 25 27 31 29 27 27 25 25 28 27 24 27 25 23 22 23 22 20 21 22 21 30 38 48 47 48 57 68 84 77 82 84 114 99 94 104 78 71 71 65 33 18 26 35 40 68 93 101 95 87 76 56 32 26 28 27 28 28 28 30 27 25 23 26 29 33 26 21 23 26 24 24 25 27 27 26 24 23 20 23 24 23 26 29 27 25 28 30 30 30 29 28 27 28 30 28 28 29 25 26 28 30 30 29 30 35 30 25 29 30 25 26 28 25 25 22 20 20 21 25 25 26 27 27 24 26 28 30 31 31 34 30 25 28 33 33 30 32 31 32 31 28 31 38 38 38 38 37 43 41 35 36 46 43 35 41 50 43 31 29 41 47 34 33 49 79 97 97 87 87 77 75 100 97 111 111 109 107 114 128 144 146 116 129 130 113 131 114 108 110 105 121 134 113 116 115 142 122 106 119 122 125 121 120 100 71 92 122 131 111 110 107 89 95 119 99 98 103 104 88 71 62 75 92 87 81 74 59 61 52 43 36 38 57 75 68 66 74 78 100 118 118 89 46 31 35 41 41 32 
30 32 31 30 27 29 30 27 29 31 31 33 36 37 37 34 34 34 34 38 37 37 36 34 33 31 30 30 33 33 33 34 33 30 30 32 34 33 30 30 30 30 30 29 24 26 28 31 30 29 27 27 27 29 30 29 29 27 27 27 26 25 26 24 23 23 24 21 18 21 26 30 37 43 62 57 56 72 81 103 74 70 80 99 86 74 88 94 93 69 52 28 20 24 31 56 86 96 99 86 67 44 32 30 30 30 28 26 24 24 24 24 30 26 23 27 32 26 20 18 23 26 28 25 23 23 23 23 22 21 23 24 24 28 28 24 26 28 31 30 30 29 28 30 30 30 29 29 30 25 25 29 30 29 30 29 30 28 26 26 27 24 26 28 24 23 22 24 20 19 27 27 29 31 29 23 32 29 30 30 28 31 28 27 31 37 38 34 34 34 34 33 32 34 37 33 38 40 39 43 38 35 38 43 44 37 40 47 37 29 34 40 34 33 50 75 93 107 107 91 82 95 102 98 108 141 116 109 113 123 139 141 140 124 124 116 118 141 113 83 102 108 109 133 127 127 117 113 100 106 125 130 135 125 101 87 75 100 124 138 133 124 115 101 109 117 94 83 92 109 104 91 86 89 84 74 85 83 68 63 55 47 36 44 60 71 69 71 73 90 110 110 87 57 36 29 32 35 32 28 
25 28 26 26 24 24 25 24 24 26 24 25 29 29 29 29 29 29 30 32 32 31 31 29 29 26 25 25 26 26 28 29 29 25 25 28 29 28 24 23 23 23 24 22 17 21 24 26 24 25 25 23 23 24 25 24 25 28 24 23 24 24 21 19 19 19 21 17 16 19 30 33 36 33 47 49 54 73 68 75 59 58 74 87 79 65 66 73 75 52 36 19 17 25 38 65 84 88 85 57 32 23 23 24 24 24 23 22 23 23 23 21 23 22 19 18 22 24 18 17 21 22 23 19 17 17 17 19 18 17 19 21 21 24 24 21 21 24 26 25 25 25 24 24 24 25 24 25 25 22 22 24 23 22 22 22 24 22 18 19 21 18 22 24 18 17 21 23 21 19 24 23 24 24 28 25 26 22 23 24 30 32 24 28 30 31 31 29 29 29 29 29 31 32 32 32 38 35 31 31 28 29 32 38 38 31 31 33 30 26 33 38 37 50 70 87 96 99 94 80 72 79 84 72 89 115 99 102 122 127 116 101 101 103 101 94 116 136 103 67 67 89 99 124 115 101 98 87 81 93 96 94 100 87 77 73 67 92 108 122 121 105 101 101 107 98 81 84 81 75 77 73 70 71 68 59 68 66 59 56 50 44 32 46 59 66 67 73 73 87 102 82 50 35 32 30 30 32 30 25 