P2
359 530
255
0 0 0 0 0 0 0 0 0 0 0 0 0 0 0 0 0 0 0 0 0 0 0 0 0 0 0 0 0 0 0 0 0 0 0 0 0 0 0 0 0 0 0 0 0 0 0 0 0 0 0 0 0 0 0 0 0 0 0 0 0 0 0 0 0 0 0 0 0 0 0 0 0 0 0 0 0 0 0 0 0 0 0 0 0 0 0 0 0 0 0 0 0 0 0 0 0 0 0 0 0 0 0 0 0 0 0 0 0 0 0 0 0 0 0 0 0 0 0 0 0 0 0 0 0 0 0 0 0 0 0 0 0 0 0 0 0 0 0 1 2 4 10 22 34 38 45 51 53 61 60 58 66 66 64 74 92 98 110 139 150 161 154 122 109 140 154 104 66 39 17 6 2 0 0 0 0 0 0 0 0 0 0 0 0 0 0 0 0 0 0 0 0 0 0 0 0 0 0 0 0 0 0 0 0 0 0 0 0 0 0 0 0 0 0 0 0 0 0 0 0 0 0 0 0 0 0 0 0 0 0 0 0 0 0 0 0 0 0 0 0 0 0 0 0 0 0 0 0 0 0 0 0 0 0 0 0 0 0 0 0 0 0 0 0 0 0 0 0 0 0 0 0 0 0 0 0 0 0 0 0 0 0 0 0 0 0 0 0 0 0 0 0 0 0 0 0 0 0 0 0 0 0 0 0 0 0 0 0 0 0 0 0 0 0 0 0 0 0 0 0 0 0 0 0 0 0 0 0 0 0 0 0 0 0 0 0 0 0 0 0 0 0 0 0 0 0 0 0 0 0 0 0 0 0 0 0 0 0 
0 0 0 0 0 0 0 0 0 0 0 0 0 0 0 0 0 0 0 0 0 0 0 0 0 0 0 0 0 0 0 0 0 0 0 0 0 0 0 0 0 0 0 0 0 0 0 0 0 0 0 0 0 0 0 0 0 0 0 0 0 0 0 0 0 0 0 0 0 0 0 0 0 0 0 0 0 0 0 0 0 0 0 0 0 0 0 0 0 0 0 0 0 0 0 0 0 0 0 0 0 0 0 0 0 0 0 0 0 0 0 0 0 0 0 0 0 0 0 0 0 0 0 0 0 0 0 0 0 0 0 0 1 2 3 6 10 23 48 79 86 72 83 112 124 97 60 41 38 37 39 41 39 47 51 62 79 71 61 81 91 135 161 150 167 177 157 108 100 124 130 114 86 49 14 6 1 0 0 0 0 0 0 0 0 0 0 0 0 0 0 0 0 0 0 0 0 0 0 0 0 0 0 0 0 0 0 0 0 0 0 0 0 0 0 0 0 0 0 0 0 0 0 0 0 0 0 0 0 0 0 0 0 0 0 0 0 0 0 0 0 0 0 0 0 0 0 0 0 0 0 0 0 0 0 0 0 0 0 0 0 0 0 0 0 0 0 0 0 0 0 0 0 0 0 0 0 0 0 0 0 0 0 0 0 0 0 0 0 0 0 0 0 0 0 0 0 0 0 0 0 0 0 0 0 0 0 0 0 0 0 0 0 0 0 0 0 0 0 0 0 0 0 0 0 0 0 0 0 0 0 0 0 0 0 0 0 0 0 0 0 0 0 0 0 0 0 0 0 0 0 0 0 0 0 0 0 0 0 
0 0 0 0 0 0 0 0 0 0 0 0 0 0 0 0 0 0 0 0 0 0 0 0 0 0 0 0 0 0 0 0 0 0 0 0 0 0 0 0 0 0 0 0 0 0 0 0 0 0 0 0 0 0 0 0 0 0 0 0 0 0 0 0 0 0 0 0 0 0 0 0 0 0 0 0 0 0 0 0 0 0 0 0 0 0 0 0 0 0 0 0 0 0 0 0 0 0 0 0 0 0 0 0 0 0 0 0 0 0 0 0 0 0 0 0 0 0 0 0 0 0 0 0 0 1 3 5 7 9 11 23 38 54 65 77 93 121 142 118 81 84 101 153 190 181 136 84 59 42 47 46 48 55 56 75 88 67 52 48 47 70 102 110 134 168 170 154 115 75 78 104 125 134 130 108 64 18 7 0 0 0 0 0 0 0 0 0 0 0 0 0 0 0 0 0 0 0 0 0 0 0 0 0 0 0 0 0 0 0 0 0 0 0 0 0 0 0 0 0 0 0 0 0 0 0 0 0 0 0 0 0 0 0 0 0 0 0 0 0 0 0 0 0 0 0 0 0 0 0 0 0 0 0 0 0 0 0 0 0 0 0 0 0 0 0 0 0 0 0 0 0 0 0 0 0 0 0 0 0 0 0 0 0 0 0 0 0 0 0 0 0 0 0 0 0 0 0 0 0 0 0 0 0 0 0 0 0 0 0 0 0 0 0 0 0 0 0 0 0 0 0 0 0 0 0 0 0 0 0 0 0 0 0 0 0 0 0 0 0 0 0 0 0 0 0 0 0 0 0 0 0 0 0 0 0 0 0 0 
0 0 0 0 0 0 0 0 0 0 0 0 0 0 0 0 0 0 0 0 0 0 0 0 0 0 0 0 0 0 0 0 0 0 0 0 0 0 0 0 0 0 0 0 0 0 0 0 0 0 0 0 0 0 0 0 0 0 0 0 0 0 0 0 0 0 0 0 0 0 0 0 0 0 0 0 0 0 0 0 0 0 0 0 0 0 0 0 0 0 0 0 0 0 0 0 0 0 0 0 0 0 0 0 0 0 0 0 0 0 0 0 0 0 0 0 0 0 0 0 0 4 17 27 34 41 51 55 69 74 64 58 67 69 73 75 95 113 75 65 88 85 91 155 192 196 176 124 88 70 66 77 79 78 100 106 75 68 71 58 63 70 65 65 72 80 110 158 187 159 91 66 70 85 109 119 133 135 101 44 15 0 0 0 0 0 0 0 0 0 0 0 0 0 0 0 0 0 0 0 0 0 0 0 0 0 0 0 0 0 0 0 0 0 0 0 0 0 0 0 0 0 0 0 0 0 0 0 0 0 0 0 0 0 0 0 0 0 0 0 0 0 0 0 0 0 0 0 0 0 0 0 0 0 0 0 0 0 0 0 0 0 0 0 0 0 0 0 0 0 0 0 0 0 0 0 0 0 0 0 0 0 0 0 0 0 0 0 0 0 0 0 0 0 0 0 0 0 0 0 0 0 0 0 0 0 0 0 0 0 0 0 0 0 0 0 0 0 0 0 0 0 0 0 0 0 0 0 0 0 0 0 0 0 0 0 0 0 0 0 0 0 0 0 0 0 0 0 0 0 0 0 0 0 0 0 0 0 0 
0 0 0 0 0 0 0 0 0 0 0 0 0 0 0 0 0 0 0 0 0 0 0 0 0 0 0 0 0 0 0 0 0 0 0 0 0 0 0 0 0 0 0 0 0 0 0 0 0 0 0 0 0 0 0 0 0 0 0 0 0 0 0 0 0 0 0 0 0 0 0 0 0 0 0 0 0 0 0 0 0 0 0 0 0 0 0 0 0 0 0 0 0 0 0 0 0 0 0 0 0 0 0 0 0 0 0 0 0 0 0 0 0 0 0 0 0 0 0 0 21 67 114 119 95 92 96 82 79 84 67 59 65 75 75 78 86 76 57 75 85 74 95 148 172 178 177 138 84 79 84 95 102 97 103 104 98 90 78 75 80 75 63 60 70 68 66 77 113 166 189 152 98 79 76 78 94 114 127 149 134 72 23 1 0 0 0 0 0 0 0 0 0 0 0 0 0 0 0 0 0 0 0 0 0 0 0 0 0 0 0 0 0 0 0 0 0 0 0 0 0 0 0 0 0 0 0 0 0 0 0 0 0 0 0 0 0 0 0 0 0 0 0 0 0 0 0 0 0 0 0 0 0 0 0 0 0 0 0 0 0 0 0 0 0 0 0 0 0 0 0 0 0 0 0 0 0 0 0 0 0 0 0 0 0 0 0 0 0 0 0 0 0 0 0 0 0 0 0 0 0 0 0 0 0 0 0 0 0 0 0 0 0 0 0 0 0 0 0 0 0 0 0 0 0 0 0 0 0 0 0 0 0 0 0 0 0 0 0 0 0 0 0 0 0 0 0 0 0 0 0 0 0 0 0 0 0 0 0 
0 0 0 0 0 0 0 0 0 0 0 0 0 0 0 0 0 0 0 0 0 0 0 0 0 0 0 0 0 0 0 0 0 0 0 0 0 0 0 0 0 0 0 0 0 0 0 0 0 0 0 0 0 0 0 0 0 0 0 0 0 0 0 0 0 0 0 0 0 0 0 0 0 0 0 0 0 0 0 0 0 0 0 0 0 0 0 0 0 0 0 0 0 0 0 0 0 0 0 0 0 0 0 0 0 0 0 0 0 0 0 0 0 0 0 0 0 0 7 40 89 109 123 106 99 107 101 85 77 79 82 78 82 97 90 80 79 57 57 75 73 65 88 133 155 159 169 158 116 81 74 76 86 92 95 98 109 112 110 104 98 92 85 67 69 81 82 66 59 85 130 173 187 157 116 91 83 85 89 101 130 153 143 94 30 1 0 0 0 0 0 0 0 0 0 0 0 0 0 0 0 0 0 0 0 0 0 0 0 0 0 0 0 0 0 0 0 0 0 0 0 0 0 0 0 0 0 0 0 0 0 0 0 0 0 0 0 0 0 0 0 0 0 0 0 0 0 0 0 0 0 0 0 0 0 0 0 0 0 0 0 0 0 0 0 0 0 0 0 0 0 0 0 0 0 0 0 0 0 0 0 0 0 0 0 0 0 0 0 0 0 0 0 0 0 0 0 0 0 0 0 0 0 0 0 0 0 0 0 0 0 0 0 0 0 0 0 0 0 0 0 0 0 0 0 0 0 0 0 0 0 0 0 0 0 0 0 0 0 0 0 0 0 0 0 0 0 0 0 0 0 0 0 0 0 0 0 0 0 
0 0 0 0 0 0 0 0 0 0 0 0 0 0 0 0 0 0 0 0 0 0 0 0 0 0 0 0 0 0 0 0 0 0 0 0 0 0 0 0 0 0 0 0 0 0 0 0 0 0 0 0 0 0 0 0 0 0 0 0 0 0 0 0 0 0 0 0 0 0 0 0 0 0 0 0 0 0 0 0 0 0 0 0 0 0 0 0 0 0 0 0 0 0 0 0 0 0 0 0 0 0 0 0 0 0 0 0 0 0 0 0 0 0 0 0 9 33 60 78 98 103 94 96 93 82 79 80 75 63 79 97 94 85 73 75 66 47 60 72 63 59 86 127 142 147 154 154 141 117 103 105 103 103 104 107 106 108 111 114 110 101 93 84 83 96 89 60 59 77 82 98 147 193 200 174 140 113 93 86 85 100 129 154 155 102 35 0 0 0 0 0 0 0 0 0 0 0 0 0 0 0 0 0 0 0 0 0 0 0 0 0 0 0 0 0 0 0 0 0 0 0 0 0 0 0 0 0 0 0 0 0 0 0 0 0 0 0 0 0 0 0 0 0 0 0 0 0 0 0 0 0 0 0 0 0 0 0 0 0 0 0 0 0 0 0 0 0 0 0 0 0 0 0 0 0 0 0 0 0 0 0 0 0 0 0 0 0 0 0 0 0 0 0 0 0 0 0 0 0 0 0 0 0 0 0 0 0 0 0 0 0 0 0 0 0 0 0 0 0 0 0 0 0 0 0 0 0 0 0 0 0 0 0 0 0 0 0 0 0 0 0 0 0 0 0 0 0 0 0 0 0 0 0 0 0 0 0 0 
0 0 0 0 0 0 0 0 0 0 0 0 0 0 0 0 0 0 0 0 0 0 0 0 0 0 0 0 0 0 0 0 0 0 0 0 0 0 0 0 0 0 0 0 0 0 0 0 0 0 0 0 0 0 0 0 0 0 0 0 0 0 0 0 0 0 0 0 0 0 0 0 0 0 0 0 0 0 0 0 0 0 0 0 0 0 0 0 0 0 0 0 0 0 0 0 0 0 0 0 0 0 0 0 0 0 0 0 0 0 0 0 0 0 5 35 68 67 69 81 86 83 79 81 71 73 85 87 78 71 68 72 62 55 63 68 54 50 62 62 51 51 90 129 135 140 147 150 147 133 112 99 99 101 104 103 102 104 106 114 122 107 98 93 85 85 95 99 87 81 73 65 78 114 169 202 203 189 168 140 102 87 92 102 121 154 162 97 28 0 0 0 0 0 0 0 0 0 0 0 0 0 0 0 0 0 0 0 0 0 0 0 0 0 0 0 0 0 0 0 0 0 0 0 0 0 0 0 0 0 0 0 0 0 0 0 0 0 0 0 0 0 0 0 0 0 0 0 0 0 0 0 0 0 0 0 0 0 0 0 0 0 0 0 0 0 0 0 0 0 0 0 0 0 0 0 0 0 0 0 0 0 0 0 0 0 0 0 0 0 0 0 0 0 0 0 0 0 0 0 0 0 0 0 0 0 0 0 0 0 0 0 0 0 0 0 0 0 0 0 0 0 0 0 0 0 0 0 0 0 0 0 0 0 0 0 0 0 0 0 0 0 0 0 0 0 0 0 0 0 0 0 0 0 0 0 0 0 0 
0 0 0 0 0 0 0 0 0 0 0 0 0 0 0 0 0 0 0 0 0 0 0 0 0 0 0 0 0 0 0 0 0 0 0 0 0 0 0 0 0 0 0 0 0 0 0 0 0 0 0 0 0 0 0 0 0 0 0 0 0 0 0 0 0 0 0 0 0 0 0 0 0 0 0 0 0 0 0 0 0 0 0 0 0 0 0 0 0 0 0 0 0 0 0 0 0 0 0 0 0 0 0 0 0 0 0 0 0 0 0 0 1 30 64 64 44 56 85 83 67 65 65 59 60 77 85 85 81 76 66 59 64 72 81 77 59 53 59 58 48 49 82 118 128 130 133 144 147 135 114 98 94 98 101 102 99 101 106 112 123 125 116 102 97 84 89 115 110 74 60 56 71 83 98 138 183 196 194 195 181 152 118 91 85 97 120 151 152 77 14 0 0 0 0 0 0 0 0 0 0 0 0 0 0 0 0 0 0 0 0 0 0 0 0 0 0 0 0 0 0 0 0 0 0 0 0 0 0 0 0 0 0 0 0 0 0 0 0 0 0 0 0 0 0 0 0 0 0 0 0 0 0 0 0 0 0 0 0 0 0 0 0 0 0 0 0 0 0 0 0 0 0 0 0 0 0 0 0 0 0 0 0 0 0 0 0 0 0 0 0 0 0 0 0 0 0 0 0 0 0 0 0 0 0 0 0 0 0 0 0 0 0 0 0 0 0 0 0 0 0 0 0 0 0 0 0 0 0 0 0 0 0 0 0 0 0 0 0 0 0 0 0 0 0 0 0 0 0 0 0 0 0 0 0 0 0 0 0 
0 0 0 0 0 0 0 0 0 0 0 0 0 0 0 0 0 0 0 0 0 0 0 0 0 0 0 0 0 0 0 0 0 0 0 0 0 0 0 0 0 0 0 0 0 0 0 0 0 0 0 0 0 0 0 0 0 0 0 0 0 0 0 0 0 0 0 0 0 0 0 0 0 0 0 0 0 0 0 0 0 0 0 0 0 0 0 0 0 0 0 0 0 0 0 0 0 0 0 0 0 0 0 0 0 0 0 0 0 0 0 22 64 70 46 42 56 77 69 58 60 56 52 55 56 64 79 78 66 64 69 73 77 79 76 70 56 53 59 54 47 46 70 110 116 123 131 141 140 139 131 109 97 95 89 92 90 100 110 106 110 120 128 121 117 109 87 84 101 89 80 81 82 92 101 91 116 152 174 181 196 207 197 165 124 94 85 97 126 154 132 54 0 0 0 0 0 0 0 0 0 0 0 0 0 0 0 0 0 0 0 0 0 0 0 0 0 0 0 0 0 0 0 0 0 0 0 0 0 0 0 0 0 0 0 0 0 0 0 0 0 0 0 0 0 0 0 0 0 0 0 0 0 0 0 0 0 0 0 0 0 0 0 0 0 0 0 0 0 0 0 0 0 0 0 0 0 0 0 0 0 0 0 0 0 0 0 0 0 0 0 0 0 0 0 0 0 0 0 0 0 0 0 0 0 0 0 0 0 0 0 0 0 0 0 0 0 0 0 0 0 0 0 0 0 0 0 0 0 0 0 0 0 0 0 0 0 0 0 0 0 0 0 0 0 0 0 0 0 0 0 0 0 0 0 0 0 0 0 
0 0 0 0 0 0 0 0 0 0 0 0 0 0 0 0 0 0 0 0 0 0 0 0 0 0 0 0 0 0 0 0 0 0 0 0 0 0 0 0 0 0 0 0 0 0 0 0 0 0 0 0 0 0 0 0 0 0 0 0 0 0 0 0 0 0 0 0 0 0 0 0 0 0 0 0 0 0 0 0 0 0 0 0 0 0 0 0 0 0 0 0 0 0 0 0 0 0 0 0 0 0 0 0 0 0 0 0 0 7 50 70 51 44 45 66 81 63 52 56 59 50 47 57 64 69 69 58 52 61 65 66 68 67 69 63 54 54 55 49 46 44 60 96 111 117 129 142 138 133 128 111 96 87 88 90 87 99 109 113 115 120 127 130 130 129 115 91 88 99 100 97 89 68 97 88 79 105 146 178 188 195 203 212 204 169 128 102 92 110 143 158 116 32 0 0 0 0 0 0 0 0 0 0 0 0 0 0 0 0 0 0 0 0 0 0 0 0 0 0 0 0 0 0 0 0 0 0 0 0 0 0 0 0 0 0 0 0 0 0 0 0 0 0 0 0 0 0 0 0 0 0 0 0 0 0 0 0 0 0 0 0 0 0 0 0 0 0 0 0 0 0 0 0 0 0 0 0 0 0 0 0 0 0 0 0 0 0 0 0 0 0 0 0 0 0 0 0 0 0 0 0 0 0 0 0 0 0 0 0 0 0 0 0 0 0 0 0 0 0 0 0 0 0 0 0 0 0 0 0 0 0 0 0 0 0 0 0 0 0 0 0 0 0 0 0 0 0 0 0 0 0 0 0 0 0 0 0 0 
0 0 0 0 0 0 0 0 0 0 0 0 0 0 0 0 0 0 0 0 0 0 0 0 0 0 0 0 0 0 0 0 0 0 0 0 0 0 0 0 0 0 0 0 0 0 0 0 0 0 0 0 0 0 0 0 0 0 0 0 0 0 0 0 0 0 0 0 0 0 0 0 0 0 0 0 0 0 0 0 0 0 0 0 0 0 0 0 0 0 0 0 0 0 0 0 0 0 0 0 0 0 0 0 0 0 0 0 31 69 57 42 46 57 77 82 55 49 53 57 57 50 52 61 67 66 55 54 56 58 59 58 58 55 64 62 47 49 53 48 46 45 54 78 102 113 115 134 139 131 116 99 90 85 87 91 92 94 97 107 116 123 131 134 131 123 124 110 90 91 92 99 116 85 59 76 78 69 104 153 184 192 184 190 211 218 203 176 132 101 102 127 154 159 83 0 0 0 0 0 0 0 0 0 0 0 0 0 0 0 0 0 0 0 0 0 0 0 0 0 0 0 0 0 0 0 0 0 0 0 0 0 0 0 0 0 0 0 0 0 0 0 0 0 0 0 0 0 0 0 0 0 0 0 0 0 0 0 0 0 0 0 0 0 0 0 0 0 0 0 0 0 0 0 0 0 0 0 0 0 0 0 0 0 0 0 0 0 0 0 0 0 0 0 0 0 0 0 0 0 0 0 0 0 0 0 0 0 0 0 0 0 0 0 0 0 0 0 0 0 0 0 0 0 0 0 0 0 0 0 0 0 0 0 0 0 0 0 0 0 0 0 0 0 0 0 0 0 0 0 0 0 0 0 0 0 0 0 0 
0 0 0 0 0 0 0 0 0 0 0 0 0 0 0 0 0 0 0 0 0 0 0 0 0 0 0 0 0 0 0 0 0 0 0 0 0 0 0 0 0 0 0 0 0 0 0 0 0 0 0 0 0 0 0 0 0 0 0 0 0 0 0 0 0 0 0 0 0 0 0 0 0 0 0 0 0 0 0 0 0 0 0 0 0 0 0 0 0 0 0 0 0 0 0 0 0 0 0 0 0 0 0 0 0 0 1 52 71 46 41 46 64 86 90 58 49 52 59 52 46 59 60 50 49 49 50 51 54 52 53 52 51 53 59 58 45 47 50 47 45 46 51 67 88 105 113 125 132 135 118 95 86 87 86 90 94 92 93 101 114 116 124 130 130 127 123 112 104 99 85 83 118 118 78 82 82 63 63 100 146 186 196 181 191 206 209 217 202 167 128 103 107 136 164 125 27 0 0 0 0 0 0 0 0 0 0 0 0 0 0 0 0 0 0 0 0 0 0 0 0 0 0 0 0 0 0 0 0 0 0 0 0 0 0 0 0 0 0 0 0 0 0 0 0 0 0 0 0 0 0 0 0 0 0 0 0 0 0 0 0 0 0 0 0 0 0 0 0 0 0 0 0 0 0 0 0 0 0 0 0 0 0 0 0 0 0 0 0 0 0 0 0 0 0 0 0 0 0 0 0 0 0 0 0 0 0 0 0 0 0 0 0 0 0 0 0 0 0 0 0 0 0 0 0 0 0 0 0 0 0 0 0 0 0 0 0 0 0 0 0 0 0 0 0 0 0 0 0 0 0 0 0 0 0 0 0 0 0 
0 0 0 0 0 0 0 0 0 0 0 0 0 0 0 0 0 0 0 0 0 0 0 0 0 0 0 0 0 0 0 0 0 0 0 0 0 0 0 0 0 0 0 0 0 0 0 0 0 0 0 0 0 0 0 0 0 0 0 0 0 0 0 0 0 0 0 0 0 0 0 0 0 0 0 0 0 0 0 0 0 0 0 0 0 0 0 0 0 0 0 0 0 0 0 0 0 0 0 0 0 0 0 0 0 14 67 59 41 41 47 65 94 96 59 51 64 63 56 46 47 59 53 44 44 47 49 48 49 57 48 48 51 51 50 51 47 49 48 45 46 48 55 73 85 97 113 122 128 132 117 94 80 79 86 86 90 91 93 93 104 112 116 120 128 132 124 117 117 104 88 89 88 94 118 112 107 90 53 59 85 140 184 192 183 191 197 204 213 217 197 154 118 104 120 156 160 44 0 0 0 0 0 0 0 0 0 0 0 0 0 0 0 0 0 0 0 0 0 0 0 0 0 0 0 0 0 0 0 0 0 0 0 0 0 0 0 0 0 0 0 0 0 0 0 0 0 0 0 0 0 0 0 0 0 0 0 0 0 0 0 0 0 0 0 0 0 0 0 0 0 0 0 0 0 0 0 0 0 0 0 0 0 0 0 0 0 0 0 0 0 0 0 0 0 0 0 0 0 0 0 0 0 0 0 0 0 0 0 0 0 0 0 0 0 0 0 0 0 0 0 0 0 0 0 0 0 0 0 0 0 0 0 0 0 0 0 0 0 0 0 0 0 0 0 0 0 0 0 0 0 0 0 0 0 0 0 0 0 
0 0 0 0 0 0 0 0 0 0 0 0 0 0 0 0 0 0 0 0 0 0 0 0 0 0 0 0 0 0 0 0 0 0 0 0 0 0 0 0 0 0 0 0 0 0 0 0 0 0 0 0 0 0 0 0 0 0 0 0 0 0 0 0 0 0 0 0 0 0 0 0 0 0 0 0 0 0 0 0 0 0 0 0 0 0 0 0 0 0 0 0 0 0 0 0 0 0 0 0 0 0 0 0 31 70 49 43 46 48 70 96 93 59 45 48 54 62 48 42 49 46 42 45 47 48 51 49 47 52 44 45 47 47 50 48 46 46 46 43 46 49 51 62 77 90 107 124 130 127 113 90 72 73 80 81 87 85 85 88 88 106 115 117 119 119 121 126 124 108 97 101 88 81 89 120 135 121 76 56 66 85 135 186 197 185 189 197 199 204 213 213 183 127 100 113 155 162 83 0 0 0 0 0 0 0 0 0 0 0 0 0 0 0 0 0 0 0 0 0 0 0 0 0 0 0 0 0 0 0 0 0 0 0 0 0 0 0 0 0 0 0 0 0 0 0 0 0 0 0 0 0 0 0 0 0 0 0 0 0 0 0 0 0 0 0 0 0 0 0 0 0 0 0 0 0 0 0 0 0 0 0 0 0 0 0 0 0 0 0 0 0 0 0 0 0 0 0 0 0 0 0 0 0 0 0 0 0 0 0 0 0 0 0 0 0 0 0 0 0 0 0 0 0 0 0 0 0 0 0 0 0 0 0 0 0 0 0 0 0 0 0 0 0 0 0 0 0 0 0 0 0 0 0 0 0 0 0 0 
0 0 0 0 0 0 0 0 0 0 0 0 0 0 0 0 0 0 0 0 0 0 0 0 0 0 0 0 0 0 0 0 0 0 0 0 0 0 0 0 0 0 0 0 0 0 0 0 0 0 0 0 0 0 0 0 0 0 0 0 0 0 0 0 0 0 0 0 0 0 0 0 0 0 0 0 0 0 0 0 0 0 0 0 0 0 0 0 0 0 0 0 0 0 0 0 0 0 0 0 0 0 0 47 67 44 40 46 56 70 101 94 55 56 62 46 41 43 43 46 45 42 44 46 44 45 48 47 47 45 45 44 44 46 51 44 43 45 44 43 44 45 44 46 62 82 103 124 128 125 113 88 72 73 76 74 79 85 80 83 84 89 100 106 110 115 124 129 125 114 115 120 115 102 65 94 147 134 106 89 81 63 87 138 193 195 175 185 190 194 203 215 219 199 147 110 110 134 163 128 15 0 0 0 0 0 0 0 0 0 0 0 0 0 0 0 0 0 0 0 0 0 0 0 0 0 0 0 0 0 0 0 0 0 0 0 0 0 0 0 0 0 0 0 0 0 0 0 0 0 0 0 0 0 0 0 0 0 0 0 0 0 0 0 0 0 0 0 0 0 0 0 0 0 0 0 0 0 0 0 0 0 0 0 0 0 0 0 0 0 0 0 0 0 0 0 0 0 0 0 0 0 0 0 0 0 0 0 0 0 0 0 0 0 0 0 0 0 0 0 0 0 0 0 0 0 0 0 0 0 0 0 0 0 0 0 0 0 0 0 0 0 0 0 0 0 0 0 0 0 0 0 0 0 0 0 0 0 0 
0 0 0 0 0 0 0 0 0 0 0 0 0 0 0 0 0 0 0 0 0 0 0 0 0 0 0 0 0 0 0 0 0 0 0 0 0 0 0 0 0 0 0 0 0 0 0 0 0 0 0 0 0 0 0 0 0 0 0 0 0 0 0 0 0 0 0 0 0 0 0 0 0 0 0 0 0 0 0 0 0 0 0 0 0 0 0 0 0 0 0 0 0 0 0 0 0 0 0 0 0 0 62 58 42 43 44 57 78 97 96 55 42 60 72 50 39 42 47 45 43 43 43 46 46 44 48 45 47 44 45 45 48 45 45 45 46 46 43 43 45 44 44 45 55 74 98 119 120 126 117 84 73 70 71 72 75 84 83 82 86 85 90 100 108 114 116 122 122 117 119 124 123 117 94 80 116 121 138 133 99 75 68 79 139 190 182 161 176 185 194 207 214 220 211 174 122 105 127 152 148 51 0 0 0 0 0 0 0 0 0 0 0 0 0 0 0 0 0 0 0 0 0 0 0 0 0 0 0 0 0 0 0 0 0 0 0 0 0 0 0 0 0 0 0 0 0 0 0 0 0 0 0 0 0 0 0 0 0 0 0 0 0 0 0 0 0 0 0 0 0 0 0 0 0 0 0 0 0 0 0 0 0 0 0 0 0 0 0 0 0 0 0 0 0 0 0 0 0 0 0 0 0 0 0 0 0 0 0 0 0 0 0 0 0 0 0 0 0 0 0 0 0 0 0 0 0 0 0 0 0 0 0 0 0 0 0 0 0 0 0 0 0 0 0 0 0 0 0 0 0 0 0 0 0 0 0 0 0 
0 0 0 0 0 0 0 0 0 0 0 0 0 0 0 0 0 0 0 0 0 0 0 0 0 0 0 0 0 0 0 0 0 0 0 0 0 0 0 0 0 0 0 0 0 0 0 0 0 0 0 0 0 0 0 0 0 0 0 0 0 0 0 0 0 0 0 0 0 0 0 0 0 0 0 0 0 0 0 0 0 0 0 0 0 0 0 0 0 0 0 0 0 0 0 0 0 0 0 0 2 63 56 42 46 52 61 81 94 95 58 43 47 59 56 46 44 46 45 42 42 43 43 46 47 43 47 45 43 43 44 45 50 46 44 44 45 45 42 43 45 44 44 45 53 68 93 114 119 125 117 80 69 65 68 65 68 71 76 75 79 87 89 91 100 107 109 112 116 120 119 114 115 115 113 92 70 96 140 143 119 102 79 63 83 145 187 175 166 180 183 195 203 208 214 211 188 140 110 117 140 165 80 0 0 0 0 0 0 0 0 0 0 0 0 0 0 0 0 0 0 0 0 0 0 0 0 0 0 0 0 0 0 0 0 0 0 0 0 0 0 0 0 0 0 0 0 0 0 0 0 0 0 0 0 0 0 0 0 0 0 0 0 0 0 0 0 0 0 0 0 0 0 0 0 0 0 0 0 0 0 0 0 0 0 0 0 0 0 0 0 0 0 0 0 0 0 0 0 0 0 0 0 0 0 0 0 0 0 0 0 0 0 0 0 0 0 0 0 0 0 0 0 0 0 0 0 0 0 0 0 0 0 0 0 0 0 0 0 0 0 0 0 0 0 0 0 0 0 0 0 0 0 0 0 0 0 0 0 
0 0 0 0 0 0 0 0 0 0 0 0 0 0 0 0 0 0 0 0 0 0 0 0 0 0 0 0 0 0 0 0 0 0 0 0 0 0 0 0 0 0 0 0 0 0 0 0 0 0 0 0 0 0 0 0 0 0 0 0 0 0 0 0 0 0 0 0 0 0 0 0 0 0 0 0 0 0 0 0 0 0 0 0 0 0 0 0 0 0 0 0 0 0 0 0 0 0 0 9 66 51 41 41 46 69 81 82 94 68 43 45 50 50 43 46 46 43 42 43 45 45 48 47 43 42 43 45 45 44 43 43 44 44 43 44 45 43 42 43 46 46 45 45 53 66 89 107 118 122 112 82 60 52 59 62 63 65 65 65 68 78 81 84 88 94 103 106 108 112 112 113 115 112 113 105 89 76 96 137 123 129 101 73 58 102 152 183 180 165 173 181 194 204 202 204 210 206 158 113 116 139 166 89 0 0 0 0 0 0 0 0 0 0 0 0 0 0 0 0 0 0 0 0 0 0 0 0 0 0 0 0 0 0 0 0 0 0 0 0 0 0 0 0 0 0 0 0 0 0 0 0 0 0 0 0 0 0 0 0 0 0 0 0 0 0 0 0 0 0 0 0 0 0 0 0 0 0 0 0 0 0 0 0 0 0 0 0 0 0 0 0 0 0 0 0 0 0 0 0 0 0 0 0 0 0 0 0 0 0 0 0 0 0 0 0 0 0 0 0 0 0 0 0 0 0 0 0 0 0 0 0 0 0 0 0 0 0 0 0 0 0 0 0 0 0 0 0 0 0 0 0 0 0 0 0 0 0 0 
0 0 0 0 0 0 0 0 0 0 0 0 0 0 0 0 0 0 0 0 0 0 0 0 0 0 0 0 0 0 0 0 0 0 0 0 0 0 0 0 0 0 0 0 0 0 0 0 0 0 0 0 0 0 0 0 0 0 0 0 0 0 0 0 0 0 0 0 0 0 0 0 0 0 0 0 0 0 0 0 0 0 0 0 0 0 0 0 0 0 0 0 0 0 0 0 0 0 15 66 47 40 40 47 68 85 78 84 76 46 54 61 57 48 50 54 44 43 45 45 48 48 50 46 42 45 44 43 47 44 44 44 43 42 43 43 43 42 43 44 44 45 44 44 56 65 75 106 123 120 112 78 57 51 54 63 60 64 64 66 62 64 72 81 85 84 90 100 105 106 105 110 113 108 109 105 107 89 65 113 146 132 119 86 61 77 104 152 186 169 167 172 179 190 191 196 194 206 211 169 124 114 129 154 115 0 0 0 0 0 0 0 0 0 0 0 0 0 0 0 0 0 0 0 0 0 0 0 0 0 0 0 0 0 0 0 0 0 0 0 0 0 0 0 0 0 0 0 0 0 0 0 0 0 0 0 0 0 0 0 0 0 0 0 0 0 0 0 0 0 0 0 0 0 0 0 0 0 0 0 0 0 0 0 0 0 0 0 0 0 0 0 0 0 0 0 0 0 0 0 0 0 0 0 0 0 0 0 0 0 0 0 0 0 0 0 0 0 0 0 0 0 0 0 0 0 0 0 0 0 0 0 0 0 0 0 0 0 0 0 0 0 0 0 0 0 0 0 0 0 0 0 0 0 0 0 0 0 0 
0 0 0 0 0 0 0 0 0 0 0 0 0 0 0 0 0 0 0 0 0 0 0 0 0 0 0 0 0 0 0 0 0 0 0 0 0 0 0 0 0 0 0 0 0 0 0 0 0 0 0 0 0 0 0 0 0 0 0 0 0 0 0 0 0 0 0 0 0 0 0 0 0 0 0 0 0 0 0 0 0 0 0 0 0 0 0 0 0 0 0 0 0 0 0 0 0 17 65 45 46 40 45 72 89 76 77 80 49 44 61 72 64 52 63 58 43 43 45 45 45 47 44 43 44 48 45 44 45 43 44 43 43 45 48 43 44 46 46 48 45 45 48 45 48 61 87 117 118 119 117 83 70 57 49 55 57 63 67 61 69 74 65 70 76 83 86 87 97 104 104 105 105 106 104 111 109 108 79 67 119 129 143 125 71 56 73 113 163 180 157 168 174 175 181 176 182 185 200 212 178 125 115 126 155 127 0 0 0 0 0 0 0 0 0 0 0 0 0 0 0 0 0 0 0 0 0 0 0 0 0 0 0 0 0 0 0 0 0 0 0 0 0 0 0 0 0 0 0 0 0 0 0 0 0 0 0 0 0 0 0 0 0 0 0 0 0 0 0 0 0 0 0 0 0 0 0 0 0 0 0 0 0 0 0 0 0 0 0 0 0 0 0 0 0 0 0 0 0 0 0 0 0 0 0 0 0 0 0 0 0 0 0 0 0 0 0 0 0 0 0 0 0 0 0 0 0 0 0 0 0 0 0 0 0 0 0 0 0 0 0 0 0 0 0 0 0 0 0 0 0 0 0 0 0 0 0 0 0 
0 0 0 0 0 0 0 0 0 0 0 0 0 0 0 0 0 0 0 0 0 0 0 0 0 0 0 0 0 0 0 0 0 0 0 0 0 0 0 0 0 0 0 0 0 0 0 0 0 0 0 0 0 0 0 0 0 0 0 0 0 0 0 0 0 0 0 0 0 0 0 0 0 0 0 0 0 0 0 0 0 0 0 0 0 0 0 0 0 0 0 0 0 0 0 0 18 66 57 66 63 50 72 92 87 75 81 54 45 64 63 55 58 63 61 48 41 41 42 43 42 45 45 44 44 45 45 47 47 44 44 43 43 45 47 51 63 55 42 47 55 53 47 50 49 50 75 112 123 117 115 82 63 53 50 49 53 56 61 55 65 66 58 59 66 76 84 88 86 92 103 104 109 103 100 111 117 112 104 80 69 126 158 144 88 59 77 97 117 166 169 151 171 180 189 183 170 172 183 208 218 183 130 119 132 159 127 0 0 0 0 0 0 0 0 0 0 0 0 0 0 0 0 0 0 0 0 0 0 0 0 0 0 0 0 0 0 0 0 0 0 0 0 0 0 0 0 0 0 0 0 0 0 0 0 0 0 0 0 0 0 0 0 0 0 0 0 0 0 0 0 0 0 0 0 0 0 0 0 0 0 0 0 0 0 0 0 0 0 0 0 0 0 0 0 0 0 0 0 0 0 0 0 0 0 0 0 0 0 0 0 0 0 0 0 0 0 0 0 0 0 0 0 0 0 0 0 0 0 0 0 0 0 0 0 0 0 0 0 0 0 0 0 0 0 0 0 0 0 0 0 0 0 0 0 0 0 0 0 
0 0 0 0 0 0 0 0 0 0 0 0 0 0 0 0 0 0 0 0 0 0 0 0 0 0 0 0 0 0 0 0 0 0 0 0 0 0 0 0 0 0 0 0 0 0 0 0 0 0 0 0 0 0 0 0 0 0 0 0 0 0 0 0 0 0 0 0 0 0 0 0 0 0 0 0 0 0 0 0 0 0 0 0 0 0 0 0 0 0 0 0 0 0 0 19 66 53 65 63 58 72 92 91 78 78 74 44 52 77 62 46 68 73 49 44 45 45 45 49 44 45 50 47 44 42 42 43 43 45 43 43 43 43 45 51 50 45 42 42 52 52 44 53 50 49 66 100 126 119 110 78 65 63 60 64 61 55 62 52 55 52 54 54 62 67 70 81 86 89 95 102 106 99 98 112 111 114 122 109 58 74 171 168 109 66 75 72 86 134 172 157 152 170 180 189 186 165 174 203 219 219 186 137 125 128 159 121 0 0 0 0 0 0 0 0 0 0 0 0 0 0 0 0 0 0 0 0 0 0 0 0 0 0 0 0 0 0 0 0 0 0 0 0 0 0 0 0 0 0 0 0 0 0 0 0 0 0 0 0 0 0 0 0 0 0 0 0 0 0 0 0 0 0 0 0 0 0 0 0 0 0 0 0 0 0 0 0 0 0 0 0 0 0 0 0 0 0 0 0 0 0 0 0 0 0 0 0 0 0 0 0 0 0 0 0 0 0 0 0 0 0 0 0 0 0 0 0 0 0 0 0 0 0 0 0 0 0 0 0 0 0 0 0 0 0 0 0 0 0 0 0 0 0 0 0 0 0 0 
0 0 0 0 0 0 0 0 0 0 0 0 0 0 0 0 0 0 0 0 0 0 0 0 0 0 0 0 0 0 0 0 0 0 0 0 0 0 0 0 0 0 0 0 0 0 0 0 0 0 0 0 0 0 0 0 0 0 0 0 0 0 0 0 0 0 0 0 0 0 0 0 0 0 0 0 0 0 0 0 0 0 0 0 0 0 0 0 0 0 0 0 0 0 16 69 50 58 64 53 74 88 86 77 74 77 49 50 62 55 47 51 60 52 51 48 47 55 52 50 44 43 47 47 44 42 42 42 44 46 43 44 47 45 43 44 43 43 43 50 56 55 55 50 48 60 61 88 121 121 117 81 62 61 50 67 62 47 56 50 53 56 60 56 53 59 65 66 72 81 91 110 93 97 86 92 94 90 116 112 90 58 96 152 139 106 86 62 61 99 150 168 149 145 161 175 181 181 166 188 207 212 212 185 133 122 132 160 114 0 0 0 0 0 0 0 0 0 0 0 0 0 0 0 0 0 0 0 0 0 0 0 0 0 0 0 0 0 0 0 0 0 0 0 0 0 0 0 0 0 0 0 0 0 0 0 0 0 0 0 0 0 0 0 0 0 0 0 0 0 0 0 0 0 0 0 0 0 0 0 0 0 0 0 0 0 0 0 0 0 0 0 0 0 0 0 0 0 0 0 0 0 0 0 0 0 0 0 0 0 0 0 0 0 0 0 0 0 0 0 0 0 0 0 0 0 0 0 0 0 0 0 0 0 0 0 0 0 0 0 0 0 0 0 0 0 0 0 0 0 0 0 0 0 0 0 0 0 0 
0 0 0 0 0 0 0 0 0 0 0 0 0 0 0 0 0 0 0 0 0 0 0 0 0 0 0 0 0 0 0 0 0 0 0 0 0 0 0 0 0 0 0 0 0 0 0 0 0 0 0 0 0 0 0 0 0 0 0 0 0 0 0 0 0 0 0 0 0 0 0 0 0 0 0 0 0 0 0 0 0 0 0 0 0 0 0 0 0 0 0 0 0 11 62 54 62 58 52 74 87 84 76 68 78 56 47 75 87 68 59 72 61 42 46 50 50 48 44 44 48 45 43 49 45 44 44 44 48 42 45 47 50 49 45 49 55 48 42 52 54 50 71 73 61 67 70 86 115 128 124 80 61 58 48 47 48 50 49 50 49 51 60 55 51 51 59 63 65 71 82 99 96 100 97 97 97 94 104 103 109 78 53 102 152 147 112 69 54 87 117 152 168 147 147 163 163 175 176 158 176 199 207 208 181 131 129 140 158 89 0 0 0 0 0 0 0 0 0 0 0 0 0 0 0 0 0 0 0 0 0 0 0 0 0 0 0 0 0 0 0 0 0 0 0 0 0 0 0 0 0 0 0 0 0 0 0 0 0 0 0 0 0 0 0 0 0 0 0 0 0 0 0 0 0 0 0 0 0 0 0 0 0 0 0 0 0 0 0 0 0 0 0 0 0 0 0 0 0 0 0 0 0 0 0 0 0 0 0 0 0 0 0 0 0 0 0 0 0 0 0 0 0 0 0 0 0 0 0 0 0 0 0 0 0 0 0 0 0 0 0 0 0 0 0 0 0 0 0 0 0 0 0 0 0 0 0 0 0 
0 0 0 0 0 0 0 0 0 0 0 0 0 0 0 0 0 0 0 0 0 0 0 0 0 0 0 0 0 0 0 0 0 0 0 0 0 0 0 0 0 0 0 0 0 0 0 0 0 0 0 0 0 0 0 0 0 0 0 0 0 0 0 0 0 0 0 0 0 0 0 0 0 0 0 0 0 0 0 0 0 0 0 0 0 0 0 0 0 0 0 0 7 64 54 48 61 57 70 92 82 75 63 75 69 43 65 89 90 76 58 63 57 48 45 50 50 47 43 43 47 48 47 57 47 45 48 42 46 48 48 46 46 63 58 63 85 73 49 48 46 45 79 124 119 69 67 91 118 126 116 81 58 55 55 48 60 58 47 52 55 45 49 50 49 55 54 59 70 73 74 87 96 98 108 113 115 107 104 105 102 105 71 62 130 164 143 85 69 70 88 134 172 176 155 152 154 157 164 166 160 178 201 206 208 178 130 131 137 158 74 0 0 0 0 0 0 0 0 0 0 0 0 0 0 0 0 0 0 0 0 0 0 0 0 0 0 0 0 0 0 0 0 0 0 0 0 0 0 0 0 0 0 0 0 0 0 0 0 0 0 0 0 0 0 0 0 0 0 0 0 0 0 0 0 0 0 0 0 0 0 0 0 0 0 0 0 0 0 0 0 0 0 0 0 0 0 0 0 0 0 0 0 0 0 0 0 0 0 0 0 0 0 0 0 0 0 0 0 0 0 0 0 0 0 0 0 0 0 0 0 0 0 0 0 0 0 0 0 0 0 0 0 0 0 0 0 0 0 0 0 0 0 0 0 0 0 0 0 
0 0 0 0 0 0 0 0 0 0 0 0 0 0 0 0 0 0 0 0 0 0 0 0 0 0 0 0 0 0 0 0 0 0 0 0 0 0 0 0 0 0 0 0 0 0 0 0 0 0 0 0 0 0 0 0 0 0 0 0 0 0 0 0 0 0 0 0 0 0 0 0 0 0 0 0 0 0 0 0 0 0 0 0 0 0 0 0 0 0 0 1 56 58 64 61 53 73 89 83 77 62 63 78 50 45 85 118 95 69 66 60 53 48 48 55 50 47 46 51 47 44 44 48 50 44 45 49 44 54 56 49 58 71 78 71 81 81 59 43 43 55 116 136 88 62 55 92 129 133 121 103 56 49 55 53 54 49 51 47 52 64 64 47 47 55 56 58 66 62 73 91 95 98 96 92 102 96 103 101 97 109 98 62 76 123 138 103 85 75 72 120 159 178 166 147 156 165 160 167 174 167 185 205 212 207 176 139 133 145 156 48 0 0 0 0 0 0 0 0 0 0 0 0 0 0 0 0 0 0 0 0 0 0 0 0 0 0 0 0 0 0 0 0 0 0 0 0 0 0 0 0 0 0 0 0 0 0 0 0 0 0 0 0 0 0 0 0 0 0 0 0 0 0 0 0 0 0 0 0 0 0 0 0 0 0 0 0 0 0 0 0 0 0 0 0 0 0 0 0 0 0 0 0 0 0 0 0 0 0 0 0 0 0 0 0 0 0 0 0 0 0 0 0 0 0 0 0 0 0 0 0 0 0 0 0 0 0 0 0 0 0 0 0 0 0 0 0 0 0 0 0 0 0 0 0 0 0 0 
0 0 0 0 0 0 0 0 0 0 0 0 0 0 0 0 0 0 0 0 0 0 0 0 0 0 0 0 0 0 0 0 0 0 0 0 0 0 0 0 0 0 0 0 0 0 0 0 0 0 0 0 0 0 0 0 0 0 0 0 0 0 0 0 0 0 0 0 0 0 0 0 0 0 0 0 0 0 0 0 0 0 0 0 0 0 0 0 0 0 2 54 55 46 58 60 69 83 80 72 70 65 81 63 42 62 102 111 69 78 89 61 46 43 61 56 42 42 44 50 51 47 42 44 49 51 48 52 54 52 56 60 49 51 71 73 70 72 51 42 44 60 89 114 109 70 48 74 120 136 124 101 63 73 57 59 54 48 50 52 61 64 54 43 45 53 56 55 57 62 84 82 79 103 107 99 92 92 119 118 99 104 95 83 80 136 132 123 118 70 59 103 134 167 180 153 146 158 159 152 170 169 161 198 210 215 203 161 134 127 146 152 20 0 0 0 0 0 0 0 0 0 0 0 0 0 0 0 0 0 0 0 0 0 0 0 0 0 0 0 0 0 0 0 0 0 0 0 0 0 0 0 0 0 0 0 0 0 0 0 0 0 0 0 0 0 0 0 0 0 0 0 0 0 0 0 0 0 0 0 0 0 0 0 0 0 0 0 0 0 0 0 0 0 0 0 0 0 0 0 0 0 0 0 0 0 0 0 0 0 0 0 0 0 0 0 0 0 0 0 0 0 0 0 0 0 0 0 0 0 0 0 0 0 0 0 0 0 0 0 0 0 0 0 0 0 0 0 0 0 0 0 0 0 0 0 0 0 0 
0 0 0 0 0 0 0 0 0 0 0 0 0 0 0 0 0 0 0 0 0 0 0 0 0 0 0 0 0 0 0 0 0 0 0 0 0 0 0 0 0 0 0 0 0 0 0 0 0 0 0 0 0 0 0 0 0 0 0 0 0 0 0 0 0 0 0 0 0 0 0 0 0 0 0 0 0 0 0 0 0 0 0 0 0 0 0 0 0 1 43 73 57 54 63 71 81 74 75 69 68 75 78 46 55 96 121 78 71 100 72 58 58 53 54 49 43 45 51 53 62 65 47 44 45 56 61 59 57 50 56 73 58 65 78 76 70 61 54 44 52 62 94 126 127 82 49 78 127 139 114 93 82 93 66 58 75 60 49 52 59 54 57 45 49 52 56 66 64 68 73 78 81 93 116 104 96 113 113 102 111 112 98 90 79 78 109 135 122 72 52 78 117 140 177 166 146 152 155 148 156 177 170 186 197 206 215 200 160 133 136 150 129 7 0 0 0 0 0 0 0 0 0 0 0 0 0 0 0 0 0 0 0 0 0 0 0 0 0 0 0 0 0 0 0 0 0 0 0 0 0 0 0 0 0 0 0 0 0 0 0 0 0 0 0 0 0 0 0 0 0 0 0 0 0 0 0 0 0 0 0 0 0 0 0 0 0 0 0 0 0 0 0 0 0 0 0 0 0 0 0 0 0 0 0 0 0 0 0 0 0 0 0 0 0 0 0 0 0 0 0 0 0 0 0 0 0 0 0 0 0 0 0 0 0 0 0 0 0 0 0 0 0 0 0 0 0 0 0 0 0 0 0 0 0 0 0 0 0 
0 0 0 0 0 0 0 0 0 0 0 0 0 0 0 0 0 0 0 0 0 0 0 0 0 0 0 0 0 0 0 0 0 0 0 0 0 0 0 0 0 0 0 0 0 0 0 0 0 0 0 0 0 0 0 0 0 0 0 0 0 0 0 0 0 0 0 0 0 0 0 0 0 0 0 0 0 0 0 0 0 0 0 0 0 0 0 0 0 30 60 57 62 56 64 83 85 77 72 67 68 78 61 43 84 123 101 61 96 85 59 63 57 62 54 47 50 50 62 70 71 68 60 62 66 57 67 60 60 58 60 71 70 71 70 83 77 66 52 49 52 50 89 139 130 81 46 68 119 136 129 111 80 65 76 72 63 64 67 57 59 46 62 62 47 46 56 70 62 59 61 65 87 85 106 110 99 121 109 97 85 99 121 100 81 72 93 127 143 109 52 60 94 123 157 172 156 154 159 158 155 167 173 177 193 201 215 207 188 143 127 135 161 99 1 0 0 0 0 0 0 0 0 0 0 0 0 0 0 0 0 0 0 0 0 0 0 0 0 0 0 0 0 0 0 0 0 0 0 0 0 0 0 0 0 0 0 0 0 0 0 0 0 0 0 0 0 0 0 0 0 0 0 0 0 0 0 0 0 0 0 0 0 0 0 0 0 0 0 0 0 0 0 0 0 0 0 0 0 0 0 0 0 0 0 0 0 0 0 0 0 0 0 0 0 0 0 0 0 0 0 0 0 0 0 0 0 0 0 0 0 0 0 0 0 0 0 0 0 0 0 0 0 0 0 0 0 0 0 0 0 0 0 0 0 0 0 0 0 
0 0 0 0 0 0 0 0 0 0 0 0 0 0 0 0 0 0 0 0 0 0 0 0 0 0 0 0 0 0 0 0 0 0 0 0 0 0 0 0 0 0 0 0 0 0 0 0 0 0 0 0 0 0 0 0 0 0 0 0 0 0 0 0 0 0 0 0 0 0 0 0 0 0 0 0 0 0 0 0 0 0 0 0 0 0 0 0 17 64 44 43 49 59 80 84 77 72 68 63 67 71 44 60 107 112 70 70 98 66 44 53 58 60 55 52 50 54 60 67 64 61 73 79 68 54 68 71 61 68 65 62 71 64 65 87 77 71 58 46 52 62 91 127 141 92 49 61 106 128 137 113 59 52 63 65 57 73 87 62 55 52 54 55 45 43 46 59 60 57 65 67 76 99 94 94 108 103 108 112 90 101 111 111 85 81 65 96 133 126 94 59 59 107 133 168 173 155 155 159 159 159 162 170 182 194 204 205 202 179 133 132 138 157 60 0 0 0 0 0 0 0 0 0 0 0 0 0 0 0 0 0 0 0 0 0 0 0 0 0 0 0 0 0 0 0 0 0 0 0 0 0 0 0 0 0 0 0 0 0 0 0 0 0 0 0 0 0 0 0 0 0 0 0 0 0 0 0 0 0 0 0 0 0 0 0 0 0 0 0 0 0 0 0 0 0 0 0 0 0 0 0 0 0 0 0 0 0 0 0 0 0 0 0 0 0 0 0 0 0 0 0 0 0 0 0 0 0 0 0 0 0 0 0 0 0 0 0 0 0 0 0 0 0 0 0 0 0 0 0 0 0 0 0 0 0 0 0 0 
0 0 0 0 0 0 0 0 0 0 0 0 0 0 0 0 0 0 0 0 0 0 0 0 0 0 0 0 0 0 0 0 0 0 0 0 0 0 0 0 0 0 0 0 0 0 0 0 0 0 0 0 0 0 0 0 0 0 0 0 0 0 0 0 0 0 0 0 0 0 0 0 0 0 0 0 0 0 0 0 0 0 0 0 0 0 0 3 63 49 44 43 52 80 89 75 71 65 64 64 73 57 40 90 122 112 73 99 104 66 54 65 85 67 47 48 49 60 61 51 62 71 50 65 69 66 69 78 75 74 75 82 79 84 65 71 70 71 69 53 48 72 92 125 164 109 51 52 103 128 135 120 59 50 70 98 76 89 70 51 56 61 47 45 45 43 46 51 47 50 64 67 66 105 107 90 91 86 85 86 100 112 88 101 109 80 61 78 127 125 101 67 50 79 120 153 169 155 150 152 158 160 165 170 182 179 188 197 201 207 166 129 129 140 153 20 0 0 0 0 0 0 0 0 0 0 0 0 0 0 0 0 0 0 0 0 0 0 0 0 0 0 0 0 0 0 0 0 0 0 0 0 0 0 0 0 0 0 0 0 0 0 0 0 0 0 0 0 0 0 0 0 0 0 0 0 0 0 0 0 0 0 0 0 0 0 0 0 0 0 0 0 0 0 0 0 0 0 0 0 0 0 0 0 0 0 0 0 0 0 0 0 0 0 0 0 0 0 0 0 0 0 0 0 0 0 0 0 0 0 0 0 0 0 0 0 0 0 0 0 0 0 0 0 0 0 0 0 0 0 0 0 0 0 0 0 0 0 0 
0 0 0 0 0 0 0 0 0 0 0 0 0 0 0 0 0 0 0 0 0 0 0 0 0 0 0 0 0 0 0 0 0 0 0 0 0 0 0 0 0 0 0 0 0 0 0 0 0 0 0 0 0 0 0 0 0 0 0 0 0 0 0 0 0 0 0 0 0 0 0 0 0 0 0 0 0 0 0 0 0 0 0 0 0 0 0 36 58 46 66 66 71 85 79 73 69 63 70 70 73 44 47 144 152 90 73 119 94 69 67 62 62 64 51 55 69 77 65 55 61 63 60 58 74 96 92 64 84 81 87 87 94 91 75 95 90 74 84 72 52 62 100 147 152 109 60 61 112 117 120 115 61 63 65 84 83 86 67 66 59 63 62 49 45 46 45 45 48 61 59 59 60 82 106 108 87 100 83 87 115 118 117 127 101 85 78 72 110 116 89 90 59 56 104 143 163 161 154 150 156 156 161 160 171 169 176 185 197 201 200 156 129 129 152 121 5 0 0 0 0 0 0 0 0 0 0 0 0 0 0 0 0 0 0 0 0 0 0 0 0 0 0 0 0 0 0 0 0 0 0 0 0 0 0 0 0 0 0 0 0 0 0 0 0 0 0 0 0 0 0 0 0 0 0 0 0 0 0 0 0 0 0 0 0 0 0 0 0 0 0 0 0 0 0 0 0 0 0 0 0 0 0 0 0 0 0 0 0 0 0 0 0 0 0 0 0 0 0 0 0 0 0 0 0 0 0 0 0 0 0 0 0 0 0 0 0 0 0 0 0 0 0 0 0 0 0 0 0 0 0 0 0 0 0 0 0 0 0 
0 0 0 0 0 0 0 0 0 0 0 0 0 0 0 0 0 0 0 0 0 0 0 0 0 0 0 0 0 0 0 0 0 0 0 0 0 0 0 0 0 0 0 0 0 0 0 0 0 0 0 0 0 0 0 0 0 0 0 0 0 0 0 0 0 0 0 0 0 0 0 0 0 0 0 0 0 0 0 0 0 0 0 0 0 0 21 60 46 42 56 73 83 82 75 71 66 65 63 71 63 42 98 176 136 77 89 119 72 57 58 60 65 63 58 54 63 69 62 66 75 65 73 71 60 85 81 75 91 76 98 104 87 85 93 109 104 93 82 57 46 59 98 140 147 109 66 65 94 120 125 114 67 45 52 81 79 60 66 64 55 77 75 52 50 49 46 56 68 78 63 60 66 72 81 91 95 120 103 124 121 106 132 126 99 105 98 74 75 94 94 80 64 51 78 123 149 172 162 150 151 154 157 157 160 152 169 186 201 199 204 190 135 126 137 153 68 0 0 0 0 0 0 0 0 0 0 0 0 0 0 0 0 0 0 0 0 0 0 0 0 0 0 0 0 0 0 0 0 0 0 0 0 0 0 0 0 0 0 0 0 0 0 0 0 0 0 0 0 0 0 0 0 0 0 0 0 0 0 0 0 0 0 0 0 0 0 0 0 0 0 0 0 0 0 0 0 0 0 0 0 0 0 0 0 0 0 0 0 0 0 0 0 0 0 0 0 0 0 0 0 0 0 0 0 0 0 0 0 0 0 0 0 0 0 0 0 0 0 0 0 0 0 0 0 0 0 0 0 0 0 0 0 0 0 0 0 0 0 
0 0 0 0 0 0 0 0 0 0 0 0 0 0 0 0 0 0 0 0 0 0 0 0 0 0 0 0 0 0 0 0 0 0 0 0 0 0 0 0 0 0 0 0 0 0 0 0 0 0 0 0 0 0 0 0 0 0 0 0 0 0 0 0 0 0 0 0 0 0 0 0 0 0 0 0 0 0 0 0 0 0 0 0 0 4 64 53 44 49 58 79 85 78 75 74 71 67 61 77 53 47 132 139 98 77 126 117 63 55 60 75 78 56 54 67 75 76 69 69 73 64 63 84 80 78 81 102 103 97 116 103 81 87 106 112 111 104 79 56 44 53 82 153 173 113 61 56 82 113 135 114 72 49 65 71 79 56 66 61 76 85 60 50 61 53 47 64 70 59 58 60 67 79 82 86 97 102 108 123 112 106 128 134 127 112 96 75 77 100 115 101 78 67 64 90 131 165 168 153 150 150 151 153 157 158 158 179 199 207 206 206 163 130 129 140 141 18 0 0 0 0 0 0 0 0 0 0 0 0 0 0 0 0 0 0 0 0 0 0 0 0 0 0 0 0 0 0 0 0 0 0 0 0 0 0 0 0 0 0 0 0 0 0 0 0 0 0 0 0 0 0 0 0 0 0 0 0 0 0 0 0 0 0 0 0 0 0 0 0 0 0 0 0 0 0 0 0 0 0 0 0 0 0 0 0 0 0 0 0 0 0 0 0 0 0 0 0 0 0 0 0 0 0 0 0 0 0 0 0 0 0 0 0 0 0 0 0 0 0 0 0 0 0 0 0 0 0 0 0 0 0 0 0 0 0 0 0 0 
0 0 0 0 0 0 0 0 0 0 0 0 0 0 0 0 0 0 0 0 0 0 0 0 0 0 0 0 0 0 0 0 0 0 0 0 0 0 0 0 0 0 0 0 0 0 0 0 0 0 0 0 0 0 0 0 0 0 0 0 0 0 0 0 0 0 0 0 0 0 0 0 0 0 0 0 0 0 0 0 0 0 0 0 1 39 61 41 40 57 79 85 82 78 74 71 65 65 76 76 44 69 135 97 98 88 119 91 71 58 69 90 74 50 60 84 79 70 64 66 63 69 79 67 88 89 101 106 104 117 107 112 113 102 117 105 104 123 102 50 52 52 66 146 182 141 69 48 78 110 122 112 81 63 70 73 66 61 67 91 90 64 56 59 73 60 51 60 63 61 64 78 72 67 93 90 98 117 113 88 97 94 113 121 119 107 107 95 56 72 111 112 94 69 63 82 127 155 169 156 146 150 150 154 157 162 167 167 178 201 203 204 185 149 131 130 142 107 2 0 0 0 0 0 0 0 0 0 0 0 0 0 0 0 0 0 0 0 0 0 0 0 0 0 0 0 0 0 0 0 0 0 0 0 0 0 0 0 0 0 0 0 0 0 0 0 0 0 0 0 0 0 0 0 0 0 0 0 0 0 0 0 0 0 0 0 0 0 0 0 0 0 0 0 0 0 0 0 0 0 0 0 0 0 0 0 0 0 0 0 0 0 0 0 0 0 0 0 0 0 0 0 0 0 0 0 0 0 0 0 0 0 0 0 0 0 0 0 0 0 0 0 0 0 0 0 0 0 0 0 0 0 0 0 0 0 0 0 0 
0 0 0 0 0 0 0 0 0 0 0 0 0 0 0 0 0 0 0 0 0 0 0 0 0 0 0 0 0 0 0 0 0 0 0 0 0 0 0 0 0 0 0 0 0 0 0 0 0 0 0 0 0 0 0 0 0 0 0 0 0 0 0 0 0 0 0 0 0 0 0 0 0 0 0 0 0 0 0 0 0 0 0 0 13 69 44 37 46 72 89 83 77 76 69 70 64 65 90 59 42 111 135 96 104 124 105 74 77 75 64 71 69 56 68 89 87 76 75 85 74 73 73 83 106 86 110 116 114 100 94 112 131 114 104 114 119 129 122 77 54 50 53 138 179 154 110 67 95 103 110 116 75 51 69 52 72 86 65 82 76 69 54 59 58 53 61 65 70 70 69 81 72 70 75 74 95 115 108 90 90 87 103 94 118 115 106 117 79 59 75 89 89 85 71 77 109 138 161 157 148 145 148 148 148 150 162 161 163 184 190 191 197 168 138 128 130 149 46 0 0 0 0 0 0 0 0 0 0 0 0 0 0 0 0 0 0 0 0 0 0 0 0 0 0 0 0 0 0 0 0 0 0 0 0 0 0 0 0 0 0 0 0 0 0 0 0 0 0 0 0 0 0 0 0 0 0 0 0 0 0 0 0 0 0 0 0 0 0 0 0 0 0 0 0 0 0 0 0 0 0 0 0 0 0 0 0 0 0 0 0 0 0 0 0 0 0 0 0 0 0 0 0 0 0 0 0 0 0 0 0 0 0 0 0 0 0 0 0 0 0 0 0 0 0 0 0 0 0 0 0 0 0 0 0 0 0 0 0 
0 0 0 0 0 0 0 0 0 0 0 0 0 0 0 0 0 0 0 0 0 0 0 0 0 0 0 0 0 0 0 0 0 0 0 0 0 0 0 0 0 0 0 0 0 0 0 0 0 0 0 0 0 0 0 0 0 0 0 0 0 0 0 0 0 0 0 0 0 0 0 0 0 0 0 0 0 0 0 0 0 0 0 2 45 60 38 40 65 85 86 82 79 70 66 70 66 72 83 46 50 121 124 120 96 130 95 62 83 93 67 56 54 69 82 79 86 77 76 84 71 65 84 92 89 88 99 108 109 108 117 111 107 108 110 127 132 119 122 112 56 41 62 113 140 160 120 67 82 95 121 132 85 48 57 54 76 76 66 74 71 78 59 51 49 59 61 67 70 59 58 64 64 71 72 79 96 100 99 101 92 103 91 87 111 123 109 93 91 67 54 89 90 83 74 69 88 119 141 155 151 139 145 148 145 147 154 163 163 170 190 196 190 177 154 127 115 133 116 11 0 0 0 0 0 0 0 0 0 0 0 0 0 0 0 0 0 0 0 0 0 0 0 0 0 0 0 0 0 0 0 0 0 0 0 0 0 0 0 0 0 0 0 0 0 0 0 0 0 0 0 0 0 0 0 0 0 0 0 0 0 0 0 0 0 0 0 0 0 0 0 0 0 0 0 0 0 0 0 0 0 0 0 0 0 0 0 0 0 0 0 0 0 0 0 0 0 0 0 0 0 0 0 0 0 0 0 0 0 0 0 0 0 0 0 0 0 0 0 0 0 0 0 0 0 0 0 0 0 0 0 0 0 0 0 0 0 0 0 
0 0 0 0 0 0 0 0 0 0 0 0 0 0 0 0 0 0 0 0 0 0 0 0 0 0 0 0 0 0 0 0 0 0 0 0 0 0 0 0 0 0 0 0 0 0 0 0 0 0 0 0 0 0 0 0 0 0 0 0 0 0 0 0 0 0 0 0 0 0 0 0 0 0 0 0 0 0 0 0 0 0 0 22 66 46 36 51 81 84 82 86 83 69 68 66 61 78 75 41 69 133 99 111 91 127 82 66 78 58 70 68 54 74 84 83 68 73 90 72 68 86 101 89 85 95 85 110 108 117 116 107 111 100 123 140 136 135 134 102 54 42 59 102 143 166 125 60 66 97 125 128 114 61 49 86 83 76 66 69 64 63 60 61 64 67 57 71 70 66 60 54 62 67 75 81 107 99 97 102 86 103 82 102 121 111 97 80 79 67 57 69 77 81 90 71 77 130 130 139 147 146 136 149 151 151 150 155 163 172 182 192 186 181 173 144 117 127 150 75 0 0 0 0 0 0 0 0 0 0 0 0 0 0 0 0 0 0 0 0 0 0 0 0 0 0 0 0 0 0 0 0 0 0 0 0 0 0 0 0 0 0 0 0 0 0 0 0 0 0 0 0 0 0 0 0 0 0 0 0 0 0 0 0 0 0 0 0 0 0 0 0 0 0 0 0 0 0 0 0 0 0 0 0 0 0 0 0 0 0 0 0 0 0 0 0 0 0 0 0 0 0 0 0 0 0 0 0 0 0 0 0 0 0 0 0 0 0 0 0 0 0 0 0 0 0 0 0 0 0 0 0 0 0 0 0 0 0 0 
0 0 0 0 0 0 0 0 0 0 0 0 0 0 0 0 0 0 0 0 0 0 0 0 0 0 0 0 0 0 0 0 0 0 0 0 0 0 0 0 0 0 0 0 0 0 0 0 0 0 0 0 0 0 0 0 0 0 0 0 0 0 0 0 0 0 0 0 0 0 0 0 0 0 0 0 0 0 0 0 0 0 3 53 55 37 41 70 90 86 85 89 76 66 69 65 65 83 69 42 100 166 105 58 97 106 72 78 76 56 61 64 65 71 67 68 55 90 107 85 102 102 102 112 94 91 99 121 109 115 118 132 127 106 146 131 128 155 133 89 53 40 42 103 186 163 102 64 58 92 116 133 127 72 53 73 70 73 68 57 51 62 62 67 68 67 59 63 67 70 66 56 64 66 74 80 98 89 90 84 88 95 102 97 109 100 92 101 91 77 70 55 69 94 81 64 66 97 121 141 142 147 141 145 150 153 148 153 160 170 179 180 184 182 171 148 127 120 139 140 18 0 0 0 0 0 0 0 0 0 0 0 0 0 0 0 0 0 0 0 0 0 0 0 0 0 0 0 0 0 0 0 0 0 0 0 0 0 0 0 0 0 0 0 0 0 0 0 0 0 0 0 0 0 0 0 0 0 0 0 0 0 0 0 0 0 0 0 0 0 0 0 0 0 0 0 0 0 0 0 0 0 0 0 0 0 0 0 0 0 0 0 0 0 0 0 0 0 0 0 0 0 0 0 0 0 0 0 0 0 0 0 0 0 0 0 0 0 0 0 0 0 0 0 0 0 0 0 0 0 0 0 0 0 0 0 0 0 0 
0 0 0 0 0 0 0 0 0 0 0 0 0 0 0 0 0 0 0 0 0 0 0 0 0 0 0 0 0 0 0 0 0 0 0 0 0 0 0 0 0 0 0 0 0 0 0 0 0 0 0 0 0 0 0 0 0 0 0 0 0 0 0 0 0 0 0 0 0 0 0 0 0 0 0 0 0 0 0 0 0 0 24 74 43 36 56 82 89 86 86 85 72 64 63 63 75 90 56 56 115 129 111 81 97 93 65 76 80 72 76 68 63 66 69 72 69 76 89 100 97 86 114 118 105 114 119 126 113 135 138 138 135 140 143 111 113 149 136 115 65 43 44 87 168 162 95 58 53 75 99 132 117 68 54 57 60 69 71 59 52 69 68 65 78 76 63 58 58 50 55 64 76 63 73 74 79 84 85 94 107 83 93 96 123 111 107 106 86 83 80 71 68 88 76 61 57 65 120 142 140 131 146 143 146 149 148 148 156 164 175 181 186 190 178 156 127 120 125 152 90 0 0 0 0 0 0 0 0 0 0 0 0 0 0 0 0 0 0 0 0 0 0 0 0 0 0 0 0 0 0 0 0 0 0 0 0 0 0 0 0 0 0 0 0 0 0 0 0 0 0 0 0 0 0 0 0 0 0 0 0 0 0 0 0 0 0 0 0 0 0 0 0 0 0 0 0 0 0 0 0 0 0 0 0 0 0 0 0 0 0 0 0 0 0 0 0 0 0 0 0 0 0 0 0 0 0 0 0 0 0 0 0 0 0 0 0 0 0 0 0 0 0 0 0 0 0 0 0 0 0 0 0 0 0 0 0 0 0 
0 0 0 0 0 0 0 0 0 0 0 0 0 0 0 0 0 0 0 0 0 0 0 0 0 0 0 0 0 0 0 0 0 0 0 0 0 0 0 0 0 0 0 0 0 0 0 0 0 0 0 0 0 0 0 0 0 0 0 0 0 0 0 0 0 0 0 0 0 0 0 0 0 0 0 0 0 0 0 0 0 2 57 65 37 43 72 88 90 82 77 75 72 69 64 65 83 86 46 68 109 96 118 111 123 104 69 79 78 65 72 69 72 82 90 81 80 72 100 97 83 97 115 122 115 130 116 123 141 137 133 139 125 127 96 87 108 132 146 127 57 45 56 77 123 156 99 51 55 75 99 108 115 71 49 53 68 87 63 59 68 86 78 64 60 65 62 43 50 54 55 73 82 67 67 64 75 84 96 91 111 89 84 97 122 105 91 106 90 78 66 66 80 96 91 68 54 58 105 131 143 132 134 132 145 146 146 143 148 156 169 175 182 192 189 172 143 132 123 131 134 23 0 0 0 0 0 0 0 0 0 0 0 0 0 0 0 0 0 0 0 0 0 0 0 0 0 0 0 0 0 0 0 0 0 0 0 0 0 0 0 0 0 0 0 0 0 0 0 0 0 0 0 0 0 0 0 0 0 0 0 0 0 0 0 0 0 0 0 0 0 0 0 0 0 0 0 0 0 0 0 0 0 0 0 0 0 0 0 0 0 0 0 0 0 0 0 0 0 0 0 0 0 0 0 0 0 0 0 0 0 0 0 0 0 0 0 0 0 0 0 0 0 0 0 0 0 0 0 0 0 0 0 0 0 0 0 0 0 
0 0 0 0 0 0 0 0 0 0 0 0 0 0 0 0 0 0 0 0 0 0 0 0 0 0 0 0 0 0 0 0 0 0 0 0 0 0 0 0 0 0 0 0 0 0 0 0 0 0 0 0 0 0 0 0 0 0 0 0 0 0 0 0 0 0 0 0 0 0 0 0 0 0 0 0 0 0 0 0 0 20 78 46 39 59 82 89 86 85 78 71 72 71 73 75 89 77 41 81 137 143 119 92 139 101 77 77 85 76 57 57 77 92 73 70 79 72 104 93 89 107 108 115 120 125 118 128 150 132 124 140 89 89 96 102 132 98 122 106 51 49 58 90 144 160 96 61 72 82 99 107 123 79 53 58 62 83 69 59 86 90 66 60 49 50 46 47 52 57 67 63 64 67 73 71 81 84 101 102 99 100 87 91 89 90 84 87 106 91 70 68 72 94 90 76 65 44 72 117 143 154 142 134 141 142 146 147 145 151 158 164 171 181 191 172 166 151 120 111 142 79 0 0 0 0 0 0 0 0 0 0 0 0 0 0 0 0 0 0 0 0 0 0 0 0 0 0 0 0 0 0 0 0 0 0 0 0 0 0 0 0 0 0 0 0 0 0 0 0 0 0 0 0 0 0 0 0 0 0 0 0 0 0 0 0 0 0 0 0 0 0 0 0 0 0 0 0 0 0 0 0 0 0 0 0 0 0 0 0 0 0 0 0 0 0 0 0 0 0 0 0 0 0 0 0 0 0 0 0 0 0 0 0 0 0 0 0 0 0 0 0 0 0 0 0 0 0 0 0 0 0 0 0 0 0 0 0 0 
0 0 0 0 0 0 0 0 0 0 0 0 0 0 0 0 0 0 0 0 0 0 0 0 0 0 0 0 0 0 0 0 0 0 0 0 0 0 0 0 0 0 0 0 0 0 0 0 0 0 0 0 0 0 0 0 0 0 0 0 0 0 0 0 0 0 0 0 0 0 0 0 0 0 0 0 0 0 0 0 2 59 64 39 55 79 87 90 87 82 76 76 72 74 79 80 93 68 42 113 164 167 111 114 123 76 78 85 87 76 53 58 74 81 70 68 68 91 96 86 106 99 103 114 93 107 117 118 115 119 133 123 118 114 109 114 124 118 118 93 68 49 49 71 122 160 151 114 68 79 104 108 119 93 53 57 65 74 65 63 80 74 73 70 58 45 46 69 54 47 61 58 58 55 75 74 76 84 89 118 120 112 117 79 74 79 94 94 104 87 79 74 61 82 81 59 56 52 74 81 122 152 147 141 140 138 140 142 143 154 155 162 166 171 178 171 173 154 125 117 137 128 23 0 0 0 0 0 0 0 0 0 0 0 0 0 0 0 0 0 0 0 0 0 0 0 0 0 0 0 0 0 0 0 0 0 0 0 0 0 0 0 0 0 0 0 0 0 0 0 0 0 0 0 0 0 0 0 0 0 0 0 0 0 0 0 0 0 0 0 0 0 0 0 0 0 0 0 0 0 0 0 0 0 0 0 0 0 0 0 0 0 0 0 0 0 0 0 0 0 0 0 0 0 0 0 0 0 0 0 0 0 0 0 0 0 0 0 0 0 0 0 0 0 0 0 0 0 0 0 0 0 0 0 0 0 0 0 0 
0 0 0 0 0 0 0 0 0 0 0 0 0 0 0 0 0 0 0 0 0 0 0 0 0 0 0 0 0 0 0 0 0 0 0 0 0 0 0 0 0 0 0 0 0 0 0 0 0 0 0 0 0 0 0 0 0 0 0 0 0 0 0 0 0 0 0 0 0 0 0 0 0 0 0 0 0 0 0 0 10 81 50 40 65 86 89 90 93 83 78 81 77 79 78 79 94 61 46 141 179 146 106 135 109 75 71 78 67 55 58 57 71 71 75 71 69 103 110 103 108 109 132 112 105 95 107 107 113 126 126 135 128 125 98 97 114 108 130 116 76 49 48 80 111 166 183 153 71 74 100 102 111 92 59 48 57 73 57 51 63 74 81 60 50 47 55 64 57 50 48 49 53 56 68 71 81 84 78 103 100 86 136 83 70 81 95 101 95 86 76 74 69 69 82 80 74 58 56 64 111 135 136 139 136 135 138 139 140 149 155 156 161 161 175 172 168 161 140 118 119 138 76 0 0 0 0 0 0 0 0 0 0 0 0 0 0 0 0 0 0 0 0 0 0 0 0 0 0 0 0 0 0 0 0 0 0 0 0 0 0 0 0 0 0 0 0 0 0 0 0 0 0 0 0 0 0 0 0 0 0 0 0 0 0 0 0 0 0 0 0 0 0 0 0 0 0 0 0 0 0 0 0 0 0 0 0 0 0 0 0 0 0 0 0 0 0 0 0 0 0 0 0 0 0 0 0 0 0 0 0 0 0 0 0 0 0 0 0 0 0 0 0 0 0 0 0 0 0 0 0 0 0 0 0 0 0 0 0 
0 0 0 0 0 0 0 0 0 0 0 0 0 0 0 0 0 0 0 0 0 0 0 0 0 0 0 0 0 0 0 0 0 0 0 0 0 0 0 0 0 0 0 0 0 0 0 0 0 0 0 0 0 0 0 0 0 0 0 0 0 0 0 0 0 0 0 0 0 0 0 0 0 0 0 0 0 0 0 1 39 77 40 43 73 88 91 90 92 91 86 81 80 76 74 84 94 53 68 161 175 119 99 156 105 84 62 55 58 69 73 62 67 77 84 71 79 99 92 104 110 119 114 108 121 100 107 124 131 146 145 130 104 130 110 125 112 72 131 133 92 54 44 84 137 175 164 132 75 64 90 95 107 83 72 67 58 73 69 57 67 77 71 61 55 54 56 58 58 55 48 46 55 60 64 70 90 84 80 79 78 94 97 78 85 87 103 96 79 99 99 76 66 71 73 74 83 58 53 69 101 133 131 134 133 134 138 138 139 145 152 148 156 164 165 160 162 161 146 109 103 132 122 18 0 0 0 0 0 0 0 0 0 0 0 0 0 0 0 0 0 0 0 0 0 0 0 0 0 0 0 0 0 0 0 0 0 0 0 0 0 0 0 0 0 0 0 0 0 0 0 0 0 0 0 0 0 0 0 0 0 0 0 0 0 0 0 0 0 0 0 0 0 0 0 0 0 0 0 0 0 0 0 0 0 0 0 0 0 0 0 0 0 0 0 0 0 0 0 0 0 0 0 0 0 0 0 0 0 0 0 0 0 0 0 0 0 0 0 0 0 0 0 0 0 0 0 0 0 0 0 0 0 0 0 0 0 0 0 
0 0 0 0 0 0 0 0 0 0 0 0 0 0 0 0 0 0 0 0 0 0 0 0 0 0 0 0 0 0 0 0 0 0 0 0 0 0 0 0 0 0 0 0 0 0 0 0 0 0 0 0 0 0 0 0 0 0 0 0 0 0 0 0 0 0 0 0 0 0 0 0 0 0 0 0 0 0 0 6 74 66 45 62 81 87 90 88 84 89 89 78 72 72 76 86 90 54 79 153 142 112 108 140 95 86 76 62 65 79 72 58 61 72 66 51 90 111 96 106 101 105 96 90 101 106 102 110 112 133 126 148 131 110 123 152 91 119 135 112 81 48 47 62 120 175 171 123 67 61 92 97 108 86 65 67 56 71 64 85 70 58 70 76 56 56 59 63 54 63 62 49 49 59 66 68 73 79 84 65 79 95 82 88 94 114 111 95 87 91 94 74 65 59 62 65 70 76 65 67 83 134 142 137 131 125 133 135 141 146 149 148 154 158 166 176 165 156 156 121 92 109 126 57 0 0 0 0 0 0 0 0 0 0 0 0 0 0 0 0 0 0 0 0 0 0 0 0 0 0 0 0 0 0 0 0 0 0 0 0 0 0 0 0 0 0 0 0 0 0 0 0 0 0 0 0 0 0 0 0 0 0 0 0 0 0 0 0 0 0 0 0 0 0 0 0 0 0 0 0 0 0 0 0 0 0 0 0 0 0 0 0 0 0 0 0 0 0 0 0 0 0 0 0 0 0 0 0 0 0 0 0 0 0 0 0 0 0 0 0 0 0 0 0 0 0 0 0 0 0 0 0 0 0 0 0 0 0 0 
0 0 0 0 0 0 0 0 0 0 0 0 0 0 0 0 0 0 0 0 0 0 0 0 0 0 0 0 0 0 0 0 0 0 0 0 0 0 0 0 0 0 0 0 0 0 0 0 0 0 0 0 0 0 0 0 0 0 0 0 0 0 0 0 0 0 0 0 0 0 0 0 0 0 0 0 0 0 0 26 79 54 54 78 83 87 88 87 84 81 81 83 84 77 75 92 84 48 99 157 117 96 91 101 92 73 66 62 57 66 64 63 69 62 59 62 97 95 101 112 115 116 92 95 98 104 113 100 97 108 123 154 124 108 137 132 113 133 121 138 110 50 43 51 102 177 189 124 66 64 86 85 91 83 62 72 61 65 84 89 69 54 58 69 69 58 64 58 51 56 62 50 45 53 51 60 62 72 71 73 80 66 83 104 81 82 87 86 95 82 80 82 75 67 76 78 75 79 61 67 77 121 141 129 125 124 129 135 139 137 145 151 155 153 157 166 170 161 156 143 96 76 121 114 14 0 0 0 0 0 0 0 0 0 0 0 0 0 0 0 0 0 0 0 0 0 0 0 0 0 0 0 0 0 0 0 0 0 0 0 0 0 0 0 0 0 0 0 0 0 0 0 0 0 0 0 0 0 0 0 0 0 0 0 0 0 0 0 0 0 0 0 0 0 0 0 0 0 0 0 0 0 0 0 0 0 0 0 0 0 0 0 0 0 0 0 0 0 0 0 0 0 0 0 0 0 0 0 0 0 0 0 0 0 0 0 0 0 0 0 0 0 0 0 0 0 0 0 0 0 0 0 0 0 0 0 0 0 0 
0 0 0 0 0 0 0 0 0 0 0 0 0 0 0 0 0 0 0 0 0 0 0 0 0 0 0 0 0 0 0 0 0 0 0 0 0 0 0 0 0 0 0 0 0 0 0 0 0 0 0 0 0 0 0 0 0 0 0 0 0 0 0 0 0 0 0 0 0 0 0 0 0 0 0 0 0 0 2 58 73 45 55 83 84 89 88 92 93 86 82 79 76 72 81 99 68 41 151 172 102 80 106 118 103 56 62 70 66 51 55 61 62 73 82 74 93 77 89 106 116 111 84 104 137 113 101 113 123 75 91 138 111 118 143 129 111 108 138 158 113 52 43 61 102 144 164 119 71 73 77 85 80 68 70 78 81 57 80 86 72 51 52 79 76 60 68 59 52 47 49 44 44 53 51 54 54 75 78 73 80 89 94 107 88 82 88 88 98 83 71 70 73 68 70 72 66 78 57 64 89 129 130 123 114 115 126 132 135 134 139 144 145 145 144 155 155 161 152 147 113 73 92 123 44 0 0 0 0 0 0 0 0 0 0 0 0 0 0 0 0 0 0 0 0 0 0 0 0 0 0 0 0 0 0 0 0 0 0 0 0 0 0 0 0 0 0 0 0 0 0 0 0 0 0 0 0 0 0 0 0 0 0 0 0 0 0 0 0 0 0 0 0 0 0 0 0 0 0 0 0 0 0 0 0 0 0 0 0 0 0 0 0 0 0 0 0 0 0 0 0 0 0 0 0 0 0 0 0 0 0 0 0 0 0 0 0 0 0 0 0 0 0 0 0 0 0 0 0 0 0 0 0 0 0 0 0 0 0 
0 0 0 0 0 0 0 0 0 0 0 0 0 0 0 0 0 0 0 0 0 0 0 0 0 0 0 0 0 0 0 0 0 0 0 0 0 0 0 0 0 0 0 0 0 0 0 0 0 0 0 0 0 0 0 0 0 0 0 0 0 0 0 0 0 0 0 0 0 0 0 0 0 0 0 0 0 0 12 80 69 45 68 84 89 94 93 90 87 89 89 83 81 80 84 92 55 50 110 124 122 99 102 89 89 65 75 69 60 45 48 67 59 67 95 68 88 94 96 105 105 136 102 94 128 124 127 102 107 88 95 103 126 151 116 125 89 91 120 117 108 61 44 45 92 146 140 108 77 79 76 81 81 78 80 75 74 73 80 81 72 50 51 71 84 65 61 54 53 58 48 48 46 48 55 63 59 61 93 82 93 97 76 95 91 90 104 103 79 78 80 78 77 70 72 63 62 87 74 54 83 115 126 138 116 110 112 123 133 133 130 137 146 139 140 151 156 161 155 147 128 85 76 119 87 7 0 0 0 0 0 0 0 0 0 0 0 0 0 0 0 0 0 0 0 0 0 0 0 0 0 0 0 0 0 0 0 0 0 0 0 0 0 0 0 0 0 0 0 0 0 0 0 0 0 0 0 0 0 0 0 0 0 0 0 0 0 0 0 0 0 0 0 0 0 0 0 0 0 0 0 0 0 0 0 0 0 0 0 0 0 0 0 0 0 0 0 0 0 0 0 0 0 0 0 0 0 0 0 0 0 0 0 0 0 0 0 0 0 0 0 0 0 0 0 0 0 0 0 0 0 0 0 0 0 0 0 0 0 
0 0 0 0 0 0 0 0 0 0 0 0 0 0 0 0 0 0 0 0 0 0 0 0 0 0 0 0 0 0 0 0 0 0 0 0 0 0 0 0 0 0 0 0 0 0 0 0 0 0 0 0 0 0 0 0 0 0 0 0 0 0 0 0 0 0 0 0 0 0 0 0 0 0 0 0 0 1 34 82 53 50 81 87 93 94 97 94 86 93 87 85 85 83 88 95 54 51 94 134 104 84 75 82 80 63 71 68 66 63 61 75 68 81 84 62 77 92 85 100 109 122 123 108 109 106 131 118 124 108 131 111 106 125 110 107 103 90 94 108 118 66 48 55 71 127 111 99 88 68 65 89 90 85 65 55 68 65 72 68 77 55 54 55 74 65 50 45 53 52 47 47 50 59 54 55 65 77 73 70 74 81 77 88 93 89 100 96 97 85 75 71 75 73 66 61 70 76 79 53 65 74 117 130 112 102 105 118 125 126 132 129 141 144 138 145 154 154 155 142 136 96 68 106 117 23 0 0 0 0 0 0 0 0 0 0 0 0 0 0 0 0 0 0 0 0 0 0 0 0 0 0 0 0 0 0 0 0 0 0 0 0 0 0 0 0 0 0 0 0 0 0 0 0 0 0 0 0 0 0 0 0 0 0 0 0 0 0 0 0 0 0 0 0 0 0 0 0 0 0 0 0 0 0 0 0 0 0 0 0 0 0 0 0 0 0 0 0 0 0 0 0 0 0 0 0 0 0 0 0 0 0 0 0 0 0 0 0 0 0 0 0 0 0 0 0 0 0 0 0 0 0 0 0 0 0 0 0 0 
0 0 0 0 0 0 0 0 0 0 0 0 0 0 0 0 0 0 0 0 0 0 0 0 0 0 0 0 0 0 0 0 0 0 0 0 0 0 0 0 0 0 0 0 0 0 0 0 0 0 0 0 0 0 0 0 0 0 0 0 0 0 0 0 0 0 0 0 0 0 0 0 0 0 0 0 0 2 62 81 43 61 85 87 94 89 92 100 92 82 82 91 79 79 96 92 55 79 107 131 103 94 111 102 85 68 67 77 62 53 59 66 66 64 80 82 72 81 71 91 110 109 115 135 137 103 121 111 115 142 148 157 158 113 109 111 113 128 123 99 99 70 50 57 63 111 141 132 79 67 70 81 85 68 54 55 66 47 73 64 58 68 57 53 55 66 46 53 51 42 59 59 59 63 67 61 58 70 64 62 82 84 91 93 83 91 91 86 92 92 79 67 71 81 69 60 65 92 81 59 62 68 98 121 116 97 94 105 115 123 124 126 129 137 134 131 148 155 145 139 139 111 85 110 125 58 2 0 0 0 0 0 0 0 0 0 0 0 0 0 0 0 0 0 0 0 0 0 0 0 0 0 0 0 0 0 0 0 0 0 0 0 0 0 0 0 0 0 0 0 0 0 0 0 0 0 0 0 0 0 0 0 0 0 0 0 0 0 0 0 0 0 0 0 0 0 0 0 0 0 0 0 0 0 0 0 0 0 0 0 0 0 0 0 0 0 0 0 0 0 0 0 0 0 0 0 0 0 0 0 0 0 0 0 0 0 0 0 0 0 0 0 0 0 0 0 0 0 0 0 0 0 0 0 0 0 0 0 0 
0 0 0 0 0 0 0 0 0 0 0 0 0 0 0 0 0 0 0 0 0 0 0 0 0 0 0 0 0 0 0 0 0 0 0 0 0 0 0 0 0 0 0 0 0 0 0 0 0 0 0 0 0 0 0 0 0 0 0 0 0 0 0 0 0 0 0 0 0 0 0 0 0 0 0 0 0 10 81 61 44 70 88 91 92 91 86 89 97 97 91 94 95 89 97 83 44 103 136 110 106 95 124 103 71 69 60 71 78 61 57 65 66 69 75 92 75 62 89 95 92 106 111 117 133 136 113 127 140 138 127 121 150 123 120 113 119 126 127 112 102 65 50 54 53 110 167 147 84 75 68 85 85 75 68 69 73 56 66 78 58 55 61 64 51 53 52 50 51 46 45 56 71 66 61 67 65 63 56 80 79 76 98 82 85 100 88 73 56 76 76 68 70 77 71 61 65 77 71 53 51 66 90 118 113 97 85 94 110 116 120 121 122 125 129 121 127 141 146 143 135 121 92 92 120 90 10 0 0 0 0 0 0 0 0 0 0 0 0 0 0 0 0 0 0 0 0 0 0 0 0 0 0 0 0 0 0 0 0 0 0 0 0 0 0 0 0 0 0 0 0 0 0 0 0 0 0 0 0 0 0 0 0 0 0 0 0 0 0 0 0 0 0 0 0 0 0 0 0 0 0 0 0 0 0 0 0 0 0 0 0 0 0 0 0 0 0 0 0 0 0 0 0 0 0 0 0 0 0 0 0 0 0 0 0 0 0 0 0 0 0 0 0 0 0 0 0 0 0 0 0 0 0 0 0 0 0 0 0 
0 0 0 0 0 0 0 0 0 0 0 0 0 0 0 0 0 0 0 0 0 0 0 0 0 0 0 0 0 0 0 0 0 0 0 0 0 0 0 0 0 0 0 0 0 0 0 0 0 0 0 0 0 0 0 0 0 0 0 0 0 0 0 0 0 0 0 0 0 0 0 0 0 0 0 0 0 30 74 48 50 77 96 93 90 95 95 97 94 91 89 83 88 94 96 70 42 91 161 143 99 126 126 80 75 59 58 50 55 63 64 55 52 74 74 80 90 83 97 104 92 104 114 108 119 133 129 129 147 139 106 116 114 129 126 107 108 112 81 87 106 71 54 59 60 112 157 141 88 59 66 75 74 68 72 64 53 67 76 79 59 54 74 70 70 44 53 55 50 46 51 59 61 60 57 67 61 60 62 87 77 82 83 81 91 90 81 68 66 72 67 70 76 72 71 76 62 52 80 69 55 62 85 115 109 99 82 87 102 108 109 115 118 116 123 124 119 136 141 135 136 126 90 94 124 110 26 0 0 0 0 0 0 0 0 0 0 0 0 0 0 0 0 0 0 0 0 0 0 0 0 0 0 0 0 0 0 0 0 0 0 0 0 0 0 0 0 0 0 0 0 0 0 0 0 0 0 0 0 0 0 0 0 0 0 0 0 0 0 0 0 0 0 0 0 0 0 0 0 0 0 0 0 0 0 0 0 0 0 0 0 0 0 0 0 0 0 0 0 0 0 0 0 0 0 0 0 0 0 0 0 0 0 0 0 0 0 0 0 0 0 0 0 0 0 0 0 0 0 0 0 0 0 0 0 0 0 0 0 
0 0 0 0 0 0 0 0 0 0 0 0 0 0 0 0 0 0 0 0 0 0 0 0 0 0 0 0 0 0 0 0 0 0 0 0 0 0 0 0 0 0 0 0 0 0 0 0 0 0 0 0 0 0 0 0 0 0 0 0 0 0 0 0 0 0 0 0 0 0 0 0 0 0 0 0 1 62 79 48 58 81 87 92 97 98 97 102 103 95 90 92 100 100 101 69 53 109 153 119 88 118 113 86 87 53 48 52 63 63 62 62 60 61 71 74 81 101 89 69 88 107 114 123 107 118 121 114 136 132 125 121 79 81 83 108 112 121 89 84 105 72 54 58 70 113 161 137 78 61 61 59 60 59 60 57 63 70 59 58 53 67 64 73 55 51 67 52 39 45 64 60 61 61 55 60 62 61 72 60 55 68 82 76 91 88 95 69 69 77 67 67 66 66 68 74 70 66 63 61 50 52 93 118 108 104 84 82 91 96 105 107 107 113 119 118 115 119 131 134 133 133 108 100 109 101 48 1 0 0 0 0 0 0 0 0 0 0 0 0 0 0 0 0 0 0 0 0 0 0 0 0 0 0 0 0 0 0 0 0 0 0 0 0 0 0 0 0 0 0 0 0 0 0 0 0 0 0 0 0 0 0 0 0 0 0 0 0 0 0 0 0 0 0 0 0 0 0 0 0 0 0 0 0 0 0 0 0 0 0 0 0 0 0 0 0 0 0 0 0 0 0 0 0 0 0 0 0 0 0 0 0 0 0 0 0 0 0 0 0 0 0 0 0 0 0 0 0 0 0 0 0 0 0 0 0 0 0 0 
0 0 0 0 0 0 0 0 0 0 0 0 0 0 0 0 0 0 0 0 0 0 0 0 0 0 0 0 0 0 0 0 0 0 0 0 0 0 0 0 0 0 0 0 0 0 0 0 0 0 0 0 0 0 0 0 0 0 0 0 0 0 0 0 0 0 0 0 0 0 0 0 0 0 0 0 2 82 65 41 72 84 89 94 100 98 100 102 103 102 93 94 104 101 105 73 69 110 112 110 89 89 102 97 80 56 58 57 51 48 53 56 63 68 78 84 74 78 93 80 95 130 120 95 96 101 122 113 113 90 84 94 87 80 91 108 122 122 122 122 111 75 59 66 62 105 132 120 91 70 71 62 56 59 66 61 59 47 64 61 63 64 63 64 58 58 67 55 47 51 50 59 58 51 73 73 62 66 66 51 58 65 73 75 68 70 86 77 64 66 71 73 74 76 64 62 70 74 60 54 72 62 60 103 116 98 84 81 83 83 97 100 99 105 108 113 107 108 124 125 124 129 112 90 85 96 76 7 0 0 0 0 0 0 0 0 0 0 0 0 0 0 0 0 0 0 0 0 0 0 0 0 0 0 0 0 0 0 0 0 0 0 0 0 0 0 0 0 0 0 0 0 0 0 0 0 0 0 0 0 0 0 0 0 0 0 0 0 0 0 0 0 0 0 0 0 0 0 0 0 0 0 0 0 0 0 0 0 0 0 0 0 0 0 0 0 0 0 0 0 0 0 0 0 0 0 0 0 0 0 0 0 0 0 0 0 0 0 0 0 0 0 0 0 0 0 0 0 0 0 0 0 0 0 0 0 0 0 0 
0 0 0 0 0 0 0 0 0 0 0 0 0 0 0 0 0 0 0 0 0 0 0 0 0 0 0 0 0 0 0 0 0 0 0 0 0 0 0 0 0 0 0 0 0 0 0 0 0 0 0 0 0 0 0 0 0 0 0 0 0 0 0 0 0 0 0 0 0 0 0 0 0 0 0 0 14 94 55 48 73 82 89 98 106 103 103 105 90 83 95 98 94 97 111 74 58 101 129 115 73 99 82 66 71 51 55 60 48 53 64 68 65 80 69 60 79 75 86 86 95 128 114 101 103 92 95 124 126 109 100 97 104 92 90 94 80 92 108 125 96 73 65 65 63 83 116 108 85 64 61 60 57 51 53 56 55 58 58 53 61 59 51 51 58 68 56 49 59 50 47 53 55 56 65 64 51 54 63 80 74 67 78 78 65 74 78 86 76 65 67 74 69 69 70 67 79 73 66 56 49 45 54 81 102 98 89 74 79 84 91 100 94 98 98 103 110 105 113 117 116 121 112 85 99 103 94 15 0 0 0 0 0 0 0 0 0 0 0 0 0 0 0 0 0 0 0 0 0 0 0 0 0 0 0 0 0 0 0 0 0 0 0 0 0 0 0 0 0 0 0 0 0 0 0 0 0 0 0 0 0 0 0 0 0 0 0 0 0 0 0 0 0 0 0 0 0 0 0 0 0 0 0 0 0 0 0 0 0 0 0 0 0 0 0 0 0 0 0 0 0 0 0 0 0 0 0 0 0 0 0 0 0 0 0 0 0 0 0 0 0 0 0 0 0 0 0 0 0 0 0 0 0 0 0 0 0 0 0 
0 0 0 0 0 0 0 0 0 0 0 0 0 0 0 0 0 0 0 0 0 0 0 0 0 0 0 0 0 0 0 0 0 0 0 0 0 0 0 0 0 0 0 0 0 0 0 0 0 0 0 0 0 0 0 0 0 0 0 0 0 0 0 0 0 0 0 0 0 0 0 0 0 0 0 0 43 90 47 58 81 85 90 99 105 104 99 94 87 82 92 91 78 88 111 64 68 116 109 96 82 100 74 48 63 69 51 54 71 70 74 68 65 76 66 70 77 64 77 93 93 91 95 104 91 90 76 121 115 138 98 104 132 95 97 104 76 94 90 97 105 74 55 60 67 70 110 122 89 62 54 55 52 51 54 57 61 55 55 59 50 56 59 48 55 76 66 53 56 63 50 53 63 57 57 62 49 64 54 61 66 50 64 69 73 80 89 93 81 67 63 65 68 69 70 71 75 69 69 64 54 47 55 76 91 97 88 69 76 84 88 93 93 92 91 93 103 100 102 109 111 116 116 92 94 87 85 33 0 0 0 0 0 0 0 0 0 0 0 0 0 0 0 0 0 0 0 0 0 0 0 0 0 0 0 0 0 0 0 0 0 0 0 0 0 0 0 0 0 0 0 0 0 0 0 0 0 0 0 0 0 0 0 0 0 0 0 0 0 0 0 0 0 0 0 0 0 0 0 0 0 0 0 0 0 0 0 0 0 0 0 0 0 0 0 0 0 0 0 0 0 0 0 0 0 0 0 0 0 0 0 0 0 0 0 0 0 0 0 0 0 0 0 0 0 0 0 0 0 0 0 0 0 0 0 0 0 0 0 
0 0 0 0 0 0 0 0 0 0 0 0 0 0 0 0 0 0 0 0 0 0 0 0 0 0 0 0 0 0 0 0 0 0 0 0 0 0 0 0 0 0 0 0 0 0 0 0 0 0 0 0 0 0 0 0 0 0 0 0 0 0 0 0 0 0 0 0 0 0 0 0 0 0 0 0 68 76 49 56 82 88 90 94 101 102 100 102 91 88 92 80 78 99 107 64 76 110 74 76 77 84 74 71 73 60 55 65 81 76 82 75 70 62 55 78 75 66 77 105 109 92 103 114 99 77 84 102 93 103 93 115 113 110 92 99 95 102 99 91 100 75 47 57 66 76 97 116 94 68 53 55 51 48 51 53 47 49 61 59 60 53 51 51 57 57 74 71 52 52 51 54 68 56 53 56 65 68 57 60 66 62 64 62 63 67 77 76 74 73 65 64 69 68 65 64 68 70 70 67 56 51 62 71 93 101 87 69 73 74 75 84 88 88 89 91 92 95 95 100 107 106 115 102 75 65 75 55 3 0 0 0 0 0 0 0 0 0 0 0 0 0 0 0 0 0 0 0 0 0 0 0 0 0 0 0 0 0 0 0 0 0 0 0 0 0 0 0 0 0 0 0 0 0 0 0 0 0 0 0 0 0 0 0 0 0 0 0 0 0 0 0 0 0 0 0 0 0 0 0 0 0 0 0 0 0 0 0 0 0 0 0 0 0 0 0 0 0 0 0 0 0 0 0 0 0 0 0 0 0 0 0 0 0 0 0 0 0 0 0 0 0 0 0 0 0 0 0 0 0 0 0 0 0 0 0 0 0 0 
0 0 0 0 0 0 0 0 0 0 0 0 0 0 0 0 0 0 0 0 0 0 0 0 0 0 0 0 0 0 0 0 0 0 0 0 0 0 0 0 0 0 0 0 0 0 0 0 0 0 0 0 0 0 0 0 0 0 0 0 0 0 0 0 0 0 0 0 0 0 0 0 0 0 0 1 90 80 57 71 87 89 92 88 101 106 103 101 99 92 92 86 89 108 99 63 64 75 88 77 71 76 70 60 65 57 60 66 60 64 73 74 66 50 51 67 77 72 73 81 81 79 107 97 72 71 79 98 115 100 74 61 64 81 78 83 94 83 76 67 76 69 52 64 69 68 88 102 75 55 52 57 61 54 49 47 51 55 49 55 52 51 59 48 50 66 78 66 48 38 50 67 62 58 67 53 54 66 51 54 66 54 62 63 62 65 74 64 61 72 72 63 63 74 72 58 65 79 68 64 59 55 55 65 89 96 93 77 64 67 62 75 84 78 81 86 89 92 91 91 94 95 109 114 81 59 70 64 6 0 0 0 0 0 0 0 0 0 0 0 0 0 0 0 0 0 0 0 0 0 0 0 0 0 0 0 0 0 0 0 0 0 0 0 0 0 0 0 0 0 0 0 0 0 0 0 0 0 0 0 0 0 0 0 0 0 0 0 0 0 0 0 0 0 0 0 0 0 0 0 0 0 0 0 0 0 0 0 0 0 0 0 0 0 0 0 0 0 0 0 0 0 0 0 0 0 0 0 0 0 0 0 0 0 0 0 0 0 0 0 0 0 0 0 0 0 0 0 0 0 0 0 0 0 0 0 0 0 0 
0 0 0 0 0 0 0 0 0 0 0 0 0 0 0 0 0 0 0 0 0 0 0 0 0 0 0 0 0 0 0 0 0 0 0 0 0 0 0 0 0 0 0 0 0 0 0 0 0 0 0 0 0 0 0 0 0 0 0 0 0 0 0 0 0 0 0 0 0 0 0 0 0 0 0 13 97 76 57 83 84 92 94 97 101 97 98 100 99 86 88 94 91 104 94 62 74 85 110 80 73 88 75 51 59 53 57 65 64 59 56 62 58 48 55 67 71 72 75 75 64 76 99 94 78 88 91 90 101 69 66 79 79 83 82 75 83 85 85 79 70 63 53 57 56 61 89 84 74 55 49 59 67 63 52 53 52 53 54 51 55 57 53 60 60 50 61 61 52 57 54 57 56 66 78 69 62 63 64 56 53 59 68 58 70 80 65 66 65 66 67 71 75 70 61 58 66 77 67 75 84 74 66 67 79 81 92 91 72 73 71 75 82 86 92 96 97 100 102 103 104 107 123 142 130 101 92 78 20 0 0 0 0 0 0 0 0 0 0 0 0 0 0 0 0 0 0 0 0 0 0 0 0 0 0 0 0 0 0 0 0 0 0 0 0 0 0 0 0 0 0 0 0 0 0 0 0 0 0 0 0 0 0 0 0 0 0 0 0 0 0 0 0 0 0 0 0 0 0 0 0 0 0 0 0 0 0 0 0 0 0 0 0 0 0 0 0 0 0 0 0 0 0 0 0 0 0 0 0 0 0 0 0 0 0 0 0 0 0 0 0 0 0 0 0 0 0 0 0 0 0 0 0 0 0 0 0 0 0 
0 0 0 0 0 0 0 0 0 0 0 0 0 0 0 0 0 0 0 0 0 0 0 0 0 0 0 0 0 0 0 0 0 0 0 0 0 0 0 0 0 0 0 0 0 0 0 0 0 0 0 0 0 0 0 0 0 0 0 0 0 0 0 0 0 0 0 0 0 0 0 0 0 0 0 39 91 63 55 88 84 92 96 101 104 95 93 92 85 86 95 99 88 102 90 57 70 90 99 86 74 82 71 55 57 49 56 55 55 53 56 63 66 55 54 61 66 70 70 65 82 88 83 81 78 83 108 87 99 69 52 77 91 80 72 72 72 75 82 66 55 50 49 56 55 58 76 87 73 54 50 56 62 59 50 49 42 47 57 45 54 60 54 70 52 53 58 47 51 63 66 63 67 73 72 68 58 60 65 71 60 62 61 63 69 80 70 61 65 60 64 65 67 71 70 68 73 90 90 94 104 97 90 94 101 98 111 121 116 112 113 114 113 124 137 117 92 110 148 173 182 179 186 194 201 191 179 164 107 56 30 0 0 0 0 0 0 0 0 0 0 0 0 0 0 0 0 0 0 0 0 0 0 0 0 0 0 0 0 0 0 0 0 0 0 0 0 0 0 0 0 0 0 0 0 0 0 0 0 0 0 0 0 0 0 0 0 0 0 0 0 0 0 0 0 0 0 0 0 0 0 0 0 0 0 0 0 0 0 0 0 0 0 0 0 0 0 0 0 0 0 0 0 0 0 0 0 0 0 0 0 0 0 0 0 0 0 0 0 0 0 0 0 0 0 0 0 0 0 0 0 0 0 0 0 0 0 0 0 
0 0 0 0 0 0 0 0 0 0 0 0 0 0 0 0 0 0 0 0 0 0 0 0 0 0 0 0 0 0 0 0 0 0 0 0 0 0 0 0 0 0 0 0 0 0 0 0 0 0 0 0 0 0 0 0 0 0 0 0 0 0 0 0 0 0 0 0 0 0 0 0 0 0 0 57 88 56 63 84 86 91 98 103 102 99 88 77 71 78 88 93 81 95 84 53 68 88 89 82 61 59 78 59 46 45 50 48 45 49 63 60 58 57 52 55 59 61 71 66 83 85 80 71 77 87 93 85 94 58 56 71 75 75 76 76 82 70 62 56 56 47 43 49 52 51 66 88 71 54 53 52 58 51 48 41 49 56 49 46 59 60 65 70 46 52 51 52 53 63 73 56 60 57 60 60 58 66 63 64 62 66 58 67 63 64 76 71 74 77 80 79 89 109 117 118 119 127 131 128 124 133 142 149 148 145 145 130 125 125 131 129 117 120 98 47 55 89 127 162 172 168 166 172 168 167 178 167 161 149 135 55 0 0 0 0 0 0 0 0 0 0 0 0 0 0 0 0 0 0 0 0 0 0 0 0 0 0 0 0 0 0 0 0 0 0 0 0 0 0 0 0 0 0 0 0 0 0 0 0 0 0 0 0 0 0 0 0 0 0 0 0 0 0 0 0 0 0 0 0 0 0 0 0 0 0 0 0 0 0 0 0 0 0 0 0 0 0 0 0 0 0 0 0 0 0 0 0 0 0 0 0 0 0 0 0 0 0 0 0 0 0 0 0 0 0 0 0 0 0 0 0 0 0 0 0 0 0 0 
0 0 0 0 0 0 0 0 0 0 0 0 0 0 0 0 0 0 0 0 0 0 0 0 0 0 0 0 0 0 0 0 0 0 0 0 0 0 0 0 0 0 0 0 0 0 0 0 0 0 0 0 0 0 0 0 0 0 0 0 0 0 0 0 0 0 0 0 0 0 0 0 0 0 0 66 84 55 75 83 86 90 95 100 100 100 90 75 66 71 74 69 75 90 68 45 60 88 68 70 66 62 70 52 49 43 49 51 45 51 60 58 57 56 48 57 60 57 67 71 59 56 64 64 65 84 92 77 79 61 62 72 72 58 68 76 75 67 64 60 52 50 45 40 48 53 54 68 65 60 50 58 57 47 49 51 56 63 60 56 63 61 72 59 48 51 62 73 60 76 74 51 57 71 61 70 83 78 77 83 80 89 90 94 96 100 104 117 124 128 134 153 159 161 170 171 160 155 152 147 130 153 160 147 129 131 123 99 83 90 93 90 84 79 72 72 85 81 73 78 86 90 88 90 94 102 107 101 103 109 127 122 16 0 0 0 0 0 0 0 0 0 0 0 0 0 0 0 0 0 0 0 0 0 0 0 0 0 0 0 0 0 0 0 0 0 0 0 0 0 0 0 0 0 0 0 0 0 0 0 0 0 0 0 0 0 0 0 0 0 0 0 0 0 0 0 0 0 0 0 0 0 0 0 0 0 0 0 0 0 0 0 0 0 0 0 0 0 0 0 0 0 0 0 0 0 0 0 0 0 0 0 0 0 0 0 0 0 0 0 0 0 0 0 0 0 0 0 0 0 0 0 0 0 0 0 0 0 0 
0 0 0 0 0 0 0 0 0 0 0 0 0 0 0 0 0 0 0 0 0 0 0 0 0 0 0 0 0 0 0 0 0 0 0 0 0 0 0 0 0 0 0 0 0 0 0 0 0 0 0 0 0 0 0 0 0 0 0 0 0 0 0 0 0 0 0 0 0 0 0 0 0 0 2 81 75 52 69 83 86 92 95 99 104 99 87 78 73 74 79 67 74 93 62 43 65 73 68 74 63 69 49 46 51 45 57 56 47 49 52 49 54 53 49 50 51 53 58 60 54 54 55 59 60 64 78 80 83 70 58 67 72 68 64 58 70 71 69 64 58 45 42 44 46 49 55 57 63 69 56 58 59 56 61 62 63 70 65 60 50 59 68 53 57 66 81 86 71 75 86 83 81 90 89 87 96 97 89 86 94 85 81 79 85 102 82 86 97 107 116 134 132 131 134 137 116 107 125 135 124 117 114 100 97 98 90 79 72 78 78 76 75 68 74 97 90 70 70 77 84 88 88 89 101 110 104 105 108 110 114 121 56 0 0 0 0 0 0 0 0 0 0 0 0 0 0 0 0 0 0 0 0 0 0 0 0 0 0 0 0 0 0 0 0 0 0 0 0 0 0 0 0 0 0 0 0 0 0 0 0 0 0 0 0 0 0 0 0 0 0 0 0 0 0 0 0 0 0 0 0 0 0 0 0 0 0 0 0 0 0 0 0 0 0 0 0 0 0 0 0 0 0 0 0 0 0 0 0 0 0 0 0 0 0 0 0 0 0 0 0 0 0 0 0 0 0 0 0 0 0 0 0 0 0 0 0 0 0 
0 0 0 0 0 0 0 0 0 0 0 0 0 0 0 0 0 0 0 0 0 0 0 0 0 0 0 0 0 0 0 0 0 0 0 0 0 0 0 0 0 0 0 0 0 0 0 0 0 0 0 0 0 0 0 0 0 0 0 0 0 0 0 0 0 0 0 0 0 0 0 0 0 0 14 88 61 55 72 82 86 93 99 96 98 94 81 71 71 72 77 75 72 97 74 45 51 63 72 53 59 64 51 47 45 44 53 55 52 49 48 41 44 48 49 50 53 47 54 60 56 62 58 59 64 60 67 71 74 73 60 54 58 69 64 65 77 67 64 65 60 48 46 56 52 53 61 64 69 74 70 64 63 57 52 52 58 63 66 69 59 63 93 103 84 84 79 76 77 78 79 73 67 63 59 56 59 57 50 46 45 40 38 37 36 44 40 34 39 51 58 60 60 67 71 74 74 73 90 97 97 82 79 81 86 91 88 86 83 78 83 85 77 70 75 74 70 70 70 76 81 85 88 93 101 109 105 111 117 111 110 114 78 0 0 0 0 0 0 0 0 0 0 0 0 0 0 0 0 0 0 0 0 0 0 0 0 0 0 0 0 0 0 0 0 0 0 0 0 0 0 0 0 0 0 0 0 0 0 0 0 0 0 0 0 0 0 0 0 0 0 0 0 0 0 0 0 0 0 0 0 0 0 0 0 0 0 0 0 0 0 0 0 0 0 0 0 0 0 0 0 0 0 0 0 0 0 0 0 0 0 0 0 0 0 0 0 0 0 0 0 0 0 0 0 0 0 0 0 0 0 0 0 0 0 0 0 0 0 
0 0 0 0 0 0 0 0 0 0 0 0 0 0 0 0 0 0 0 0 0 0 0 0 0 0 0 0 0 0 0 0 0 0 0 0 0 0 0 0 0 0 0 0 0 0 0 0 0 0 0 0 0 0 0 0 0 0 0 0 0 0 0 0 0 0 0 0 0 0 0 0 0 0 28 87 57 65 81 81 87 89 94 92 91 88 83 76 68 68 71 66 66 89 64 48 55 71 50 55 71 62 52 40 40 41 43 47 47 48 46 41 44 48 48 53 53 51 58 61 57 58 59 56 62 65 62 59 73 68 54 50 54 58 54 64 66 64 74 82 73 59 58 68 63 62 70 70 65 63 56 57 62 65 61 63 73 72 74 75 65 69 116 122 87 71 53 48 47 48 45 40 39 39 38 37 36 36 36 35 35 36 37 40 39 38 43 40 44 57 56 57 64 67 71 73 70 75 77 76 85 78 73 84 87 89 89 87 87 84 84 86 81 77 82 83 75 71 69 74 78 82 87 91 93 103 108 111 114 113 109 114 89 0 0 0 0 0 0 0 0 0 0 0 0 0 0 0 0 0 0 0 0 0 0 0 0 0 0 0 0 0 0 0 0 0 0 0 0 0 0 0 0 0 0 0 0 0 0 0 0 0 0 0 0 0 0 0 0 0 0 0 0 0 0 0 0 0 0 0 0 0 0 0 0 0 0 0 0 0 0 0 0 0 0 0 0 0 0 0 0 0 0 0 0 0 0 0 0 0 0 0 0 0 0 0 0 0 0 0 0 0 0 0 0 0 0 0 0 0 0 0 0 0 0 0 0 0 0 
0 0 0 0 0 0 0 0 0 0 0 0 0 0 0 0 0 0 0 0 0 0 0 0 0 0 0 0 0 0 0 0 0 0 0 0 0 0 0 0 0 0 0 0 0 0 0 0 0 0 0 0 0 0 0 0 0 0 0 0 0 0 0 0 0 0 0 0 0 0 0 0 0 0 42 102 72 57 79 80 86 88 90 93 91 87 70 67 71 69 64 54 65 82 57 49 66 64 63 64 53 52 50 40 39 40 41 41 40 41 44 49 51 48 45 53 59 59 53 54 57 57 57 54 60 67 61 60 65 64 58 60 53 61 65 59 59 59 60 62 49 49 55 50 41 47 53 54 58 79 92 96 102 108 93 94 71 58 51 49 46 44 56 55 56 50 38 38 38 38 38 38 37 38 38 38 38 37 40 44 38 37 39 47 49 47 45 46 59 66 61 64 69 72 70 74 76 74 77 80 83 78 79 84 87 86 82 86 89 86 82 81 77 77 80 80 75 73 71 76 78 80 87 89 91 100 107 108 109 111 107 111 98 1 0 0 0 0 0 0 0 0 0 0 0 0 0 0 0 0 0 0 0 0 0 0 0 0 0 0 0 0 0 0 0 0 0 0 0 0 0 0 0 0 0 0 0 0 0 0 0 0 0 0 0 0 0 0 0 0 0 0 0 0 0 0 0 0 0 0 0 0 0 0 0 0 0 0 0 0 0 0 0 0 0 0 0 0 0 0 0 0 0 0 0 0 0 0 0 0 0 0 0 0 0 0 0 0 0 0 0 0 0 0 0 0 0 0 0 0 0 0 0 0 0 0 0 0 0 
0 0 0 0 0 0 0 0 0 0 0 0 0 0 0 0 0 0 0 0 0 0 0 0 0 0 0 0 0 0 0 0 0 0 0 0 0 0 0 0 0 0 0 0 0 0 0 0 0 0 0 0 0 0 0 0 0 0 0 0 0 0 0 0 0 0 0 0 0 0 0 0 0 0 48 98 69 60 78 81 86 87 88 91 84 83 64 58 62 63 55 47 63 82 57 49 60 67 83 62 52 46 48 40 40 39 45 44 39 41 44 46 48 44 42 53 65 62 53 51 51 57 58 61 64 68 63 64 61 63 64 66 65 55 46 39 38 39 40 41 47 52 63 80 103 92 95 101 115 118 124 100 77 70 60 65 43 40 39 38 38 38 38 38 39 41 39 39 39 39 39 39 39 39 39 38 39 40 42 45 41 38 42 45 51 47 44 54 66 63 60 69 69 70 72 73 80 80 75 79 84 83 78 82 85 85 87 90 91 81 86 78 69 75 83 79 76 73 71 78 79 80 84 89 92 97 102 110 113 113 112 111 107 13 0 0 0 0 0 0 0 0 0 0 0 0 0 0 0 0 0 0 0 0 0 0 0 0 0 0 0 0 0 0 0 0 0 0 0 0 0 0 0 0 0 0 0 0 0 0 0 0 0 0 0 0 0 0 0 0 0 0 0 0 0 0 0 0 0 0 0 0 0 0 0 0 0 0 0 0 0 0 0 0 0 0 0 0 0 0 0 0 0 0 0 0 0 0 0 0 0 0 0 0 0 0 0 0 0 0 0 0 0 0 0 0 0 0 0 0 0 0 0 0 0 0 0 0 0 
0 0 0 0 0 0 0 0 0 0 0 0 0 0 0 0 0 0 0 0 0 0 0 0 0 0 0 0 0 0 0 0 0 0 0 0 0 0 0 0 0 0 0 0 0 0 0 0 0 0 0 0 0 0 0 0 0 0 0 0 0 0 0 0 0 0 0 0 0 0 0 0 0 0 53 85 66 70 77 81 84 80 82 85 78 71 59 55 51 52 52 47 62 75 51 42 50 54 52 56 43 50 43 36 40 39 45 48 42 42 44 39 44 51 53 58 60 57 57 53 55 60 61 64 72 67 58 50 46 41 45 50 51 47 60 78 106 132 102 110 136 113 130 172 185 152 117 87 77 61 54 43 39 40 41 38 44 41 38 39 39 39 39 39 39 39 39 39 39 39 39 40 44 41 40 42 44 44 48 42 40 42 43 48 51 46 48 55 64 66 63 60 72 72 68 79 74 77 74 75 85 84 81 86 87 89 91 87 92 83 88 82 83 81 78 83 82 72 72 76 78 80 81 87 92 96 97 102 117 115 115 114 112 28 0 0 0 0 0 0 0 0 0 0 0 0 0 0 0 0 0 0 0 0 0 0 0 0 0 0 0 0 0 0 0 0 0 0 0 0 0 0 0 0 0 0 0 0 0 0 0 0 0 0 0 0 0 0 0 0 0 0 0 0 0 0 0 0 0 0 0 0 0 0 0 0 0 0 0 0 0 0 0 0 0 0 0 0 0 0 0 0 0 0 0 0 0 0 0 0 0 0 0 0 0 0 0 0 0 0 0 0 0 0 0 0 0 0 0 0 0 0 0 0 0 0 0 0 0 
0 0 0 0 0 0 0 0 0 0 0 0 0 0 0 0 0 0 0 0 0 0 0 0 0 0 0 0 0 0 0 0 0 0 0 0 0 0 0 0 0 0 0 0 0 0 0 0 0 0 0 0 0 0 0 0 0 0 0 0 0 0 0 0 0 0 0 0 0 0 0 0 0 0 67 83 65 67 77 80 82 80 81 77 69 59 52 56 57 49 47 50 62 62 43 42 50 50 54 55 40 44 43 42 46 46 46 53 51 43 42 45 51 54 58 62 61 56 52 51 50 48 46 43 51 54 59 68 82 90 112 146 129 149 161 155 165 158 119 135 126 80 107 123 87 67 51 41 41 40 40 46 44 43 60 63 50 43 41 43 44 41 41 44 44 39 39 44 48 41 39 40 47 42 39 43 47 44 44 40 42 45 45 46 49 50 54 56 61 67 60 63 70 69 69 74 78 80 85 83 88 92 87 91 98 100 96 88 87 80 79 82 82 66 64 72 75 69 67 73 77 79 81 85 87 91 93 97 105 112 108 113 113 43 0 0 0 0 0 0 0 0 0 0 0 0 0 0 0 0 0 0 0 0 0 0 0 0 0 0 0 0 0 0 0 0 0 0 0 0 0 0 0 0 0 0 0 0 0 0 0 0 0 0 0 0 0 0 0 0 0 0 0 0 0 0 0 0 0 0 0 0 0 0 0 0 0 0 0 0 0 0 0 0 0 0 0 0 0 0 0 0 0 0 0 0 0 0 0 0 0 0 0 0 0 0 0 0 0 0 0 0 0 0 0 0 0 0 0 0 0 0 0 0 0 0 0 0 0 
0 0 0 0 0 0 0 0 0 0 0 0 0 0 0 0 0 0 0 0 0 0 0 0 0 0 0 0 0 0 0 0 0 0 0 0 0 0 0 0 0 0 0 0 0 0 0 0 0 0 0 0 0 0 0 0 0 0 0 0 0 0 0 0 0 0 0 0 0 0 0 0 0 0 69 80 61 63 76 79 79 76 77 62 58 56 50 53 62 58 48 49 60 62 44 45 54 59 54 46 45 41 45 48 58 67 59 57 55 48 42 48 53 42 43 55 56 56 57 69 83 78 81 110 121 123 138 132 144 130 122 130 108 110 99 72 72 61 53 54 46 39 44 46 41 40 47 44 45 50 45 49 43 47 56 65 50 42 44 42 43 43 43 42 43 40 40 44 48 42 40 40 42 42 45 42 42 41 40 45 44 52 47 42 48 60 53 55 69 68 61 68 69 65 74 81 78 75 84 77 81 78 68 68 62 70 74 61 62 55 51 52 56 54 53 56 59 65 68 73 77 78 78 77 83 84 88 96 100 105 108 113 121 59 0 0 0 0 0 0 0 0 0 0 0 0 0 0 0 0 0 0 0 0 0 0 0 0 0 0 0 0 0 0 0 0 0 0 0 0 0 0 0 0 0 0 0 0 0 0 0 0 0 0 0 0 0 0 0 0 0 0 0 0 0 0 0 0 0 0 0 0 0 0 0 0 0 0 0 0 0 0 0 0 0 0 0 0 0 0 0 0 0 0 0 0 0 0 0 0 0 0 0 0 0 0 0 0 0 0 0 0 0 0 0 0 0 0 0 0 0 0 0 0 0 0 0 0 0 
0 0 0 0 0 0 0 0 0 0 0 0 0 0 0 0 0 0 0 0 0 0 0 0 0 0 0 0 0 0 0 0 0 0 0 0 0 0 0 0 0 0 0 0 0 0 0 0 0 0 0 0 0 0 0 0 0 0 0 0 0 0 0 0 0 0 0 0 0 0 0 0 0 0 74 75 58 63 77 78 77 72 67 59 58 56 46 53 60 55 45 47 63 64 44 43 55 54 58 58 51 45 53 51 58 62 59 53 46 46 54 67 78 117 71 64 80 73 90 93 87 80 86 106 89 71 89 91 82 81 64 55 49 56 60 55 51 57 56 57 43 49 65 59 52 61 65 56 55 50 44 45 51 56 44 54 54 43 48 45 43 42 42 42 42 42 42 42 44 42 42 42 42 42 46 44 44 43 45 49 45 43 43 40 41 42 41 44 47 47 44 41 42 44 46 58 49 41 45 40 38 38 39 41 38 39 47 51 54 46 44 47 58 58 61 62 65 82 87 83 86 86 85 82 87 92 93 97 102 103 109 115 126 80 0 0 0 0 0 0 0 0 0 0 0 0 0 0 0 0 0 0 0 0 0 0 0 0 0 0 0 0 0 0 0 0 0 0 0 0 0 0 0 0 0 0 0 0 0 0 0 0 0 0 0 0 0 0 0 0 0 0 0 0 0 0 0 0 0 0 0 0 0 0 0 0 0 0 0 0 0 0 0 0 0 0 0 0 0 0 0 0 0 0 0 0 0 0 0 0 0 0 0 0 0 0 0 0 0 0 0 0 0 0 0 0 0 0 0 0 0 0 0 0 0 0 0 0 0 
0 0 0 0 0 0 0 0 0 0 0 0 0 0 0 0 0 0 0 0 0 0 0 0 0 0 0 0 0 0 0 0 0 0 0 0 0 0 0 0 0 0 0 0 0 0 0 0 0 0 0 0 0 0 0 0 0 0 0 0 0 0 0 0 0 0 0 0 0 0 0 0 0 0 75 80 56 64 76 76 75 72 68 65 58 51 50 58 53 44 41 46 60 52 46 50 53 51 50 55 53 49 50 48 47 46 48 49 44 44 59 99 125 140 56 40 69 51 53 57 48 43 46 51 41 52 69 70 59 76 57 66 74 57 48 52 49 60 74 77 64 70 84 70 54 77 77 74 62 48 60 68 60 62 48 45 46 47 47 49 43 43 45 48 44 42 42 41 44 44 44 47 44 43 43 43 45 42 42 41 41 39 38 38 37 36 36 36 36 39 40 38 40 42 41 41 41 40 41 40 37 39 40 39 34 30 34 34 31 26 26 29 31 31 29 32 37 45 52 59 69 80 89 96 100 110 114 118 125 124 121 129 128 92 0 0 0 0 0 0 0 0 0 0 0 0 0 0 0 0 0 0 0 0 0 0 0 0 0 0 0 0 0 0 0 0 0 0 0 0 0 0 0 0 0 0 0 0 0 0 0 0 0 0 0 0 0 0 0 0 0 0 0 0 0 0 0 0 0 0 0 0 0 0 0 0 0 0 0 0 0 0 0 0 0 0 0 0 0 0 0 0 0 0 0 0 0 0 0 0 0 0 0 0 0 0 0 0 0 0 0 0 0 0 0 0 0 0 0 0 0 0 0 0 0 0 0 0 0 
0 0 0 0 0 0 0 0 0 0 0 0 0 0 0 0 0 0 0 0 0 0 0 0 0 0 0 0 0 0 0 0 0 0 0 0 0 0 0 0 0 0 0 0 0 0 0 0 0 0 0 0 0 0 0 0 0 0 0 0 0 0 0 0 0 0 0 0 0 0 0 0 0 1 73 69 58 65 75 76 75 75 71 60 55 51 51 54 46 36 32 44 52 50 54 58 58 54 52 58 55 51 48 46 47 43 40 40 39 39 40 52 67 55 41 38 51 46 40 38 48 50 45 48 48 64 68 64 54 72 70 82 74 58 57 51 69 76 65 62 75 78 69 73 56 66 74 80 63 53 63 57 53 62 53 48 44 47 48 46 45 54 54 42 36 36 36 38 43 44 44 43 41 41 40 40 41 39 39 43 40 41 43 45 45 47 46 47 48 48 51 49 48 47 47 44 43 43 42 40 39 35 31 26 22 21 17 14 14 14 13 13 14 18 23 29 33 39 48 54 54 67 83 96 99 99 106 114 118 124 134 135 116 53 0 0 0 0 0 0 0 0 0 0 0 0 0 0 0 0 0 0 0 0 0 0 0 0 0 0 0 0 0 0 0 0 0 0 0 0 0 0 0 0 0 0 0 0 0 0 0 0 0 0 0 0 0 0 0 0 0 0 0 0 0 0 0 0 0 0 0 0 0 0 0 0 0 0 0 0 0 0 0 0 0 0 0 0 0 0 0 0 0 0 0 0 0 0 0 0 0 0 0 0 0 0 0 0 0 0 0 0 0 0 0 0 0 0 0 0 0 0 0 0 0 0 0 0 0 
0 0 0 0 0 0 0 0 0 0 0 0 0 0 0 0 0 0 0 0 0 0 0 0 0 0 0 0 0 0 0 0 0 0 0 0 0 0 0 0 0 0 0 0 0 0 0 0 0 0 0 0 0 0 0 0 0 0 0 0 0 0 0 0 0 0 0 0 0 0 0 0 0 6 80 62 51 62 76 76 75 71 64 53 51 49 48 44 36 35 43 57 62 65 74 75 68 67 64 61 53 47 44 40 40 37 37 37 37 38 38 37 38 40 44 43 48 45 39 40 49 46 49 60 59 55 58 63 67 66 56 68 74 63 68 60 79 77 66 58 61 68 65 85 73 80 70 75 62 56 69 58 48 49 47 47 47 49 46 45 45 49 46 41 42 42 44 44 45 44 40 38 40 38 40 44 45 42 45 47 46 45 45 44 42 41 40 39 35 35 34 32 30 29 28 27 27 28 26 24 22 21 19 17 17 14 14 14 14 14 15 16 19 25 35 42 42 43 50 59 69 80 85 90 93 99 112 110 113 118 101 72 33 5 0 0 0 0 0 0 0 0 0 0 0 0 0 0 0 0 0 0 0 0 0 0 0 0 0 0 0 0 0 0 0 0 0 0 0 0 0 0 0 0 0 0 0 0 0 0 0 0 0 0 0 0 0 0 0 0 0 0 0 0 0 0 0 0 0 0 0 0 0 0 0 0 0 0 0 0 0 0 0 0 0 0 0 0 0 0 0 0 0 0 0 0 0 0 0 0 0 0 0 0 0 0 0 0 0 0 0 0 0 0 0 0 0 0 0 0 0 0 0 0 0 0 0 0 0 
0 0 0 0 0 0 0 0 0 0 0 0 0 0 0 0 0 0 0 0 0 0 0 0 0 0 0 0 0 0 0 0 0 0 0 0 0 0 0 0 0 0 0 0 0 0 0 0 0 0 0 0 0 0 0 0 0 0 0 0 0 0 0 0 0 0 0 0 0 0 0 0 0 5 76 66 55 58 75 74 69 62 58 57 53 57 56 57 66 78 90 81 76 77 67 70 67 60 57 50 44 44 41 38 38 37 38 38 40 42 45 41 38 43 47 45 47 52 46 45 48 55 55 46 53 58 52 71 85 69 69 64 67 70 63 59 61 85 94 71 81 75 65 68 62 59 69 71 50 54 54 48 50 47 45 45 45 43 43 42 40 40 43 46 44 41 39 35 34 34 32 31 32 32 33 35 34 35 34 31 33 31 32 31 31 33 34 34 35 36 39 41 44 47 49 52 54 56 56 54 42 27 18 14 14 15 18 19 19 22 24 27 31 34 36 39 41 46 56 72 85 83 78 77 89 113 99 82 57 32 14 5 0 0 0 0 0 0 0 0 0 0 0 0 0 0 0 0 0 0 0 0 0 0 0 0 0 0 0 0 0 0 0 0 0 0 0 0 0 0 0 0 0 0 0 0 0 0 0 0 0 0 0 0 0 0 0 0 0 0 0 0 0 0 0 0 0 0 0 0 0 0 0 0 0 0 0 0 0 0 0 0 0 0 0 0 0 0 0 0 0 0 0 0 0 0 0 0 0 0 0 0 0 0 0 0 0 0 0 0 0 0 0 0 0 0 0 0 0 0 0 0 0 0 0 0 0 0 0 
0 0 0 0 0 0 0 0 0 0 0 0 0 0 0 0 0 0 0 0 0 0 0 0 0 0 0 0 0 0 0 0 0 0 0 0 0 0 0 0 0 0 0 0 0 0 0 0 0 0 0 0 0 0 0 0 0 0 0 0 0 0 0 0 0 0 0 0 0 0 0 0 0 6 67 73 66 62 77 77 75 75 78 82 79 84 90 86 104 110 108 96 80 64 62 65 54 51 51 48 44 42 44 40 39 39 37 37 36 38 39 42 56 51 43 43 42 52 53 51 58 54 49 55 49 58 53 58 62 68 74 60 61 77 54 50 56 71 82 70 70 80 58 48 49 46 50 49 47 48 44 44 43 41 41 39 38 38 36 36 34 32 32 30 26 24 22 21 20 20 20 21 22 26 31 35 40 44 48 50 58 63 68 72 77 85 92 90 89 91 94 93 92 96 99 95 89 91 85 82 78 65 49 27 18 23 26 27 27 28 31 30 32 33 36 39 42 50 64 78 80 76 74 86 101 52 13 7 3 0 0 0 0 0 0 0 0 0 0 0 0 0 0 0 0 0 0 0 0 0 0 0 0 0 0 0 0 0 0 0 0 0 0 0 0 0 0 0 0 0 0 0 0 0 0 0 0 0 0 0 0 0 0 0 0 0 0 0 0 0 0 0 0 0 0 0 0 0 0 0 0 0 0 0 0 0 0 0 0 0 0 0 0 0 0 0 0 0 0 0 0 0 0 0 0 0 0 0 0 0 0 0 0 0 0 0 0 0 0 0 0 0 0 0 0 0 0 0 0 0 0 0 0 0 0 0 0 0 0 
0 0 0 0 0 0 0 0 0 0 0 0 0 0 0 0 0 0 0 0 0 0 0 0 0 0 0 0 0 0 0 0 0 0 0 0 0 0 0 0 0 0 0 0 0 0 0 0 0 0 0 0 0 0 0 0 0 0 0 0 0 0 0 0 0 0 0 0 0 0 0 0 0 6 62 71 79 81 90 92 89 89 92 100 95 104 105 83 95 91 90 91 73 62 60 57 55 51 52 50 43 41 45 41 43 38 38 37 36 41 42 38 45 49 44 44 48 49 45 45 49 49 43 46 48 43 50 57 53 53 54 72 50 51 53 50 50 55 55 46 49 48 44 42 39 42 42 41 42 39 38 38 38 38 36 35 34 32 30 29 26 24 23 22 24 27 30 35 42 47 53 61 70 79 89 94 98 104 109 111 112 117 119 118 119 117 124 132 132 138 137 137 139 150 161 160 160 170 144 98 88 80 66 50 24 20 27 30 31 31 32 34 37 37 39 42 46 57 71 76 75 75 77 100 46 2 0 0 0 0 0 0 0 0 0 0 0 0 0 0 0 0 0 0 0 0 0 0 0 0 0 0 0 0 0 0 0 0 0 0 0 0 0 0 0 0 0 0 0 0 0 0 0 0 0 0 0 0 0 0 0 0 0 0 0 0 0 0 0 0 0 0 0 0 0 0 0 0 0 0 0 0 0 0 0 0 0 0 0 0 0 0 0 0 0 0 0 0 0 0 0 0 0 0 0 0 0 0 0 0 0 0 0 0 0 0 0 0 0 0 0 0 0 0 0 0 0 0 0 0 0 0 0 0 0 0 0 0 0 
0 0 0 0 0 0 0 0 0 0 0 0 0 0 0 0 0 0 0 0 0 0 0 0 0 0 0 0 0 0 0 0 0 0 0 0 0 0 0 0 0 0 0 0 0 0 0 0 0 0 0 0 0 0 0 0 0 0 0 0 0 0 0 0 0 0 0 0 0 0 0 0 0 12 77 93 104 97 91 88 85 86 93 94 92 93 92 78 84 84 82 86 77 64 61 58 56 59 51 48 46 45 45 47 41 39 39 37 38 40 44 41 37 38 39 41 41 43 43 39 41 45 42 42 43 42 42 48 49 44 43 45 45 42 42 40 38 37 36 36 35 34 35 34 35 35 35 34 32 33 33 32 32 33 33 34 37 40 44 50 56 62 69 78 84 93 99 104 110 115 117 122 123 123 128 125 123 123 125 128 126 126 128 128 131 132 141 171 193 198 201 206 210 213 213 215 219 220 222 158 96 90 78 61 35 15 24 29 31 31 34 40 42 45 47 49 52 61 71 74 75 77 87 85 17 0 0 0 0 0 0 0 0 0 0 0 0 0 0 0 0 0 0 0 0 0 0 0 0 0 0 0 0 0 0 0 0 0 0 0 0 0 0 0 0 0 0 0 0 0 0 0 0 0 0 0 0 0 0 0 0 0 0 0 0 0 0 0 0 0 0 0 0 0 0 0 0 0 0 0 0 0 0 0 0 0 0 0 0 0 0 0 0 0 0 0 0 0 0 0 0 0 0 0 0 0 0 0 0 0 0 0 0 0 0 0 0 0 0 0 0 0 0 0 0 0 0 0 0 0 0 0 0 0 0 0 0 0 0 
0 0 0 0 0 0 0 0 0 0 0 0 0 0 0 0 0 0 0 0 0 0 0 0 0 0 0 0 0 0 0 0 0 0 0 0 0 0 0 0 0 0 0 0 0 0 0 0 0 0 0 0 0 0 0 0 0 0 0 0 0 0 0 0 0 0 0 0 0 0 0 7 45 103 111 99 88 82 87 91 91 87 90 93 91 92 94 86 76 76 80 81 73 70 74 68 57 58 54 51 48 48 49 44 41 41 41 37 41 38 37 38 38 37 38 40 39 39 40 39 39 39 39 41 40 39 39 38 37 38 36 35 34 32 32 30 28 28 29 28 28 29 28 27 29 32 33 35 39 43 49 56 65 72 79 86 92 98 109 111 110 114 119 122 122 121 122 123 123 124 129 129 131 131 132 135 135 139 139 143 144 144 145 145 146 151 164 191 213 220 222 223 224 223 221 223 223 225 235 203 116 99 88 68 50 19 21 27 29 30 35 44 51 53 56 55 56 65 74 75 77 80 95 67 8 0 0 0 0 0 0 0 0 0 0 0 0 0 0 0 0 0 0 0 0 0 0 0 0 0 0 0 0 0 0 0 0 0 0 0 0 0 0 0 0 0 0 0 0 0 0 0 0 0 0 0 0 0 0 0 0 0 0 0 0 0 0 0 0 0 0 0 0 0 0 0 0 0 0 0 0 0 0 0 0 0 0 0 0 0 0 0 0 0 0 0 0 0 0 0 0 0 0 0 0 0 0 0 0 0 0 0 0 0 0 0 0 0 0 0 0 0 0 0 0 0 0 0 0 0 0 0 0 0 0 0 0 0 0 
0 0 0 0 0 0 0 0 0 0 0 0 0 0 0 0 0 0 0 0 0 0 0 0 0 0 0 0 0 0 0 0 0 0 0 0 0 0 0 0 0 0 0 0 0 0 0 0 0 0 0 0 0 0 0 0 0 0 0 0 0 0 0 0 0 0 0 0 0 1 38 112 119 101 93 86 82 83 85 88 86 86 91 95 90 85 93 93 81 79 84 82 74 73 67 59 61 57 54 52 49 51 49 47 44 38 38 38 38 37 38 39 39 40 39 38 36 36 35 33 37 37 38 38 35 33 34 33 32 30 26 27 26 25 26 25 25 29 31 33 38 45 50 56 64 72 83 92 96 98 103 109 112 110 113 112 112 119 123 124 130 131 128 129 132 133 133 138 141 139 142 144 149 147 148 153 154 152 154 156 157 156 156 158 159 157 168 195 215 223 225 224 225 225 225 225 225 226 233 224 151 108 98 77 60 27 21 32 30 33 35 47 59 64 60 58 61 68 76 77 80 83 102 58 2 0 0 0 0 0 0 0 0 0 0 0 0 0 0 0 0 0 0 0 0 0 0 0 0 0 0 0 0 0 0 0 0 0 0 0 0 0 0 0 0 0 0 0 0 0 0 0 0 0 0 0 0 0 0 0 0 0 0 0 0 0 0 0 0 0 0 0 0 0 0 0 0 0 0 0 0 0 0 0 0 0 0 0 0 0 0 0 0 0 0 0 0 0 0 0 0 0 0 0 0 0 0 0 0 0 0 0 0 0 0 0 0 0 0 0 0 0 0 0 0 0 0 0 0 0 0 0 0 0 0 0 0 0 0 
0 0 0 0 0 0 0 0 0 0 0 0 0 0 0 0 0 0 0 0 0 0 0 0 0 0 0 0 0 0 0 0 0 0 0 0 0 0 0 0 0 0 0 0 0 0 0 0 0 0 0 0 0 0 0 0 0 0 0 0 0 0 0 0 0 0 0 0 0 16 119 118 98 90 89 85 84 88 86 87 88 86 91 96 95 95 104 100 92 88 86 87 79 77 76 73 67 67 69 59 59 53 50 45 40 38 36 36 36 36 36 36 36 38 37 32 32 36 35 32 40 40 34 31 29 28 26 24 24 24 23 27 33 38 45 51 59 68 77 87 94 100 105 108 111 113 116 114 115 113 110 110 111 120 124 122 128 133 132 135 140 139 142 144 145 148 150 150 150 153 156 154 155 158 159 160 162 162 162 162 162 162 162 165 164 163 167 189 220 229 229 229 228 228 227 228 229 229 232 233 183 119 106 86 69 39 19 32 33 33 35 46 61 67 65 62 64 73 77 79 82 91 112 42 0 0 0 0 0 0 0 0 0 0 0 0 0 0 0 0 0 0 0 0 0 0 0 0 0 0 0 0 0 0 0 0 0 0 0 0 0 0 0 0 0 0 0 0 0 0 0 0 0 0 0 0 0 0 0 0 0 0 0 0 0 0 0 0 0 0 0 0 0 0 0 0 0 0 0 0 0 0 0 0 0 0 0 0 0 0 0 0 0 0 0 0 0 0 0 0 0 0 0 0 0 0 0 0 0 0 0 0 0 0 0 0 0 0 0 0 0 0 0 0 0 0 0 0 0 0 0 0 0 0 0 0 0 0 0 
0 0 0 0 0 0 0 0 0 0 0 0 0 0 0 0 0 0 0 0 0 0 0 0 0 0 0 0 0 0 0 0 0 0 0 0 0 0 0 0 0 0 0 0 0 0 0 0 0 0 0 0 0 0 0 0 0 0 0 0 0 0 0 0 0 0 0 0 0 42 117 103 97 90 86 85 88 87 88 89 86 88 91 95 101 103 113 110 109 105 98 94 93 98 101 90 85 82 78 73 66 48 40 40 34 35 37 38 39 39 38 39 38 37 36 35 36 34 32 31 28 26 26 25 28 31 35 43 51 61 68 78 87 95 102 105 109 110 110 111 112 112 114 115 116 116 117 121 119 126 133 131 132 137 138 143 143 143 148 151 147 145 150 150 150 153 156 155 156 160 162 162 163 163 165 166 167 168 167 169 170 169 169 170 169 169 174 188 217 230 231 232 231 230 230 231 231 232 234 234 201 134 114 95 75 53 23 29 33 32 36 46 59 65 67 66 67 73 77 80 83 101 114 23 0 0 0 0 0 0 0 0 0 0 0 0 0 0 0 0 0 0 0 0 0 0 0 0 0 0 0 0 0 0 0 0 0 0 0 0 0 0 0 0 0 0 0 0 0 0 0 0 0 0 0 0 0 0 0 0 0 0 0 0 0 0 0 0 0 0 0 0 0 0 0 0 0 0 0 0 0 0 0 0 0 0 0 0 0 0 0 0 0 0 0 0 0 0 0 0 0 0 0 0 0 0 0 0 0 0 0 0 0 0 0 0 0 0 0 0 0 0 0 0 0 0 0 0 0 0 0 0 0 0 0 0 0 0 0 
0 0 0 0 0 0 0 0 0 0 0 0 0 0 0 0 0 0 0 0 0 0 0 0 0 0 0 0 0 0 0 0 0 0 0 0 0 0 0 0 0 0 0 0 0 0 0 0 0 0 0 0 0 0 0 0 0 0 0 0 0 0 0 0 0 0 0 0 0 25 104 104 94 90 89 86 87 89 89 90 90 88 91 98 106 113 120 118 122 121 118 114 116 90 84 97 89 80 60 49 44 39 37 39 38 43 46 44 43 40 36 32 30 27 25 26 25 26 28 31 37 45 55 63 74 84 92 97 104 106 107 109 108 109 110 111 114 115 121 123 122 127 134 131 132 137 137 132 129 139 147 147 149 148 149 152 152 151 152 154 153 154 155 157 159 160 161 159 155 150 148 144 144 144 154 159 165 170 172 173 172 172 172 173 173 174 179 190 215 232 232 229 232 233 232 232 233 234 236 232 214 150 121 106 84 65 29 25 33 34 35 46 61 69 67 66 68 74 79 82 92 101 96 19 0 0 0 0 0 0 0 0 0 0 0 0 0 0 0 0 0 0 0 0 0 0 0 0 0 0 0 0 0 0 0 0 0 0 0 0 0 0 0 0 0 0 0 0 0 0 0 0 0 0 0 0 0 0 0 0 0 0 0 0 0 0 0 0 0 0 0 0 0 0 0 0 0 0 0 0 0 0 0 0 0 0 0 0 0 0 0 0 0 0 0 0 0 0 0 0 0 0 0 0 0 0 0 0 0 0 0 0 0 0 0 0 0 0 0 0 0 0 0 0 0 0 0 0 0 0 0 0 0 0 0 0 0 0 0 
0 0 0 0 0 0 0 0 0 0 0 0 0 0 0 0 0 0 0 0 0 0 0 0 0 0 0 0 0 0 0 0 0 0 0 0 0 0 0 0 0 0 0 0 0 0 0 0 0 0 0 0 0 0 0 0 0 0 0 0 0 0 0 0 0 0 0 0 0 16 101 103 94 90 89 88 88 88 88 90 90 88 89 98 108 120 133 133 130 127 121 114 98 54 70 65 42 48 35 31 37 38 34 32 30 28 25 24 24 24 25 25 27 31 37 43 52 61 70 79 87 92 97 101 103 103 104 108 109 108 111 113 114 115 119 125 130 133 138 140 139 142 144 144 147 145 144 145 149 153 153 154 155 155 156 157 159 157 157 158 160 163 163 160 152 136 117 96 76 55 46 44 47 45 55 69 93 137 167 178 179 175 176 177 177 179 188 195 213 232 234 232 234 234 233 234 235 237 238 240 230 170 129 114 93 76 42 25 35 35 38 43 58 68 67 66 71 75 79 84 100 92 79 20 0 0 0 0 0 0 0 0 0 0 0 0 0 0 0 0 0 0 0 0 0 0 0 0 0 0 0 0 0 0 0 0 0 0 0 0 0 0 0 0 0 0 0 0 0 0 0 0 0 0 0 0 0 0 0 0 0 0 0 0 0 0 0 0 0 0 0 0 0 0 0 0 0 0 0 0 0 0 0 0 0 0 0 0 0 0 0 0 0 0 0 0 0 0 0 0 0 0 0 0 0 0 0 0 0 0 0 0 0 0 0 0 0 0 0 0 0 0 0 0 0 0 0 0 0 0 0 0 0 0 0 0 0 0 0 
0 0 0 0 0 0 0 0 0 0 0 0 0 0 0 0 0 0 0 0 0 0 0 0 0 0 0 0 0 0 0 0 0 0 0 0 0 0 0 0 0 0 0 0 0 0 0 0 0 0 0 0 0 0 0 0 0 0 0 0 0 0 0 0 0 0 0 0 0 7 97 103 96 92 89 89 88 91 88 86 88 88 86 90 106 131 140 129 120 103 84 64 45 40 47 25 18 22 19 16 17 18 20 18 17 18 20 25 30 37 46 54 64 72 80 84 89 90 91 93 94 97 104 108 113 116 119 127 122 126 129 134 136 135 137 138 139 143 142 145 148 150 150 151 152 148 149 155 156 157 157 159 159 159 159 156 161 161 159 162 168 159 131 95 62 37 23 17 14 13 14 15 16 18 14 14 15 28 59 119 173 188 180 182 182 182 188 195 210 228 236 237 236 234 234 236 236 236 239 240 233 186 137 121 101 82 55 26 35 37 38 41 50 63 65 64 74 79 81 91 100 83 63 11 0 0 0 0 0 0 0 0 0 0 0 0 0 0 0 0 0 0 0 0 0 0 0 0 0 0 0 0 0 0 0 0 0 0 0 0 0 0 0 0 0 0 0 0 0 0 0 0 0 0 0 0 0 0 0 0 0 0 0 0 0 0 0 0 0 0 0 0 0 0 0 0 0 0 0 0 0 0 0 0 0 0 0 0 0 0 0 0 0 0 0 0 0 0 0 0 0 0 0 0 0 0 0 0 0 0 0 0 0 0 0 0 0 0 0 0 0 0 0 0 0 0 0 0 0 0 0 0 0 0 0 0 0 0 0 
0 0 0 0 0 0 0 0 0 0 0 0 0 0 0 0 0 0 0 0 0 0 0 0 0 0 0 0 0 0 0 0 0 0 0 0 0 0 0 0 0 0 0 0 0 0 0 0 0 0 0 0 0 0 0 0 0 0 0 0 0 0 0 0 0 0 0 0 0 0 88 107 95 95 90 88 88 92 87 82 87 86 86 85 96 108 102 78 55 42 30 23 19 15 9 9 11 11 11 12 13 13 13 12 19 30 43 55 63 71 77 81 82 81 82 86 90 95 104 107 110 116 123 127 132 138 140 138 138 139 142 143 145 146 147 148 147 148 151 152 152 154 154 155 157 158 157 159 159 159 160 161 161 162 160 159 163 165 164 165 142 79 33 20 16 12 12 23 37 56 72 85 92 96 92 83 74 45 25 26 73 161 188 184 185 184 187 197 209 228 237 237 236 235 235 236 236 237 238 240 239 200 148 130 110 91 71 33 32 39 39 42 40 52 65 66 73 80 84 100 90 67 49 4 0 0 0 0 0 0 0 0 0 0 0 0 0 0 0 0 0 0 0 0 0 0 0 0 0 0 0 0 0 0 0 0 0 0 0 0 0 0 0 0 0 0 0 0 0 0 0 0 0 0 0 0 0 0 0 0 0 0 0 0 0 0 0 0 0 0 0 0 0 0 0 0 0 0 0 0 0 0 0 0 0 0 0 0 0 0 0 0 0 0 0 0 0 0 0 0 0 0 0 0 0 0 0 0 0 0 0 0 0 0 0 0 0 0 0 0 0 0 0 0 0 0 0 0 0 0 0 0 0 0 0 0 0 0 0 
0 0 0 0 0 0 0 0 0 0 0 0 0 0 0 0 0 0 0 0 0 0 0 0 0 0 0 0 0 0 0 0 0 0 0 0 0 0 0 0 0 0 0 0 0 0 0 0 0 0 0 0 0 0 0 0 0 0 0 0 0 0 0 0 0 0 0 0 0 0 78 108 100 93 94 89 88 86 86 84 80 88 96 87 70 53 38 27 18 14 12 10 10 11 11 11 13 13 12 12 11 10 10 20 39 54 62 64 75 97 107 105 96 93 96 105 110 116 119 127 132 135 136 139 142 143 142 143 147 146 149 151 150 151 152 154 154 155 155 155 155 156 159 159 159 162 161 162 162 162 162 163 165 167 165 166 167 168 170 140 40 13 16 24 29 36 59 99 137 159 171 178 181 183 182 181 179 168 152 105 51 92 187 188 186 186 195 199 210 229 237 237 237 237 235 235 237 238 237 238 238 213 164 139 121 99 83 47 31 39 40 45 43 50 61 66 74 82 92 105 72 62 48 1 0 0 0 0 0 0 0 0 0 0 0 0 0 0 0 0 0 0 0 0 0 0 0 0 0 0 0 0 0 0 0 0 0 0 0 0 0 0 0 0 0 0 0 0 0 0 0 0 0 0 0 0 0 0 0 0 0 0 0 0 0 0 0 0 0 0 0 0 0 0 0 0 0 0 0 0 0 0 0 0 0 0 0 0 0 0 0 0 0 0 0 0 0 0 0 0 0 0 0 0 0 0 0 0 0 0 0 0 0 0 0 0 0 0 0 0 0 0 0 0 0 0 0 0 0 0 0 0 0 0 0 0 0 0 0 
0 0 0 0 0 0 0 0 0 0 0 0 0 0 0 0 0 0 0 0 0 0 0 0 0 0 0 0 0 0 0 0 0 0 0 0 0 0 0 0 0 0 0 0 0 0 0 0 0 0 0 0 0 0 0 0 0 0 0 0 0 0 0 0 0 0 0 0 0 0 67 110 106 96 94 93 86 81 86 89 85 85 83 62 35 23 20 19 16 14 15 16 17 19 19 19 18 18 17 17 15 11 14 33 47 56 59 74 131 160 162 150 124 114 117 122 125 129 130 136 139 141 142 146 146 148 150 148 151 153 154 155 156 155 156 157 157 157 159 160 160 161 161 161 162 162 162 163 164 166 166 166 167 168 170 169 170 172 173 131 23 12 28 51 95 137 166 179 181 181 182 183 184 184 185 187 189 191 193 193 178 158 182 190 188 187 194 198 213 228 235 238 238 238 236 238 238 237 237 234 237 220 176 146 131 110 91 66 33 37 41 42 44 48 56 67 77 85 103 96 47 65 42 0 0 0 0 0 0 0 0 0 0 0 0 0 0 0 0 0 0 0 0 0 0 0 0 0 0 0 0 0 0 0 0 0 0 0 0 0 0 0 0 0 0 0 0 0 0 0 0 0 0 0 0 0 0 0 0 0 0 0 0 0 0 0 0 0 0 0 0 0 0 0 0 0 0 0 0 0 0 0 0 0 0 0 0 0 0 0 0 0 0 0 0 0 0 0 0 0 0 0 0 0 0 0 0 0 0 0 0 0 0 0 0 0 0 0 0 0 0 0 0 0 0 0 0 0 0 0 0 0 0 0 0 0 0 0 0 
0 0 0 0 0 0 0 0 0 0 0 0 0 0 0 0 0 0 0 0 0 0 0 0 0 0 0 0 0 0 0 0 0 0 0 0 0 0 0 0 0 0 0 0 0 0 0 0 0 0 0 0 0 0 0 0 0 0 0 0 0 0 0 0 0 0 0 0 0 0 53 113 111 100 98 97 93 92 96 92 87 71 50 41 33 30 30 28 28 30 33 35 37 37 34 29 24 21 21 19 16 10 20 37 51 58 62 116 180 178 175 162 137 126 127 127 131 135 138 139 142 145 147 149 151 153 153 154 155 156 158 159 158 159 159 160 161 161 161 161 162 163 162 162 165 163 164 165 165 166 167 168 169 169 170 172 172 172 174 171 109 40 79 150 178 182 180 180 180 179 181 183 185 185 186 188 188 188 189 191 197 200 190 189 188 189 195 197 211 228 234 238 238 237 237 238 237 237 238 241 238 221 188 158 143 122 100 83 45 33 39 39 43 48 56 68 81 90 110 76 28 59 39 0 0 0 0 0 0 0 0 0 0 0 0 0 0 0 0 0 0 0 0 0 0 0 0 0 0 0 0 0 0 0 0 0 0 0 0 0 0 0 0 0 0 0 0 0 0 0 0 0 0 0 0 0 0 0 0 0 0 0 0 0 0 0 0 0 0 0 0 0 0 0 0 0 0 0 0 0 0 0 0 0 0 0 0 0 0 0 0 0 0 0 0 0 0 0 0 0 0 0 0 0 0 0 0 0 0 0 0 0 0 0 0 0 0 0 0 0 0 0 0 0 0 0 0 0 0 0 0 0 0 0 0 0 0 0 0 
0 0 0 0 0 0 0 0 0 0 0 0 0 0 0 0 0 0 0 0 0 0 0 0 0 0 0 0 0 0 0 0 0 0 0 0 0 0 0 0 0 0 0 0 0 0 0 0 0 0 0 0 0 0 0 0 0 0 0 0 0 0 0 0 0 0 0 0 0 0 35 119 118 111 109 106 106 104 100 87 80 72 57 49 44 44 41 44 49 48 47 46 46 41 33 27 22 21 19 18 14 11 25 42 55 60 81 155 180 173 172 160 141 130 130 133 136 139 142 144 146 151 152 153 155 156 156 159 158 160 160 161 161 161 161 162 162 163 162 163 163 164 165 165 165 166 168 169 168 169 169 171 173 173 173 173 174 174 174 176 176 157 170 183 177 179 181 182 182 183 185 185 186 189 189 191 191 191 192 193 193 193 192 190 189 191 191 193 210 229 235 236 237 238 238 238 237 237 238 239 232 221 203 179 155 135 111 93 68 35 36 34 39 46 59 71 81 98 108 51 29 58 35 0 0 0 0 0 0 0 0 0 0 0 0 0 0 0 0 0 0 0 0 0 0 0 0 0 0 0 0 0 0 0 0 0 0 0 0 0 0 0 0 0 0 0 0 0 0 0 0 0 0 0 0 0 0 0 0 0 0 0 0 0 0 0 0 0 0 0 0 0 0 0 0 0 0 0 0 0 0 0 0 0 0 0 0 0 0 0 0 0 0 0 0 0 0 0 0 0 0 0 0 0 0 0 0 0 0 0 0 0 0 0 0 0 0 0 0 0 0 0 0 0 0 0 0 0 0 0 0 0 0 0 0 0 0 0 0 
0 0 0 0 0 0 0 0 0 0 0 0 0 0 0 0 0 0 0 0 0 0 0 0 0 0 0 0 0 0 0 0 0 0 0 0 0 0 0 0 0 0 0 0 0 0 0 0 0 0 0 0 0 0 0 0 0 0 0 0 0 0 0 0 0 0 0 0 0 0 17 122 128 122 119 117 116 115 109 100 86 67 61 59 62 61 60 63 64 63 62 60 55 45 35 27 23 21 21 20 13 13 31 47 58 64 108 178 179 177 179 170 146 131 133 139 140 143 147 148 151 153 156 157 157 160 160 160 161 162 161 161 163 161 162 163 163 166 163 165 166 165 165 167 171 168 169 171 171 171 172 173 174 174 176 175 175 177 177 177 181 188 184 179 181 183 183 183 184 185 186 187 189 191 191 193 192 194 195 195 195 194 194 192 191 192 191 198 214 227 235 236 235 236 238 239 238 237 240 238 230 223 213 194 168 148 127 103 90 53 36 40 42 47 59 69 83 107 86 32 39 72 29 0 0 0 0 0 0 0 0 0 0 0 0 0 0 0 0 0 0 0 0 0 0 0 0 0 0 0 0 0 0 0 0 0 0 0 0 0 0 0 0 0 0 0 0 0 0 0 0 0 0 0 0 0 0 0 0 0 0 0 0 0 0 0 0 0 0 0 0 0 0 0 0 0 0 0 0 0 0 0 0 0 0 0 0 0 0 0 0 0 0 0 0 0 0 0 0 0 0 0 0 0 0 0 0 0 0 0 0 0 0 0 0 0 0 0 0 0 0 0 0 0 0 0 0 0 0 0 0 0 0 0 0 0 0 0 0 
0 0 0 0 0 0 0 0 0 0 0 0 0 0 0 0 0 0 0 0 0 0 0 0 0 0 0 0 0 0 0 0 0 0 0 0 0 0 0 0 0 0 0 0 0 0 0 0 0 0 0 0 0 0 0 0 0 0 0 0 0 0 0 0 0 0 0 0 0 0 1 87 132 126 121 120 117 115 113 113 100 79 74 81 87 84 84 84 77 76 74 74 68 52 37 28 24 23 24 21 14 17 36 52 62 71 137 187 183 183 185 177 153 137 138 142 145 147 148 151 153 157 158 160 161 162 163 162 163 162 163 163 163 165 166 165 166 166 166 167 166 167 169 175 167 166 171 173 172 174 175 175 175 176 176 177 177 179 179 180 180 179 182 184 184 184 185 186 187 187 189 191 191 192 192 194 194 195 197 196 196 196 195 195 194 195 197 205 215 227 236 239 236 236 238 239 240 239 241 242 237 229 215 199 183 164 140 119 102 83 54 58 61 52 47 64 96 108 57 28 40 66 26 0 0 0 0 0 0 0 0 0 0 0 0 0 0 0 0 0 0 0 0 0 0 0 0 0 0 0 0 0 0 0 0 0 0 0 0 0 0 0 0 0 0 0 0 0 0 0 0 0 0 0 0 0 0 0 0 0 0 0 0 0 0 0 0 0 0 0 0 0 0 0 0 0 0 0 0 0 0 0 0 0 0 0 0 0 0 0 0 0 0 0 0 0 0 0 0 0 0 0 0 0 0 0 0 0 0 0 0 0 0 0 0 0 0 0 0 0 0 0 0 0 0 0 0 0 0 0 0 0 0 0 0 0 0 0 0 
0 0 0 0 0 0 0 0 0 0 0 0 0 0 0 0 0 0 0 0 0 0 0 0 0 0 0 0 0 0 0 0 0 0 0 0 0 0 0 0 0 0 0 0 0 0 0 0 0 0 0 0 0 0 0 0 0 0 0 0 0 0 0 0 0 0 0 0 0 0 0 19 60 79 78 77 73 74 65 54 68 96 91 96 100 100 95 93 87 79 74 78 74 56 38 30 26 24 24 20 13 21 40 54 66 83 159 189 183 184 187 178 156 144 142 145 148 149 150 153 157 160 160 162 163 163 163 166 164 166 167 167 167 167 168 168 167 166 167 170 172 175 176 123 100 161 177 174 175 176 176 177 177 177 179 179 179 180 181 181 182 182 184 185 185 185 187 189 188 188 190 191 192 192 194 194 196 197 197 197 198 197 198 196 195 196 198 204 213 224 231 234 236 238 239 240 242 243 242 242 241 232 216 198 193 181 155 134 115 102 78 46 46 42 37 72 114 84 38 34 38 58 21 0 0 0 0 0 0 0 0 0 0 0 0 0 0 0 0 0 0 0 0 0 0 0 0 0 0 0 0 0 0 0 0 0 0 0 0 0 0 0 0 0 0 0 0 0 0 0 0 0 0 0 0 0 0 0 0 0 0 0 0 0 0 0 0 0 0 0 0 0 0 0 0 0 0 0 0 0 0 0 0 0 0 0 0 0 0 0 0 0 0 0 0 0 0 0 0 0 0 0 0 0 0 0 0 0 0 0 0 0 0 0 0 0 0 0 0 0 0 0 0 0 0 0 0 0 0 0 0 0 0 0 0 0 0 0 0 
0 0 0 0 0 0 0 0 0 0 0 0 0 0 0 0 0 0 0 0 0 0 0 0 0 0 0 0 0 0 0 0 0 0 0 0 0 0 0 0 0 0 0 0 0 0 0 0 0 0 0 0 0 0 0 0 0 0 0 0 0 0 0 0 0 0 0 0 0 0 0 0 0 0 0 1 1 1 0 0 7 82 104 98 105 107 103 97 87 80 80 80 75 58 38 29 26 24 26 20 12 25 43 57 69 102 178 189 185 188 188 182 164 149 144 146 148 150 154 156 159 161 164 166 165 165 166 166 166 167 167 166 168 167 169 172 172 174 175 171 161 141 94 22 66 170 179 175 177 176 177 177 178 179 179 181 180 181 181 183 183 184 185 185 187 187 189 189 192 195 197 196 194 192 195 197 197 198 198 198 198 198 198 197 198 198 200 206 212 222 231 237 240 241 241 240 241 242 242 241 241 233 217 201 195 193 178 152 130 114 93 55 38 34 49 95 94 45 34 37 40 56 15 0 0 0 0 0 0 0 0 0 0 0 0 0 0 0 0 0 0 0 0 0 0 0 0 0 0 0 0 0 0 0 0 0 0 0 0 0 0 0 0 0 0 0 0 0 0 0 0 0 0 0 0 0 0 0 0 0 0 0 0 0 0 0 0 0 0 0 0 0 0 0 0 0 0 0 0 0 0 0 0 0 0 0 0 0 0 0 0 0 0 0 0 0 0 0 0 0 0 0 0 0 0 0 0 0 0 0 0 0 0 0 0 0 0 0 0 0 0 0 0 0 0 0 0 0 0 0 0 0 0 0 0 0 0 0 0 
0 0 0 0 0 0 0 0 0 0 0 0 0 0 0 0 0 0 0 0 0 0 0 0 0 0 0 0 0 0 0 0 0 0 0 0 0 0 0 0 0 0 0 0 0 0 0 0 0 0 0 0 0 0 0 0 0 0 0 0 0 0 0 0 0 0 0 0 0 0 0 0 0 0 0 0 0 0 0 0 0 46 106 100 105 108 108 104 90 81 80 80 76 57 37 29 27 25 24 20 14 31 47 62 73 119 188 189 187 189 190 187 172 153 146 148 150 153 156 158 160 164 166 167 165 164 166 166 166 169 171 173 174 174 171 164 155 142 121 93 67 41 14 21 124 178 175 175 178 178 178 178 179 181 181 181 182 182 184 184 185 187 187 187 188 187 188 196 195 185 181 189 199 198 195 196 198 199 199 199 199 200 199 200 199 200 203 206 211 223 233 239 239 240 240 241 241 240 242 243 242 236 219 204 199 199 195 179 154 133 120 124 123 116 135 103 37 31 40 39 43 56 10 0 0 0 0 0 0 0 0 0 0 0 0 0 0 0 0 0 0 0 0 0 0 0 0 0 0 0 0 0 0 0 0 0 0 0 0 0 0 0 0 0 0 0 0 0 0 0 0 0 0 0 0 0 0 0 0 0 0 0 0 0 0 0 0 0 0 0 0 0 0 0 0 0 0 0 0 0 0 0 0 0 0 0 0 0 0 0 0 0 0 0 0 0 0 0 0 0 0 0 0 0 0 0 0 0 0 0 0 0 0 0 0 0 0 0 0 0 0 0 0 0 0 0 0 0 0 0 0 0 0 0 0 0 0 0 0 
0 0 0 0 0 0 0 0 0 0 0 0 0 0 0 0 0 0 0 0 0 0 0 0 0 0 0 0 0 0 0 0 0 0 0 0 0 0 0 0 0 0 0 0 0 0 0 0 0 0 0 0 0 0 0 0 0 0 0 0 0 0 0 0 0 0 0 0 0 0 0 0 0 0 0 0 0 0 0 0 0 20 103 107 105 111 111 107 96 87 81 81 73 54 36 29 27 26 23 17 15 36 50 66 79 135 191 189 189 190 192 186 174 158 151 150 154 155 157 160 162 165 164 165 169 171 170 170 169 163 154 141 129 109 86 72 59 46 33 27 20 11 26 112 173 175 175 178 179 179 179 180 181 182 183 183 185 185 186 186 186 187 189 189 186 192 195 167 111 76 66 83 123 178 199 197 199 200 200 200 200 201 200 201 200 200 200 204 210 224 235 238 239 241 242 242 242 242 244 246 245 240 223 205 198 198 199 197 187 172 166 175 193 208 217 123 20 33 44 39 49 49 5 0 0 0 0 0 0 0 0 0 0 0 0 0 0 0 0 0 0 0 0 0 0 0 0 0 0 0 0 0 0 0 0 0 0 0 0 0 0 0 0 0 0 0 0 0 0 0 0 0 0 0 0 0 0 0 0 0 0 0 0 0 0 0 0 0 0 0 0 0 0 0 0 0 0 0 0 0 0 0 0 0 0 0 0 0 0 0 0 0 0 0 0 0 0 0 0 0 0 0 0 0 0 0 0 0 0 0 0 0 0 0 0 0 0 0 0 0 0 0 0 0 0 0 0 0 0 0 0 0 0 0 0 0 0 0 0 
0 0 0 0 0 0 0 0 0 0 0 0 0 0 0 0 0 0 0 0 0 0 0 0 0 0 0 0 0 0 0 0 0 0 0 0 0 0 0 0 0 0 0 0 0 0 0 0 0 0 0 0 0 0 0 0 0 0 0 0 0 0 0 0 0 0 0 0 0 0 0 0 0 0 0 0 0 0 0 0 0 10 94 113 107 112 115 109 99 91 85 83 71 50 37 31 28 25 24 15 14 38 54 70 84 151 196 191 192 193 194 191 180 161 153 153 154 156 158 161 165 166 165 169 159 135 113 101 79 60 51 38 28 22 21 21 18 17 17 24 36 64 127 173 177 175 179 179 180 182 181 182 182 182 183 184 184 185 187 187 186 187 188 189 192 189 125 49 28 25 25 27 32 65 158 201 199 200 200 201 201 202 201 201 201 201 203 204 209 224 236 241 242 245 246 245 245 246 246 246 245 240 226 207 200 200 200 200 200 196 193 194 201 216 228 150 27 33 45 39 51 51 2 0 0 0 0 0 0 0 0 0 0 0 0 0 0 0 0 0 0 0 0 0 0 0 0 0 0 0 0 0 0 0 0 0 0 0 0 0 0 0 0 0 0 0 0 0 0 0 0 0 0 0 0 0 0 0 0 0 0 0 0 0 0 0 0 0 0 0 0 0 0 0 0 0 0 0 0 0 0 0 0 0 0 0 0 0 0 0 0 0 0 0 0 0 0 0 0 0 0 0 0 0 0 0 0 0 0 0 0 0 0 0 0 0 0 0 0 0 0 0 0 0 0 0 0 0 0 0 0 0 0 0 0 0 0 0 0 
0 0 0 0 0 0 0 0 0 0 0 0 0 0 0 0 0 0 0 0 0 0 0 0 0 0 0 0 0 0 0 0 0 0 0 0 0 0 0 0 0 0 0 0 0 0 0 0 0 0 0 0 0 0 0 0 0 0 0 0 0 0 0 0 0 0 0 0 0 0 0 0 0 0 0 0 0 0 0 0 0 7 72 115 108 112 116 113 106 98 91 80 69 47 39 35 29 25 23 15 19 41 59 74 90 166 199 192 194 195 197 197 185 162 154 155 155 157 160 164 166 168 173 124 59 33 29 29 21 26 32 32 30 30 33 39 49 61 78 101 131 159 174 176 176 179 179 179 181 181 182 182 183 183 184 184 185 186 187 187 188 188 189 191 192 127 30 20 26 27 29 30 28 26 50 162 200 200 200 201 201 202 203 203 202 204 205 205 210 222 235 241 245 246 246 246 246 246 245 247 246 242 230 215 204 200 201 201 202 202 202 203 206 211 227 171 39 32 46 41 55 42 0 0 0 0 0 0 0 0 0 0 0 0 0 0 0 0 0 0 0 0 0 0 0 0 0 0 0 0 0 0 0 0 0 0 0 0 0 0 0 0 0 0 0 0 0 0 0 0 0 0 0 0 0 0 0 0 0 0 0 0 0 0 0 0 0 0 0 0 0 0 0 0 0 0 0 0 0 0 0 0 0 0 0 0 0 0 0 0 0 0 0 0 0 0 0 0 0 0 0 0 0 0 0 0 0 0 0 0 0 0 0 0 0 0 0 0 0 0 0 0 0 0 0 0 0 0 0 0 0 0 0 0 0 0 0 0 0 
0 0 0 0 0 0 0 0 0 0 0 0 0 0 0 0 0 0 0 0 0 0 0 0 0 0 0 0 0 0 0 0 0 0 0 0 0 0 0 0 0 0 0 0 0 0 0 0 0 0 0 0 0 0 0 0 0 0 0 0 0 0 0 0 0 0 0 0 0 0 0 0 0 0 0 0 0 0 0 0 0 1 46 114 110 111 118 115 110 105 98 84 67 49 39 35 30 27 24 15 25 47 64 79 106 181 199 196 197 198 200 198 184 164 156 156 158 160 163 165 166 168 172 138 104 95 104 115 118 123 126 133 127 123 132 130 130 134 149 168 171 171 173 176 178 180 180 182 182 182 183 184 185 185 186 186 187 188 188 189 190 189 191 194 164 54 19 29 31 31 30 31 30 30 20 72 182 200 201 202 202 203 203 205 205 205 205 205 208 221 235 244 246 246 245 246 246 244 246 247 247 244 232 214 204 202 202 203 204 204 205 208 209 212 228 190 51 30 45 41 59 36 0 0 0 0 0 0 0 0 0 0 0 0 0 0 0 0 0 0 0 0 0 0 0 0 0 0 0 0 0 0 0 0 0 0 0 0 0 0 0 0 0 0 0 0 0 0 0 0 0 0 0 0 0 0 0 0 0 0 0 0 0 0 0 0 0 0 0 0 0 0 0 0 0 0 0 0 0 0 0 0 0 0 0 0 0 0 0 0 0 0 0 0 0 0 0 0 0 0 0 0 0 0 0 0 0 0 0 0 0 0 0 0 0 0 0 0 0 0 0 0 0 0 0 0 0 0 0 0 0 0 0 0 0 0 0 0 0 
0 0 0 0 0 0 0 0 0 0 0 0 0 0 0 0 0 0 0 0 0 0 0 0 0 0 0 0 0 0 0 0 0 0 0 0 0 0 0 0 0 0 0 0 0 0 0 0 0 0 0 0 0 0 0 0 0 0 0 0 0 0 0 0 0 0 0 0 0 0 0 0 0 0 0 0 0 0 0 0 0 0 24 102 119 112 118 123 116 105 103 89 68 50 40 34 29 26 24 16 28 50 69 83 121 194 200 198 200 203 203 201 190 171 159 160 160 164 166 167 168 169 169 170 170 169 169 170 170 169 168 165 164 160 114 64 54 56 65 105 159 180 175 179 180 181 183 184 184 184 186 187 187 188 188 189 189 190 191 191 191 194 194 190 117 28 26 32 32 35 31 28 29 30 27 30 144 200 203 204 203 204 206 205 206 205 206 207 208 218 234 244 246 246 246 245 246 246 247 246 244 244 237 218 204 204 204 205 205 206 208 209 210 213 228 200 62 29 45 44 57 26 0 0 0 0 0 0 0 0 0 0 0 0 0 0 0 0 0 0 0 0 0 0 0 0 0 0 0 0 0 0 0 0 0 0 0 0 0 0 0 0 0 0 0 0 0 0 0 0 0 0 0 0 0 0 0 0 0 0 0 0 0 0 0 0 0 0 0 0 0 0 0 0 0 0 0 0 0 0 0 0 0 0 0 0 0 0 0 0 0 0 0 0 0 0 0 0 0 0 0 0 0 0 0 0 0 0 0 0 0 0 0 0 0 0 0 0 0 0 0 0 0 0 0 0 0 0 0 0 0 0 0 0 0 0 0 0 0 
0 0 0 0 0 0 0 0 0 0 0 0 0 0 0 0 0 0 0 0 0 0 0 0 0 0 0 0 0 0 0 0 0 0 0 0 0 0 0 0 0 0 0 0 0 0 0 0 0 0 0 0 0 0 0 0 0 0 0 0 0 0 0 0 0 0 0 0 0 0 0 0 0 0 0 0 0 0 0 0 0 0 9 80 122 118 123 123 115 108 103 94 75 52 38 34 29 26 22 17 32 55 76 89 137 199 203 201 203 205 207 207 198 178 166 164 164 168 169 170 170 172 172 172 173 172 172 172 173 173 171 171 163 89 26 21 24 26 24 28 59 144 184 183 184 185 186 188 187 187 189 189 190 192 192 192 192 192 194 193 194 194 196 183 85 21 30 36 36 33 29 30 30 32 32 24 107 198 202 204 205 206 206 207 208 208 207 208 208 214 232 245 246 245 246 246 246 246 246 246 246 244 240 222 208 205 205 205 206 206 208 209 212 213 227 213 81 30 45 46 60 20 0 0 0 0 0 0 0 0 0 0 0 0 0 0 0 0 0 0 0 0 0 0 0 0 0 0 0 0 0 0 0 0 0 0 0 0 0 0 0 0 0 0 0 0 0 0 0 0 0 0 0 0 0 0 0 0 0 0 0 0 0 0 0 0 0 0 0 0 0 0 0 0 0 0 0 0 0 0 0 0 0 0 0 0 0 0 0 0 0 0 0 0 0 0 0 0 0 0 0 0 0 0 0 0 0 0 0 0 0 0 0 0 0 0 0 0 0 0 0 0 0 0 0 0 0 0 0 0 0 0 0 0 0 0 0 0 0 
0 0 0 0 0 0 0 0 0 0 0 0 0 0 0 0 0 0 0 0 0 0 0 0 0 0 0 0 0 0 0 0 0 0 0 0 0 0 0 0 0 0 0 0 0 0 0 0 0 0 0 0 0 0 0 0 0 0 0 0 0 0 0 0 0 0 0 0 0 0 0 0 0 0 0 0 0 0 0 0 0 0 1 51 115 116 119 122 119 110 108 97 74 54 40 33 30 27 22 17 38 59 84 97 158 204 205 207 209 210 211 211 204 184 170 168 170 171 173 174 175 176 177 176 178 178 178 179 178 178 178 177 109 21 22 29 28 28 31 28 19 49 154 189 188 189 189 192 191 191 192 192 192 193 194 193 193 195 195 195 195 195 198 182 81 22 30 36 34 30 30 32 32 32 34 26 88 193 203 205 205 207 207 208 209 208 209 209 209 216 231 241 243 245 245 246 247 246 248 246 246 248 241 223 210 206 205 206 206 208 209 210 213 213 226 220 100 31 44 46 62 16 0 0 0 0 0 0 0 0 0 0 0 0 0 0 0 0 0 0 0 0 0 0 0 0 0 0 0 0 0 0 0 0 0 0 0 0 0 0 0 0 0 0 0 0 0 0 0 0 0 0 0 0 0 0 0 0 0 0 0 0 0 0 0 0 0 0 0 0 0 0 0 0 0 0 0 0 0 0 0 0 0 0 0 0 0 0 0 0 0 0 0 0 0 0 0 0 0 0 0 0 0 0 0 0 0 0 0 0 0 0 0 0 0 0 0 0 0 0 0 0 0 0 0 0 0 0 0 0 0 0 0 0 0 0 0 0 0 
0 0 0 0 0 0 0 0 0 0 0 0 0 0 0 0 0 0 0 0 0 0 0 0 0 0 0 0 0 0 0 0 0 0 0 0 0 0 0 0 0 0 0 0 0 0 0 0 0 0 0 0 0 0 0 0 0 0 0 0 0 0 0 0 0 0 0 0 0 0 0 0 0 0 0 0 0 0 0 0 0 0 0 18 98 120 113 122 125 122 113 95 74 51 40 34 29 26 21 20 43 68 93 107 177 213 210 209 212 214 216 216 207 191 178 174 175 175 176 178 179 180 180 181 182 181 182 182 183 182 182 149 36 19 25 26 27 28 29 28 24 22 84 178 194 193 192 191 192 193 194 195 195 195 194 196 195 197 196 197 198 199 199 189 99 25 30 31 31 32 31 31 31 31 35 27 92 195 205 206 206 207 209 209 208 209 210 209 211 218 230 241 244 246 246 245 246 246 247 246 247 249 242 222 207 206 206 206 207 208 210 212 213 214 223 226 122 34 44 51 54 8 0 0 0 0 0 0 0 0 0 0 0 0 0 0 0 0 0 0 0 0 0 0 0 0 0 0 0 0 0 0 0 0 0 0 0 0 0 0 0 0 0 0 0 0 0 0 0 0 0 0 0 0 0 0 0 0 0 0 0 0 0 0 0 0 0 0 0 0 0 0 0 0 0 0 0 0 0 0 0 0 0 0 0 0 0 0 0 0 0 0 0 0 0 0 0 0 0 0 0 0 0 0 0 0 0 0 0 0 0 0 0 0 0 0 0 0 0 0 0 0 0 0 0 0 0 0 0 0 0 0 0 0 0 0 0 0 0 
0 0 0 0 0 0 0 0 0 0 0 0 0 0 0 0 0 0 0 0 0 0 0 0 0 0 0 0 0 0 0 0 0 0 0 0 0 0 0 0 0 0 0 0 0 0 0 0 0 0 0 0 0 0 0 0 0 0 0 0 0 0 0 0 0 0 0 0 0 0 0 0 0 0 0 0 0 0 0 0 0 0 0 4 63 118 114 121 127 125 112 96 72 49 39 33 29 27 21 23 49 77 101 127 198 216 214 214 216 217 219 217 212 200 185 178 179 179 179 181 182 183 184 184 184 185 186 185 186 185 181 88 15 23 23 23 25 28 29 30 29 23 43 149 196 194 194 194 194 195 195 198 197 196 195 196 198 198 197 198 198 200 201 199 128 27 26 33 33 33 32 31 30 31 31 25 118 199 206 208 208 209 210 210 209 211 210 209 211 218 228 239 243 245 245 245 247 248 247 247 246 247 240 226 215 208 208 206 206 207 209 211 215 214 221 231 148 40 43 55 48 3 0 0 0 0 0 0 0 0 0 0 0 0 0 0 0 0 0 0 0 0 0 0 0 0 0 0 0 0 0 0 0 0 0 0 0 0 0 0 0 0 0 0 0 0 0 0 0 0 0 0 0 0 0 0 0 0 0 0 0 0 0 0 0 0 0 0 0 0 0 0 0 0 0 0 0 0 0 0 0 0 0 0 0 0 0 0 0 0 0 0 0 0 0 0 0 0 0 0 0 0 0 0 0 0 0 0 0 0 0 0 0 0 0 0 0 0 0 0 0 0 0 0 0 0 0 0 0 0 0 0 0 0 0 0 0 0 0 
0 0 0 0 0 0 0 0 0 0 0 0 0 0 0 0 0 0 0 0 0 0 0 0 0 0 0 0 0 0 0 0 0 0 0 0 0 0 0 0 0 0 0 0 0 0 0 0 0 0 0 0 0 0 0 0 0 0 0 0 0 0 0 0 0 0 0 0 0 0 0 0 0 0 0 0 0 0 0 0 0 0 0 0 24 104 115 118 129 125 115 94 67 48 38 31 28 25 20 28 56 87 108 148 214 218 218 219 219 220 220 220 215 203 186 181 182 182 184 184 185 186 187 186 187 188 187 188 188 187 174 54 18 25 24 25 25 26 28 31 33 27 29 120 194 197 196 196 197 197 198 198 197 197 198 196 198 200 199 199 199 200 200 203 168 48 20 33 32 34 34 33 32 32 25 36 158 205 206 208 209 210 210 211 210 211 211 211 211 216 226 238 242 245 246 247 248 248 248 248 248 244 239 230 216 208 208 207 207 207 209 211 214 215 220 233 167 46 41 59 47 0 0 0 0 0 0 0 0 0 0 0 0 0 0 0 0 0 0 0 0 0 0 0 0 0 0 0 0 0 0 0 0 0 0 0 0 0 0 0 0 0 0 0 0 0 0 0 0 0 0 0 0 0 0 0 0 0 0 0 0 0 0 0 0 0 0 0 0 0 0 0 0 0 0 0 0 0 0 0 0 0 0 0 0 0 0 0 0 0 0 0 0 0 0 0 0 0 0 0 0 0 0 0 0 0 0 0 0 0 0 0 0 0 0 0 0 0 0 0 0 0 0 0 0 0 0 0 0 0 0 0 0 0 0 0 0 0 0 
0 0 0 0 0 0 0 0 0 0 0 0 0 0 0 0 0 0 0 0 0 0 0 0 0 0 0 0 0 0 0 0 0 0 0 0 0 0 0 0 0 0 0 0 0 0 0 0 0 0 0 0 0 0 0 0 0 0 0 0 0 0 0 0 0 0 0 0 0 0 0 0 0 0 0 0 0 0 0 0 0 0 0 0 5 69 116 115 130 130 122 95 62 46 36 32 26 25 20 34 65 98 117 175 222 221 221 222 221 221 222 222 217 207 189 182 184 185 186 186 187 189 188 188 191 189 191 188 191 190 169 48 21 25 27 27 28 27 30 34 33 26 22 107 192 198 197 197 199 198 198 199 199 199 199 198 198 200 200 200 201 201 201 202 201 122 27 25 32 36 36 32 31 30 23 97 196 207 207 209 211 210 212 212 211 212 210 210 212 216 225 236 243 245 246 246 246 247 248 248 249 247 241 231 218 209 206 207 207 208 209 211 214 215 219 233 183 54 39 62 33 0 0 0 0 0 0 0 0 0 0 0 0 0 0 0 0 0 0 0 0 0 0 0 0 0 0 0 0 0 0 0 0 0 0 0 0 0 0 0 0 0 0 0 0 0 0 0 0 0 0 0 0 0 0 0 0 0 0 0 0 0 0 0 0 0 0 0 0 0 0 0 0 0 0 0 0 0 0 0 0 0 0 0 0 0 0 0 0 0 0 0 0 0 0 0 0 0 0 0 0 0 0 0 0 0 0 0 0 0 0 0 0 0 0 0 0 0 0 0 0 0 0 0 0 0 0 0 0 0 0 0 0 0 0 0 0 0 0 
0 0 0 0 0 0 0 0 0 0 0 0 0 0 0 0 0 0 0 0 0 0 0 0 0 0 0 0 0 0 0 0 0 0 0 0 0 0 0 0 0 0 0 0 0 0 0 0 0 0 0 0 0 0 0 0 0 0 0 0 0 0 0 0 0 0 0 0 0 0 0 0 0 0 0 0 0 0 0 0 0 0 0 0 0 22 104 115 121 132 119 90 57 43 34 26 25 23 21 44 75 109 132 203 225 223 223 223 222 223 223 223 221 210 194 186 186 187 188 188 189 190 191 190 190 191 191 192 191 191 172 53 21 26 24 27 28 29 34 32 28 21 25 116 194 198 197 199 199 200 199 198 200 199 200 200 200 201 201 201 201 202 202 202 206 194 97 27 26 30 32 31 28 25 76 183 208 208 210 211 211 211 212 212 212 212 211 210 212 214 222 235 243 245 244 245 246 249 248 249 249 246 241 232 220 211 206 208 207 207 208 209 212 215 217 232 196 64 39 62 24 0 0 0 0 0 0 0 0 0 0 0 0 0 0 0 0 0 0 0 0 0 0 0 0 0 0 0 0 0 0 0 0 0 0 0 0 0 0 0 0 0 0 0 0 0 0 0 0 0 0 0 0 0 0 0 0 0 0 0 0 0 0 0 0 0 0 0 0 0 0 0 0 0 0 0 0 0 0 0 0 0 0 0 0 0 0 0 0 0 0 0 0 0 0 0 0 0 0 0 0 0 0 0 0 0 0 0 0 0 0 0 0 0 0 0 0 0 0 0 0 0 0 0 0 0 0 0 0 0 0 0 0 0 0 0 0 0 0 
0 0 0 0 0 0 0 0 0 0 0 0 0 0 0 0 0 0 0 0 0 0 0 0 0 0 0 0 0 0 0 0 0 0 0 0 0 0 0 0 0 0 0 0 0 0 0 0 0 0 0 0 0 0 0 0 0 0 0 0 0 0 0 0 0 0 0 0 0 0 0 0 0 0 0 0 0 0 0 0 0 0 0 0 0 1 63 112 114 130 117 76 49 42 33 24 25 23 27 53 89 117 158 221 226 225 225 225 224 223 223 223 221 212 199 192 189 188 191 191 192 191 191 192 192 193 193 193 193 192 185 94 20 26 26 28 29 29 29 27 27 20 30 140 201 200 199 200 200 201 201 201 201 202 202 202 202 202 202 202 202 203 203 203 202 206 198 134 68 44 38 42 56 105 186 209 208 210 210 211 211 211 212 212 212 212 212 213 212 212 221 234 241 244 245 246 246 247 249 250 249 249 242 235 222 213 208 207 207 208 209 210 213 214 215 230 209 81 38 64 19 0 0 0 0 0 0 0 0 0 0 0 0 0 0 0 0 0 0 0 0 0 0 0 0 0 0 0 0 0 0 0 0 0 0 0 0 0 0 0 0 0 0 0 0 0 0 0 0 0 0 0 0 0 0 0 0 0 0 0 0 0 0 0 0 0 0 0 0 0 0 0 0 0 0 0 0 0 0 0 0 0 0 0 0 0 0 0 0 0 0 0 0 0 0 0 0 0 0 0 0 0 0 0 0 0 0 0 0 0 0 0 0 0 0 0 0 0 0 0 0 0 0 0 0 0 0 0 0 0 0 0 0 0 0 0 0 0 0 
0 0 0 0 0 0 0 0 0 0 0 0 0 0 0 0 0 0 0 0 0 0 0 0 0 0 0 0 0 0 0 0 0 0 0 0 0 0 0 0 0 0 0 0 0 0 0 0 0 0 0 0 0 0 0 0 0 0 0 0 0 0 0 0 0 0 0 0 0 0 0 0 0 0 0 0 0 0 0 0 0 0 0 0 0 0 15 84 113 112 98 66 48 37 32 26 25 25 38 66 104 126 195 230 227 226 226 226 224 224 226 224 221 215 201 193 191 192 192 192 192 193 193 193 193 194 196 194 194 193 192 156 29 21 25 25 26 27 26 28 29 19 64 179 203 200 200 199 200 202 202 202 202 202 203 201 203 203 202 203 203 204 204 204 205 204 207 209 192 165 150 157 181 207 211 209 210 211 210 212 211 212 213 213 212 212 212 212 212 213 220 232 239 244 246 246 246 247 248 249 250 251 245 235 222 214 210 208 208 207 209 210 212 214 216 227 217 97 40 58 10 0 0 0 0 0 0 0 0 0 0 0 0 0 0 0 0 0 0 0 0 0 0 0 0 0 0 0 0 0 0 0 0 0 0 0 0 0 0 0 0 0 0 0 0 0 0 0 0 0 0 0 0 0 0 0 0 0 0 0 0 0 0 0 0 0 0 0 0 0 0 0 0 0 0 0 0 0 0 0 0 0 0 0 0 0 0 0 0 0 0 0 0 0 0 0 0 0 0 0 0 0 0 0 0 0 0 0 0 0 0 0 0 0 0 0 0 0 0 0 0 0 0 0 0 0 0 0 0 0 0 0 0 0 0 0 0 0 0 
0 0 0 0 0 0 0 0 0 0 0 0 0 0 0 0 0 0 0 0 0 0 0 0 0 0 0 0 0 0 0 0 0 0 0 0 0 0 0 0 0 0 0 0 0 0 0 0 0 0 0 0 0 0 0 0 0 0 0 0 0 0 0 0 0 0 0 0 0 0 0 0 0 0 0 0 0 0 0 0 0 0 0 0 0 0 0 32 97 96 77 59 45 34 26 26 28 33 48 78 112 158 224 231 228 228 228 227 226 226 226 225 223 216 205 198 194 193 193 193 193 193 195 194 195 196 197 195 195 195 194 187 98 20 22 24 24 25 26 27 21 34 140 202 202 201 202 203 203 201 203 202 203 203 202 202 203 203 203 205 205 205 205 204 205 206 205 206 210 212 211 212 213 209 211 211 210 211 211 211 213 213 212 212 212 212 211 212 211 210 216 231 241 244 245 245 246 247 247 248 249 251 248 236 222 213 210 208 208 207 209 210 213 214 214 225 225 115 45 47 2 0 0 0 0 0 0 0 0 0 0 0 0 0 0 0 0 0 0 0 0 0 0 0 0 0 0 0 0 0 0 0 0 0 0 0 0 0 0 0 0 0 0 0 0 0 0 0 0 0 0 0 0 0 0 0 0 0 0 0 0 0 0 0 0 0 0 0 0 0 0 0 0 0 0 0 0 0 0 0 0 0 0 0 0 0 0 0 0 0 0 0 0 0 0 0 0 0 0 0 0 0 0 0 0 0 0 0 0 0 0 0 0 0 0 0 0 0 0 0 0 0 0 0 0 0 0 0 0 0 0 0 0 0 0 0 0 0 0 
0 0 0 0 0 0 0 0 0 0 0 0 0 0 0 0 0 0 0 0 0 0 0 0 0 0 0 0 0 0 0 0 0 0 0 0 0 0 0 0 0 0 0 0 0 0 0 0 0 0 0 0 0 0 0 0 0 0 0 0 0 0 0 0 0 0 0 0 0 0 0 0 0 0 0 0 0 0 0 0 0 0 0 0 0 0 0 0 47 91 77 59 48 39 34 34 43 50 59 95 139 207 234 230 229 229 228 227 226 226 226 225 222 218 210 198 195 193 194 194 195 195 195 196 196 195 197 196 197 197 196 194 176 80 24 20 20 22 22 22 38 120 196 203 202 203 203 203 203 202 203 203 202 204 203 203 203 204 205 204 205 205 206 206 206 207 207 208 208 209 209 209 210 210 211 212 211 212 211 212 213 211 212 212 212 212 211 211 211 210 216 228 240 245 246 246 246 246 248 248 249 250 250 241 223 213 209 209 207 207 209 211 211 213 215 221 229 132 50 35 0 0 0 0 0 0 0 0 0 0 0 0 0 0 0 0 0 0 0 0 0 0 0 0 0 0 0 0 0 0 0 0 0 0 0 0 0 0 0 0 0 0 0 0 0 0 0 0 0 0 0 0 0 0 0 0 0 0 0 0 0 0 0 0 0 0 0 0 0 0 0 0 0 0 0 0 0 0 0 0 0 0 0 0 0 0 0 0 0 0 0 0 0 0 0 0 0 0 0 0 0 0 0 0 0 0 0 0 0 0 0 0 0 0 0 0 0 0 0 0 0 0 0 0 0 0 0 0 0 0 0 0 0 0 0 0 0 0 0 
0 0 0 0 0 0 0 0 0 0 0 0 0 0 0 0 0 0 0 0 0 0 0 0 0 0 0 0 0 0 0 0 0 0 0 0 0 0 0 0 0 0 0 0 0 0 0 0 0 0 0 0 0 0 0 0 0 0 0 0 0 0 0 0 0 0 0 0 0 0 0 0 0 0 0 0 0 0 0 0 0 0 0 0 0 0 0 0 0 68 91 74 65 59 63 78 113 117 104 144 208 235 232 230 229 228 228 228 228 226 226 226 224 221 209 195 194 194 193 195 196 195 196 197 197 197 198 199 198 199 198 195 195 179 109 55 38 36 47 89 154 198 202 202 202 203 203 203 203 202 203 204 204 206 204 204 205 205 205 204 205 206 207 207 207 207 208 209 209 209 209 210 211 212 211 211 212 213 214 214 211 211 213 212 212 211 211 211 212 211 214 224 238 245 245 245 246 247 247 248 248 249 250 245 224 212 208 209 208 206 207 208 210 213 215 219 232 150 57 24 0 0 0 0 0 0 0 0 0 0 0 0 0 0 0 0 0 0 0 0 0 0 0 0 0 0 0 0 0 0 0 0 0 0 0 0 0 0 0 0 0 0 0 0 0 0 0 0 0 0 0 0 0 0 0 0 0 0 0 0 0 0 0 0 0 0 0 0 0 0 0 0 0 0 0 0 0 0 0 0 0 0 0 0 0 0 0 0 0 0 0 0 0 0 0 0 0 0 0 0 0 0 0 0 0 0 0 0 0 0 0 0 0 0 0 0 0 0 0 0 0 0 0 0 0 0 0 0 0 0 0 0 0 0 0 0 0 0 0 
0 0 0 0 0 0 0 0 0 0 0 0 0 0 0 0 0 0 0 0 0 0 0 0 0 0 0 0 0 0 0 0 0 0 0 0 0 0 0 0 0 0 0 0 0 0 0 0 0 0 0 0 0 0 0 0 0 0 0 0 0 0 0 0 0 0 0 0 0 0 0 0 0 0 0 0 0 0 0 0 0 0 0 0 0 0 0 0 0 42 83 67 61 43 68 169 186 165 159 193 232 236 232 232 230 229 228 228 228 228 227 227 225 221 212 198 195 194 195 196 199 197 197 197 197 197 198 200 197 198 199 197 195 198 198 175 152 147 168 198 204 201 201 202 203 203 204 203 204 204 204 205 206 206 205 205 205 205 206 206 207 207 207 208 209 209 210 210 209 210 209 210 212 212 211 212 214 209 207 214 214 212 212 212 212 212 210 211 212 210 212 222 238 245 244 244 245 247 247 248 248 249 250 244 226 209 208 207 206 207 207 208 211 212 213 217 231 170 57 8 0 0 0 0 0 0 0 0 0 0 0 0 0 0 0 0 0 0 0 0 0 0 0 0 0 0 0 0 0 0 0 0 0 0 0 0 0 0 0 0 0 0 0 0 0 0 0 0 0 0 0 0 0 0 0 0 0 0 0 0 0 0 0 0 0 0 0 0 0 0 0 0 0 0 0 0 0 0 0 0 0 0 0 0 0 0 0 0 0 0 0 0 0 0 0 0 0 0 0 0 0 0 0 0 0 0 0 0 0 0 0 0 0 0 0 0 0 0 0 0 0 0 0 0 0 0 0 0 0 0 0 0 0 0 0 0 0 0 0 
0 0 0 0 0 0 0 0 0 0 0 0 0 0 0 0 0 0 0 0 0 0 0 0 0 0 0 0 0 0 0 0 0 0 0 0 0 0 0 0 0 0 0 0 0 0 0 0 0 0 0 0 0 0 0 0 0 0 0 0 0 0 0 0 0 0 0 0 0 0 0 0 0 0 0 0 0 0 0 0 0 0 0 0 0 0 0 0 0 24 88 66 35 20 43 175 185 166 168 192 229 237 233 232 230 228 229 229 227 228 227 226 225 221 212 201 196 196 197 197 199 199 197 198 198 198 198 201 199 198 199 199 199 198 198 202 205 205 205 202 201 202 202 203 204 204 204 205 204 204 204 205 206 206 206 206 207 207 206 207 207 208 208 209 209 210 210 210 210 211 211 211 212 211 211 200 171 125 111 143 189 214 212 213 212 212 212 211 211 211 210 221 238 245 245 245 245 246 247 248 248 249 249 243 228 211 208 207 205 206 206 206 210 212 213 216 229 187 43 0 0 0 0 0 0 0 0 0 0 0 0 0 0 0 0 0 0 0 0 0 0 0 0 0 0 0 0 0 0 0 0 0 0 0 0 0 0 0 0 0 0 0 0 0 0 0 0 0 0 0 0 0 0 0 0 0 0 0 0 0 0 0 0 0 0 0 0 0 0 0 0 0 0 0 0 0 0 0 0 0 0 0 0 0 0 0 0 0 0 0 0 0 0 0 0 0 0 0 0 0 0 0 0 0 0 0 0 0 0 0 0 0 0 0 0 0 0 0 0 0 0 0 0 0 0 0 0 0 0 0 0 0 0 0 0 0 0 0 0 
0 0 0 0 0 0 0 0 0 0 0 0 0 0 0 0 0 0 0 0 0 0 0 0 0 0 0 0 0 0 0 0 0 0 0 0 0 0 0 0 0 0 0 0 0 0 0 0 0 0 0 0 0 0 0 0 0 0 0 0 0 0 0 0 0 0 0 0 0 0 0 0 0 0 0 0 0 0 0 0 0 0 0 0 0 0 0 0 0 7 82 80 38 28 35 155 185 173 175 189 229 237 234 232 229 229 228 228 228 227 227 226 225 223 214 202 196 196 198 199 198 199 200 198 199 200 200 200 201 199 199 200 201 200 199 200 201 201 202 204 203 204 203 204 205 205 205 206 204 204 204 206 208 207 206 206 208 208 208 207 208 208 210 209 208 210 210 211 210 210 212 212 211 212 209 159 51 19 27 33 85 195 214 212 212 212 213 211 212 211 211 219 235 243 245 245 245 245 246 248 247 248 248 244 230 216 208 207 206 205 206 207 209 211 213 214 228 178 24 0 0 0 0 0 0 0 0 0 0 0 0 0 0 0 0 0 0 0 0 0 0 0 0 0 0 0 0 0 0 0 0 0 0 0 0 0 0 0 0 0 0 0 0 0 0 0 0 0 0 0 0 0 0 0 0 0 0 0 0 0 0 0 0 0 0 0 0 0 0 0 0 0 0 0 0 0 0 0 0 0 0 0 0 0 0 0 0 0 0 0 0 0 0 0 0 0 0 0 0 0 0 0 0 0 0 0 0 0 0 0 0 0 0 0 0 0 0 0 0 0 0 0 0 0 0 0 0 0 0 0 0 0 0 0 0 0 0 0 0 
0 0 0 0 0 0 0 0 0 0 0 0 0 0 0 0 0 0 0 0 0 0 0 0 0 0 0 0 0 0 0 0 0 0 0 0 0 0 0 0 0 0 0 0 0 0 0 0 0 0 0 0 0 0 0 0 0 0 0 0 0 0 0 0 0 0 0 0 0 0 0 0 0 0 0 0 0 0 0 0 0 0 0 0 0 0 0 0 0 0 59 88 46 34 34 149 189 180 181 189 224 238 235 233 231 229 229 228 228 227 226 226 225 224 218 204 197 198 199 198 198 198 200 199 200 200 200 200 200 201 202 202 201 200 201 201 201 202 202 203 203 204 205 205 205 207 207 206 205 205 205 206 207 208 207 208 207 208 209 209 210 209 210 210 210 210 211 211 211 212 212 210 213 216 173 77 38 94 56 49 108 152 213 212 213 213 213 212 212 212 211 217 232 242 245 245 245 245 247 247 247 248 249 246 228 216 208 206 205 204 206 206 209 210 211 214 223 175 31 0 0 0 0 0 0 0 0 0 0 0 0 0 0 0 0 0 0 0 0 0 0 0 0 0 0 0 0 0 0 0 0 0 0 0 0 0 0 0 0 0 0 0 0 0 0 0 0 0 0 0 0 0 0 0 0 0 0 0 0 0 0 0 0 0 0 0 0 0 0 0 0 0 0 0 0 0 0 0 0 0 0 0 0 0 0 0 0 0 0 0 0 0 0 0 0 0 0 0 0 0 0 0 0 0 0 0 0 0 0 0 0 0 0 0 0 0 0 0 0 0 0 0 0 0 0 0 0 0 0 0 0 0 0 0 0 0 0 0 0 
0 0 0 0 0 0 0 0 0 0 0 0 0 0 0 0 0 0 0 0 0 0 0 0 0 0 0 0 0 0 0 0 0 0 0 0 0 0 0 0 0 0 0 0 0 0 0 0 0 0 0 0 0 0 0 0 0 0 0 0 0 0 0 0 0 0 0 0 0 0 0 0 0 0 0 0 0 0 0 0 0 0 0 0 0 0 0 0 0 0 36 92 56 36 30 133 194 186 186 190 222 237 236 233 231 230 229 228 228 228 226 226 226 226 220 207 198 199 198 198 199 200 199 200 200 200 199 200 201 200 202 204 202 201 202 202 203 203 203 203 203 203 205 204 205 207 206 205 206 206 207 207 207 207 206 207 208 207 207 209 209 210 211 211 211 210 211 212 212 211 210 216 207 140 60 72 174 237 68 67 197 183 207 213 213 213 212 212 211 211 210 216 231 242 244 245 245 245 246 246 246 248 248 244 229 216 208 205 205 204 204 206 208 210 212 213 219 192 58 0 0 0 0 0 0 0 0 0 0 0 0 0 0 0 0 0 0 0 0 0 0 0 0 0 0 0 0 0 0 0 0 0 0 0 0 0 0 0 0 0 0 0 0 0 0 0 0 0 0 0 0 0 0 0 0 0 0 0 0 0 0 0 0 0 0 0 0 0 0 0 0 0 0 0 0 0 0 0 0 0 0 0 0 0 0 0 0 0 0 0 0 0 0 0 0 0 0 0 0 0 0 0 0 0 0 0 0 0 0 0 0 0 0 0 0 0 0 0 0 0 0 0 0 0 0 0 0 0 0 0 0 0 0 0 0 0 0 0 0 
0 0 0 0 0 0 0 0 0 0 0 0 0 0 0 0 0 0 0 0 0 0 0 0 0 0 0 0 0 0 0 0 0 0 0 0 0 0 0 0 0 0 0 0 0 0 0 0 0 0 0 0 0 0 0 0 0 0 0 0 0 0 0 0 0 0 0 0 0 0 0 0 0 0 0 0 0 0 0 0 0 0 0 0 0 0 0 0 0 0 9 80 72 45 27 114 197 191 190 190 220 239 236 234 231 230 229 228 228 227 227 226 226 226 221 210 200 199 199 198 199 200 200 200 201 201 201 200 201 201 201 204 206 204 203 203 204 203 204 205 203 204 204 205 207 207 207 207 208 207 208 207 206 206 207 207 207 208 208 208 209 209 211 211 211 212 212 212 209 212 217 181 81 48 124 219 255 208 27 99 207 214 211 212 212 212 212 211 211 211 211 216 228 239 242 243 245 245 245 244 245 246 247 242 231 217 208 206 203 203 203 204 207 210 211 211 219 203 64 0 0 0 0 0 0 0 0 0 0 0 0 0 0 0 0 0 0 0 0 0 0 0 0 0 0 0 0 0 0 0 0 0 0 0 0 0 0 0 0 0 0 0 0 0 0 0 0 0 0 0 0 0 0 0 0 0 0 0 0 0 0 0 0 0 0 0 0 0 0 0 0 0 0 0 0 0 0 0 0 0 0 0 0 0 0 0 0 0 0 0 0 0 0 0 0 0 0 0 0 0 0 0 0 0 0 0 0 0 0 0 0 0 0 0 0 0 0 0 0 0 0 0 0 0 0 0 0 0 0 0 0 0 0 0 0 0 0 0 0 
0 0 0 0 0 0 0 0 0 0 0 0 0 0 0 0 0 0 0 0 0 0 0 0 0 0 0 0 0 0 0 0 0 0 0 0 0 0 0 0 0 0 0 0 0 0 0 0 0 0 0 0 0 0 0 0 0 0 0 0 0 0 0 0 0 0 0 0 0 0 0 0 0 0 0 0 0 0 0 0 0 0 0 0 0 0 0 0 0 0 0 66 85 54 29 97 198 197 192 192 217 238 239 235 232 230 229 228 227 226 226 227 226 227 224 212 202 199 199 200 200 200 200 200 201 201 201 201 201 202 203 202 206 207 205 203 204 205 205 205 205 205 206 205 207 207 207 208 208 208 208 206 206 207 207 207 207 208 208 209 209 210 210 212 211 211 211 214 215 198 123 50 79 188 250 255 243 74 23 148 212 213 213 212 212 212 212 211 211 212 212 213 224 237 241 242 242 243 243 244 244 245 246 246 235 217 206 205 203 203 204 203 205 208 209 210 218 213 80 0 0 0 0 0 0 0 0 0 0 0 0 0 0 0 0 0 0 0 0 0 0 0 0 0 0 0 0 0 0 0 0 0 0 0 0 0 0 0 0 0 0 0 0 0 0 0 0 0 0 0 0 0 0 0 0 0 0 0 0 0 0 0 0 0 0 0 0 0 0 0 0 0 0 0 0 0 0 0 0 0 0 0 0 0 0 0 0 0 0 0 0 0 0 0 0 0 0 0 0 0 0 0 0 0 0 0 0 0 0 0 0 0 0 0 0 0 0 0 0 0 0 0 0 0 0 0 0 0 0 0 0 0 0 0 0 0 0 0 0 
0 0 0 0 0 0 0 0 0 0 0 0 0 0 0 0 0 0 0 0 0 0 0 0 0 0 0 0 0 0 0 0 0 0 0 0 0 0 0 0 0 0 0 0 0 0 0 0 0 0 0 0 0 0 0 0 0 0 0 0 0 0 0 0 0 0 0 0 0 0 0 0 0 0 0 0 0 0 0 0 0 0 0 0 0 0 0 0 0 0 0 45 94 64 31 80 195 200 194 192 209 234 239 235 233 231 230 228 227 227 227 227 227 227 225 214 204 199 199 201 200 200 200 201 199 199 201 200 201 202 204 202 203 206 207 205 203 204 205 206 205 206 206 207 207 206 207 208 206 207 208 208 208 207 209 208 208 208 209 208 210 210 210 208 209 213 217 199 129 55 52 148 232 255 255 242 115 20 47 185 212 213 213 213 212 212 212 211 213 212 210 210 220 235 241 242 241 241 242 243 243 243 245 245 237 217 204 203 203 202 202 201 204 206 208 209 214 218 100 0 0 0 0 0 0 0 0 0 0 0 0 0 0 0 0 0 0 0 0 0 0 0 0 0 0 0 0 0 0 0 0 0 0 0 0 0 0 0 0 0 0 0 0 0 0 0 0 0 0 0 0 0 0 0 0 0 0 0 0 0 0 0 0 0 0 0 0 0 0 0 0 0 0 0 0 0 0 0 0 0 0 0 0 0 0 0 0 0 0 0 0 0 0 0 0 0 0 0 0 0 0 0 0 0 0 0 0 0 0 0 0 0 0 0 0 0 0 0 0 0 0 0 0 0 0 0 0 0 0 0 0 0 0 0 0 0 0 0 0 
0 0 0 0 0 0 0 0 0 0 0 0 0 0 0 0 0 0 0 0 0 0 0 0 0 0 0 0 0 0 0 0 0 0 0 0 0 0 0 0 0 0 0 0 0 0 0 0 0 0 0 0 0 0 0 0 0 0 0 0 0 0 0 0 0 0 0 0 0 0 0 0 0 0 0 0 0 0 0 0 0 0 0 0 0 0 0 0 0 0 0 17 91 73 33 63 190 202 195 194 206 234 238 233 233 232 230 228 227 227 227 227 226 226 224 215 205 200 200 200 200 200 201 201 199 200 201 201 201 202 205 203 204 204 206 207 205 205 206 205 204 205 206 207 207 205 206 206 208 208 208 208 209 209 209 209 210 209 210 210 209 210 210 214 216 198 128 49 36 107 208 255 255 255 213 89 25 22 89 205 212 214 212 212 212 211 211 212 211 210 210 211 217 232 240 241 241 241 241 241 242 242 243 242 239 220 204 202 200 201 201 202 203 205 207 209 212 219 113 1 0 0 0 0 0 0 0 0 0 0 0 0 0 0 0 0 0 0 0 0 0 0 0 0 0 0 0 0 0 0 0 0 0 0 0 0 0 0 0 0 0 0 0 0 0 0 0 0 0 0 0 0 0 0 0 0 0 0 0 0 0 0 0 0 0 0 0 0 0 0 0 0 0 0 0 0 0 0 0 0 0 0 0 0 0 0 0 0 0 0 0 0 0 0 0 0 0 0 0 0 0 0 0 0 0 0 0 0 0 0 0 0 0 0 0 0 0 0 0 0 0 0 0 0 0 0 0 0 0 0 0 0 0 0 0 0 0 0 0 
0 0 0 0 0 0 0 0 0 0 0 0 0 0 0 0 0 0 0 0 0 0 0 0 0 0 0 0 0 0 0 0 0 0 0 0 0 0 0 0 0 0 0 0 0 0 0 0 0 0 0 0 0 0 0 0 0 0 0 0 0 0 0 0 0 0 0 0 0 0 0 0 0 0 0 0 0 0 0 0 0 0 0 0 0 0 0 0 0 0 0 1 72 77 39 50 184 205 197 198 207 233 239 236 234 232 231 229 229 228 227 227 225 226 225 216 207 201 200 199 202 203 201 201 201 201 202 202 202 203 206 204 203 204 204 205 208 207 205 204 204 205 206 206 207 207 207 207 208 209 209 209 209 209 209 209 210 207 206 209 211 212 204 170 106 50 41 101 195 245 255 255 216 126 31 13 30 33 158 211 212 214 212 211 212 210 211 211 209 209 210 211 216 228 238 240 240 240 240 241 241 239 241 240 237 222 204 201 200 199 200 201 202 204 205 207 210 219 129 11 0 0 0 0 0 0 0 0 0 0 0 0 0 0 0 0 0 0 0 0 0 0 0 0 0 0 0 0 0 0 0 0 0 0 0 0 0 0 0 0 0 0 0 0 0 0 0 0 0 0 0 0 0 0 0 0 0 0 0 0 0 0 0 0 0 0 0 0 0 0 0 0 0 0 0 0 0 0 0 0 0 0 0 0 0 0 0 0 0 0 0 0 0 0 0 0 0 0 0 0 0 0 0 0 0 0 0 0 0 0 0 0 0 0 0 0 0 0 0 0 0 0 0 0 0 0 0 0 0 0 0 0 0 0 0 0 0 0 0 
0 0 0 0 0 0 0 0 0 0 0 0 0 0 0 0 0 0 0 0 0 0 0 0 0 0 0 0 0 0 0 0 0 0 0 0 0 0 0 0 0 0 0 0 0 0 0 0 0 0 0 0 0 0 0 0 0 0 0 0 0 0 0 0 0 0 0 0 0 0 0 0 0 0 0 0 0 0 0 0 0 0 0 0 0 0 0 0 0 0 0 0 42 86 55 44 175 207 197 197 206 230 239 238 235 232 231 230 229 229 227 226 227 227 225 218 207 200 200 200 201 202 200 201 201 201 201 202 203 203 205 205 204 204 205 205 205 206 206 205 204 206 207 206 206 208 209 208 209 209 209 208 207 206 206 206 207 210 211 201 164 110 60 39 56 120 200 242 255 252 208 135 73 61 110 159 48 78 201 210 213 213 211 212 212 212 211 210 210 209 210 211 215 226 236 239 238 239 239 239 240 236 237 238 234 220 207 199 198 197 198 198 201 202 204 206 208 216 149 23 0 0 0 0 0 0 0 0 0 0 0 0 0 0 0 0 0 0 0 0 0 0 0 0 0 0 0 0 0 0 0 0 0 0 0 0 0 0 0 0 0 0 0 0 0 0 0 0 0 0 0 0 0 0 0 0 0 0 0 0 0 0 0 0 0 0 0 0 0 0 0 0 0 0 0 0 0 0 0 0 0 0 0 0 0 0 0 0 0 0 0 0 0 0 0 0 0 0 0 0 0 0 0 0 0 0 0 0 0 0 0 0 0 0 0 0 0 0 0 0 0 0 0 0 0 0 0 0 0 0 0 0 0 0 0 0 0 0 0 
0 0 0 0 0 0 0 0 0 0 0 0 0 0 0 0 0 0 0 0 0 0 0 0 0 0 0 0 0 0 0 0 0 0 0 0 0 0 0 0 0 0 0 0 0 0 0 0 0 0 0 0 0 0 0 0 0 0 0 0 0 0 0 0 0 0 0 0 0 0 0 0 0 0 0 0 0 0 0 0 0 0 0 0 0 0 0 0 0 0 0 0 13 87 69 36 160 208 199 197 205 229 240 238 235 233 232 230 229 229 227 227 226 226 224 217 207 200 200 201 201 200 200 201 202 202 201 203 203 203 204 205 203 204 204 205 206 206 206 204 204 206 207 206 207 207 208 207 206 205 205 206 208 208 209 203 182 146 104 60 42 60 114 179 223 245 255 252 229 200 179 185 202 225 252 167 42 167 210 211 213 212 211 212 211 211 211 210 209 209 208 209 214 223 231 236 237 236 238 238 237 235 237 237 229 219 208 197 196 196 195 196 198 201 203 205 207 213 165 34 0 0 0 0 0 0 0 0 0 0 0 0 0 0 0 0 0 0 0 0 0 0 0 0 0 0 0 0 0 0 0 0 0 0 0 0 0 0 0 0 0 0 0 0 0 0 0 0 0 0 0 0 0 0 0 0 0 0 0 0 0 0 0 0 0 0 0 0 0 0 0 0 0 0 0 0 0 0 0 0 0 0 0 0 0 0 0 0 0 0 0 0 0 0 0 0 0 0 0 0 0 0 0 0 0 0 0 0 0 0 0 0 0 0 0 0 0 0 0 0 0 0 0 0 0 0 0 0 0 0 0 0 0 0 0 0 0 0 0 
0 0 0 0 0 0 0 0 0 0 0 0 0 0 0 0 0 0 0 0 0 0 0 0 0 0 0 0 0 0 0 0 0 0 0 0 0 0 0 0 0 0 0 0 0 0 0 0 0 0 0 0 0 0 0 0 0 0 0 0 0 0 0 0 0 0 0 0 0 0 0 0 0 0 0 0 0 0 0 0 0 0 0 0 0 0 0 0 0 0 0 0 0 64 80 36 147 209 201 197 205 229 238 238 235 234 232 230 229 228 228 227 226 226 224 218 208 202 200 200 200 201 201 200 201 201 201 204 203 204 203 205 204 204 205 205 205 205 206 205 205 205 205 204 206 208 207 207 208 207 206 196 175 139 94 61 44 48 79 133 192 228 243 255 255 255 253 246 239 241 244 252 255 255 196 35 108 206 210 212 214 211 210 211 210 209 208 208 208 208 208 209 212 220 230 235 236 235 236 235 231 233 236 235 230 219 207 196 195 194 194 195 195 198 201 202 204 212 169 41 0 0 0 0 0 0 0 0 0 0 0 0 0 0 0 0 0 0 0 0 0 0 0 0 0 0 0 0 0 0 0 0 0 0 0 0 0 0 0 0 0 0 0 0 0 0 0 0 0 0 0 0 0 0 0 0 0 0 0 0 0 0 0 0 0 0 0 0 0 0 0 0 0 0 0 0 0 0 0 0 0 0 0 0 0 0 0 0 0 0 0 0 0 0 0 0 0 0 0 0 0 0 0 0 0 0 0 0 0 0 0 0 0 0 0 0 0 0 0 0 0 0 0 0 0 0 0 0 0 0 0 0 0 0 0 0 0 0 0 
0 0 0 0 0 0 0 0 0 0 0 0 0 0 0 0 0 0 0 0 0 0 0 0 0 0 0 0 0 0 0 0 0 0 0 0 0 0 0 0 0 0 0 0 0 0 0 0 0 0 0 0 0 0 0 0 0 0 0 0 0 0 0 0 0 0 0 0 0 0 0 0 0 0 0 0 0 0 0 0 0 0 0 0 0 0 0 0 0 0 0 0 0 23 80 40 131 209 201 198 202 225 239 239 236 234 232 231 229 228 228 227 226 225 224 217 211 205 200 200 201 202 202 202 201 201 202 202 202 203 203 204 205 204 205 205 205 204 206 206 205 204 204 207 205 190 176 167 142 111 75 44 33 38 59 105 164 212 237 246 255 255 255 255 255 255 254 253 254 255 255 255 255 198 36 73 193 211 211 212 213 211 211 210 209 208 209 208 207 206 206 208 213 220 228 232 235 234 232 231 231 234 233 230 227 217 204 195 193 190 192 192 194 195 198 199 201 210 179 47 0 0 0 0 0 0 0 0 0 0 0 0 0 0 0 0 0 0 0 0 0 0 0 0 0 0 0 0 0 0 0 0 0 0 0 0 0 0 0 0 0 0 0 0 0 0 0 0 0 0 0 0 0 0 0 0 0 0 0 0 0 0 0 0 0 0 0 0 0 0 0 0 0 0 0 0 0 0 0 0 0 0 0 0 0 0 0 0 0 0 0 0 0 0 0 0 0 0 0 0 0 0 0 0 0 0 0 0 0 0 0 0 0 0 0 0 0 0 0 0 0 0 0 0 0 0 0 0 0 0 0 0 0 0 0 0 0 0 0 
0 0 0 0 0 0 0 0 0 0 0 0 0 0 0 0 0 0 0 0 0 0 0 0 0 0 0 0 0 0 0 0 0 0 0 0 0 0 0 0 0 0 0 0 0 0 0 0 0 0 0 0 0 0 0 0 0 0 0 0 0 0 0 0 0 0 0 0 0 0 0 0 0 0 0 0 0 0 0 0 0 0 0 0 0 0 0 0 0 0 0 0 0 1 59 54 115 207 203 199 198 219 239 240 237 233 232 231 229 228 227 226 226 225 224 220 211 202 200 201 201 202 203 203 203 202 202 202 203 202 202 204 206 205 203 204 205 204 204 206 207 205 209 193 101 36 29 28 29 42 71 120 170 204 232 244 251 255 255 255 255 255 255 255 255 255 255 255 255 255 255 255 188 33 60 186 210 210 212 211 211 211 211 210 209 209 208 207 208 207 207 207 210 216 224 228 231 231 229 227 228 228 227 225 223 215 202 194 190 189 189 189 192 193 195 196 197 204 188 53 0 0 0 0 0 0 0 0 0 0 0 0 0 0 0 0 0 0 0 0 0 0 0 0 0 0 0 0 0 0 0 0 0 0 0 0 0 0 0 0 0 0 0 0 0 0 0 0 0 0 0 0 0 0 0 0 0 0 0 0 0 0 0 0 0 0 0 0 0 0 0 0 0 0 0 0 0 0 0 0 0 0 0 0 0 0 0 0 0 0 0 0 0 0 0 0 0 0 0 0 0 0 0 0 0 0 0 0 0 0 0 0 0 0 0 0 0 0 0 0 0 0 0 0 0 0 0 0 0 0 0 0 0 0 0 0 0 0 0 
0 0 0 0 0 0 0 0 0 0 0 0 0 0 0 0 0 0 0 0 0 0 0 0 0 0 0 0 0 0 0 0 0 0 0 0 0 0 0 0 0 0 0 0 0 0 0 0 0 0 0 0 0 0 0 0 0 0 0 0 0 0 0 0 0 0 0 0 0 0 0 0 0 0 0 0 0 0 0 0 0 0 0 0 0 0 0 0 0 0 0 0 0 0 12 62 107 202 204 199 199 215 238 240 237 234 233 231 229 228 228 227 226 226 224 220 211 203 202 201 199 199 200 202 203 202 203 202 202 202 202 203 205 206 203 203 205 207 207 208 208 209 199 88 25 67 120 158 195 220 238 248 252 254 255 255 255 255 255 255 255 255 255 255 255 255 255 255 255 255 255 159 27 69 181 210 210 211 211 211 211 209 209 210 208 207 209 207 206 206 205 205 206 212 220 224 227 228 227 227 227 224 222 218 217 212 200 192 189 188 187 187 187 188 190 191 191 199 191 52 0 0 0 0 0 0 0 0 0 0 0 0 0 0 0 0 0 0 0 0 0 0 0 0 0 0 0 0 0 0 0 0 0 0 0 0 0 0 0 0 0 0 0 0 0 0 0 0 0 0 0 0 0 0 0 0 0 0 0 0 0 0 0 0 0 0 0 0 0 0 0 0 0 0 0 0 0 0 0 0 0 0 0 0 0 0 0 0 0 0 0 0 0 0 0 0 0 0 0 0 0 0 0 0 0 0 0 0 0 0 0 0 0 0 0 0 0 0 0 0 0 0 0 0 0 0 0 0 0 0 0 0 0 0 0 0 0 0 0 
0 0 0 0 0 0 0 0 0 0 0 0 0 0 0 0 0 0 0 0 0 0 0 0 0 0 0 0 0 0 0 0 0 0 0 0 0 0 0 0 0 0 0 0 0 0 0 0 0 0 0 0 0 0 0 0 0 0 0 0 0 0 0 0 0 0 0 0 0 0 0 0 0 0 0 0 0 0 0 0 0 0 0 0 0 0 0 0 0 0 0 0 0 0 0 39 106 199 205 200 202 213 238 241 236 234 232 231 229 229 228 227 226 226 225 220 213 204 201 201 200 198 201 202 202 202 203 203 203 202 201 202 204 205 204 205 205 206 206 207 206 211 162 29 125 242 250 251 254 255 255 255 255 255 255 255 255 255 255 255 255 255 255 255 255 255 255 255 255 242 117 23 87 188 208 209 211 210 210 211 210 210 209 208 207 207 208 207 205 204 204 203 204 208 215 221 221 219 221 219 217 215 215 211 209 204 195 190 187 185 184 183 183 184 185 187 188 195 191 64 0 0 0 0 0 0 0 0 0 0 0 0 0 0 0 0 0 0 0 0 0 0 0 0 0 0 0 0 0 0 0 0 0 0 0 0 0 0 0 0 0 0 0 0 0 0 0 0 0 0 0 0 0 0 0 0 0 0 0 0 0 0 0 0 0 0 0 0 0 0 0 0 0 0 0 0 0 0 0 0 0 0 0 0 0 0 0 0 0 0 0 0 0 0 0 0 0 0 0 0 0 0 0 0 0 0 0 0 0 0 0 0 0 0 0 0 0 0 0 0 0 0 0 0 0 0 0 0 0 0 0 0 0 0 0 0 0 0 0 
0 0 0 0 0 0 0 0 0 0 0 0 0 0 0 0 0 0 0 0 0 0 0 0 0 0 0 0 0 0 0 0 0 0 0 0 0 0 0 0 0 0 0 0 0 0 0 0 0 0 0 0 0 0 0 0 0 0 0 0 0 0 0 0 0 0 0 0 0 0 0 0 0 0 0 0 0 0 0 0 0 0 0 0 0 0 0 0 0 0 0 0 0 0 0 1 67 194 207 199 200 211 236 241 238 235 232 231 230 228 227 226 226 226 224 220 213 204 200 201 200 200 202 202 201 201 202 204 204 203 203 204 205 205 204 203 204 205 205 206 205 210 173 34 130 251 255 251 253 255 255 255 255 255 255 255 255 255 255 255 255 255 255 255 255 255 255 254 200 70 45 136 200 207 209 210 210 210 210 210 209 208 209 208 207 207 207 205 204 203 203 202 202 205 208 212 213 212 211 209 206 204 202 201 198 194 190 186 185 184 183 181 180 180 183 183 183 189 191 79 0 0 0 0 0 0 0 0 0 0 0 0 0 0 0 0 0 0 0 0 0 0 0 0 0 0 0 0 0 0 0 0 0 0 0 0 0 0 0 0 0 0 0 0 0 0 0 0 0 0 0 0 0 0 0 0 0 0 0 0 0 0 0 0 0 0 0 0 0 0 0 0 0 0 0 0 0 0 0 0 0 0 0 0 0 0 0 0 0 0 0 0 0 0 0 0 0 0 0 0 0 0 0 0 0 0 0 0 0 0 0 0 0 0 0 0 0 0 0 0 0 0 0 0 0 0 0 0 0 0 0 0 0 0 0 0 0 0 0 
0 0 0 0 0 0 0 0 0 0 0 0 0 0 0 0 0 0 0 0 0 0 0 0 0 0 0 0 0 0 0 0 0 0 0 0 0 0 0 0 0 0 0 0 0 0 0 0 0 0 0 0 0 0 0 0 0 0 0 0 0 0 0 0 0 0 0 0 0 0 0 0 0 0 0 0 0 0 0 0 0 0 0 0 0 0 0 0 0 0 0 0 0 0 0 0 13 172 209 200 199 214 235 241 238 236 233 231 229 228 227 227 226 225 225 222 214 204 200 199 200 201 202 201 201 202 201 202 202 203 204 202 203 204 204 203 204 205 205 206 206 206 202 83 53 181 223 236 251 255 255 255 255 255 255 255 255 255 255 255 255 255 255 255 254 252 224 119 55 103 187 209 206 208 209 210 210 209 208 208 208 208 208 207 206 207 205 204 203 202 202 200 201 202 202 203 205 202 200 199 197 195 192 191 189 189 188 185 182 182 180 179 178 178 178 180 182 185 189 81 0 0 0 0 0 0 0 0 0 0 0 0 0 0 0 0 0 0 0 0 0 0 0 0 0 0 0 0 0 0 0 0 0 0 0 0 0 0 0 0 0 0 0 0 0 0 0 0 0 0 0 0 0 0 0 0 0 0 0 0 0 0 0 0 0 0 0 0 0 0 0 0 0 0 0 0 0 0 0 0 0 0 0 0 0 0 0 0 0 0 0 0 0 0 0 0 0 0 0 0 0 0 0 0 0 0 0 0 0 0 0 0 0 0 0 0 0 0 0 0 0 0 0 0 0 0 0 0 0 0 0 0 0 0 0 0 0 0 0 
0 0 0 0 0 0 0 0 0 0 0 0 0 0 0 0 0 0 0 0 0 0 0 0 0 0 0 0 0 0 0 0 0 0 0 0 0 0 0 0 0 0 0 0 0 0 0 0 0 0 0 0 0 0 0 0 0 0 0 0 0 0 0 0 0 0 0 0 0 0 0 0 0 0 0 0 0 0 0 0 0 0 0 0 0 0 0 0 0 0 0 0 0 0 0 0 5 141 208 201 200 210 232 241 238 236 233 231 229 229 227 226 226 225 225 223 216 206 201 200 201 201 201 201 201 203 203 201 201 201 201 202 202 204 204 203 204 204 204 205 206 203 207 172 39 40 204 252 255 255 255 255 255 255 255 255 255 255 255 255 255 253 251 247 209 121 56 84 170 209 207 205 208 208 208 209 208 208 209 207 207 207 207 205 205 204 204 203 202 202 201 200 199 200 198 198 197 194 194 192 192 190 187 184 181 182 182 181 179 178 176 174 176 175 175 176 179 184 186 69 0 0 0 0 0 0 0 0 0 0 0 0 0 0 0 0 0 0 0 0 0 0 0 0 0 0 0 0 0 0 0 0 0 0 0 0 0 0 0 0 0 0 0 0 0 0 0 0 0 0 0 0 0 0 0 0 0 0 0 0 0 0 0 0 0 0 0 0 0 0 0 0 0 0 0 0 0 0 0 0 0 0 0 0 0 0 0 0 0 0 0 0 0 0 0 0 0 0 0 0 0 0 0 0 0 0 0 0 0 0 0 0 0 0 0 0 0 0 0 0 1 6 14 42 71 40 2 0 0 0 0 0 0 0 0 0 0 0 0 
0 0 0 0 0 0 0 0 0 0 0 0 0 0 0 0 0 0 0 0 0 0 0 0 0 0 0 0 0 0 0 0 0 0 0 0 0 0 0 0 0 0 0 0 0 0 0 0 0 0 0 0 0 0 0 0 0 0 0 0 0 0 0 0 0 0 0 0 0 0 0 0 0 0 0 0 0 0 0 0 0 0 0 0 0 0 0 0 0 0 0 0 0 0 0 0 0 131 204 203 199 207 230 241 239 236 233 231 230 228 227 226 226 224 224 224 216 208 202 199 200 200 200 201 201 203 202 201 202 201 201 201 203 203 203 203 205 204 204 205 206 205 203 204 142 39 47 147 221 244 250 252 253 254 254 253 252 250 249 241 227 199 143 83 53 73 152 203 206 204 206 207 208 208 209 209 208 208 207 206 206 205 205 204 203 203 201 202 200 199 198 198 196 197 196 194 193 193 190 187 183 183 181 178 178 176 175 177 177 176 173 172 172 171 172 174 175 184 176 47 0 0 0 0 0 0 0 0 0 0 0 0 0 0 0 0 0 0 0 0 0 0 0 0 0 0 0 0 0 0 0 0 0 0 0 0 0 0 0 0 0 0 0 0 0 0 0 0 0 0 0 0 0 0 0 0 0 0 0 0 0 0 0 0 0 0 0 0 0 0 0 0 0 0 0 0 0 0 0 0 0 0 0 0 0 0 0 0 0 0 0 0 0 0 0 0 0 0 0 0 0 0 0 0 0 0 0 0 0 0 0 0 0 0 0 0 0 0 3 20 68 131 181 222 246 222 78 2 0 0 0 0 0 0 0 0 0 0 0 
0 0 0 0 0 0 0 0 0 0 0 0 0 0 0 0 0 0 0 0 0 0 0 0 0 0 0 0 0 0 0 0 0 0 0 0 0 0 0 0 0 0 0 0 0 0 0 0 0 0 0 0 0 0 0 0 0 0 0 0 0 0 0 0 0 0 0 0 0 0 0 0 0 0 0 0 0 0 0 0 0 0 0 0 0 0 0 0 0 0 0 0 0 0 0 0 0 119 201 204 200 206 225 237 239 236 233 231 230 228 228 227 226 225 223 223 216 209 201 199 200 199 200 200 200 201 202 202 202 202 202 202 203 203 203 202 202 205 205 205 206 206 204 203 205 158 73 29 40 87 139 173 196 205 205 198 180 151 117 86 64 57 64 112 172 203 206 204 205 207 208 208 208 208 209 208 206 207 205 205 204 204 202 202 201 200 200 201 199 197 197 196 194 194 193 192 191 188 183 179 175 175 175 174 174 172 173 176 175 173 170 169 168 168 169 171 174 182 161 35 0 0 0 0 0 0 0 0 0 0 0 0 0 0 0 0 0 0 0 0 0 0 0 0 0 0 0 0 0 0 0 0 0 0 0 0 0 0 0 0 0 0 0 0 0 0 0 0 0 0 0 0 0 0 0 0 0 0 0 0 0 0 0 0 0 0 0 0 0 0 0 0 0 0 0 0 0 0 0 0 0 0 0 0 0 0 0 0 0 0 0 0 0 0 0 0 0 0 0 0 0 0 0 0 0 0 0 0 0 0 0 0 0 0 0 0 0 19 91 164 206 208 205 211 229 245 206 51 0 0 0 0 0 0 0 0 0 0 0 
0 0 0 0 0 0 0 0 0 0 0 0 0 0 0 0 0 0 0 0 0 0 0 0 0 0 0 0 0 0 0 0 0 0 0 0 0 0 0 0 0 0 0 0 0 0 0 0 0 0 0 0 0 0 0 0 0 0 0 0 0 0 0 0 0 0 0 0 0 0 0 0 0 0 0 0 0 0 0 0 0 0 0 0 0 0 0 0 0 0 0 0 0 0 0 0 0 98 199 202 200 207 223 235 237 235 233 232 230 228 228 226 226 224 223 221 217 211 203 200 199 201 202 201 200 201 201 201 203 202 201 202 203 202 202 202 203 204 204 203 204 205 203 202 201 205 200 170 122 78 57 43 47 54 54 56 60 64 82 111 152 179 200 206 206 204 204 206 207 206 206 205 206 205 206 205 204 204 204 203 202 200 201 200 199 199 199 198 197 196 194 192 191 190 189 187 185 181 177 172 171 167 167 168 168 168 171 173 171 169 167 166 166 166 167 169 171 182 131 22 0 0 0 0 0 0 0 0 0 0 0 0 0 0 0 0 0 0 0 0 0 0 0 0 0 0 0 0 0 0 0 0 0 0 0 0 0 0 0 0 0 0 0 0 0 0 0 0 0 0 0 0 0 0 0 0 0 0 0 0 0 0 0 0 0 0 0 0 0 0 0 0 0 0 0 0 0 0 0 0 0 0 0 0 0 0 0 0 0 0 0 0 0 0 0 0 0 0 0 0 0 0 0 0 0 0 0 0 0 0 0 0 0 0 0 14 59 149 208 206 195 190 188 183 191 216 233 131 4 0 0 0 0 0 0 0 0 0 0 
0 0 0 0 0 0 0 0 0 0 0 0 0 0 0 0 0 0 0 0 0 0 0 0 0 0 0 0 0 0 0 0 0 0 0 0 0 0 0 0 0 0 0 0 0 0 0 0 0 0 0 0 0 0 0 0 0 0 0 0 0 0 0 0 0 0 0 0 0 0 0 0 0 0 0 0 0 0 0 0 0 0 0 0 0 0 0 0 0 0 0 0 0 0 0 0 0 76 194 203 199 202 219 237 238 236 234 231 230 229 228 226 225 225 224 221 217 211 203 201 200 201 201 199 201 201 201 200 202 203 202 202 203 202 203 202 203 202 202 201 201 204 202 201 203 202 203 207 207 203 194 179 170 166 166 173 187 199 204 206 207 206 204 203 204 206 205 204 204 204 203 203 204 203 203 201 201 201 201 200 199 198 199 197 196 197 196 193 193 192 190 188 187 185 184 183 179 175 171 167 168 167 163 164 164 164 164 167 167 167 165 164 164 165 166 167 173 182 88 2 0 0 0 0 0 0 0 0 0 0 0 0 0 0 0 0 0 0 0 0 0 0 0 0 0 0 0 0 0 0 0 0 0 0 0 0 0 0 0 0 0 0 0 0 0 0 0 0 0 0 0 0 0 0 0 0 0 0 0 0 0 0 0 0 0 0 0 0 0 0 0 0 0 0 0 0 0 0 0 0 0 0 0 0 0 0 0 0 0 0 0 0 0 0 0 0 0 0 0 0 0 0 0 0 0 0 0 0 0 0 0 0 1 24 65 135 193 207 198 190 187 188 186 186 183 199 229 183 32 0 0 0 0 0 0 0 0 0 0 
0 0 0 0 0 0 0 0 0 0 0 0 0 0 0 0 0 0 0 0 0 0 0 0 0 0 0 0 0 0 0 0 0 0 0 0 0 0 0 0 0 0 0 0 0 0 0 0 0 0 0 0 0 0 0 0 0 0 0 0 0 0 0 0 0 0 0 0 0 0 0 0 0 0 0 0 0 0 0 0 0 0 0 0 0 0 0 0 0 0 0 0 0 0 0 0 0 46 185 204 200 199 212 236 239 235 235 231 230 229 228 226 225 223 223 223 220 211 202 201 200 200 199 199 200 199 199 200 200 202 202 201 201 201 203 202 201 200 200 201 201 203 203 202 204 203 202 202 204 204 205 207 207 208 207 206 207 205 203 203 203 201 203 204 204 204 202 201 202 202 201 201 201 200 200 198 199 198 197 196 195 196 195 194 192 193 191 189 188 186 185 185 183 181 178 177 176 172 167 164 163 162 161 161 162 160 157 158 163 164 162 163 162 162 162 166 177 165 42 0 0 0 0 0 0 0 0 0 0 0 0 0 0 0 0 0 0 0 0 0 0 0 0 0 0 0 0 0 0 0 0 0 0 0 0 0 0 0 0 0 0 0 0 0 0 0 0 0 0 0 0 0 0 0 0 0 0 0 0 0 0 0 0 0 0 0 0 0 0 0 0 0 0 0 0 0 0 0 0 0 0 0 0 0 0 0 0 0 0 0 0 0 0 0 0 0 0 0 0 0 0 0 0 0 0 0 0 0 0 0 0 26 80 162 191 181 201 197 189 189 188 189 190 190 184 194 226 225 74 0 0 0 0 0 0 0 0 0 0 
0 0 0 0 0 0 0 0 0 0 0 0 0 0 0 0 0 0 0 0 0 0 0 0 0 0 0 0 0 0 0 0 0 0 0 0 0 0 0 0 0 0 0 0 0 0 0 0 0 0 0 0 0 0 0 0 0 0 0 0 0 0 0 0 0 0 0 0 0 0 0 0 0 0 0 0 0 0 0 0 0 0 0 0 0 0 0 0 0 0 0 0 0 0 0 0 0 30 175 204 199 200 212 231 237 235 233 231 230 228 227 225 225 225 225 224 220 212 206 203 199 200 200 198 199 199 199 201 200 200 201 200 201 201 201 202 201 202 202 202 202 202 204 202 202 201 202 201 202 201 201 200 200 202 202 203 203 202 201 200 200 199 200 201 200 199 199 199 199 200 198 197 198 195 196 195 194 193 193 192 192 191 190 190 189 186 187 186 184 182 180 180 178 177 176 175 174 172 167 162 162 161 160 156 155 155 155 153 156 161 161 161 162 162 161 167 184 118 12 0 0 0 0 0 0 0 0 0 0 0 0 0 0 0 0 0 0 0 0 0 0 0 0 0 0 0 0 0 0 0 0 0 0 0 0 0 0 0 0 0 0 0 0 0 0 0 0 0 0 0 0 0 0 0 0 0 0 0 0 0 0 0 0 0 0 0 0 0 0 0 0 0 0 0 0 0 0 0 0 0 0 0 0 0 0 0 0 0 0 0 0 0 0 0 0 0 0 0 0 0 0 0 0 0 0 0 0 0 3 31 88 156 223 218 182 170 193 194 189 190 190 191 191 191 189 188 212 245 133 4 0 0 0 0 0 0 0 0 0 
0 0 0 0 0 0 0 0 0 0 0 0 0 0 0 0 0 0 0 0 0 0 0 0 0 0 0 0 0 0 0 0 0 0 0 0 0 0 0 0 0 0 0 0 0 0 0 0 0 0 0 0 0 0 0 0 0 0 0 0 0 0 0 0 0 0 0 0 0 0 0 0 0 0 0 0 0 0 0 0 0 0 0 0 0 0 0 0 0 0 0 0 0 0 0 0 0 12 157 203 199 201 211 226 237 236 234 232 231 228 226 225 225 225 224 221 218 213 207 202 197 198 199 198 198 199 199 200 199 199 199 199 199 199 201 200 200 200 201 201 200 200 202 202 200 200 200 199 200 200 197 198 201 200 201 202 199 199 197 197 198 198 198 197 197 196 197 195 194 195 195 193 193 192 192 191 190 190 190 190 190 188 186 186 185 183 182 182 179 176 176 176 175 174 173 173 172 170 169 167 167 163 156 153 152 150 150 148 148 155 160 159 160 162 163 172 175 60 0 0 0 0 0 0 0 0 0 0 0 0 0 0 0 0 0 0 0 0 0 0 0 0 0 0 0 0 0 0 0 0 0 0 0 0 0 0 0 0 0 0 0 0 0 0 0 0 0 0 0 0 0 0 0 0 0 0 0 0 0 0 0 0 0 0 0 0 0 0 0 0 0 0 0 0 0 0 0 0 0 0 0 0 0 0 0 0 0 0 0 0 0 0 0 0 0 0 0 0 0 0 0 0 0 0 0 0 15 50 103 160 204 204 213 205 200 194 183 194 191 190 191 192 193 193 192 186 184 229 195 32 0 0 0 0 0 0 0 0 0 
0 0 0 0 0 0 0 0 0 0 0 0 0 0 0 0 0 0 0 0 0 0 0 0 0 0 0 0 0 0 0 0 0 0 0 0 0 0 0 0 0 0 0 0 0 0 0 0 0 0 0 0 0 0 0 0 0 0 0 0 0 0 0 0 0 0 0 0 0 0 0 0 0 0 0 0 0 0 0 0 0 0 0 0 0 0 0 0 0 0 0 0 0 0 0 0 0 0 137 202 200 198 203 225 240 237 234 232 231 229 225 224 224 223 223 221 219 215 207 201 197 197 198 197 197 198 197 197 197 197 197 197 197 198 198 198 198 199 200 200 199 197 198 199 199 199 198 198 199 199 196 199 199 197 199 197 196 195 194 195 195 195 194 193 194 194 193 191 191 192 191 189 189 190 189 187 187 186 186 186 184 183 183 181 180 178 177 176 175 173 173 173 172 172 170 170 169 169 167 165 165 155 151 150 148 147 146 144 144 148 156 158 160 160 164 179 124 14 0 0 0 0 0 0 0 0 0 0 0 0 0 0 0 0 0 0 0 0 0 0 0 0 0 0 0 0 0 0 0 0 0 0 0 0 0 0 0 0 0 0 0 0 0 0 0 0 0 0 0 0 0 0 0 0 0 0 0 0 0 0 0 0 0 0 0 0 0 0 0 0 0 0 0 0 0 0 0 0 0 0 0 0 0 0 0 0 0 0 7 23 45 65 96 108 88 51 13 0 0 0 0 0 0 5 36 77 131 178 207 202 191 187 188 187 190 183 173 184 193 191 192 192 192 193 193 191 181 209 232 79 0 0 0 0 0 0 0 0 0 
0 0 0 0 0 0 0 0 0 0 0 0 0 0 0 0 0 0 0 0 0 0 0 0 0 0 0 0 0 0 0 0 0 0 0 0 0 0 0 0 0 0 0 0 0 0 0 0 0 0 0 0 0 0 0 0 0 0 0 0 0 0 0 0 0 0 0 0 0 0 0 0 0 0 0 0 0 0 0 0 0 0 0 0 0 0 0 0 0 0 0 0 0 0 0 0 0 0 113 200 200 199 199 219 237 237 234 231 228 227 225 225 224 223 223 222 220 214 207 201 199 196 196 196 195 195 194 194 194 197 196 195 195 196 195 195 196 197 197 195 195 195 194 195 196 195 195 196 195 196 194 196 193 195 195 193 192 192 193 192 193 191 190 190 190 190 189 188 188 187 186 186 185 187 184 183 183 183 183 181 178 177 177 174 173 170 170 170 171 171 170 170 170 169 168 167 166 166 162 156 151 147 146 146 145 143 140 141 141 140 151 157 159 160 171 170 53 0 0 0 0 0 0 0 0 0 0 0 0 0 0 0 0 0 0 0 0 0 0 0 0 0 0 0 0 0 0 0 0 0 0 0 0 0 0 0 0 0 0 0 0 0 0 0 0 0 0 0 0 0 0 0 0 0 0 0 0 0 0 0 0 0 0 0 0 0 0 0 0 0 0 0 0 0 0 0 0 0 0 0 0 0 0 0 0 3 34 63 114 154 188 217 231 233 228 206 141 38 0 0 0 24 64 116 169 201 206 202 193 187 182 184 184 184 185 184 174 175 188 192 191 193 192 194 194 191 184 193 240 140 7 0 0 0 0 0 0 0 0 
0 0 0 0 0 0 0 0 0 0 0 0 0 0 0 0 0 0 0 0 0 0 0 0 0 0 0 0 0 0 0 0 0 0 0 0 0 0 0 0 0 0 0 0 0 0 0 0 0 0 0 0 0 0 0 0 0 0 0 0 0 0 0 0 0 0 0 0 0 0 0 0 0 0 0 0 0 0 0 0 0 0 0 0 0 0 0 0 0 0 0 0 0 0 0 0 0 0 86 196 200 198 197 210 231 237 234 231 229 227 226 225 225 224 223 221 216 209 202 199 197 194 195 193 194 194 192 192 192 194 194 192 192 191 192 192 193 193 192 191 192 192 191 191 192 192 192 192 192 191 191 189 190 191 190 190 189 189 190 189 189 188 188 188 188 187 187 185 185 183 183 182 182 183 181 179 178 177 175 173 171 169 167 167 168 167 168 168 169 168 167 167 166 166 166 164 164 163 159 153 145 142 141 143 139 138 139 140 138 137 145 156 160 165 179 100 6 0 0 0 0 0 0 0 0 0 0 0 0 0 0 0 0 0 0 0 0 0 0 0 0 0 0 0 0 0 0 0 0 0 0 0 0 0 0 0 0 0 0 0 0 0 0 0 0 0 0 0 0 0 0 0 0 0 0 0 0 0 0 0 0 0 0 0 0 0 0 0 0 0 0 0 0 0 0 0 0 0 0 0 0 0 0 19 59 114 165 205 220 222 221 219 218 217 219 226 228 166 38 45 104 162 216 234 217 201 194 189 188 183 183 187 189 188 187 187 179 176 181 192 191 191 192 192 193 193 189 184 228 199 37 0 0 0 0 0 0 0 0 
0 0 0 0 0 0 0 0 0 0 0 0 0 0 0 0 0 0 0 0 0 0 0 0 0 0 0 0 0 0 0 0 0 0 0 0 0 0 0 0 0 0 0 0 0 0 0 0 0 0 0 0 0 0 0 0 0 0 0 0 0 0 0 0 0 0 0 0 0 0 0 0 0 0 0 0 0 0 0 0 0 0 0 0 0 0 0 0 0 0 0 0 0 0 0 0 0 0 56 186 200 196 194 204 228 237 233 230 228 227 227 226 225 221 218 211 204 199 194 193 192 190 190 191 191 190 190 190 189 190 191 188 188 188 189 189 189 189 189 189 190 190 188 187 186 185 185 185 183 186 187 187 187 188 187 187 187 187 187 185 185 184 184 184 184 183 181 182 182 178 179 177 177 177 174 173 171 167 165 163 163 163 164 167 167 167 167 166 166 165 164 162 163 163 162 162 162 162 158 149 140 138 138 139 138 137 137 136 133 134 139 154 162 174 145 23 0 0 0 0 0 0 0 0 0 0 0 0 0 0 0 0 0 0 0 0 0 0 0 0 0 0 0 0 0 0 0 0 0 0 0 0 0 0 0 0 0 0 0 0 0 0 0 0 0 0 0 0 0 0 0 0 0 0 0 0 0 0 0 0 0 0 0 0 0 0 0 0 0 0 0 0 0 0 0 0 0 0 0 0 1 33 88 141 189 211 211 209 202 199 194 193 191 192 194 201 212 223 187 190 240 245 234 213 196 190 190 190 189 187 187 190 190 190 188 187 181 178 179 187 191 191 192 194 194 194 192 184 209 234 71 0 0 0 0 0 0 0 0 
0 0 0 0 0 0 0 0 0 0 0 0 0 0 0 0 0 0 0 0 0 0 0 0 0 0 0 0 0 0 0 0 0 0 0 0 0 0 0 0 0 0 0 0 0 0 0 0 0 0 0 0 0 0 0 0 0 0 0 0 0 0 0 0 0 0 0 0 0 0 0 0 0 0 0 0 0 0 0 0 0 0 0 0 0 0 0 0 0 0 0 0 0 0 0 0 0 0 21 171 198 195 193 196 218 237 234 228 228 228 227 223 214 206 199 194 190 188 188 188 188 188 188 187 186 185 186 186 187 187 188 185 185 186 188 184 184 185 184 185 184 183 180 177 178 176 177 177 175 176 178 181 182 184 184 184 183 184 182 182 182 180 180 180 179 179 177 176 174 173 171 168 164 164 163 163 163 162 163 164 165 165 167 166 166 165 163 163 162 162 162 161 161 161 159 159 157 155 151 143 138 137 138 138 138 135 133 131 129 128 134 156 171 161 50 0 0 0 0 0 0 0 0 0 0 0 0 0 0 0 0 0 0 0 0 0 0 0 0 0 0 0 0 0 0 0 0 0 0 0 0 0 0 0 0 0 0 0 0 0 0 0 0 0 0 0 0 0 0 0 0 0 0 0 0 0 0 0 0 0 0 0 0 0 0 0 0 0 0 0 0 0 0 0 0 0 0 0 3 47 104 156 200 208 201 197 192 191 193 194 192 194 194 193 193 193 197 215 238 234 223 210 193 189 191 192 191 192 192 190 190 189 190 189 190 189 183 178 181 182 191 190 191 193 194 193 192 188 192 239 128 8 0 0 0 0 0 0 0 
0 0 0 0 0 0 0 0 0 0 0 0 0 0 0 0 0 0 0 0 0 0 0 0 0 0 0 0 0 0 0 0 0 0 0 0 0 0 0 0 0 0 0 0 0 0 0 0 0 0 0 0 0 0 0 0 0 0 0 0 0 0 0 0 0 0 0 0 0 0 0 0 0 0 0 0 0 0 0 0 0 0 0 0 0 0 0 0 0 0 0 0 0 0 0 0 0 0 1 145 198 194 192 190 199 225 235 232 229 222 216 206 193 185 183 182 183 182 182 182 182 184 183 182 182 182 181 182 182 180 184 184 181 181 180 180 181 180 178 176 175 172 171 172 172 171 172 172 171 170 170 173 173 174 174 176 178 179 178 178 177 176 175 173 173 172 170 166 165 161 158 154 154 157 160 161 162 163 165 166 165 165 165 163 163 162 162 161 158 157 154 154 153 151 148 147 145 140 139 137 137 137 136 135 133 130 128 127 123 120 144 171 168 64 0 0 0 0 0 0 0 0 0 0 0 0 0 0 0 0 0 0 0 0 0 0 0 0 0 0 0 0 0 0 0 0 0 0 0 0 0 0 0 0 0 0 0 0 0 0 0 0 0 0 0 0 0 0 0 0 0 0 0 0 0 0 0 0 0 0 0 0 0 0 0 0 0 0 0 0 0 0 0 0 0 0 5 57 114 172 203 202 198 194 191 191 193 194 196 196 195 196 196 195 194 193 195 205 223 210 185 188 190 192 192 192 192 192 192 191 191 189 189 190 190 188 187 179 181 184 189 190 191 192 193 194 193 189 186 228 190 31 0 0 0 0 0 0 0 
0 0 0 0 0 0 0 0 0 0 0 0 0 0 0 0 0 0 0 0 0 0 0 0 0 0 0 0 0 0 0 0 0 0 0 0 0 0 0 0 0 0 0 0 0 0 0 0 0 0 0 0 0 0 0 0 0 0 0 0 0 0 0 0 0 0 0 0 0 0 0 0 0 0 0 0 0 0 0 0 0 0 0 0 0 0 0 0 0 0 0 0 0 0 0 0 0 0 0 100 195 190 188 189 185 201 225 227 215 198 191 182 178 177 179 179 179 177 178 177 178 179 176 175 176 175 175 174 173 174 176 174 170 170 169 170 170 170 168 166 165 165 167 167 165 166 166 166 166 166 165 166 164 162 164 166 167 168 170 168 167 166 164 162 162 160 158 157 154 152 153 155 160 161 162 163 163 163 163 162 159 158 159 157 155 153 152 150 148 145 143 141 140 138 136 136 136 134 134 134 134 133 130 127 127 125 124 121 116 132 169 169 72 3 0 0 0 0 0 0 0 0 0 0 0 0 0 0 0 0 0 0 0 0 0 0 0 0 0 0 0 0 0 0 0 0 0 0 0 0 0 0 0 0 0 0 0 0 0 0 0 0 0 0 0 0 0 0 0 0 0 0 0 0 0 0 0 0 0 0 0 0 0 0 0 0 0 0 0 0 0 0 0 0 0 51 121 180 198 198 195 190 191 191 193 194 195 195 196 197 196 196 196 196 194 194 196 201 218 213 188 191 193 192 191 192 194 194 192 190 190 190 190 189 187 185 187 181 179 186 188 191 191 192 193 193 194 191 186 211 227 63 0 0 0 0 0 0 0 
0 0 0 0 0 0 0 0 0 0 0 0 0 0 0 0 0 0 0 0 0 0 0 0 0 0 0 0 0 0 0 0 0 0 0 0 0 0 0 0 0 0 0 0 0 0 0 0 0 0 0 0 0 0 0 0 0 0 0 0 0 0 0 0 0 0 0 0 0 0 0 0 0 0 0 0 0 0 0 0 0 0 0 0 0 0 0 0 0 0 0 0 0 0 0 0 0 0 0 37 187 189 185 185 181 182 194 195 184 177 174 174 175 174 174 174 173 172 171 171 169 167 165 166 168 165 165 166 165 165 164 163 161 162 162 161 160 161 160 159 159 161 161 160 161 160 160 161 161 160 160 159 158 158 159 158 157 156 157 156 155 154 153 152 152 150 149 150 152 153 155 158 160 159 156 155 155 154 154 152 150 147 150 147 146 144 141 140 139 138 136 136 135 134 133 132 132 131 131 130 127 126 125 123 121 119 114 115 137 170 159 63 4 0 0 0 0 0 0 0 0 0 0 0 0 0 0 0 0 0 0 0 0 0 0 0 0 0 0 0 0 0 0 0 0 0 0 0 0 0 0 0 0 0 0 0 0 0 0 0 0 0 0 0 0 0 0 0 0 0 0 0 0 0 0 0 0 0 0 0 0 0 0 0 0 0 0 0 0 0 0 0 0 33 110 175 200 196 186 185 187 189 191 192 194 194 195 195 196 197 197 196 196 197 196 195 196 198 213 222 198 189 191 191 192 193 192 192 192 192 191 190 189 188 188 187 187 182 176 184 189 190 190 191 191 192 193 192 188 195 237 120 5 0 0 0 0 0 0 
0 0 0 0 0 0 0 0 0 0 0 0 0 0 0 0 0 0 0 0 0 0 0 0 0 0 0 0 0 0 0 0 0 0 0 0 0 0 0 0 0 0 0 0 0 0 0 0 0 0 0 0 0 0 0 0 0 0 0 0 0 0 0 0 0 0 0 0 0 0 0 0 0 0 0 0 0 0 0 0 0 0 0 0 0 0 0 0 0 0 0 0 0 0 0 0 0 0 0 1 133 194 182 182 179 176 173 172 172 173 172 172 172 170 169 171 169 165 164 167 161 157 158 158 158 159 158 159 158 157 156 156 155 156 155 155 155 155 154 153 153 155 153 153 155 154 153 153 153 152 153 152 152 152 153 151 150 149 149 149 149 148 147 147 147 147 144 145 147 148 148 149 148 147 147 145 144 144 145 146 144 141 143 141 139 138 135 135 134 133 133 133 131 129 129 128 126 127 126 124 122 122 120 115 114 114 124 153 174 136 48 1 0 0 0 0 0 0 0 0 0 0 0 0 0 0 0 0 0 0 0 0 0 0 0 0 0 0 0 0 0 0 0 0 0 0 0 0 0 0 0 0 0 0 0 0 0 0 0 0 0 0 0 0 0 0 0 0 0 0 0 0 0 0 0 0 0 0 0 0 0 0 0 0 0 0 0 0 0 0 0 4 79 161 192 188 182 178 179 183 186 189 190 193 193 193 194 195 194 196 197 198 197 197 197 196 195 197 207 224 207 188 192 191 192 193 191 192 192 192 190 190 189 188 188 187 185 185 176 176 186 189 189 190 192 192 192 192 189 186 229 184 19 0 0 0 0 0 0 
0 0 0 0 0 0 0 0 0 0 0 0 0 0 0 0 0 0 0 0 0 0 0 0 0 0 0 0 0 0 0 0 0 0 0 0 0 0 0 0 0 0 0 0 0 0 0 0 0 0 0 0 0 0 0 0 0 0 0 0 0 0 0 0 0 0 0 0 0 0 0 0 0 0 0 0 0 0 0 0 0 0 0 0 0 0 0 0 0 0 0 0 0 0 0 0 0 0 0 0 48 187 186 178 177 175 171 169 171 170 170 169 168 166 166 166 164 161 159 162 156 153 152 151 151 153 153 152 151 150 150 150 150 149 148 149 148 148 148 148 147 147 148 147 148 148 148 149 146 147 147 146 146 146 145 144 145 144 143 144 143 143 142 140 141 140 140 139 139 139 139 138 137 136 136 134 134 134 135 135 134 132 132 131 129 128 127 126 124 123 122 122 120 119 118 117 118 120 119 118 115 114 112 113 127 151 170 155 84 22 0 0 0 0 0 0 0 0 0 0 0 0 0 0 0 0 0 0 0 0 0 0 0 0 0 0 0 0 0 0 0 0 0 0 0 0 0 0 0 0 0 0 0 0 0 0 0 0 0 0 0 0 0 0 0 0 0 0 0 0 0 0 0 0 0 0 0 0 0 0 0 0 0 0 0 0 0 0 0 0 16 115 183 189 178 171 172 176 179 183 185 188 191 193 192 194 194 192 194 197 196 199 200 197 197 196 195 197 201 220 216 191 190 192 191 190 192 193 191 192 192 189 189 189 188 188 187 185 180 172 183 189 190 189 191 192 192 192 191 184 211 228 56 0 0 0 0 0 0 
0 0 0 0 0 0 0 0 0 0 0 0 0 0 0 0 0 0 0 0 0 0 0 0 0 0 0 0 0 0 0 0 0 0 0 0 0 0 0 0 0 0 0 0 0 0 0 0 0 0 0 0 0 0 0 0 0 0 0 0 0 0 0 0 0 0 0 0 0 0 0 0 0 0 0 0 0 0 0 0 0 0 0 0 0 0 0 0 0 0 0 0 0 0 0 0 0 0 0 0 3 116 192 178 175 174 170 169 168 166 166 166 163 163 165 164 162 163 156 153 153 150 146 146 147 147 147 145 146 146 145 145 144 144 143 143 141 143 142 140 140 142 141 139 140 139 140 141 139 139 138 138 138 137 137 138 136 137 137 136 135 135 135 134 133 134 132 133 133 133 132 131 129 127 128 127 126 126 126 126 125 123 121 122 122 121 121 119 122 121 120 122 122 122 122 119 116 111 112 113 116 122 137 157 174 166 96 39 6 0 0 0 0 0 0 0 0 0 0 0 0 0 0 0 0 0 0 0 0 0 0 0 0 0 0 0 0 0 0 0 0 0 0 0 0 0 0 0 0 0 0 0 0 0 0 0 0 0 0 0 0 0 0 0 0 0 0 0 0 0 0 0 0 0 0 0 0 0 0 0 0 0 0 0 0 0 0 0 0 9 91 192 183 174 171 170 172 176 180 182 185 187 190 190 193 194 194 192 195 197 198 198 199 197 199 199 198 198 199 215 221 196 187 190 190 191 192 191 191 192 191 189 189 189 189 188 187 187 181 174 177 188 189 189 191 191 192 192 192 184 194 239 116 7 0 0 0 0 0 
0 0 0 0 0 0 0 0 0 0 0 0 0 0 0 0 0 0 0 0 0 0 0 0 0 0 0 0 0 0 0 0 0 0 0 0 0 0 0 0 0 0 0 0 0 0 0 0 0 0 0 0 0 0 0 0 0 0 0 0 0 0 0 0 0 0 0 0 0 0 0 0 0 0 0 0 0 0 0 0 0 0 0 0 0 0 0 0 0 0 0 0 0 0 0 0 0 0 0 0 0 25 161 186 175 173 170 166 164 165 164 163 159 159 157 152 152 152 146 143 143 141 141 141 141 142 141 141 140 138 138 137 137 137 137 135 134 133 133 133 133 133 132 133 133 132 132 133 132 131 131 131 132 131 132 131 129 128 128 128 127 127 126 126 126 126 125 125 124 125 123 120 121 120 121 122 122 122 123 122 122 121 121 123 122 121 121 121 123 123 124 125 127 129 132 135 136 129 126 134 156 173 179 144 90 36 10 0 0 0 0 0 0 0 0 0 0 0 0 0 0 0 0 0 0 0 0 0 0 0 0 0 0 0 0 0 0 0 0 0 0 0 0 0 0 0 0 0 0 0 0 0 0 0 0 0 0 0 0 0 0 0 0 0 0 0 0 0 0 0 0 0 0 0 0 0 0 0 0 0 0 0 0 0 0 0 0 0 0 26 139 181 170 171 171 172 172 176 179 182 185 187 191 190 192 193 193 194 197 196 196 197 198 199 198 198 198 197 197 209 225 205 187 190 189 190 191 190 190 192 191 189 190 188 188 188 185 188 184 175 173 185 189 189 190 191 191 191 192 186 183 229 177 23 0 0 0 0 0 
0 0 0 0 0 0 0 0 0 0 0 0 0 0 0 0 0 0 0 0 0 0 0 0 0 0 0 0 0 0 0 0 0 0 0 0 0 0 0 0 0 0 0 0 0 0 0 0 0 0 0 0 0 0 0 0 0 0 0 0 0 0 0 0 0 0 0 0 0 0 0 0 0 0 0 0 0 0 0 0 0 0 0 0 0 0 0 0 0 0 0 0 0 0 0 0 0 0 0 0 0 0 64 180 182 172 170 167 164 163 160 160 156 149 139 136 137 135 135 135 137 135 135 134 133 134 133 133 132 131 131 130 131 130 128 129 128 125 126 126 126 125 126 125 125 124 125 124 124 123 124 123 123 123 123 123 122 122 121 121 120 120 119 119 118 118 118 117 117 118 117 115 116 116 116 118 120 120 120 121 121 119 118 119 119 119 118 119 116 112 115 116 115 118 120 122 126 126 130 158 185 120 59 24 7 0 0 0 0 0 0 0 0 0 0 0 0 0 0 0 0 0 0 0 0 0 0 0 0 0 0 0 0 0 0 0 0 0 0 0 0 0 0 0 0 0 0 0 0 0 0 0 0 0 0 0 0 0 0 0 0 0 0 0 0 0 0 0 0 0 0 0 0 0 0 0 0 0 0 0 0 0 0 0 0 0 0 0 0 19 121 176 168 170 170 170 173 175 178 182 183 186 188 192 192 194 195 196 197 197 197 199 198 200 199 198 198 200 200 202 222 216 189 188 190 192 191 191 191 191 190 189 190 189 189 187 187 187 184 178 172 182 188 189 190 190 191 192 192 190 182 212 225 56 0 0 0 0 0 
0 0 0 0 0 0 0 0 0 0 0 0 0 0 0 0 0 0 0 0 0 0 0 0 0 0 0 0 0 0 0 0 0 0 0 0 0 0 0 0 0 0 0 0 0 0 0 0 0 0 0 0 0 0 0 0 0 0 0 0 0 0 0 0 0 0 0 0 0 0 0 0 0 0 0 0 0 0 0 0 0 0 0 0 0 0 0 0 0 0 0 0 0 0 0 0 0 0 0 0 0 0 5 85 187 180 170 167 164 162 158 159 155 138 126 128 129 130 131 130 131 129 127 128 128 127 127 125 124 125 124 124 122 122 121 121 120 119 118 118 117 117 118 118 118 118 117 115 116 116 115 115 113 113 114 113 112 111 111 110 110 111 109 109 109 109 110 109 109 109 109 109 109 107 108 111 111 111 110 111 109 107 107 109 111 109 109 109 109 108 107 108 108 111 116 117 117 124 140 164 96 19 1 0 0 0 0 0 0 0 0 0 0 0 0 0 0 0 0 0 0 0 0 0 0 0 0 0 0 0 0 0 0 0 0 0 0 0 0 0 0 0 0 0 0 0 0 0 0 0 0 0 0 0 0 0 0 0 0 0 0 0 0 0 0 0 0 0 0 0 0 0 0 0 0 0 0 0 0 0 0 0 0 0 0 0 0 0 0 3 73 180 168 168 168 170 172 174 177 179 181 184 190 193 194 194 196 197 198 198 198 199 199 200 200 198 197 197 199 197 215 221 195 186 191 190 189 190 190 191 192 190 189 189 188 187 187 186 185 181 173 177 186 189 191 190 191 191 191 190 184 195 238 113 5 0 0 0 0 
0 0 0 0 0 0 0 0 0 0 0 0 0 0 0 0 0 0 0 0 0 0 0 0 0 0 0 0 0 0 0 0 0 0 0 0 0 0 0 0 0 0 0 0 0 0 0 0 0 0 0 0 0 0 0 0 0 0 0 0 0 0 0 0 0 0 0 0 0 0 0 0 0 0 0 0 0 0 0 0 0 0 0 0 0 0 0 0 0 0 0 0 0 0 0 0 0 0 0 0 0 0 0 9 99 186 176 169 167 162 159 158 155 135 121 127 127 127 125 124 124 123 122 122 122 121 120 118 118 118 117 116 115 115 115 114 113 113 113 111 109 110 109 108 108 108 107 107 106 106 106 105 105 106 105 104 104 103 103 102 101 100 100 100 99 100 100 99 99 99 99 99 99 99 100 101 102 102 103 105 107 108 111 112 113 112 115 116 115 115 117 120 122 127 134 136 138 143 155 174 59 1 0 0 0 0 0 0 0 0 0 0 0 0 0 0 0 0 0 0 0 0 0 0 0 0 0 0 0 0 0 0 0 0 0 0 0 0 0 0 0 0 0 0 0 0 0 0 0 0 0 0 0 0 0 0 0 0 0 0 0 0 0 0 0 0 0 0 0 0 0 0 0 0 0 0 0 0 0 0 0 0 0 0 0 0 0 0 0 0 34 165 173 168 168 169 170 174 177 179 183 185 190 193 194 194 195 196 197 197 198 197 197 199 199 199 197 196 196 197 207 223 204 188 191 190 189 191 191 191 190 191 190 188 188 187 187 185 185 183 174 172 182 185 190 191 190 191 191 190 185 185 226 183 18 0 0 0 0 
0 0 0 0 0 0 0 0 0 0 0 0 0 0 0 0 0 0 0 0 0 0 0 0 0 0 0 0 0 0 0 0 0 0 0 0 0 0 0 0 0 0 0 0 0 0 0 0 0 0 0 0 0 0 0 0 0 0 0 0 0 0 0 0 0 0 0 0 0 0 0 0 0 0 0 0 0 0 0 0 0 0 0 0 0 0 0 0 0 0 0 0 0 0 0 0 0 0 0 0 0 0 0 0 12 103 184 177 168 164 160 159 157 142 122 121 123 122 120 119 120 118 117 116 116 116 114 114 112 112 111 110 109 108 109 107 105 104 105 103 102 103 102 102 103 102 102 101 102 100 100 100 100 99 98 98 97 95 94 93 93 91 92 91 91 92 93 94 96 96 98 102 103 108 112 113 114 117 120 121 124 126 128 128 129 126 127 128 125 126 133 137 138 138 139 143 146 149 158 177 68 3 0 0 0 0 0 0 0 0 0 0 0 0 0 0 0 0 0 0 0 0 0 0 0 0 0 0 0 0 0 0 0 0 0 0 0 0 0 0 0 0 0 0 0 0 0 0 0 0 0 0 0 0 0 0 0 0 0 0 0 0 0 0 0 0 0 0 0 0 0 0 0 0 0 0 0 0 0 0 0 0 0 0 0 0 0 0 0 0 13 117 180 167 168 169 170 173 176 177 180 186 191 192 194 194 195 196 197 196 197 197 197 199 199 199 197 197 196 197 199 221 215 190 189 190 188 189 190 191 191 191 190 189 188 187 185 185 185 183 181 175 178 186 188 189 189 190 190 190 186 184 208 230 50 0 0 0 0 
0 0 0 0 0 0 0 0 0 0 0 0 0 0 0 0 0 0 0 0 0 0 0 0 0 0 0 0 0 0 0 0 0 0 0 0 0 0 0 0 0 0 0 0 0 0 0 0 0 0 0 0 0 0 0 0 0 0 0 0 0 0 0 0 0 0 0 0 0 0 0 0 0 0 0 0 0 0 0 0 0 0 0 0 0 0 0 0 0 0 0 0 0 0 0 0 0 0 0 0 0 0 0 0 0 11 92 180 178 168 164 160 158 154 136 117 113 115 116 115 114 114 112 109 109 110 107 107 106 105 103 102 101 101 100 101 100 101 101 102 103 104 106 106 105 103 101 101 100 97 97 96 95 93 92 92 90 88 85 86 87 89 90 91 97 100 103 104 109 113 115 119 121 124 125 125 126 127 127 129 129 129 131 135 143 148 139 138 139 133 135 145 146 141 141 146 149 155 162 178 83 6 0 0 0 0 0 0 0 0 0 0 0 0 0 0 0 0 0 0 0 0 0 0 0 0 0 0 0 0 0 0 0 0 0 0 0 0 0 0 0 0 0 0 0 0 0 0 0 0 0 0 0 0 0 0 0 0 0 0 0 0 0 0 0 0 0 0 0 0 0 0 0 0 0 0 0 0 0 0 0 0 0 0 0 0 0 0 0 0 1 70 180 169 168 169 169 172 173 177 180 184 187 190 194 194 194 196 196 197 197 197 198 199 199 199 198 198 196 197 198 215 222 194 187 190 188 188 190 191 191 190 191 190 187 188 187 184 184 184 180 173 175 185 186 188 188 189 189 190 188 186 193 233 115 7 0 0 0 
0 0 0 0 0 0 0 0 0 0 0 0 0 0 0 0 0 0 0 0 0 0 0 0 0 0 0 0 0 0 0 0 0 0 0 0 0 0 0 0 0 0 0 0 0 0 0 0 0 0 0 0 0 0 0 0 0 0 0 0 0 0 0 0 0 0 0 0 0 0 0 0 0 0 0 0 0 0 0 0 0 0 0 0 0 0 0 0 0 0 0 0 0 0 0 0 0 0 0 0 0 0 0 0 0 0 6 70 162 179 173 166 161 160 156 136 113 107 107 109 108 108 107 106 104 103 101 99 98 98 98 100 103 105 106 107 106 106 107 106 106 104 103 103 101 100 99 98 96 94 92 92 93 93 92 94 95 93 94 96 99 106 108 111 113 117 121 122 123 124 124 125 126 127 127 127 127 129 128 128 130 133 131 138 151 157 151 148 149 142 139 152 157 145 143 147 150 155 160 177 95 8 0 0 0 0 0 0 0 0 0 0 0 0 0 0 0 0 0 0 0 0 0 0 0 0 0 0 0 0 0 0 0 0 0 0 0 0 0 0 0 0 0 0 0 0 0 0 0 0 0 0 0 0 0 0 0 0 0 0 0 0 0 0 0 0 0 0 0 0 0 0 0 0 0 0 0 0 0 0 0 0 0 0 0 0 0 0 0 0 0 39 158 173 166 168 170 173 175 176 180 183 187 190 193 194 195 197 197 198 198 198 198 199 199 199 199 199 196 196 196 206 224 204 186 188 188 189 190 190 190 190 190 189 188 187 187 185 184 183 182 173 173 183 185 186 188 186 190 190 187 184 189 222 187 18 0 0 0 
0 0 0 0 0 0 0 0 0 0 0 0 0 0 0 0 0 0 0 0 0 0 0 0 0 0 0 0 0 0 0 0 0 0 0 0 0 0 0 0 0 0 0 0 0 0 0 0 0 0 0 0 0 0 0 0 0 0 0 0 0 0 0 0 0 0 0 0 0 0 0 0 0 0 0 0 0 0 0 0 0 0 0 0 0 0 0 0 0 0 0 0 0 0 0 0 0 0 0 0 0 0 0 0 0 0 0 1 32 119 173 178 170 165 162 160 147 128 112 104 102 101 100 100 99 97 100 104 108 108 108 109 111 111 110 107 106 105 103 101 97 98 98 96 97 97 96 97 97 98 98 98 101 103 104 107 109 110 114 118 121 122 124 125 126 128 127 125 126 128 129 129 130 130 132 130 132 132 130 133 134 134 134 139 156 166 161 154 156 146 145 157 157 149 146 148 149 154 158 174 111 10 0 0 0 0 0 0 0 0 0 0 0 0 0 0 0 0 0 0 0 0 0 0 0 0 0 0 0 0 0 0 0 0 0 0 0 0 0 0 0 0 0 0 0 0 0 0 0 0 0 0 0 0 0 0 0 0 0 0 0 0 0 0 0 0 0 0 0 0 0 0 0 0 0 0 0 0 0 0 0 0 0 0 0 0 0 0 0 0 0 14 109 178 165 169 169 173 174 175 179 183 187 189 192 195 197 196 197 198 198 198 199 199 199 199 199 198 197 196 198 199 223 213 187 187 189 189 189 190 190 190 190 189 188 185 185 184 183 183 182 176 170 179 184 184 185 186 186 190 189 182 189 208 222 50 0 0 0 
0 0 0 0 0 0 0 0 0 0 0 0 0 0 0 0 0 0 0 0 0 0 0 0 0 0 0 0 0 0 0 0 0 0 0 0 0 0 0 0 0 0 0 0 0 0 0 0 0 0 0 0 0 0 0 0 0 0 0 0 0 0 0 0 0 0 0 0 0 0 0 0 0 0 0 0 0 0 0 0 0 0 0 0 0 0 0 0 0 0 0 0 0 0 0 0 0 0 0 0 0 0 0 0 0 0 0 0 0 4 55 128 174 177 170 166 166 157 149 138 123 114 110 104 105 112 120 122 120 116 114 112 110 105 101 99 101 100 98 97 99 100 99 100 103 105 106 109 112 112 115 118 120 121 123 125 128 130 130 129 131 133 134 133 133 134 135 133 136 135 136 137 136 137 136 135 135 136 135 136 136 137 137 142 160 177 168 160 164 148 140 155 159 149 146 147 147 150 155 172 125 12 0 0 0 0 0 0 0 0 0 0 0 0 0 0 0 0 0 0 0 0 0 0 0 0 0 0 0 0 0 0 0 0 0 0 0 0 0 0 0 0 0 0 0 0 0 0 0 0 0 0 0 0 0 0 0 0 0 0 0 0 0 0 0 0 0 0 0 0 0 0 0 0 0 0 0 0 0 0 0 0 0 0 0 0 0 0 0 0 0 1 66 176 167 167 170 172 174 175 178 181 184 185 190 194 196 197 197 197 197 198 199 199 199 199 198 197 196 195 197 197 216 220 191 187 189 189 189 188 190 191 190 189 187 187 185 184 185 183 182 178 171 175 182 184 184 186 186 188 189 183 186 197 225 113 7 0 0 
0 0 0 0 0 0 0 0 0 0 0 0 0 0 0 0 0 0 0 0 0 0 0 0 0 0 0 0 0 0 0 0 0 0 0 0 0 0 0 0 0 0 0 0 0 0 0 0 0 0 0 0 0 0 0 0 0 0 0 0 0 0 0 0 0 0 0 0 0 0 0 0 0 0 0 0 0 0 0 0 0 0 0 0 0 0 0 0 0 0 0 0 0 0 0 0 0 0 0 0 0 0 0 0 0 0 0 0 0 0 0 2 46 107 146 162 168 169 170 168 159 155 148 134 124 123 117 113 110 106 106 104 104 103 105 109 111 112 114 113 115 119 119 120 122 124 128 130 133 133 134 137 137 137 138 139 140 140 140 140 140 141 141 142 141 140 140 140 142 141 140 141 140 139 139 139 140 140 139 140 140 140 140 142 159 176 167 158 161 149 136 149 158 146 141 142 145 149 151 165 140 15 0 0 0 0 0 0 0 0 0 0 0 0 0 0 0 0 0 0 0 0 0 0 0 0 0 1 1 2 2 2 3 3 3 2 2 1 0 0 0 0 0 0 0 0 0 0 0 0 0 0 0 0 0 0 0 0 0 0 0 0 0 0 0 0 0 0 0 0 0 0 0 0 0 0 0 0 0 0 0 0 0 0 0 0 0 0 0 0 0 0 35 153 168 166 169 170 174 176 178 181 184 185 188 194 196 196 195 197 197 197 198 198 199 199 199 198 195 196 197 196 208 225 198 184 189 190 189 189 191 191 190 188 187 185 185 184 183 182 181 180 172 171 179 183 183 186 186 186 187 184 183 192 217 175 16 0 0 
0 0 0 0 0 0 0 0 0 0 0 0 0 0 0 0 0 0 0 0 0 0 0 0 0 0 0 0 0 0 0 0 0 0 0 0 0 0 0 0 0 0 0 0 0 0 0 0 0 0 0 0 0 0 0 0 0 0 0 0 0 0 0 0 0 0 0 0 0 0 0 0 0 0 0 0 0 0 0 0 0 0 0 0 0 0 0 0 0 0 0 0 0 0 0 0 0 0 0 0 0 0 0 0 0 0 0 0 0 0 0 0 0 0 7 44 79 107 127 142 151 158 168 166 139 109 113 122 126 131 135 137 146 148 149 149 141 137 136 135 134 134 136 138 139 139 141 141 142 143 143 143 140 142 146 146 147 148 148 148 146 148 147 148 148 147 146 144 146 146 144 144 143 142 143 143 143 143 142 142 141 142 142 143 156 173 167 156 160 149 135 146 157 143 136 139 141 143 148 162 159 18 2 3 4 4 6 7 7 7 8 10 14 17 21 22 23 26 32 34 31 28 28 30 30 30 38 41 49 55 56 50 60 66 62 59 57 45 28 12 3 0 0 0 0 0 0 0 0 0 0 0 0 0 0 0 0 0 0 0 0 0 0 0 0 0 0 0 0 0 0 0 0 0 0 0 0 0 0 0 0 0 0 0 0 0 0 0 0 0 0 0 14 115 168 164 168 169 173 175 177 180 182 187 188 193 195 194 197 197 196 197 198 198 198 199 199 198 196 196 196 197 201 224 209 184 187 190 190 190 191 189 190 188 188 185 183 183 183 182 182 181 173 168 175 181 183 184 185 185 185 184 181 191 203 208 50 0 0 
0 0 0 0 0 0 0 0 0 0 0 0 0 0 0 0 0 0 0 0 0 0 0 0 0 0 0 0 0 0 0 0 0 0 0 0 0 0 0 0 0 0 0 0 0 0 0 0 0 0 0 0 0 0 0 0 0 0 0 0 0 0 0 0 0 0 0 0 0 0 0 0 0 0 0 0 0 0 0 0 0 0 0 0 0 0 0 0 0 0 0 0 0 0 0 0 0 0 0 0 0 0 0 0 0 0 0 0 0 0 0 0 0 0 0 0 0 0 0 10 25 38 102 161 156 149 176 192 190 193 192 192 193 190 184 172 155 143 143 143 144 146 146 148 149 150 151 149 149 152 150 152 151 152 152 152 152 153 153 153 153 152 152 151 151 151 151 150 149 149 148 147 147 147 146 143 143 141 141 139 139 138 138 136 148 168 164 152 157 147 133 147 156 141 132 135 137 139 142 148 154 75 50 53 61 62 72 79 86 81 88 105 113 121 128 132 132 133 144 147 138 130 134 134 126 130 134 128 148 156 154 144 160 161 160 163 163 162 142 105 65 21 1 0 0 0 0 0 0 0 0 0 0 0 0 0 0 0 0 0 0 0 0 0 0 0 0 0 0 0 0 0 0 0 0 0 0 0 0 0 0 0 0 0 0 0 0 0 0 0 0 0 1 73 164 164 168 168 172 175 177 179 182 184 186 191 195 195 196 197 197 197 198 198 198 199 198 197 196 197 197 197 196 214 213 188 186 188 187 187 189 188 188 188 187 185 184 183 183 180 180 179 177 167 171 180 182 183 184 184 185 185 182 189 195 213 104 4 0 
0 0 0 0 0 0 0 0 0 0 0 0 0 0 0 0 0 0 0 0 0 0 0 0 0 0 0 0 0 0 0 0 0 0 0 0 0 0 0 0 0 0 0 0 0 0 0 0 0 0 0 0 0 0 0 0 0 0 0 0 0 0 0 0 0 0 0 0 0 0 0 0 0 0 0 0 0 0 0 0 0 0 0 0 0 0 0 0 0 0 0 0 0 0 0 0 0 0 0 0 0 0 0 0 0 0 0 0 0 0 0 0 0 0 0 0 0 0 0 0 0 0 15 146 169 173 199 213 204 203 201 198 196 193 190 180 165 152 152 151 152 153 153 154 157 158 159 158 159 159 156 157 157 157 157 155 155 155 155 155 155 154 153 153 153 151 150 148 148 148 145 145 144 143 143 142 141 142 142 142 142 142 142 142 146 151 151 148 149 147 145 148 147 148 150 151 153 156 158 156 149 156 160 157 153 156 157 157 159 164 161 153 151 152 150 150 148 141 138 137 131 128 137 139 134 133 130 119 120 132 136 134 131 132 133 137 136 134 143 152 165 132 46 2 0 0 0 0 0 0 0 0 0 0 0 0 0 0 0 0 0 0 0 0 0 0 0 0 0 0 0 0 0 0 0 0 0 0 0 0 0 0 0 0 0 0 0 0 0 0 0 0 0 39 146 163 166 169 172 174 175 177 180 182 185 190 193 196 196 195 196 198 198 198 198 198 198 196 197 198 199 196 195 211 218 191 183 186 186 186 186 186 187 187 184 181 182 180 179 179 178 178 177 168 167 177 181 182 182 182 184 184 180 184 191 201 149 12 0 
0 0 0 0 0 0 0 0 0 0 0 0 0 0 0 0 0 0 0 0 0 0 0 0 0 0 0 0 0 0 0 0 0 0 0 0 0 0 0 0 0 0 0 0 0 0 0 0 0 0 0 0 0 0 0 0 0 0 0 0 0 0 0 0 0 0 0 0 0 0 0 0 0 0 0 0 0 0 0 0 0 0 0 0 0 0 0 0 0 0 0 0 0 0 0 0 0 0 0 0 0 0 0 0 0 0 0 0 0 0 0 0 0 0 0 0 0 0 0 0 0 0 0 124 173 169 188 202 203 206 204 202 201 199 198 188 174 163 157 157 159 159 158 158 159 157 158 156 155 154 153 152 152 151 152 152 152 154 154 153 155 153 154 154 152 153 153 154 152 150 152 154 158 158 158 159 158 161 161 160 163 161 160 161 160 155 152 153 152 150 152 150 141 142 147 146 144 146 143 141 140 137 137 136 133 128 130 132 128 127 121 121 122 124 124 120 119 116 117 114 111 113 116 118 120 119 117 117 114 113 112 117 115 111 112 116 114 114 119 127 134 151 144 38 0 0 0 0 0 0 0 0 0 0 0 0 0 0 0 0 0 0 0 0 0 0 0 0 0 0 0 0 0 0 0 0 0 0 0 0 0 0 0 0 0 0 0 0 0 0 0 0 0 14 113 164 163 168 171 172 175 177 179 183 186 188 192 195 195 196 197 198 199 199 199 198 198 197 197 198 197 197 197 210 224 196 178 182 184 186 184 184 186 185 182 180 180 180 179 178 177 178 178 170 166 173 179 181 181 182 183 183 180 182 186 189 174 35 0 
0 0 0 0 0 0 0 0 0 0 0 0 0 0 0 0 0 0 0 0 0 0 0 0 0 0 0 0 0 0 0 0 0 0 0 0 0 0 0 0 0 0 0 0 0 0 0 0 0 0 0 0 0 0 0 0 0 0 0 0 0 0 0 0 0 0 0 0 0 0 0 0 0 0 0 0 0 0 0 0 0 0 0 0 0 0 0 0 0 0 0 0 0 0 0 0 0 0 0 0 0 0 0 0 0 0 0 0 0 0 0 0 0 0 0 0 0 0 0 0 0 0 0 103 179 166 187 203 210 209 209 210 208 208 205 192 176 158 153 153 150 146 145 143 140 138 139 139 140 142 143 144 145 148 154 158 159 160 158 158 162 156 154 154 151 150 152 153 149 143 143 147 148 147 147 146 144 146 143 139 137 139 137 138 138 138 138 132 130 130 128 128 122 120 122 123 120 120 119 120 123 121 118 118 119 114 118 117 115 117 114 112 114 114 113 112 110 111 112 115 116 113 111 111 110 106 107 107 103 105 103 105 105 103 104 106 106 103 100 107 116 125 147 107 13 0 0 0 0 0 0 0 0 0 0 0 0 0 0 0 0 0 0 0 0 0 0 0 0 0 0 0 0 0 0 0 0 0 0 0 0 0 0 0 0 0 0 0 0 0 0 0 0 0 72 161 159 169 169 171 173 176 179 182 189 187 191 193 194 195 197 199 198 199 198 198 199 198 198 197 196 195 202 197 208 199 179 178 181 182 181 183 183 184 183 181 179 178 178 178 177 176 177 172 164 168 176 178 180 182 182 182 179 183 190 182 188 61 1 
0 0 0 0 0 0 0 0 0 0 0 0 0 0 0 0 0 0 0 0 0 0 0 0 0 0 0 0 0 0 0 0 0 0 0 0 0 0 0 0 0 0 0 0 0 0 0 0 0 0 0 0 0 0 0 0 0 0 0 0 0 0 0 0 0 0 0 0 0 0 0 0 0 0 0 0 0 0 0 0 0 0 0 0 0 0 0 0 0 0 0 0 0 0 0 0 0 0 0 0 0 0 0 0 0 0 0 0 0 0 0 0 0 0 0 0 0 0 0 0 0 0 0 83 177 170 183 219 219 217 217 212 202 192 179 164 147 137 133 131 130 131 133 137 140 144 151 151 149 150 146 143 142 143 146 144 142 139 136 134 133 132 131 131 129 127 127 126 124 123 121 122 124 125 128 127 126 129 126 125 127 130 129 126 124 124 128 123 122 122 119 119 116 115 114 113 116 113 111 109 114 111 110 109 108 104 104 112 121 123 119 113 113 111 112 115 111 113 116 117 114 111 112 110 110 114 112 119 115 117 120 122 128 130 132 137 141 132 119 104 101 112 133 135 43 0 0 0 0 0 0 0 0 0 0 0 0 0 0 0 0 0 0 0 0 0 0 0 0 0 0 0 0 0 0 0 0 0 0 0 0 0 0 0 0 0 0 0 0 0 0 0 0 0 35 144 159 164 168 170 173 176 178 181 183 186 190 193 195 194 196 196 198 198 198 198 198 197 198 198 197 197 197 200 208 201 179 177 178 180 180 181 181 183 180 179 178 177 178 177 175 175 176 172 163 164 173 177 178 179 180 181 178 183 194 178 186 102 3 
0 0 0 0 0 0 0 0 0 0 0 0 0 0 0 0 0 0 0 0 0 0 0 0 0 0 0 0 0 0 0 0 0 0 0 0 0 0 0 0 0 0 0 0 0 0 0 0 0 0 0 0 0 0 0 0 0 0 0 0 0 0 0 0 0 0 0 0 0 0 0 0 0 0 0 0 0 0 0 0 0 0 0 0 0 0 0 0 0 0 0 0 0 0 0 0 0 0 0 0 0 0 0 0 0 0 0 0 0 0 0 0 0 0 0 0 0 0 0 0 0 0 0 63 181 178 182 216 211 207 190 176 160 145 135 130 126 126 133 137 137 141 148 153 151 150 151 145 137 134 130 125 122 123 123 121 123 124 121 121 121 124 125 124 124 123 123 122 120 120 118 120 122 121 123 122 126 129 128 125 116 115 118 113 110 110 112 111 110 112 112 110 111 110 113 116 118 116 116 119 116 114 117 127 132 131 144 141 103 100 93 110 133 133 134 135 131 135 126 84 55 77 107 104 116 135 139 157 151 154 159 160 163 161 160 164 164 166 160 125 97 106 121 139 77 4 0 0 0 0 0 0 0 0 0 0 0 0 0 0 0 0 0 0 0 0 0 0 0 0 0 0 0 0 0 0 0 0 0 0 0 0 0 0 0 0 0 0 0 0 0 0 0 0 10 108 158 160 168 169 173 175 176 180 181 184 188 192 194 195 196 196 197 198 199 198 198 198 199 198 197 198 194 213 229 208 177 175 176 177 177 177 179 180 179 179 178 175 175 174 174 174 175 174 166 161 169 176 177 177 179 179 178 181 197 177 178 143 11 
0 0 0 0 0 0 0 0 0 0 0 0 0 0 0 0 0 0 0 0 0 0 0 0 0 0 0 0 0 0 0 0 0 0 0 0 0 0 0 0 0 0 0 0 0 0 0 0 0 0 0 0 0 0 0 0 0 0 0 0 0 0 0 0 0 0 0 0 0 0 0 0 0 0 0 0 0 0 0 0 0 0 0 0 0 0 0 0 0 0 0 0 0 0 0 0 0 0 0 0 0 0 0 0 0 0 0 0 0 0 0 0 0 0 0 0 0 0 0 0 0 0 0 39 177 175 172 182 176 168 162 160 154 150 148 146 154 169 177 172 150 143 147 143 134 125 124 121 117 117 118 116 114 116 118 117 118 116 114 115 115 120 123 121 122 121 121 125 127 125 120 118 120 123 124 122 116 119 115 130 142 134 135 143 149 156 161 162 168 172 172 172 171 173 178 186 193 202 207 209 190 198 208 221 227 229 245 139 25 24 39 110 134 127 127 123 122 129 103 28 2 51 103 103 111 140 159 164 162 159 158 154 154 154 153 152 154 158 162 138 98 99 112 132 109 22 0 0 0 0 0 0 0 0 0 0 0 0 0 0 0 0 0 0 0 0 0 0 0 0 0 0 0 0 0 0 0 0 0 0 0 0 0 0 0 0 0 0 0 0 0 0 0 0 0 69 153 157 166 169 172 174 177 180 181 183 186 190 194 195 194 196 197 197 198 198 197 197 197 198 198 196 196 207 221 214 180 171 174 174 175 176 176 179 178 178 176 175 174 174 172 172 172 172 170 161 163 173 175 177 176 178 177 182 193 173 173 162 29 
0 0 0 0 0 0 0 0 0 0 0 0 0 0 0 0 0 0 0 0 0 0 0 0 0 0 0 0 0 0 0 0 0 0 0 0 0 0 0 0 0 0 0 0 0 0 0 0 0 0 0 0 0 0 0 0 0 0 0 0 0 0 0 0 0 0 0 0 0 0 0 0 0 0 0 0 0 0 0 0 0 0 0 0 0 0 0 0 0 0 0 0 0 0 0 0 0 0 0 0 0 0 0 0 0 0 0 0 0 0 0 0 0 0 0 0 0 0 0 0 0 18 34 83 174 179 176 176 177 181 185 190 185 174 159 164 215 240 228 176 137 135 134 127 121 117 116 117 121 119 120 119 120 121 127 125 132 136 134 130 137 128 119 119 119 125 114 85 86 117 136 132 129 130 135 134 75 43 38 80 202 224 208 221 233 244 250 251 252 254 254 249 242 238 236 239 246 254 255 255 255 255 255 255 255 255 210 34 2 13 72 120 109 101 96 96 99 107 72 11 9 71 106 98 108 152 162 156 154 151 151 149 149 150 148 149 151 155 159 140 96 94 108 125 130 46 0 0 0 0 0 0 0 0 0 0 0 0 0 0 0 0 0 0 0 0 0 0 0 0 0 0 0 0 0 0 0 0 0 0 0 0 0 0 0 0 0 0 0 0 0 0 0 0 0 36 134 156 164 167 170 172 175 179 181 184 186 190 194 194 196 196 196 196 196 196 197 198 197 198 197 195 197 198 203 212 184 172 172 174 174 174 174 177 175 175 174 174 173 172 171 171 171 172 170 160 160 169 174 176 177 178 176 180 194 177 168 170 60 
0 0 0 0 0 0 0 0 0 0 0 0 0 0 0 0 0 0 0 0 0 0 0 0 0 0 0 0 0 0 0 0 0 0 0 0 0 0 0 0 0 0 0 0 0 0 0 0 0 0 0 0 0 0 0 0 0 0 0 0 0 0 0 0 0 0 0 0 0 0 0 0 0 0 0 0 0 0 0 0 0 0 0 0 0 0 0 0 0 0 0 0 0 0 0 0 0 0 0 0 0 0 0 0 0 0 0 0 0 0 0 0 0 0 0 0 0 5 23 56 88 123 145 165 194 198 195 194 190 192 194 192 190 181 156 162 229 254 220 144 125 130 126 122 120 115 121 145 156 153 164 161 177 169 184 184 189 205 202 184 195 155 114 118 118 128 113 33 6 57 132 140 127 124 125 128 87 18 3 12 103 234 246 233 238 245 252 255 255 255 255 252 246 240 236 234 240 245 252 255 255 255 255 255 255 241 78 2 18 54 118 111 109 104 100 101 97 102 59 9 21 85 108 95 100 151 165 156 152 150 148 150 149 152 146 148 148 150 157 144 99 92 102 118 132 76 4 0 0 0 0 0 0 0 0 0 0 0 0 0 0 0 0 0 0 0 0 0 0 0 0 0 0 0 0 0 0 0 0 0 0 0 0 0 0 0 0 0 0 0 0 0 0 0 0 7 105 155 160 167 170 172 175 178 180 182 187 188 192 194 195 196 196 196 197 196 197 197 197 197 196 194 194 194 199 204 183 173 172 173 172 171 172 174 176 174 173 172 172 171 171 171 170 171 170 163 158 165 172 174 176 177 174 176 193 179 163 172 89 
0 0 0 0 0 0 0 0 0 0 0 0 0 0 0 0 0 0 0 0 0 0 0 0 0 0 0 0 0 0 0 0 0 0 0 0 0 0 0 0 0 0 0 0 0 0 0 0 0 0 0 0 0 0 0 0 0 0 0 0 0 0 0 0 0 0 0 0 0 0 0 0 0 0 0 0 0 0 0 0 0 0 0 0 0 0 0 0 0 0 0 0 0 0 0 0 0 0 0 0 0 0 0 0 0 0 0 0 0 0 0 0 0 0 13 36 55 86 137 180 201 206 198 194 200 194 193 197 191 191 192 190 190 183 156 155 212 237 188 135 127 127 125 122 119 114 123 164 176 192 209 212 214 215 219 218 214 225 224 213 213 167 114 116 119 122 128 66 5 15 95 136 125 122 121 117 121 88 29 12 9 108 239 235 223 232 238 248 253 255 253 248 242 240 237 233 237 245 252 255 255 255 255 255 255 152 11 19 37 108 119 108 109 108 114 107 101 98 50 6 34 92 104 97 92 131 165 158 151 149 148 147 149 147 147 147 146 147 154 147 107 95 101 114 131 105 18 0 0 0 0 0 0 0 0 0 0 0 0 0 0 0 0 0 0 0 0 0 0 0 0 0 0 0 0 0 0 0 0 0 0 0 0 0 0 0 0 0 0 0 0 0 0 0 0 0 63 146 156 165 168 172 173 176 178 180 185 186 190 193 194 195 195 196 197 197 196 196 194 195 197 196 194 196 194 196 182 170 170 170 170 170 172 172 174 173 172 172 170 170 171 170 169 168 169 165 156 160 169 172 173 175 174 175 177 166 161 166 119 
0 0 0 0 0 0 0 0 0 0 0 0 0 0 0 0 0 0 0 0 0 0 0 0 0 0 0 0 0 0 0 0 0 0 0 0 0 0 0 0 0 0 0 0 0 0 0 0 0 0 0 0 0 0 0 0 0 0 0 0 0 0 0 0 0 0 0 0 0 0 0 0 0 0 0 0 0 0 0 0 0 0 0 0 0 0 0 0 0 0 0 0 0 0 0 0 0 0 0 0 0 0 0 0 0 0 0 0 0 0 0 19 49 76 110 145 168 189 209 209 201 199 199 201 193 189 190 191 192 196 194 195 195 183 160 150 196 215 174 134 129 126 124 122 119 113 121 177 196 210 223 221 212 218 211 212 217 211 210 213 218 189 122 112 118 118 131 117 36 4 56 122 124 119 117 119 119 125 86 27 12 14 126 241 232 226 235 243 250 252 250 247 241 238 237 236 238 246 254 255 255 255 255 255 220 40 16 26 86 129 114 115 109 111 111 106 112 95 37 5 46 98 101 97 90 127 162 157 150 150 147 146 147 144 145 147 146 148 153 149 108 94 101 109 127 126 34 0 0 0 0 0 0 0 0 0 0 0 0 0 0 0 0 0 0 0 0 0 0 0 0 0 0 0 0 0 0 0 0 0 0 0 0 0 0 0 0 0 0 0 0 0 0 0 0 0 34 133 153 161 168 170 172 175 178 179 183 185 188 191 194 195 195 195 197 197 196 196 194 195 197 196 194 195 191 190 180 169 169 168 168 168 170 170 171 171 171 172 170 168 168 168 169 169 168 165 155 155 166 170 170 173 173 175 171 157 156 162 136 
0 0 0 0 0 0 0 0 0 0 0 0 0 0 0 0 0 0 0 0 0 0 0 0 0 0 0 0 0 0 0 0 0 0 0 0 0 0 0 0 0 0 0 0 0 0 0 0 0 0 0 0 0 0 0 0 0 0 0 0 0 0 0 0 0 0 0 0 0 0 0 0 0 0 0 0 0 0 0 0 0 0 0 0 0 0 0 0 0 0 0 0 0 0 0 0 0 0 0 0 0 0 0 0 0 0 0 0 23 61 95 136 169 185 186 192 203 206 202 199 197 196 196 196 192 193 192 187 192 199 198 198 195 181 163 153 184 206 169 133 127 126 123 121 120 112 119 195 220 217 224 219 213 206 202 203 217 210 201 202 216 201 129 109 118 119 125 136 74 10 24 97 121 117 117 120 119 122 128 84 25 10 16 144 248 234 232 240 247 249 247 244 243 238 237 239 238 244 252 255 255 255 255 254 106 14 23 58 124 120 116 110 107 104 100 98 109 82 22 6 57 103 101 97 89 128 160 156 152 148 148 148 148 147 144 145 147 148 153 155 112 89 98 105 121 130 61 0 0 0 0 0 0 0 0 0 0 0 0 0 0 0 0 0 0 0 0 0 0 0 0 0 0 0 0 0 0 0 0 0 0 0 0 0 0 0 0 0 0 0 0 0 0 0 0 42 103 150 148 157 167 168 169 174 178 178 181 184 188 191 194 195 195 195 196 196 196 195 196 195 195 193 194 196 188 181 175 166 167 166 166 166 167 168 170 169 171 170 168 168 167 167 167 168 167 166 158 152 160 168 170 173 171 174 166 151 153 162 137 
0 0 0 0 0 0 0 0 0 0 0 0 0 0 0 0 0 0 0 0 0 0 0 0 0 0 0 0 0 0 0 0 0 0 0 0 0 0 0 0 0 0 0 0 0 0 0 0 0 0 0 0 0 0 0 0 0 0 0 0 0 0 0 0 0 0 0 0 0 0 0 0 0 0 0 0 0 0 0 0 0 0 0 0 0 0 0 0 0 0 0 0 0 0 0 0 0 0 0 0 0 0 0 0 4 31 71 110 149 179 202 205 202 198 199 192 192 200 199 198 198 200 198 196 191 193 191 191 193 198 198 199 194 185 166 155 178 192 161 134 129 125 121 121 120 112 113 185 228 217 216 222 210 204 205 201 207 212 201 199 209 199 136 108 117 119 123 135 115 37 6 61 118 123 122 122 121 119 121 123 77 20 8 26 160 253 237 237 243 247 244 242 242 243 243 242 238 244 252 255 255 255 255 194 28 20 35 106 120 114 118 109 100 98 96 93 104 69 13 19 73 102 99 99 90 120 159 156 152 150 149 148 148 148 147 146 147 149 154 158 117 86 96 99 115 128 115 77 50 24 5 0 0 0 0 0 0 0 0 0 0 0 0 0 0 0 0 0 0 0 0 0 0 0 0 0 0 0 0 0 0 0 0 0 0 0 0 0 0 0 0 0 0 17 82 128 173 171 146 152 164 168 168 172 176 178 180 183 186 189 194 195 195 195 195 195 195 195 196 195 194 192 193 194 184 173 171 164 165 166 164 164 165 166 169 168 169 169 168 166 167 166 166 166 167 165 160 150 150 162 168 170 170 171 155 149 152 160 155 
0 0 0 0 0 0 0 0 0 0 0 0 0 0 0 0 0 0 0 0 0 0 0 0 0 0 0 0 0 0 0 0 0 0 0 0 0 0 0 0 0 0 0 0 0 0 0 0 0 0 0 0 0 0 0 0 0 0 0 0 0 0 0 0 0 0 0 0 0 0 0 0 0 0 0 0 0 0 0 0 0 0 0 0 0 0 0 0 0 0 0 0 0 0 0 0 0 0 0 0 0 14 42 81 123 160 186 202 207 205 203 199 192 190 194 190 191 199 199 197 194 198 199 198 194 192 191 197 198 198 198 198 195 186 165 153 174 187 160 137 131 127 123 120 118 114 109 169 218 213 213 212 205 210 207 202 202 208 207 213 214 202 145 108 118 118 120 126 135 71 9 24 103 125 120 122 122 118 116 118 121 72 18 10 37 186 255 239 243 245 242 240 243 243 243 241 241 246 251 254 255 255 249 86 15 21 73 122 116 115 115 107 100 99 97 99 100 52 8 35 86 100 96 97 90 113 158 158 155 150 149 150 147 147 147 149 150 151 156 159 126 86 94 99 108 126 132 146 142 127 110 79 52 33 15 0 0 0 0 0 0 0 0 0 0 0 0 0 0 0 0 0 0 0 0 0 0 0 0 0 0 0 0 0 0 0 0 0 0 0 0 0 45 107 145 177 197 174 144 147 162 168 168 172 176 178 179 181 183 188 192 195 196 196 196 195 195 194 194 194 195 195 194 193 179 167 169 161 162 164 163 163 163 164 166 167 167 168 167 166 166 165 166 164 164 165 162 153 147 156 165 167 170 168 149 148 152 157 167 
0 0 0 0 0 0 0 0 0 0 0 0 0 0 0 0 0 0 0 0 0 0 0 0 0 0 0 0 0 0 0 0 0 0 0 0 0 0 0 0 0 0 0 0 0 0 0 0 0 0 0 0 0 0 0 0 0 0 0 0 0 0 0 0 0 0 0 0 0 0 0 0 0 0 0 0 0 0 0 0 0 0 0 0 0 0 0 0 0 0 0 0 0 0 0 0 0 0 22 56 91 135 167 187 201 208 205 201 202 200 197 191 193 195 195 196 198 198 200 200 201 194 198 199 199 197 198 198 202 200 199 199 196 182 164 152 168 184 162 136 131 128 122 118 118 115 105 156 216 214 211 204 203 208 202 202 204 203 212 207 207 204 151 108 118 119 122 125 137 111 35 6 66 124 121 122 116 118 119 117 121 124 65 18 12 48 203 255 242 244 244 242 243 242 239 241 244 248 251 255 255 255 177 26 19 41 114 118 118 115 115 106 99 100 104 105 92 39 6 44 92 100 93 97 93 107 156 160 157 150 150 150 150 148 148 148 151 154 156 162 135 89 92 98 106 120 127 142 152 155 155 147 145 144 126 95 67 38 24 1 0 0 0 0 0 0 0 0 0 0 0 0 0 0 0 0 0 0 0 0 0 0 0 0 0 0 0 0 0 0 15 82 129 128 163 196 193 179 145 143 158 165 168 170 175 177 178 179 184 186 190 194 195 195 196 195 196 195 195 196 195 194 193 191 172 163 164 159 160 163 161 162 161 162 163 165 166 165 166 165 165 164 163 162 162 163 162 154 149 156 162 165 170 161 145 149 153 156 161 
0 0 0 0 0 0 0 0 0 0 0 0 0 0 0 0 0 0 0 0 0 0 0 0 0 0 0 0 0 0 0 0 0 0 0 0 0 0 0 0 0 0 0 0 0 0 0 0 0 0 0 0 0 0 0 0 0 0 0 0 0 0 0 0 0 0 0 0 0 0 0 0 0 0 0 0 0 0 0 0 0 0 0 0 0 0 0 0 0 0 0 0 0 0 0 24 67 111 153 173 190 203 206 201 200 200 200 198 199 200 199 191 195 199 196 198 196 197 200 197 200 196 197 198 200 200 200 198 195 203 201 198 193 180 165 153 169 182 159 134 129 126 120 118 117 115 103 151 215 213 212 202 201 206 203 203 197 196 203 199 201 201 157 108 115 119 121 126 130 136 72 13 25 106 128 123 117 119 122 118 118 131 119 58 14 9 66 226 255 241 244 245 244 243 240 239 243 247 253 255 255 246 80 17 23 80 124 115 111 112 115 104 103 106 105 110 87 28 7 48 96 101 95 96 91 97 152 159 155 154 152 149 151 152 149 149 149 154 157 163 140 92 92 95 99 114 120 129 141 143 145 144 152 166 171 168 163 153 135 107 76 42 13 0 0 0 0 0 0 0 0 0 0 0 0 0 0 0 0 0 0 0 0 0 0 0 0 0 0 46 118 146 113 114 179 193 188 189 153 138 153 164 167 169 172 175 178 179 182 183 188 192 193 195 195 194 196 195 194 195 193 191 193 185 166 161 162 158 156 160 160 160 158 159 160 164 163 164 163 164 163 163 162 160 161 162 161 154 150 153 153 163 167 151 143 149 151 153 160 
0 0 0 0 0 0 0 0 0 0 0 0 0 0 0 0 0 0 0 0 0 0 0 0 0 0 0 0 0 0 0 0 0 0 0 0 0 0 0 0 0 0 0 0 0 0 0 0 0 0 0 0 0 0 0 0 0 0 0 0 0 0 0 0 0 0 0 0 0 0 0 0 0 0 0 0 0 0 0 0 0 0 0 0 0 0 0 0 0 0 0 0 24 75 121 158 181 202 208 200 198 199 197 198 198 200 200 198 198 200 199 194 195 195 194 198 196 197 197 194 198 198 198 199 199 199 199 198 195 200 199 193 190 182 167 155 170 180 157 133 125 124 121 118 117 114 103 142 209 219 215 207 205 206 205 206 195 196 198 201 204 199 168 111 113 116 118 123 124 138 108 36 9 65 132 128 123 123 124 122 120 127 127 115 50 13 12 90 240 253 237 244 246 243 241 241 241 246 252 255 255 180 26 18 41 114 114 108 110 108 108 103 107 104 97 106 78 26 14 60 103 98 97 97 91 91 146 161 155 156 155 149 150 151 150 149 153 156 159 165 147 100 92 96 97 111 121 126 133 135 136 134 142 154 157 161 162 170 178 179 170 163 141 106 71 39 10 0 0 0 0 0 0 0 0 0 0 0 0 0 0 0 0 0 0 0 0 15 86 141 153 128 88 121 183 189 188 191 159 136 148 161 166 168 170 174 176 178 179 183 186 192 193 194 195 194 194 194 193 192 193 193 195 180 161 157 161 156 155 156 158 157 156 156 158 162 161 163 163 163 162 162 159 160 160 160 159 157 149 152 150 158 160 145 144 149 148 157 146 
0 0 0 0 0 0 0 0 0 0 0 0 0 0 0 0 0 0 0 0 0 0 0 0 0 0 0 0 0 0 0 0 0 0 0 0 0 0 0 0 0 0 0 0 0 0 0 0 0 0 0 0 0 0 0 0 0 0 0 0 0 0 0 0 0 0 0 0 0 0 0 0 0 0 0 0 0 0 0 0 0 0 0 0 0 0 0 0 0 15 59 115 162 187 196 203 203 203 203 194 190 196 195 200 200 200 201 199 198 199 198 197 198 199 199 198 199 199 197 196 201 199 199 199 200 199 197 198 198 195 195 196 190 181 167 155 170 180 153 127 125 126 122 117 115 113 104 133 214 223 217 209 203 205 205 203 197 198 203 204 202 204 177 114 111 117 117 121 123 127 130 65 14 25 109 135 129 119 120 126 129 129 123 126 111 46 12 14 116 251 252 243 245 242 242 244 244 246 250 255 249 84 18 25 85 119 111 110 109 105 104 103 103 100 99 101 66 13 18 73 105 97 97 96 96 91 134 162 158 155 152 151 152 153 155 152 155 156 155 162 153 106 93 101 99 107 119 126 129 129 129 129 133 144 147 147 146 151 164 171 169 171 178 180 175 166 145 112 69 32 12 1 0 0 0 0 0 0 0 0 0 0 0 0 0 2 51 117 150 146 129 101 86 135 183 190 186 185 166 135 142 158 164 167 169 172 176 177 178 181 185 189 190 192 193 194 192 191 192 191 191 193 190 170 157 157 156 153 153 153 154 155 152 151 155 158 159 160 162 162 161 161 160 158 158 158 158 157 149 149 149 154 149 138 145 148 149 163 126 
0 0 0 0 0 0 0 0 0 0 0 0 0 0 0 0 0 0 0 0 0 0 0 0 0 0 0 0 0 0 0 0 0 0 0 0 0 0 0 0 0 0 0 0 0 0 0 0 0 0 0 0 0 0 0 0 0 0 0 0 0 0 0 0 0 0 0 0 0 0 0 0 0 0 0 0 0 0 0 0 0 0 0 0 0 0 0 25 90 153 189 199 204 204 199 200 198 199 200 198 190 196 196 199 200 200 200 199 199 197 197 197 195 193 197 199 198 196 198 199 196 197 201 199 200 199 195 196 196 199 199 197 192 183 169 155 174 187 150 125 124 124 121 118 116 115 105 126 204 213 212 208 203 202 201 202 198 203 199 204 207 201 188 126 108 116 117 119 120 120 132 107 36 9 65 132 131 123 126 128 132 137 124 124 127 106 39 11 18 141 255 250 241 246 244 243 243 246 251 255 183 29 24 37 108 123 114 111 109 104 105 106 98 97 104 104 51 5 29 85 105 99 98 98 99 88 124 162 158 155 152 154 154 154 153 153 151 154 155 159 155 108 89 98 102 107 115 122 125 126 126 125 130 136 140 143 144 142 144 152 158 154 155 162 166 173 183 188 177 166 139 105 70 42 16 0 0 0 0 0 0 0 0 0 23 93 141 149 143 139 120 84 91 147 183 189 180 173 171 137 137 153 163 166 168 170 174 176 178 180 183 187 191 192 192 193 191 191 191 191 193 193 182 161 152 157 148 145 151 154 153 154 152 153 154 156 158 158 159 159 158 159 159 157 156 157 157 156 150 147 141 143 139 138 145 150 151 167 92 
0 0 0 0 0 0 0 0 0 0 0 0 0 0 0 0 0 0 0 0 0 0 0 0 0 0 0 0 0 0 0 0 0 0 0 0 0 0 0 0 0 0 0 0 0 0 0 0 0 0 0 0 0 0 0 0 0 0 0 0 0 0 0 0 0 0 0 0 0 0 0 0 0 0 0 0 0 0 0 0 0 0 0 0 0 7 75 161 196 208 208 203 201 200 199 200 200 196 198 200 194 195 200 197 196 200 201 199 199 199 197 197 195 193 196 198 199 198 194 196 193 196 199 197 199 198 198 191 197 192 198 196 191 187 171 153 171 184 150 126 126 123 119 118 117 116 107 116 192 215 213 208 207 205 204 202 196 195 194 199 201 205 199 133 107 116 116 119 120 118 122 133 67 13 24 106 131 130 129 123 123 134 126 122 121 127 101 36 11 25 165 255 247 244 246 243 244 247 255 254 88 17 31 28 50 105 119 105 104 102 101 99 95 94 102 95 37 6 39 91 103 100 97 96 96 92 118 162 158 155 155 153 151 153 152 152 151 152 155 159 158 116 88 96 102 104 113 120 123 119 121 122 128 133 135 135 139 139 139 143 145 144 146 152 153 155 160 166 172 180 187 182 174 165 141 112 78 47 19 0 0 0 6 67 124 146 145 139 132 147 128 73 98 154 182 180 172 169 172 146 132 147 160 164 166 171 172 175 176 178 179 184 189 190 191 190 189 191 191 190 191 190 170 153 152 155 149 146 148 151 151 152 151 152 151 152 154 156 156 158 157 154 156 156 155 156 156 154 150 140 151 148 134 144 149 150 158 159 38 
0 0 0 0 0 0 0 0 0 0 0 0 0 0 0 0 0 0 0 0 0 0 0 0 0 0 0 0 0 0 0 0 0 0 0 0 0 0 0 0 0 0 0 0 0 0 0 0 0 0 0 0 0 0 0 0 0 0 0 0 0 0 0 0 0 0 0 0 0 0 0 0 0 0 0 0 0 0 0 0 0 0 0 0 11 103 195 211 203 201 201 202 202 199 199 199 200 198 198 200 198 197 199 196 197 199 199 199 198 199 198 196 196 197 194 194 197 198 199 198 196 198 199 197 199 194 197 200 197 195 198 197 196 189 171 151 169 185 148 123 126 125 120 118 120 118 111 110 187 221 212 213 207 206 203 199 200 193 194 197 203 210 198 136 105 115 117 117 119 119 117 129 103 28 7 63 128 128 126 124 119 125 125 120 123 126 98 31 26 14 40 193 255 246 243 246 245 244 255 196 35 20 30 32 23 41 92 108 106 104 96 95 94 95 104 83 26 4 46 96 104 97 100 101 98 94 105 149 162 157 154 157 155 150 151 151 151 153 153 156 162 125 88 97 100 102 110 120 125 115 112 116 123 126 131 132 130 133 135 137 139 142 143 147 152 154 153 151 155 160 165 168 171 176 181 182 181 172 151 121 87 59 100 142 143 139 137 132 139 140 99 75 104 156 174 171 168 167 169 154 132 142 154 162 166 168 171 173 177 177 178 183 186 189 190 189 188 189 190 190 192 180 158 149 151 153 147 145 146 147 149 150 150 149 150 149 150 153 156 154 154 154 154 154 153 154 154 151 150 143 148 145 135 145 151 156 168 98 4 
0 0 0 0 0 0 0 0 0 0 0 0 0 0 0 0 0 0 0 0 0 0 0 0 0 0 0 0 0 0 0 0 0 0 0 0 0 0 0 0 0 0 0 0 0 0 0 0 0 0 0 0 0 0 0 0 0 0 0 0 0 0 0 0 0 0 0 0 0 0 0 0 0 0 0 0 0 0 0 0 0 0 0 6 81 201 206 200 197 200 200 201 201 200 200 200 202 200 197 200 200 197 196 200 200 199 199 199 197 196 197 197 196 194 195 197 197 196 198 193 196 188 192 193 196 198 199 199 197 201 196 194 197 191 172 152 168 184 152 125 126 124 120 118 122 119 113 105 162 213 212 205 206 198 199 201 202 195 196 201 195 203 204 150 105 114 116 118 118 117 118 119 123 63 10 24 106 125 123 127 125 125 122 120 126 105 36 23 32 28 8 59 214 255 242 245 245 249 255 114 21 24 26 29 28 22 32 79 116 113 100 102 96 95 99 74 18 6 58 101 101 102 99 97 95 93 105 146 161 159 154 154 153 150 151 150 152 151 157 158 160 134 92 95 99 99 104 114 123 118 109 110 116 116 120 122 128 131 131 132 131 134 138 140 141 144 149 144 145 152 152 154 158 157 159 167 172 173 176 175 161 145 141 135 135 134 133 128 123 109 82 78 106 157 165 166 166 166 166 162 135 136 154 162 164 166 169 173 174 175 178 181 186 188 189 188 189 189 187 190 188 166 148 147 150 153 143 141 143 144 147 147 148 147 146 146 147 152 154 153 153 153 151 151 152 152 151 151 151 146 130 126 137 150 155 165 142 19 0 
0 0 0 0 0 0 0 0 0 0 0 0 0 0 0 0 0 0 0 0 0 0 0 0 0 0 0 0 0 0 0 0 0 0 0 0 0 0 0 0 0 0 0 0 0 0 0 0 0 0 0 0 0 0 0 0 0 0 0 0 0 0 0 0 0 0 0 0 0 0 0 0 0 0 0 0 0 0 0 0 0 0 0 36 171 205 192 195 199 197 198 199 200 199 198 200 202 200 199 200 196 196 201 199 199 200 198 197 197 197 195 197 191 189 188 189 196 196 198 196 196 189 192 189 193 199 200 199 200 193 189 197 197 188 167 157 177 179 146 126 126 121 120 119 118 118 114 102 148 212 214 206 206 203 197 198 200 194 202 196 196 207 204 159 107 113 116 116 117 117 118 115 123 108 33 6 63 124 121 126 123 121 122 127 118 48 20 28 26 26 25 9 90 233 255 248 244 255 211 52 18 43 71 37 21 27 25 27 71 109 102 99 95 96 103 69 10 16 73 100 96 100 97 97 95 95 103 155 162 157 155 153 152 151 150 150 150 151 153 155 160 134 94 96 97 95 101 110 119 119 105 99 109 113 112 115 117 117 123 123 128 124 124 131 133 137 138 139 141 147 149 147 144 144 150 155 152 146 146 147 141 135 132 131 131 129 129 129 127 108 80 74 105 157 164 163 164 163 162 163 140 131 148 160 163 165 167 170 173 175 176 178 182 187 188 187 188 188 188 188 174 152 147 150 153 149 139 136 140 144 143 145 147 144 144 146 146 146 149 151 152 151 150 150 151 150 148 149 149 142 129 134 148 155 165 152 45 0 0 
0 0 0 0 0 0 0 0 0 0 0 0 0 0 0 0 0 0 0 0 0 0 0 0 0 0 0 0 0 0 0 0 0 0 0 0 0 0 0 0 0 0 0 0 0 0 0 0 0 0 0 0 0 0 0 0 0 0 0 0 0 0 0 0 0 0 0 0 0 0 0 0 0 0 0 0 0 0 0 0 0 0 4 74 201 199 189 194 197 193 198 201 201 200 199 200 199 201 200 201 195 200 202 200 201 200 198 200 200 198 196 191 190 190 190 191 196 194 196 195 191 200 197 191 193 198 194 199 200 198 196 198 198 182 160 152 176 181 145 122 123 122 121 119 117 117 115 104 145 212 215 212 210 200 196 198 199 195 196 198 200 201 207 170 109 112 116 116 116 117 118 114 116 126 71 15 20 103 118 118 118 118 125 126 66 18 28 25 22 59 57 18 11 123 247 253 248 255 141 24 21 67 124 94 39 21 28 23 22 57 96 100 96 98 109 66 6 25 85 101 94 100 99 97 95 93 96 149 161 156 155 152 154 151 150 149 150 151 151 154 161 140 96 91 96 97 99 106 113 113 94 94 99 103 103 103 106 106 111 117 118 121 120 123 128 129 132 135 136 137 140 144 143 142 141 137 136 139 139 137 133 128 126 127 127 128 126 125 131 113 77 73 100 152 161 160 162 160 159 160 148 128 141 155 161 164 166 168 171 173 174 176 180 183 185 187 187 187 187 179 156 144 149 150 153 144 133 132 138 141 142 143 143 144 142 144 145 144 147 149 150 149 148 149 148 148 146 147 144 131 132 146 154 163 160 57 2 0 0 
0 0 0 0 0 0 0 0 0 0 0 0 0 0 0 0 0 0 0 0 0 0 0 0 0 0 0 0 0 0 0 0 0 0 0 0 0 0 0 0 0 0 0 0 0 0 0 0 0 0 0 0 0 0 0 0 0 0 0 0 0 0 0 0 0 0 0 0 0 0 0 0 0 0 0 0 0 0 0 0 0 0 11 101 210 200 193 192 198 200 199 198 200 199 202 200 201 200 198 193 191 188 185 182 179 179 178 175 172 174 176 180 186 190 195 194 190 191 194 192 191 191 189 189 190 193 197 201 193 200 198 196 195 188 165 144 168 180 141 124 124 122 120 119 117 117 117 104 136 205 220 216 209 198 201 201 204 199 195 199 197 201 212 180 113 111 115 115 116 116 116 116 114 123 106 31 7 60 118 117 116 123 129 85 22 24 29 21 53 127 115 45 13 18 154 252 255 237 74 15 32 92 110 112 105 50 21 25 24 21 44 88 103 100 93 42 2 33 92 101 97 101 97 99 96 95 94 142 163 157 155 153 152 152 151 151 152 151 151 153 161 150 103 89 95 96 98 103 108 115 98 86 87 90 92 88 91 96 94 108 106 110 109 111 119 118 124 127 126 128 129 128 131 130 123 124 134 135 134 128 122 122 122 123 125 126 125 124 129 105 77 75 93 145 160 156 159 158 157 157 153 130 133 151 160 162 166 167 172 174 173 175 178 181 184 185 185 185 181 163 143 144 148 152 153 135 131 133 134 138 138 137 137 139 141 143 144 144 146 148 149 149 148 148 146 145 144 141 131 130 146 154 163 157 63 1 0 0 0 
0 0 0 0 0 0 0 0 0 0 0 0 0 0 0 0 0 0 0 0 0 0 0 0 0 0 0 0 0 0 0 0 0 0 0 0 0 0 0 0 0 0 0 0 0 0 0 0 0 0 0 0 0 0 0 0 0 0 0 0 0 0 0 0 0 0 0 0 0 0 0 0 0 0 0 0 0 0 0 0 0 0 18 135 207 196 196 195 195 196 198 201 200 196 194 187 180 171 162 155 149 146 141 139 138 137 134 130 127 124 124 128 132 140 155 173 186 192 194 192 189 183 180 188 192 191 195 201 196 197 199 197 195 188 166 145 163 169 134 124 124 122 120 119 119 117 116 106 131 207 216 212 203 200 203 198 198 195 199 197 195 196 205 188 120 109 115 115 117 116 115 116 115 117 120 59 14 21 100 122 120 130 98 30 25 32 23 40 110 133 128 95 36 8 35 188 255 182 35 15 54 107 105 100 117 115 61 21 22 26 18 34 83 110 88 24 6 53 99 99 98 102 98 97 96 96 93 134 164 158 156 154 150 151 152 152 150 150 150 154 159 151 107 89 95 96 99 102 105 119 108 80 80 83 85 84 86 92 87 89 93 100 100 99 106 110 113 117 116 119 121 126 122 115 118 124 126 126 125 121 120 120 122 121 122 123 119 143 154 91 73 77 86 135 159 153 154 154 153 152 153 133 129 145 157 162 164 166 169 173 172 173 175 179 181 182 184 184 171 146 140 147 149 155 144 128 129 133 132 132 132 132 135 134 138 140 139 142 142 146 148 146 145 143 144 142 138 128 127 143 157 165 150 51 0 0 0 0 0 
0 0 0 0 0 0 0 0 0 0 0 0 0 0 0 0 0 0 0 0 0 0 0 0 0 0 0 0 0 0 0 0 0 0 0 0 0 0 0 0 0 0 0 0 0 0 0 0 0 0 0 0 0 0 0 0 0 0 0 0 0 0 0 0 0 0 0 0 0 0 0 0 0 0 0 0 0 0 0 0 0 0 26 146 203 195 191 190 198 198 194 189 178 166 157 154 151 150 150 148 146 140 133 130 132 135 135 128 127 124 122 122 118 113 107 109 133 167 184 183 185 193 188 192 195 190 196 190 195 195 197 198 195 186 162 143 169 172 134 123 125 121 120 121 118 116 117 110 118 200 213 209 199 199 203 198 197 202 200 194 198 196 201 187 126 108 116 117 118 116 115 116 116 114 123 97 25 7 61 122 127 109 39 19 29 28 34 90 131 119 119 126 82 31 6 64 219 130 21 23 84 112 103 100 107 116 115 69 26 23 22 17 29 80 78 15 15 73 107 99 99 102 100 100 99 96 89 125 164 157 156 154 153 151 152 151 154 153 153 152 158 158 112 86 94 96 99 101 100 110 114 107 91 81 80 89 92 89 89 86 89 88 92 93 94 99 107 108 103 106 111 113 112 112 116 120 120 120 118 117 116 118 119 119 120 117 115 136 132 76 78 77 78 119 154 152 151 151 150 148 150 139 125 140 151 159 162 164 166 168 169 172 174 177 180 182 184 174 149 139 145 149 153 153 131 126 129 132 133 132 133 133 133 134 137 138 139 141 141 144 145 145 142 141 142 135 124 126 145 161 165 131 32 0 0 0 0 0 0 
0 0 0 0 0 0 0 0 0 0 0 0 0 0 0 0 0 0 0 0 0 0 0 0 0 0 0 0 0 0 0 0 0 0 0 0 0 0 0 0 0 0 0 0 0 0 0 0 0 0 0 0 0 0 0 0 0 0 0 0 0 0 0 0 0 0 0 0 0 0 0 0 0 0 0 0 0 0 0 0 0 0 27 143 204 198 188 183 188 176 163 154 149 150 150 153 152 150 149 143 134 127 116 113 117 126 131 127 125 121 117 119 120 120 120 113 97 97 133 164 174 178 184 182 185 185 187 190 192 194 195 191 194 189 165 141 166 174 137 123 125 121 119 120 117 117 118 112 114 185 212 205 202 202 199 195 200 198 195 197 197 200 205 195 136 104 115 117 117 116 116 116 116 115 115 120 54 9 26 109 124 47 17 24 20 28 81 133 121 120 116 122 126 68 25 18 78 61 20 41 105 107 101 98 110 112 105 111 84 35 19 21 20 26 35 15 19 74 108 99 98 102 102 100 98 96 90 113 163 158 157 155 153 152 151 152 152 152 151 151 157 161 121 85 93 97 99 99 100 104 105 118 117 95 96 102 101 98 91 88 91 87 89 91 95 94 95 100 101 101 106 107 106 110 113 115 114 114 115 116 114 116 115 116 116 111 105 132 128 70 77 77 73 104 146 150 148 150 148 146 147 142 123 133 147 157 160 162 164 166 167 168 169 172 178 181 175 152 134 143 148 150 154 139 123 128 128 130 130 128 129 132 133 132 136 136 138 139 139 141 142 144 145 141 130 122 128 151 165 152 82 3 0 0 0 0 0 0 0 
0 0 0 0 0 0 0 0 0 0 0 0 0 0 0 0 0 0 0 0 0 0 0 0 0 0 0 0 0 0 0 0 0 0 0 0 0 0 0 0 0 0 0 0 0 0 0 0 0 0 0 0 0 0 0 0 0 0 0 0 0 0 0 0 0 0 0 0 0 0 0 0 0 0 0 0 0 0 0 0 0 0 26 140 202 190 178 165 156 149 148 150 151 148 146 144 142 143 142 136 131 124 115 109 112 116 121 123 125 121 115 112 110 114 115 117 120 97 79 117 151 157 170 168 163 170 179 191 190 188 188 194 194 188 166 141 172 177 134 123 124 121 120 119 117 115 115 115 113 182 210 205 205 201 199 193 200 199 195 192 196 199 200 201 149 105 116 117 118 116 115 117 116 116 114 121 99 21 10 60 62 15 28 25 23 66 132 129 120 120 118 116 124 115 58 26 17 26 21 64 113 103 100 104 111 109 102 101 115 98 41 16 23 22 17 13 33 88 106 97 97 99 101 99 98 98 94 105 162 160 156 156 152 154 155 153 151 151 151 154 156 162 125 88 95 97 97 97 98 103 104 82 81 102 135 126 118 108 103 99 97 102 92 96 97 100 97 91 93 95 102 104 103 107 110 109 109 110 112 114 115 113 113 110 102 98 97 129 126 69 75 79 73 87 131 148 145 146 146 143 141 142 125 127 141 153 158 161 162 163 166 167 168 171 176 174 153 134 140 148 149 154 141 121 122 128 129 129 129 127 129 131 132 132 134 138 138 139 139 141 145 145 138 126 122 137 158 161 117 34 0 0 0 0 0 0 0 0 0 
0 0 0 0 0 0 0 0 0 0 0 0 0 0 0 0 0 0 0 0 0 0 0 0 0 0 0 0 0 0 0 0 0 0 0 0 0 0 0 0 0 0 0 0 0 0 0 0 0 0 0 0 0 0 0 0 0 0 0 0 0 0 0 0 0 0 0 0 0 0 0 0 0 0 0 0 0 0 0 0 0 0 28 147 183 160 153 149 148 150 149 145 144 141 140 141 140 137 135 135 134 128 123 119 116 113 111 114 118 118 114 109 105 106 109 111 113 122 83 62 110 142 148 164 168 172 177 187 191 185 182 194 187 186 167 140 170 180 137 123 125 123 120 119 117 116 116 116 108 178 216 208 204 205 199 198 193 195 195 192 195 196 201 202 154 104 114 117 116 115 114 115 116 117 116 112 123 55 15 17 15 23 27 23 50 122 132 120 120 121 119 118 114 127 103 44 28 30 28 85 109 103 101 109 108 108 101 100 107 114 101 49 20 22 23 17 47 96 107 102 98 99 103 101 98 97 97 101 159 163 157 154 152 155 155 153 151 152 153 150 155 163 133 90 93 97 98 98 97 100 105 79 43 76 133 160 154 132 123 116 112 123 110 106 102 102 105 97 89 95 101 99 100 103 108 105 104 110 112 108 108 107 107 101 96 92 94 127 131 70 73 77 77 70 101 143 143 143 143 141 138 139 126 122 138 149 156 158 161 163 162 165 168 170 170 154 132 136 147 150 151 144 122 119 124 125 127 129 129 127 128 130 132 134 135 138 139 141 141 141 138 130 125 131 149 157 128 53 0 0 0 0 0 0 0 0 0 0 0 
0 0 0 0 0 0 0 0 0 0 0 0 0 0 0 0 0 0 0 0 0 0 0 0 0 0 0 0 0 0 0 0 0 0 0 0 0 0 0 0 0 0 0 0 0 0 0 0 0 0 0 0 0 0 0 0 0 0 0 0 0 0 0 0 0 0 0 0 0 0 0 0 0 0 0 0 0 0 0 0 0 14 66 145 155 147 148 146 145 143 143 141 139 137 137 136 137 134 131 131 130 131 129 124 116 113 106 106 111 115 116 112 108 104 104 107 110 113 114 85 76 116 136 151 163 170 169 180 189 181 180 185 194 187 167 142 167 179 138 123 125 124 121 119 117 118 117 115 104 161 224 216 203 201 199 205 195 191 193 193 194 198 200 204 160 108 113 116 115 114 114 117 116 117 117 113 118 103 33 14 19 23 20 36 106 133 119 119 120 121 121 119 115 116 130 85 36 23 43 99 111 103 103 108 104 106 103 100 103 103 105 102 63 26 20 21 62 103 110 108 98 100 103 100 97 98 97 95 150 167 158 155 155 154 154 154 152 153 152 150 154 163 138 91 90 96 95 97 98 97 99 89 43 42 80 139 154 153 153 139 133 133 123 115 115 113 111 99 90 93 96 98 100 104 106 103 103 108 109 108 100 97 97 97 94 91 90 123 137 74 70 76 78 61 68 126 143 139 139 138 136 134 128 118 132 144 152 156 160 166 161 164 165 165 150 133 136 147 150 153 148 128 125 127 126 125 127 129 128 127 129 132 134 134 137 138 138 138 133 127 127 133 147 149 117 52 0 0 0 0 0 0 0 0 0 0 0 0 0 
0 0 0 0 0 0 0 0 0 0 0 0 0 0 0 0 0 0 0 0 0 0 0 0 0 0 0 0 0 0 0 0 0 0 0 0 0 0 0 0 0 0 0 0 0 0 0 0 0 0 0 0 0 0 0 0 0 0 0 0 0 0 0 0 0 0 0 0 0 0 0 0 0 0 0 0 0 0 0 13 47 97 141 151 148 145 143 141 139 140 139 136 135 133 132 134 130 130 130 130 133 131 129 126 123 115 109 105 105 108 109 110 111 106 104 107 109 108 112 118 82 87 124 139 147 163 162 170 183 186 189 184 190 186 164 144 170 179 135 123 125 124 122 119 119 117 117 116 104 140 212 218 208 196 197 199 198 197 195 194 194 195 200 202 169 115 110 116 116 114 115 114 116 117 116 116 114 117 67 17 20 19 21 88 131 119 118 118 120 121 122 118 115 115 127 97 39 19 64 115 112 102 108 113 109 107 106 104 100 103 95 97 109 62 12 29 77 103 102 103 101 102 103 98 98 99 95 91 138 167 159 158 157 157 156 153 152 152 153 153 155 162 143 96 89 94 94 95 95 94 97 101 52 31 44 80 94 125 177 167 135 143 136 125 127 127 112 93 89 91 94 98 101 106 107 100 104 102 100 98 95 93 93 88 86 86 86 117 148 78 67 75 77 71 57 90 135 137 135 133 131 131 128 114 126 141 150 154 157 159 160 163 162 148 129 134 147 149 153 155 139 131 133 133 129 125 125 127 127 127 129 131 133 133 132 128 127 127 129 136 141 137 103 38 0 0 0 0 0 0 0 0 0 0 0 0 0 0 0 
0 0 0 0 0 0 0 0 0 0 0 0 0 0 0 0 0 0 0 0 0 0 0 0 0 0 0 0 0 0 0 0 0 0 0 0 0 0 0 0 0 0 0 0 0 0 0 0 0 0 0 0 0 0 0 0 0 0 0 0 0 0 0 0 0 0 0 0 0 0 0 0 0 0 0 0 0 11 40 96 138 156 151 143 142 139 140 140 136 134 134 133 132 129 131 133 128 128 130 129 134 129 124 124 126 120 115 110 104 101 101 103 105 104 102 104 105 107 107 113 104 70 101 128 133 153 153 162 173 183 186 183 186 185 162 146 173 177 136 124 124 124 123 118 119 118 117 116 107 130 209 215 206 204 195 193 199 203 195 195 195 194 201 204 176 119 108 115 115 114 115 114 116 115 116 116 114 117 102 29 17 20 66 127 123 118 120 118 116 122 122 122 119 118 125 75 29 27 83 121 116 111 106 101 106 109 112 100 96 99 95 93 99 67 13 37 86 103 100 103 104 99 101 103 99 96 95 92 128 166 161 158 158 157 154 152 151 151 154 153 154 162 151 103 88 94 93 93 93 93 95 103 65 30 37 51 57 92 171 164 150 145 141 140 139 125 99 86 87 90 91 96 100 104 104 95 95 93 90 89 89 87 85 84 85 85 83 111 150 83 65 74 75 78 56 59 108 134 131 130 128 124 124 114 116 138 145 151 153 155 158 160 148 130 132 146 151 153 152 143 135 138 142 140 135 129 125 125 127 125 128 128 126 124 123 126 129 133 133 113 68 19 0 0 0 0 0 0 0 0 0 0 0 0 0 0 0 0 0 
0 0 0 0 0 0 0 0 0 0 0 0 0 0 0 0 0 0 0 0 0 0 0 0 0 0 0 0 0 0 0 0 0 0 0 0 0 0 0 0 0 0 0 0 0 0 0 0 0 0 0 0 0 0 0 0 0 0 0 0 0 0 0 0 0 0 0 0 0 0 0 0 0 0 0 8 40 90 134 153 152 146 141 140 138 137 135 134 132 132 131 129 128 130 131 128 126 129 130 126 126 124 124 126 125 123 124 120 110 104 104 102 101 102 101 98 101 106 106 106 111 73 78 119 130 147 150 157 163 167 180 186 184 181 162 148 172 173 137 125 125 123 122 119 119 118 116 117 109 123 210 215 205 205 203 195 196 200 195 197 195 192 194 206 185 122 107 116 115 116 115 115 117 116 116 115 114 111 119 57 10 24 102 123 118 120 120 120 120 122 119 121 122 121 117 61 23 37 98 117 115 120 91 65 106 111 113 99 97 98 98 99 96 49 12 36 89 105 98 103 106 98 99 104 99 97 97 89 118 165 162 159 158 156 154 153 154 154 154 154 155 161 156 110 86 92 94 93 93 92 92 95 76 36 33 41 51 74 121 131 136 144 141 138 145 128 98 82 83 86 89 95 93 92 94 88 84 86 84 82 83 84 82 83 84 84 80 99 141 90 63 72 73 75 61 52 80 116 127 127 125 121 119 114 109 130 142 149 151 154 156 147 129 130 142 150 156 155 132 120 139 151 154 153 149 137 128 123 124 123 121 123 125 129 134 128 119 82 35 0 0 0 0 0 0 0 0 0 0 0 0 0 0 0 0 0 0 0 0 
0 0 0 0 0 0 0 0 0 0 0 0 0 0 0 0 0 0 0 0 0 0 0 0 0 0 0 0 0 0 0 0 0 0 0 0 0 0 0 0 0 0 0 0 0 0 0 0 0 0 0 0 0 0 0 0 0 0 0 0 0 0 0 0 0 0 0 0 0 0 0 0 0 6 39 86 138 154 151 146 142 140 137 135 133 133 133 130 128 129 130 126 126 126 128 129 126 126 125 127 125 129 137 128 122 125 132 125 115 112 107 105 103 103 102 97 98 102 103 103 108 94 60 104 126 135 144 150 162 167 175 182 187 181 161 146 173 170 136 126 125 123 120 119 121 118 116 116 111 114 199 215 213 205 204 196 195 195 197 197 195 196 197 205 193 130 107 115 115 115 116 117 117 116 115 116 114 110 118 97 21 14 66 121 116 118 117 121 125 123 120 120 120 124 109 49 21 50 108 119 114 122 76 53 110 116 111 109 105 98 103 110 94 35 11 46 97 105 98 100 104 100 99 103 99 99 100 89 114 166 162 160 157 156 155 154 157 153 153 155 154 161 160 114 85 92 94 94 93 90 90 90 87 42 30 33 39 48 72 112 141 147 133 136 149 137 93 73 80 84 87 89 88 86 84 81 82 83 82 82 80 81 82 83 83 83 81 89 127 99 64 70 69 73 71 58 66 92 113 123 121 117 117 117 107 123 138 145 149 151 145 129 128 142 149 155 154 132 115 133 163 174 162 153 148 135 127 124 119 124 134 139 134 119 88 43 6 0 0 0 0 0 0 0 0 0 0 0 0 0 0 0 0 0 0 0 0 0 0 
0 0 0 0 0 0 0 0 0 0 0 0 0 0 0 0 0 0 0 0 0 0 0 0 0 0 0 0 0 0 0 0 0 0 0 0 0 0 0 0 0 0 0 0 0 0 0 0 0 0 0 0 0 0 0 0 0 0 0 0 0 0 0 0 0 0 0 0 0 0 0 13 44 90 135 154 152 146 143 139 138 135 132 132 131 133 131 129 127 127 127 125 123 123 127 130 125 122 124 130 135 135 136 140 139 135 141 131 122 116 111 108 105 101 101 100 97 96 101 103 104 110 71 87 122 122 134 141 153 163 170 178 187 181 154 146 180 178 136 125 127 123 120 120 120 117 117 116 113 110 191 214 213 210 199 200 196 196 194 193 196 197 200 204 194 137 107 113 114 114 117 117 116 116 116 116 114 112 113 120 61 12 27 104 120 117 119 120 122 123 119 119 119 127 103 40 19 64 116 118 114 120 60 53 106 112 107 106 101 97 101 106 81 20 13 58 107 105 97 100 105 104 101 104 100 100 103 92 109 165 165 162 159 156 155 156 157 153 153 155 154 159 162 120 85 91 93 93 93 90 89 86 91 52 28 32 35 37 49 76 126 145 130 146 148 121 82 71 78 80 81 82 82 79 78 78 79 81 80 79 80 79 81 82 81 81 81 83 114 107 66 67 68 69 75 63 60 79 92 105 116 115 113 116 108 113 136 142 145 141 129 128 144 155 157 150 132 116 130 158 171 165 147 136 131 126 121 123 137 150 120 80 54 14 0 0 0 0 0 0 0 0 0 0 0 0 0 0 0 0 0 0 0 0 0 0 0 0 0 
0 0 0 0 0 0 0 0 0 0 0 0 0 0 0 0 0 0 0 0 0 0 0 0 0 0 0 0 0 0 0 0 0 0 0 0 0 0 0 0 0 0 0 0 0 0 0 0 0 0 0 0 0 0 0 0 0 0 0 0 0 0 0 0 0 0 0 0 3 24 64 104 138 157 152 145 142 140 139 135 133 131 132 133 131 128 126 127 127 127 125 125 125 128 127 124 125 126 128 138 147 144 155 170 168 162 163 152 134 123 122 114 109 103 102 102 99 95 99 103 103 110 96 72 112 121 127 136 143 155 162 166 183 180 156 147 176 172 136 126 128 124 121 120 119 117 118 116 114 107 174 211 207 210 203 200 194 197 196 198 197 198 200 202 197 144 106 112 114 115 115 116 116 115 116 115 114 114 112 116 105 29 9 63 121 118 119 121 120 120 117 118 120 131 93 30 22 80 119 113 112 113 47 57 111 111 106 104 99 98 102 103 71 15 19 73 110 104 100 101 103 105 101 103 101 99 99 93 101 160 168 161 160 157 157 156 156 154 154 154 154 158 163 126 89 90 92 92 93 91 89 83 88 65 28 30 33 33 38 52 79 117 139 142 125 103 82 72 76 77 76 75 75 75 73 77 77 77 77 76 78 78 78 78 80 79 80 81 97 108 74 65 69 67 73 67 56 66 75 82 96 106 109 108 106 106 130 141 135 126 130 144 152 151 136 134 139 138 146 151 146 137 133 127 117 114 121 136 166 167 48 0 0 0 0 0 0 0 0 0 0 0 0 0 0 0 0 0 0 0 0 0 0 0 0 0 0 0 0 
0 0 0 0 0 0 0 0 0 0 0 0 0 0 0 0 0 0 0 0 0 0 0 0 0 0 0 0 0 0 0 0 0 0 0 0 0 0 0 0 0 0 0 0 0 0 0 0 0 0 0 0 0 0 0 0 0 0 0 0 0 0 0 0 0 0 8 47 85 113 150 159 155 147 142 140 138 139 136 133 132 128 130 132 126 125 126 124 123 124 124 125 132 130 123 122 126 135 141 146 154 170 191 200 203 202 193 174 162 143 128 119 116 111 109 107 104 102 101 102 101 103 103 67 95 121 124 132 140 152 157 161 178 176 160 145 173 171 134 127 126 124 122 119 118 116 117 116 115 102 154 221 212 207 209 200 195 195 200 200 195 200 199 198 196 147 106 111 115 116 115 116 118 116 115 115 113 115 113 109 118 57 7 30 104 122 114 115 114 113 111 113 118 128 82 24 28 91 118 111 113 105 33 62 118 114 109 111 109 99 101 105 58 9 27 84 107 101 104 100 100 104 103 99 101 100 97 96 94 144 168 162 159 157 158 156 155 154 154 154 154 158 165 136 92 88 90 91 93 91 88 84 84 76 33 27 31 32 33 39 52 82 118 129 110 93 76 72 72 74 72 71 70 71 72 72 75 72 74 74 76 77 76 78 78 79 79 76 81 103 88 64 67 66 68 73 58 50 60 70 72 87 103 105 103 100 122 135 131 133 139 140 131 119 122 147 158 150 140 129 121 112 97 82 101 131 153 161 178 167 39 0 0 0 0 0 0 0 0 0 0 0 0 0 0 0 0 0 0 0 0 0 0 0 0 0 0 0 0 
0 0 0 0 0 0 0 0 0 0 0 0 0 0 0 0 0 0 0 0 0 0 0 0 0 0 0 0 0 0 0 0 0 0 0 0 0 0 0 0 0 0 0 0 0 0 0 0 0 0 0 0 0 0 0 0 0 0 0 0 0 0 0 0 0 27 89 140 157 159 153 146 141 140 139 136 134 135 132 131 129 126 126 128 126 126 127 127 124 121 123 126 129 129 126 133 133 140 156 160 164 182 198 214 228 231 220 213 206 196 161 141 123 115 115 113 111 112 113 106 100 100 108 79 80 117 119 127 139 146 153 160 166 177 159 147 175 172 136 126 125 123 122 120 119 117 117 117 114 104 151 226 217 208 210 203 199 199 203 200 196 198 201 201 195 147 109 111 115 116 116 117 116 115 115 114 114 115 115 109 114 91 17 12 69 121 113 108 109 108 107 108 115 126 75 23 36 100 114 106 116 98 27 65 119 115 113 111 112 101 98 97 43 7 37 94 105 101 102 99 101 104 104 100 101 100 98 98 92 138 168 164 161 158 158 157 159 155 154 154 155 157 166 144 95 86 89 92 92 88 87 83 81 82 39 26 30 32 31 34 40 56 80 107 104 81 69 70 68 68 68 69 69 69 74 72 70 72 72 73 75 77 77 77 74 76 73 70 72 92 103 72 63 67 66 72 68 48 49 59 66 71 81 95 101 96 108 119 122 126 118 108 96 104 120 120 109 99 98 92 69 52 44 45 116 145 157 167 172 153 39 0 0 0 0 0 0 0 0 0 0 0 0 0 0 0 0 0 0 0 0 0 0 0 0 0 0 0 0 
0 0 0 0 0 0 0 0 0 0 0 0 0 0 0 0 0 0 0 0 0 0 0 0 0 0 0 0 0 0 0 0 0 0 0 0 0 0 0 0 0 0 0 0 0 0 0 0 0 0 0 0 0 0 0 0 0 0 0 0 0 0 0 17 69 124 157 157 151 145 143 140 138 137 133 133 131 130 127 128 129 128 130 125 125 125 126 129 130 126 124 124 124 131 132 141 146 147 165 176 186 197 218 235 241 243 237 239 231 227 209 168 126 115 116 114 115 116 117 112 103 100 107 91 73 109 115 120 132 140 150 155 167 178 157 144 173 169 134 126 126 123 121 121 118 117 117 119 116 105 140 216 216 212 203 203 203 204 204 194 196 199 199 206 204 154 109 109 115 116 115 116 115 115 115 115 115 114 114 113 112 113 49 6 34 107 123 111 110 111 109 113 118 123 68 21 42 106 117 101 116 95 29 68 118 114 108 108 109 107 106 93 34 11 48 102 106 100 102 101 101 102 103 102 100 98 97 98 89 132 170 164 161 159 158 158 158 156 154 154 156 156 165 147 98 84 89 91 89 86 84 81 79 83 51 25 29 30 30 33 36 40 55 87 94 71 69 68 66 65 66 66 67 68 70 71 70 69 72 75 75 71 72 68 67 67 68 68 68 79 104 89 61 63 65 66 70 59 50 55 63 65 67 75 84 88 98 120 116 99 86 81 79 82 81 76 78 83 81 55 32 30 31 59 124 118 139 158 163 132 33 0 0 0 0 0 0 0 0 0 0 0 0 0 0 0 0 0 0 0 0 0 0 0 0 0 0 0 0 
0 0 0 0 0 0 0 0 0 0 0 0 0 0 0 0 0 0 0 0 0 0 0 0 0 0 0 0 0 0 0 0 0 0 0 0 0 0 0 0 0 0 0 0 0 0 0 0 0 0 0 0 0 0 0 0 0 0 0 0 0 3 55 112 152 156 149 145 142 140 141 137 133 134 131 128 127 128 128 126 127 132 136 123 124 122 123 128 135 136 130 124 132 136 135 145 156 166 169 182 196 209 231 246 248 251 249 243 234 227 224 188 135 114 115 114 112 112 113 108 103 101 104 98 72 104 116 119 127 134 144 153 166 173 157 143 174 173 136 127 125 123 123 121 118 117 118 121 120 107 128 210 213 212 203 201 203 202 204 196 195 198 201 204 208 168 111 108 114 115 116 114 115 115 115 114 114 113 114 114 110 115 93 17 13 73 128 118 115 114 112 113 123 121 62 20 45 108 120 109 120 94 29 70 121 116 107 109 105 104 112 82 21 14 57 106 106 102 102 103 101 101 103 103 100 97 96 97 87 127 170 165 163 162 160 158 156 155 155 156 157 155 164 152 96 77 82 83 81 79 78 78 78 80 62 24 27 28 28 32 35 36 42 62 77 73 69 66 66 66 65 65 66 68 69 71 72 69 69 70 69 65 64 62 63 65 67 67 66 68 90 104 73 59 64 62 65 70 58 56 59 61 64 66 71 74 80 93 93 88 83 82 84 86 86 88 87 75 52 36 30 29 32 72 122 120 143 152 150 118 27 0 0 0 0 0 0 0 0 0 0 0 0 0 0 0 0 0 0 0 0 0 0 0 0 0 0 0 0 
0 0 0 0 0 0 0 0 0 0 0 0 0 0 0 0 0 0 0 0 0 0 0 0 0 0 0 0 0 0 0 0 0 0 0 0 0 0 0 0 0 0 0 0 0 0 0 0 0 0 0 0 0 0 0 0 0 0 0 0 31 91 144 153 149 143 139 137 138 138 134 132 132 131 129 129 130 128 125 123 126 127 129 126 129 132 129 132 131 129 134 129 135 134 142 155 164 172 175 193 211 221 239 245 250 252 253 250 237 234 220 193 147 111 114 113 113 112 111 107 104 102 102 103 73 96 117 119 125 128 138 149 165 175 155 142 177 180 140 126 124 123 121 121 120 118 117 118 117 109 117 205 217 211 208 203 204 198 199 199 196 199 203 203 208 193 125 104 114 116 115 113 115 113 114 113 111 114 114 113 109 113 115 49 6 38 112 124 117 118 116 109 117 117 61 21 48 110 122 113 120 97 29 59 117 119 108 110 107 107 106 68 16 23 73 106 100 99 97 98 98 96 96 94 93 91 90 89 78 111 170 170 164 163 160 158 158 156 156 156 156 155 163 159 116 94 99 103 105 107 98 93 87 74 71 30 24 27 27 30 33 35 37 43 59 69 69 66 64 66 66 66 67 68 68 69 67 62 61 61 61 60 61 62 62 63 65 66 66 65 73 99 93 64 60 61 61 67 65 55 55 58 61 63 64 63 65 66 71 73 78 80 80 78 76 66 53 41 35 33 29 26 35 83 126 144 149 154 169 111 14 0 0 0 0 0 0 0 0 0 0 0 0 0 0 0 0 0 0 0 0 0 0 0 0 0 0 0 0 
0 0 0 0 0 0 0 0 0 0 0 0 0 0 0 0 0 0 0 0 0 0 0 0 0 0 0 0 0 0 0 0 0 0 0 0 0 0 0 0 0 0 0 0 0 0 0 0 0 0 0 0 0 0 0 0 0 0 20 86 132 150 149 143 141 138 136 134 134 133 130 131 129 127 126 128 128 127 125 125 128 124 124 128 132 135 128 129 136 135 130 130 135 130 142 172 171 175 189 204 216 224 244 249 254 250 254 254 246 241 222 185 146 117 116 118 113 112 113 109 105 103 103 106 76 86 115 118 119 127 134 146 164 179 154 140 172 178 141 125 125 125 122 120 121 118 117 115 115 111 110 199 224 211 207 204 208 205 200 200 198 201 200 201 211 201 132 103 114 116 114 113 114 112 114 114 112 114 113 112 110 111 115 88 19 18 79 130 120 124 118 112 119 115 59 19 52 113 122 114 118 107 37 46 111 117 106 110 110 115 109 61 16 33 82 102 96 99 93 95 97 96 99 102 108 109 111 113 106 127 168 170 167 161 159 159 160 156 156 158 157 158 161 160 155 150 150 150 147 143 138 123 91 72 77 44 22 25 26 28 31 35 36 37 44 55 63 64 66 65 65 66 64 62 63 63 58 57 56 57 59 58 59 61 62 62 62 64 66 66 65 81 103 79 56 60 60 59 66 62 53 53 56 57 58 58 59 59 60 59 57 53 42 35 41 38 35 34 32 27 21 25 49 100 122 134 148 155 174 84 7 0 0 0 0 0 0 0 0 0 0 0 0 0 0 0 0 0 0 0 0 0 0 0 0 0 0 0 0 
0 0 0 0 0 0 0 0 0 0 0 0 0 0 0 0 0 0 0 0 0 0 0 0 0 0 0 0 0 0 0 0 0 0 0 0 0 0 0 0 0 0 0 0 0 0 0 0 0 0 0 0 0 0 0 0 11 73 133 150 150 144 140 137 138 138 135 133 134 129 127 129 129 125 127 132 124 125 125 127 128 125 129 140 137 129 130 129 134 134 133 132 139 142 151 188 172 185 195 203 217 230 241 252 254 252 253 254 251 243 215 177 138 120 117 116 113 113 111 107 105 104 103 107 80 82 112 114 116 127 134 147 161 175 153 142 171 169 137 126 126 125 121 116 117 117 116 116 116 112 107 176 220 213 209 207 202 204 201 200 199 201 199 200 210 192 128 104 111 114 115 115 114 109 112 114 109 110 108 109 108 108 108 107 44 10 45 115 124 120 118 116 123 118 57 15 51 113 122 114 112 111 44 41 108 108 102 107 107 114 106 45 10 54 142 153 147 154 159 161 155 150 161 169 168 167 169 171 165 168 173 172 167 162 165 165 162 161 159 160 160 158 159 160 162 164 163 161 156 149 151 144 103 74 76 56 22 24 24 27 30 33 35 37 39 44 52 58 58 56 55 56 55 55 57 57 53 54 55 55 56 58 59 59 60 62 61 62 63 65 65 68 93 96 68 57 59 60 60 68 61 49 49 52 52 53 54 54 53 50 46 34 25 30 36 34 32 33 29 21 20 34 73 92 97 130 142 147 147 50 2 0 0 0 0 0 0 0 0 0 0 0 0 0 0 0 0 0 0 0 0 0 0 0 0 0 0 0 0 
0 0 0 0 0 0 0 0 0 0 0 0 0 0 0 0 0 0 0 0 0 0 0 0 0 0 0 0 0 0 0 0 0 0 0 0 0 0 0 0 0 0 0 0 0 0 0 0 0 0 0 0 0 0 1 56 125 152 152 145 140 137 137 134 135 135 132 130 132 130 129 130 128 128 126 133 128 128 125 122 123 125 133 140 136 128 134 141 143 139 137 140 143 154 175 182 172 181 184 194 229 236 236 248 254 253 250 248 244 237 209 175 134 112 113 113 112 112 112 109 106 104 101 106 85 82 111 114 116 130 134 142 157 171 151 141 169 167 135 126 125 122 119 118 116 116 116 117 117 113 104 148 219 215 211 207 203 200 201 197 197 196 201 206 209 205 145 103 109 113 108 109 113 113 112 111 107 108 107 108 112 111 113 123 85 16 24 81 131 121 117 117 121 120 60 17 49 112 124 117 112 114 50 31 101 109 106 102 102 111 98 36 12 90 201 195 191 192 200 193 187 186 187 185 184 180 181 181 174 174 175 171 167 169 167 167 166 165 161 163 161 159 161 166 162 162 162 160 157 154 151 158 131 77 72 64 26 22 23 25 29 32 34 36 37 42 48 45 40 43 48 48 49 52 53 53 52 52 55 55 55 56 57 57 58 59 60 61 62 65 65 63 74 98 88 63 63 65 63 62 68 60 47 44 47 49 48 48 45 42 34 24 29 35 33 32 30 29 22 19 27 53 86 80 102 135 140 156 124 24 0 0 0 0 0 0 0 0 0 0 0 0 0 0 0 0 0 0 0 0 0 0 0 0 0 0 0 0 0 
0 0 0 0 0 0 0 0 0 0 0 0 0 0 0 0 0 0 0 0 0 0 0 0 0 0 0 0 0 0 0 0 0 0 0 0 0 0 0 0 0 0 0 0 0 0 0 0 0 0 0 0 0 34 100 149 154 145 140 139 136 134 132 134 133 130 130 131 129 128 131 129 126 127 125 129 133 135 125 124 122 129 142 142 134 136 135 148 160 153 142 144 142 169 177 178 181 187 196 189 221 222 223 230 249 251 250 245 244 232 201 157 130 121 112 113 113 110 110 109 105 103 101 106 89 72 106 115 118 127 133 140 158 169 152 145 174 173 137 125 124 124 119 114 111 109 108 109 107 108 101 127 209 219 205 201 201 203 204 197 201 198 206 209 208 212 168 123 121 123 130 135 136 134 123 121 136 149 160 158 166 164 177 182 168 52 9 50 120 130 117 116 124 121 63 20 48 109 123 118 110 119 65 23 91 110 100 101 108 114 88 27 20 123 218 199 195 195 195 191 192 191 187 186 184 185 181 181 179 176 177 175 171 177 173 170 171 167 167 168 168 167 163 165 164 163 165 162 159 159 154 155 147 88 69 70 34 20 22 26 28 30 33 35 37 39 38 37 40 44 44 46 48 49 54 53 50 51 52 52 54 55 55 55 57 60 60 60 61 62 64 63 63 80 100 82 65 65 67 67 72 78 65 48 41 43 44 42 39 30 26 29 34 32 31 29 27 21 17 27 55 83 79 86 122 140 133 153 83 8 0 0 0 0 0 0 0 0 0 0 0 0 0 0 0 0 0 0 0 0 0 0 0 0 0 0 0 0 0 
0 0 0 0 0 0 0 0 0 0 0 0 0 0 0 0 0 0 0 0 0 0 0 0 0 0 0 0 0 0 0 0 0 0 0 0 0 0 0 0 0 0 0 0 0 0 0 0 0 0 0 2 73 138 156 144 140 139 137 133 133 131 131 136 132 125 129 130 131 131 130 126 124 123 124 127 133 128 123 129 128 130 144 143 128 135 143 146 145 141 133 136 143 173 177 169 191 192 196 194 201 202 203 227 249 247 246 237 239 228 188 153 133 123 110 113 111 110 109 107 103 103 103 106 92 71 105 113 120 127 129 138 159 169 148 142 171 165 135 125 125 123 118 120 122 123 125 128 135 136 137 149 209 216 210 208 201 203 205 200 198 200 200 203 207 212 191 161 158 158 180 192 183 164 159 169 187 194 203 204 186 178 206 206 201 113 8 26 82 132 120 117 125 124 65 23 45 108 124 118 108 121 77 19 81 110 97 105 115 113 72 16 32 147 215 201 196 194 189 193 199 196 194 195 188 189 189 181 185 185 184 180 172 179 177 174 175 172 172 174 175 175 170 166 167 167 166 163 161 158 157 151 155 112 71 71 44 20 20 23 27 30 30 36 38 35 35 39 43 43 44 46 46 47 50 50 49 48 48 49 52 52 54 54 55 58 59 59 60 59 61 62 62 65 86 98 82 71 70 75 75 67 67 72 57 41 35 34 28 26 32 34 31 29 27 22 17 20 32 62 86 80 78 104 131 135 133 126 33 1 0 0 0 0 0 0 0 0 0 0 0 0 0 0 0 0 0 0 0 0 0 0 0 0 0 0 0 0 0 
0 0 0 0 0 0 0 0 0 0 0 0 0 0 0 0 0 0 0 0 0 0 0 0 0 0 0 0 0 0 0 0 0 0 0 0 0 0 0 0 0 0 0 0 0 0 0 0 0 0 21 105 153 153 143 138 136 135 136 138 132 130 131 131 131 133 131 127 135 136 126 125 124 126 129 125 130 128 123 126 131 132 129 140 140 133 140 136 133 143 144 138 145 170 176 167 179 184 189 198 193 191 209 227 234 237 230 227 229 206 171 142 132 126 110 114 111 110 109 105 102 102 102 106 95 69 103 114 116 124 126 136 154 166 148 141 163 152 131 125 123 118 133 173 202 216 204 197 204 204 211 216 217 211 211 213 208 205 203 202 203 205 200 197 201 209 203 189 196 204 206 206 209 208 210 211 204 201 206 207 199 192 198 201 199 171 48 11 51 117 130 121 121 127 77 23 37 104 126 117 112 124 88 21 72 118 108 108 114 111 58 10 57 182 202 193 193 194 192 192 194 197 201 196 189 187 189 186 184 189 184 184 183 182 177 180 177 174 177 181 176 174 177 175 171 168 167 165 164 161 158 151 154 131 73 71 55 21 21 22 26 30 31 34 33 35 37 38 41 43 45 45 45 48 50 47 48 50 48 48 50 52 51 54 55 56 56 58 58 59 60 59 64 64 64 82 96 85 77 78 74 65 66 77 79 72 52 32 23 31 30 28 25 23 22 24 32 46 63 85 79 83 116 123 133 137 133 77 10 0 0 0 0 0 0 0 0 0 0 0 0 0 0 0 0 0 0 0 0 0 0 0 0 0 0 0 0 0 0 
0 0 0 0 0 0 0 0 0 0 0 0 0 0 0 0 0 0 0 0 0 0 0 0 0 0 0 0 0 0 0 0 0 0 0 0 0 0 0 0 0 0 0 0 0 0 0 0 1 47 130 154 146 143 142 136 135 133 134 136 130 130 130 128 131 130 133 131 125 133 127 126 129 131 136 127 128 136 133 128 126 135 137 131 136 137 133 127 125 139 144 140 146 157 166 176 168 169 190 200 196 187 197 215 217 220 219 218 206 187 161 141 128 119 108 112 112 110 109 106 103 103 103 106 95 67 102 113 114 119 125 135 151 161 149 141 160 158 135 123 120 115 157 206 218 227 220 209 215 221 222 216 215 211 206 211 212 211 202 205 206 203 201 200 207 209 207 206 210 212 203 206 214 210 207 206 205 208 208 209 210 207 204 208 198 192 113 10 29 88 133 120 115 126 86 25 28 96 126 113 111 123 98 30 63 119 115 113 109 104 44 8 85 205 203 196 191 194 200 193 196 199 197 202 197 191 189 194 195 190 189 191 192 186 189 191 179 179 184 183 177 178 181 178 170 171 173 166 165 166 161 155 154 142 80 70 62 27 19 22 24 27 27 28 32 34 37 37 39 42 44 44 45 47 49 51 48 49 47 47 49 52 51 53 54 55 55 56 56 57 59 60 63 63 61 63 77 96 91 81 79 83 85 81 83 90 87 72 61 49 45 45 44 46 51 60 70 79 81 84 92 109 135 132 126 138 109 26 0 0 0 0 0 0 0 0 0 0 0 0 0 0 0 0 0 0 0 0 0 0 0 0 0 0 0 0 0 0 0 
0 0 0 0 0 0 0 0 0 0 0 0 0 0 0 0 0 0 0 0 0 0 0 0 0 0 0 0 0 0 0 0 0 0 0 0 0 0 0 0 0 0 0 0 0 0 0 2 65 147 152 144 139 139 138 133 136 131 129 130 128 130 130 128 128 125 128 134 132 135 127 127 139 141 135 129 125 131 134 135 134 127 124 125 131 136 134 134 129 145 146 133 137 150 164 167 157 150 169 172 174 185 186 204 204 196 197 187 181 177 155 138 123 113 109 109 111 111 110 106 102 101 101 104 94 66 101 114 113 121 129 137 152 166 149 139 165 158 131 124 120 115 167 213 212 216 218 214 215 220 216 218 209 210 214 211 207 204 203 202 203 204 199 197 207 207 203 208 212 207 206 212 212 210 209 209 205 206 207 207 205 209 209 205 193 194 166 45 7 52 117 123 112 125 97 32 22 84 123 113 110 121 107 34 54 123 118 105 105 102 28 13 118 215 203 198 198 200 199 205 209 209 202 201 206 203 192 191 194 192 189 196 194 192 195 192 186 190 184 180 183 185 183 181 178 177 175 170 166 165 162 159 154 153 99 68 69 35 18 24 23 20 25 30 33 34 37 37 37 38 42 62 57 44 46 49 48 47 50 48 49 50 50 52 54 54 55 58 56 58 60 59 58 60 61 61 59 74 91 94 90 90 93 93 96 91 88 88 89 74 67 71 78 81 82 89 96 91 91 105 121 122 128 138 135 121 51 3 0 0 0 0 0 0 0 0 0 0 0 0 0 0 0 0 0 0 0 0 0 0 0 0 0 0 0 0 0 0 0 
0 0 0 0 0 0 0 0 0 0 0 0 0 0 0 0 0 0 0 0 0 0 0 0 0 0 0 0 0 0 0 0 0 0 0 0 0 0 0 0 0 0 0 0 0 0 4 78 152 151 143 140 141 135 129 134 130 128 131 133 131 134 134 131 137 139 135 130 133 129 128 130 130 138 138 129 128 132 134 139 140 122 124 129 128 130 135 130 134 140 136 132 137 141 149 152 143 155 160 159 156 168 169 171 174 187 187 169 169 157 141 132 118 110 111 109 109 110 109 104 101 100 101 104 93 65 101 113 113 121 129 136 151 166 148 141 173 157 129 126 120 112 156 215 220 215 216 217 212 211 209 214 210 212 210 205 206 209 210 205 211 207 200 199 206 205 206 209 205 208 213 211 213 211 206 205 206 210 206 212 208 199 202 205 196 190 196 114 7 22 80 127 118 127 112 41 19 79 125 117 112 115 111 39 41 116 117 110 109 85 19 31 149 218 202 208 209 205 204 205 203 206 210 202 201 198 203 202 195 196 191 202 199 195 196 200 190 184 194 189 186 191 190 188 185 184 178 176 172 171 167 162 155 152 107 67 70 42 19 19 21 22 27 28 31 35 36 37 41 43 37 54 56 42 48 48 47 46 51 49 46 49 48 49 52 52 51 55 57 58 57 55 56 57 60 61 60 58 67 87 98 96 96 96 102 91 95 102 93 83 83 80 87 87 87 96 101 110 116 108 114 126 121 120 118 72 8 0 0 0 0 0 0 0 0 0 0 0 0 0 0 0 0 0 0 0 0 0 0 0 0 0 0 0 0 0 0 0 0 
0 0 0 0 0 0 0 0 0 0 0 0 0 0 0 0 0 0 0 0 0 0 0 0 0 0 0 0 0 0 0 0 0 0 0 0 0 0 0 0 0 0 0 0 0 4 77 155 149 141 138 133 137 137 132 133 136 135 134 137 132 134 140 140 144 145 142 134 132 132 135 130 122 139 145 132 127 134 135 134 131 132 130 133 133 134 134 125 129 128 129 130 132 136 135 144 140 137 148 151 149 157 168 153 164 167 156 155 146 140 135 119 112 111 108 108 108 107 106 103 100 99 100 103 92 65 100 114 113 122 127 136 153 166 151 142 173 159 127 125 119 113 159 213 221 212 208 211 210 209 211 211 213 209 205 207 210 205 208 211 208 207 204 204 204 203 208 205 205 211 207 206 208 206 203 204 207 202 204 215 210 203 207 207 204 202 210 172 45 6 52 116 127 126 118 48 17 71 126 119 113 114 116 45 31 97 111 110 113 72 12 49 185 222 210 210 208 209 205 201 205 212 208 197 202 204 208 206 210 202 199 206 207 201 203 197 195 202 203 195 194 196 189 187 186 187 184 185 176 168 165 166 162 154 133 79 72 53 15 14 20 23 26 28 30 34 35 40 72 74 46 44 41 40 48 52 49 47 46 47 46 49 49 51 51 51 51 54 56 56 56 55 56 58 57 58 60 60 59 64 79 94 97 99 102 97 103 105 91 93 109 97 85 94 95 111 119 116 128 113 100 124 126 105 71 12 0 0 0 0 0 0 0 0 0 0 0 0 0 0 0 0 0 0 0 0 0 0 0 0 0 0 0 0 0 0 0 0 0 
0 0 0 0 0 0 0 0 0 0 0 0 0 0 0 0 0 0 0 0 0 0 0 0 0 0 0 0 0 0 0 0 0 0 0 0 0 0 0 0 0 0 0 0 3 74 159 150 139 141 135 133 132 132 135 129 134 140 138 138 133 129 141 152 151 139 132 134 132 131 131 133 131 134 129 131 133 136 131 132 134 128 127 126 128 126 128 129 126 131 122 123 128 123 124 127 132 128 133 139 142 138 125 135 145 135 133 140 130 128 120 112 109 107 107 108 108 105 103 101 99 98 99 103 89 63 99 114 114 124 126 133 151 163 151 140 169 160 128 125 119 112 165 226 228 214 212 212 214 216 212 213 210 208 208 205 208 203 210 210 204 207 208 206 204 206 206 202 208 212 206 206 208 207 209 208 206 201 200 209 211 207 205 209 214 209 200 202 110 10 25 86 127 124 128 63 18 59 120 123 112 118 117 52 25 92 114 109 122 60 6 68 201 217 211 212 210 210 214 215 209 211 210 205 208 206 205 205 208 206 205 196 203 203 202 205 205 204 197 202 196 191 196 195 188 191 191 184 180 175 172 168 164 161 151 93 67 60 18 15 21 23 24 27 29 36 47 42 48 54 52 49 49 69 64 48 49 49 46 46 46 45 47 50 50 50 52 55 54 54 56 59 60 58 58 58 60 60 62 62 61 69 86 99 98 95 103 98 91 94 106 104 100 98 98 104 113 112 124 111 106 118 97 66 11 0 0 0 0 0 0 0 0 0 0 0 0 0 0 0 0 0 0 0 0 0 0 0 0 0 0 0 0 0 0 0 0 0 0 
0 0 0 0 0 0 0 0 0 0 0 0 0 0 0 0 0 0 0 0 0 0 0 0 0 0 0 0 0 0 0 0 0 0 0 0 0 0 0 0 0 0 0 3 68 157 153 144 139 134 133 136 133 129 130 130 132 143 141 140 139 137 149 155 145 136 134 133 130 132 136 135 132 129 128 132 136 135 130 130 135 126 126 123 119 121 123 125 124 123 119 125 127 117 124 130 125 126 120 125 131 128 120 128 133 134 143 120 114 119 112 111 109 106 105 107 106 104 102 97 99 99 98 102 86 62 99 114 118 125 125 135 154 168 153 145 171 164 128 123 118 112 156 215 221 213 214 212 209 207 213 215 210 207 202 205 215 211 204 205 209 209 212 211 204 207 208 206 207 210 207 203 201 204 209 211 206 207 208 214 215 213 206 209 212 202 201 219 176 45 8 53 117 128 129 74 23 45 111 127 115 110 126 69 26 83 116 117 115 44 14 98 214 211 213 216 215 216 217 215 207 212 210 208 206 208 212 209 205 205 211 212 208 206 209 212 207 199 208 209 201 202 202 202 194 194 194 188 185 179 177 178 169 162 160 116 66 68 30 15 19 22 23 26 40 51 46 42 37 41 47 42 46 86 76 43 45 48 47 46 47 46 47 47 50 53 53 54 53 53 58 61 61 60 58 58 61 61 60 62 62 61 63 77 88 93 99 104 105 96 95 110 108 101 100 104 108 125 129 116 99 91 57 4 0 0 0 0 0 0 0 0 0 0 0 0 0 0 0 0 0 0 0 0 0 0 0 0 0 0 0 0 0 0 0 0 0 0 0 
0 0 0 0 0 0 0 0 0 0 0 0 0 0 0 0 0 0 0 0 0 0 0 0 0 0 0 0 0 0 0 0 0 0 0 0 0 0 0 0 0 0 0 44 150 160 148 142 140 134 131 133 131 129 129 133 139 143 141 140 137 141 139 133 129 134 139 135 134 134 130 130 135 134 128 131 137 134 130 130 121 124 125 119 116 116 114 123 126 115 115 125 124 116 113 118 129 124 115 117 121 116 120 120 118 121 132 123 119 110 108 106 107 106 104 103 104 103 101 96 97 100 99 103 79 62 104 114 119 128 128 138 153 170 153 147 173 160 127 123 119 112 157 210 215 214 213 209 207 206 210 214 211 213 201 207 211 211 211 209 204 205 206 202 206 211 205 205 211 212 213 207 204 203 214 218 211 215 210 217 209 204 215 213 208 209 208 207 206 113 12 24 89 133 136 88 26 33 104 126 112 107 127 86 25 73 122 123 96 27 23 130 229 219 223 218 212 212 216 214 209 201 205 215 214 213 214 209 212 209 215 214 216 212 212 211 207 208 210 210 210 209 203 205 200 199 203 199 188 185 183 181 178 168 167 135 71 68 45 18 19 19 22 26 47 53 33 38 45 47 46 52 47 45 48 42 44 47 47 45 47 44 44 47 51 52 53 52 53 57 60 59 59 59 60 58 58 59 61 61 63 66 66 64 68 78 83 93 104 89 93 114 102 107 111 108 98 102 98 95 85 34 0 0 0 0 0 0 0 0 0 0 0 0 0 0 0 0 0 0 0 0 0 0 0 0 0 0 0 0 0 0 0 0 0 0 0 0 0 
0 0 0 0 0 0 0 0 0 0 0 0 0 0 0 0 0 0 0 0 0 0 0 0 0 0 0 0 0 0 0 0 0 0 0 0 0 0 0 0 0 0 18 128 165 151 146 139 137 138 132 135 132 129 131 133 141 145 137 140 133 131 133 127 132 137 132 133 134 132 129 129 138 137 130 128 126 122 125 131 122 120 123 117 113 115 113 114 117 117 116 111 115 123 111 110 125 122 117 115 123 126 121 121 125 120 110 116 115 114 108 105 106 105 104 103 102 101 98 97 97 99 100 103 70 62 107 114 119 129 129 140 151 173 150 142 172 162 127 123 117 112 172 224 220 215 216 214 209 208 211 215 211 211 206 208 205 211 205 204 207 204 205 208 207 206 207 209 208 210 211 211 214 208 212 217 207 211 215 215 210 201 212 212 208 210 211 209 226 187 45 7 55 121 145 103 34 27 96 123 119 112 118 98 24 67 130 130 83 13 35 158 227 219 218 207 210 211 209 209 206 196 199 206 209 206 202 203 211 218 212 213 218 212 214 212 207 207 210 221 212 204 212 212 207 208 213 204 193 193 190 182 184 175 168 148 82 66 57 20 18 19 21 25 35 40 46 44 43 55 44 37 42 40 41 44 43 45 45 44 46 44 44 49 51 52 54 55 57 57 60 57 58 60 60 58 58 61 63 63 65 67 72 76 72 71 72 76 84 79 84 92 84 85 84 85 88 96 108 73 7 0 0 0 0 0 0 0 0 0 0 0 0 0 0 0 0 0 0 0 0 0 0 0 0 0 0 0 0 0 0 0 0 0 0 0 0 0 0 
0 0 0 0 0 0 0 0 0 0 0 0 0 0 0 0 0 0 0 0 0 0 0 0 0 0 0 0 0 0 0 0 0 0 0 0 0 0 0 0 0 6 97 168 168 154 150 144 139 132 129 136 135 132 135 137 139 141 138 137 130 132 135 130 130 132 139 139 130 131 132 127 130 131 129 128 121 123 121 126 119 111 115 116 116 115 111 112 111 117 117 109 115 121 115 115 114 112 114 114 115 126 117 121 120 116 110 111 109 108 108 107 105 106 104 103 102 100 98 96 97 98 99 101 64 65 109 116 118 125 131 138 149 172 151 146 170 160 127 124 116 111 174 230 228 217 213 215 215 211 214 213 210 208 211 211 208 210 201 206 212 209 212 211 202 204 207 208 209 208 208 213 215 212 217 215 213 213 209 208 211 215 209 207 209 208 209 214 225 225 114 9 27 90 145 118 45 25 83 124 124 123 128 108 31 58 126 130 68 7 50 186 222 207 207 206 205 208 206 207 204 200 201 204 212 213 212 212 217 225 221 214 214 213 209 219 213 205 207 218 205 196 215 221 213 212 210 205 201 200 195 189 187 185 175 164 103 65 66 25 18 32 27 22 35 46 66 55 37 43 37 30 38 46 44 42 41 44 44 44 43 44 48 49 50 54 55 57 60 58 57 59 60 60 60 60 59 61 63 66 70 72 74 76 78 82 81 82 83 84 85 84 88 93 104 117 126 107 38 0 0 0 0 0 0 0 0 0 0 0 0 0 0 0 0 0 0 0 0 0 0 0 0 0 0 0 0 0 0 0 0 0 0 0 0 0 0 0 0 
0 0 0 0 0 0 0 0 0 0 0 0 0 0 0 0 0 0 0 0 0 0 0 0 0 0 0 0 0 0 0 0 0 0 0 0 0 0 0 0 0 58 163 167 161 158 146 145 148 132 132 133 132 134 137 141 141 137 137 134 132 134 132 130 127 131 143 139 132 131 130 128 129 131 134 126 123 128 121 126 122 113 110 108 112 112 113 115 115 114 110 109 116 116 120 118 110 109 110 119 115 111 110 114 111 109 110 106 106 104 104 106 103 103 104 103 103 99 98 97 97 97 100 100 64 72 111 115 120 129 134 140 150 168 153 149 175 161 126 121 116 111 176 228 218 216 212 209 211 214 215 210 215 215 213 209 211 213 205 206 213 210 210 211 211 209 204 206 212 211 209 211 215 216 213 211 216 212 209 212 211 214 211 211 213 206 210 215 208 225 191 50 6 60 133 135 58 22 74 129 127 120 124 115 36 45 111 118 47 7 68 210 217 208 213 211 206 210 212 209 207 211 203 216 221 222 230 227 222 229 229 218 220 224 212 218 220 220 218 216 213 205 210 218 221 214 213 215 213 211 205 197 190 194 180 168 119 67 69 40 18 37 39 19 20 32 43 44 37 33 32 32 36 42 42 42 43 44 45 44 43 44 48 51 53 56 56 56 57 58 57 59 61 62 62 62 61 64 65 68 71 74 77 79 82 84 90 94 98 103 108 113 123 138 144 130 73 7 0 0 0 0 0 0 0 0 0 0 0 0 0 0 0 0 0 0 0 0 0 0 0 0 0 0 0 0 0 0 0 0 0 0 0 0 0 0 0 0 0 
0 0 0 0 0 0 0 0 0 0 0 0 0 0 0 0 0 0 0 0 0 0 0 0 0 0 0 0 0 0 0 0 0 0 0 0 0 0 0 0 20 135 178 165 160 161 150 141 144 135 140 135 134 135 137 143 142 137 143 140 137 137 127 128 130 134 135 132 135 128 130 133 131 129 134 134 125 119 128 125 120 112 111 111 115 109 108 124 124 107 102 107 114 111 112 113 108 116 116 111 112 110 110 109 115 108 107 104 104 103 103 103 102 103 102 100 101 98 96 98 97 97 100 95 59 79 113 114 124 130 133 141 153 170 150 146 175 161 129 120 117 109 161 220 222 217 215 217 214 209 212 213 214 215 208 210 217 216 211 211 214 210 210 206 213 215 211 211 211 213 209 210 210 218 208 204 211 211 208 212 212 208 218 210 218 212 211 217 213 218 229 134 16 28 106 146 70 20 61 125 130 124 116 115 39 31 99 108 33 12 103 229 219 217 216 218 224 220 215 216 218 224 219 221 222 217 226 223 219 224 233 224 223 220 214 219 223 221 217 218 223 218 216 214 221 219 220 223 215 212 209 198 197 194 183 176 142 80 68 53 14 25 34 19 20 32 35 30 30 32 29 30 33 38 41 43 44 43 43 45 46 47 48 51 55 57 57 55 57 59 59 59 61 64 64 62 65 68 70 71 74 76 79 82 86 89 93 98 103 112 120 130 141 133 94 37 0 0 0 0 0 0 0 0 0 0 0 0 0 0 0 0 0 0 0 0 0 0 0 0 0 0 0 0 0 0 0 0 0 0 0 0 0 0 0 0 0 0 0 
0 0 0 0 0 0 0 0 0 0 0 0 0 0 0 0 0 0 0 0 0 0 0 0 0 0 0 0 0 0 0 0 0 0 0 0 0 0 0 4 92 181 180 173 162 157 153 143 143 137 140 138 135 139 137 143 146 139 143 138 135 136 127 131 136 133 136 139 137 127 130 130 128 131 131 132 124 114 119 119 117 109 113 115 116 107 107 112 114 110 104 105 109 108 113 111 109 113 114 108 107 107 113 109 107 105 104 104 102 101 102 103 101 100 100 99 97 94 93 93 95 96 96 85 53 89 113 116 126 127 132 137 157 178 148 147 172 152 128 123 117 108 165 230 225 216 218 224 219 209 208 215 212 214 210 211 212 212 213 215 212 216 211 210 209 209 214 215 211 211 211 212 210 226 211 208 216 223 214 212 213 215 214 208 219 215 213 220 221 220 238 212 69 5 66 144 83 19 53 121 133 118 111 114 47 28 99 99 26 22 155 243 221 220 217 223 226 219 213 218 226 224 220 223 224 219 224 224 223 218 220 225 226 214 213 216 224 218 223 219 222 219 217 217 226 231 223 204 198 201 200 200 195 194 177 169 155 88 70 60 17 18 20 19 23 26 28 25 27 27 30 35 37 38 40 40 42 42 43 47 49 49 51 52 56 58 56 54 58 59 60 62 62 64 65 66 66 70 72 74 77 81 85 87 90 93 99 107 113 121 134 132 107 56 4 0 0 0 0 0 0 0 0 0 0 0 0 0 0 0 0 0 0 0 0 0 0 0 0 0 0 0 0 0 0 0 0 0 0 0 0 0 0 0 0 0 0 0 0 
0 0 0 0 0 0 0 0 0 0 0 0 0 0 0 0 0 0 0 0 0 0 0 0 0 0 0 0 0 0 0 0 0 0 0 0 0 0 0 41 158 184 178 169 161 153 147 145 143 137 140 133 133 137 137 146 143 134 135 132 130 129 133 138 141 131 132 136 135 136 129 129 134 131 116 116 121 118 116 119 115 109 111 115 111 106 105 108 106 106 108 107 110 110 107 106 107 104 104 105 107 106 105 106 103 106 106 104 101 101 102 101 99 98 99 98 95 92 92 92 94 95 96 76 51 96 114 117 127 127 134 136 159 181 149 149 175 153 127 125 116 112 177 230 224 217 224 217 220 218 212 214 214 212 216 214 209 211 213 213 213 219 211 212 208 206 212 220 216 211 213 213 215 224 215 207 213 218 219 218 215 211 208 217 217 213 213 217 217 225 230 241 137 14 27 119 105 25 41 115 129 114 110 123 63 24 91 84 18 47 188 240 222 223 218 221 222 222 222 219 226 224 220 225 219 213 222 231 226 211 182 203 221 224 223 223 228 221 224 220 223 224 218 218 229 244 218 163 153 155 150 157 145 149 134 112 102 84 76 69 28 14 17 20 31 23 23 26 25 29 33 35 36 37 38 40 42 44 46 51 50 50 53 55 56 56 55 56 58 59 60 62 65 65 67 68 69 72 76 79 81 84 88 94 97 103 111 119 129 136 121 74 17 0 0 0 0 0 0 0 0 0 0 0 0 0 0 0 0 0 0 0 0 0 0 0 0 0 0 0 0 0 0 0 0 0 0 0 0 0 0 0 0 0 0 0 0 0 0 
0 0 0 0 0 0 0 0 0 0 0 0 0 0 0 0 0 0 0 0 0 0 0 0 0 0 0 0 0 0 0 0 0 0 0 0 0 0 8 106 180 184 177 171 170 154 151 150 140 137 139 134 133 136 140 146 134 135 134 130 129 127 135 137 135 131 125 126 131 133 125 132 134 120 111 118 121 117 119 121 115 108 111 116 110 106 106 111 111 107 108 109 111 110 103 104 104 104 105 105 107 106 102 102 103 107 105 102 101 101 100 100 99 98 98 97 94 91 92 91 92 93 97 70 56 102 113 120 134 132 138 134 161 181 148 147 173 153 126 125 116 112 175 223 226 222 223 213 216 219 220 216 213 214 214 220 212 212 213 214 215 213 211 214 206 207 215 220 217 216 218 215 218 223 219 206 209 213 216 217 221 211 207 217 215 216 214 217 221 224 217 234 200 56 4 73 113 40 27 102 122 122 118 121 69 15 74 67 12 70 201 221 214 227 225 221 220 228 226 214 199 191 198 198 178 166 168 174 170 157 135 149 193 229 234 232 228 225 227 229 220 222 225 223 227 241 203 126 108 118 110 117 113 111 113 100 78 81 78 74 50 20 21 23 23 23 25 27 27 31 33 33 34 36 40 41 44 48 50 51 49 52 55 56 55 55 54 56 58 60 62 60 64 66 68 72 75 78 79 82 86 90 95 102 106 113 125 135 136 101 38 0 0 0 0 0 0 0 0 0 0 0 0 0 0 0 0 0 0 0 0 0 0 0 0 0 0 0 0 0 0 0 0 0 0 0 0 0 0 0 0 0 0 0 0 0 0 0 0 
0 0 0 0 0 0 0 0 0 0 0 0 0 0 0 0 0 0 0 0 0 0 0 0 0 0 0 0 0 0 0 0 0 0 0 0 0 0 53 167 184 186 184 174 172 154 153 148 139 140 142 141 132 135 137 137 130 136 132 128 127 128 130 126 126 127 128 125 122 119 120 122 122 120 120 119 117 116 116 120 113 107 110 112 111 107 106 106 107 106 104 108 110 106 103 104 105 103 106 110 105 106 103 102 103 103 102 100 100 99 100 99 99 97 97 95 92 92 91 90 91 92 94 61 64 108 111 123 140 134 137 134 163 178 147 148 176 153 124 124 117 111 172 226 225 220 215 223 223 215 220 218 218 218 217 220 210 210 211 216 215 212 214 220 214 211 215 214 210 218 224 218 213 219 227 221 215 223 223 223 229 220 220 223 221 227 226 229 227 222 216 222 236 137 20 31 92 51 23 89 117 116 118 116 75 16 58 51 22 77 167 160 159 172 173 162 159 161 157 149 128 118 128 124 116 113 109 114 112 110 116 120 154 212 228 229 223 221 221 230 222 218 226 230 231 241 213 135 116 127 126 129 121 115 120 120 94 87 78 76 65 29 16 19 17 20 23 25 26 30 30 31 35 38 39 40 48 51 49 49 51 53 55 56 57 57 56 58 59 61 63 64 65 67 70 74 77 81 85 88 92 99 106 111 120 130 137 117 63 14 0 0 0 0 0 0 0 0 0 0 0 0 0 0 0 0 0 0 0 0 0 0 0 0 0 0 0 0 0 0 0 0 0 0 0 0 0 0 0 0 0 0 0 0 0 0 0 0 0 
0 0 0 0 0 0 0 0 0 0 0 0 0 0 0 0 0 0 0 0 0 0 0 0 0 0 0 0 0 0 0 0 0 0 0 0 0 9 111 188 186 187 183 170 162 157 153 143 140 141 137 134 133 133 131 128 130 133 127 124 122 124 126 124 123 120 120 126 121 119 117 116 121 124 123 115 115 115 108 114 108 109 111 105 106 107 104 105 107 104 102 103 105 104 105 105 106 105 102 106 103 102 101 102 104 100 100 100 99 99 98 97 97 97 94 91 89 90 92 90 91 92 89 55 75 111 111 127 136 135 135 139 170 177 148 150 172 151 125 121 115 112 173 228 225 219 216 221 226 221 219 218 220 219 220 221 212 211 213 218 215 214 216 218 213 216 215 214 210 216 230 230 217 218 223 225 224 230 223 222 219 216 220 214 211 209 199 198 195 176 174 182 188 165 70 20 54 50 23 73 115 118 120 122 98 26 38 32 38 83 112 109 107 110 114 109 108 107 108 109 108 110 111 109 113 119 115 123 120 115 115 121 138 200 224 225 216 213 213 222 232 227 233 234 228 240 231 151 123 131 129 134 125 116 122 118 102 95 83 79 70 38 15 16 17 18 21 24 26 28 30 33 37 39 45 47 48 50 51 52 54 52 53 55 57 58 57 59 62 64 66 70 70 74 77 79 81 85 91 97 103 108 113 125 133 125 79 35 0 0 0 0 0 0 0 0 0 0 0 0 0 0 0 0 0 0 0 0 0 0 0 0 0 0 0 0 0 0 0 0 0 0 0 0 0 0 0 0 0 0 0 0 0 0 0 0 0 0 0 
0 0 0 0 0 0 0 0 0 0 0 0 0 0 0 0 0 0 0 0 0 0 0 0 0 0 0 0 0 0 0 0 0 0 0 0 0 48 164 189 190 184 178 170 160 152 153 144 139 137 137 134 132 134 134 130 129 131 130 128 122 121 123 126 126 121 116 123 125 119 118 118 119 121 117 114 115 110 108 106 107 108 108 105 103 106 106 104 104 102 101 102 104 103 105 104 103 105 102 100 102 101 101 100 99 99 99 99 98 96 96 95 95 96 92 88 86 89 88 89 89 91 80 50 86 112 115 130 130 135 134 142 175 177 148 151 165 140 123 122 115 113 174 225 226 228 228 214 220 230 230 229 228 222 223 221 214 213 213 214 218 214 213 216 213 214 216 222 215 188 181 184 175 174 166 164 172 169 159 154 150 147 149 142 138 135 126 123 123 115 115 119 115 132 109 39 27 36 20 58 123 126 116 117 109 31 23 23 44 94 114 113 108 113 117 113 115 117 117 116 122 121 120 122 122 122 120 118 120 121 118 119 136 213 235 228 223 215 215 216 224 227 229 233 232 239 236 154 124 134 133 125 128 125 124 122 113 103 90 82 76 50 22 19 16 17 20 23 24 26 32 38 37 40 51 56 51 50 54 54 52 54 55 56 57 59 59 62 64 66 71 72 75 78 81 84 88 91 99 105 112 123 133 132 102 46 6 0 0 0 0 0 0 0 0 0 0 0 0 0 0 0 0 0 0 0 0 0 0 0 0 0 0 0 0 0 0 0 0 0 0 0 0 0 0 0 0 0 0 0 0 0 0 0 0 0 0 0 0 
0 0 0 0 0 0 0 0 0 0 0 0 0 0 0 0 0 0 0 0 0 0 0 0 0 0 0 0 0 0 0 0 0 0 0 0 11 108 185 187 189 185 178 170 161 151 152 140 136 139 137 134 130 140 135 136 129 123 126 123 123 120 118 123 123 122 120 115 119 114 115 117 115 116 115 115 119 111 108 104 105 105 103 103 103 104 106 102 99 102 104 104 105 104 102 102 103 102 103 101 99 99 99 98 98 100 98 97 95 95 96 94 93 92 90 87 88 88 87 88 87 89 66 53 98 113 120 133 130 134 136 147 174 174 149 152 171 147 125 123 115 117 176 218 221 222 221 202 199 205 205 200 197 177 202 225 213 214 211 213 214 214 217 215 215 214 219 226 208 142 109 112 113 112 111 108 109 108 106 103 106 104 105 105 106 106 107 106 108 111 110 109 109 117 129 61 19 26 19 53 126 122 114 110 112 37 19 25 49 104 128 122 114 119 118 115 119 122 124 124 125 122 121 120 116 120 121 114 118 120 119 122 136 215 244 237 234 230 223 214 214 214 219 233 239 242 233 154 119 134 146 123 133 144 123 129 124 108 96 84 81 62 29 23 17 17 18 21 25 28 31 36 40 39 46 55 56 54 55 55 54 56 56 57 60 63 63 66 68 69 72 76 79 82 86 90 95 103 111 117 130 141 120 69 19 0 0 0 0 0 0 0 0 0 0 0 0 0 0 0 0 0 0 0 0 0 0 0 0 0 0 0 0 0 0 0 0 0 0 0 0 0 0 0 0 0 0 0 0 0 0 0 0 0 0 0 0 0 0 
0 0 0 0 0 0 0 0 0 0 0 0 0 0 0 0 0 0 0 0 0 0 0 0 0 0 0 0 0 0 0 0 0 0 0 0 48 167 188 189 185 181 174 167 151 153 150 138 136 142 135 130 128 133 129 128 122 120 117 113 120 117 120 121 120 120 117 112 114 113 117 113 107 106 115 116 115 113 106 104 105 104 105 102 104 104 103 101 99 105 105 101 104 103 100 101 101 102 102 100 98 97 96 96 96 97 97 95 94 95 94 92 92 90 87 87 88 87 85 85 86 86 55 63 107 114 125 133 132 138 137 151 174 168 146 148 175 159 127 121 118 118 142 156 152 145 141 134 130 128 126 124 126 112 172 231 217 214 210 213 209 208 214 214 220 225 221 224 209 140 100 103 107 107 108 108 108 110 109 110 112 112 112 112 112 113 114 114 118 118 115 114 116 113 132 91 25 23 25 44 107 114 110 118 126 47 18 29 67 115 123 121 119 119 120 118 121 124 125 127 119 119 123 121 118 122 123 120 121 124 125 132 139 208 246 237 231 227 227 224 220 212 216 232 239 240 237 171 117 124 141 132 131 138 132 128 130 116 105 90 83 73 40 24 17 15 20 27 30 28 30 36 42 44 45 51 57 58 57 56 59 59 59 60 61 63 66 68 71 72 76 80 84 88 93 99 105 114 125 141 139 84 34 0 0 0 0 0 0 0 0 0 0 0 0 0 0 0 0 0 0 0 0 0 0 0 0 0 0 0 0 0 0 0 0 0 0 0 0 0 0 0 0 0 0 0 0 0 0 0 0 0 0 0 0 0 0 0 0 
0 0 0 0 0 0 0 0 0 0 0 0 0 0 0 0 0 0 0 0 0 0 0 0 0 0 0 0 0 0 0 0 0 0 0 9 99 186 189 192 186 180 171 161 151 152 145 141 136 139 134 131 122 122 128 121 119 117 117 119 117 115 116 114 115 112 112 113 109 115 116 107 106 103 107 106 107 106 104 107 103 101 106 105 104 101 102 102 101 103 103 104 105 102 102 100 100 101 100 100 98 95 96 96 96 95 96 93 94 93 92 91 90 88 86 86 86 86 83 84 85 78 48 80 111 114 129 132 133 143 137 156 176 174 147 150 177 154 125 123 119 116 113 110 108 106 107 108 107 107 107 107 110 107 156 225 222 212 210 213 212 210 210 214 214 217 216 220 218 156 107 107 112 113 114 114 113 114 115 115 114 115 115 114 115 115 117 116 118 116 117 117 116 116 121 123 54 22 28 30 92 115 120 125 124 56 18 36 83 122 118 119 120 119 125 127 124 123 122 122 118 119 125 126 126 125 122 124 122 129 134 130 128 203 249 233 228 217 222 226 226 229 231 234 239 240 246 191 129 137 139 144 131 130 136 128 132 125 114 97 83 79 51 24 19 20 25 28 26 27 33 42 48 53 53 53 55 58 57 59 61 59 61 63 63 64 70 71 75 79 83 86 90 96 104 112 123 132 138 106 48 9 0 0 0 0 0 0 0 0 0 0 0 0 0 0 0 0 0 0 0 0 0 0 0 0 0 0 0 0 0 0 0 0 0 0 0 0 0 0 0 0 0 0 0 0 0 0 0 0 0 0 0 0 0 0 0 0 0 
0 0 0 0 0 0 0 0 0 0 0 0 0 0 0 0 0 0 0 0 0 0 0 0 0 0 0 0 0 0 0 0 0 0 0 35 160 188 191 192 180 175 169 157 152 146 146 138 135 130 127 128 123 123 124 123 118 112 120 118 112 115 117 115 110 110 112 107 106 108 112 109 111 103 101 103 105 103 104 105 103 99 103 105 100 99 100 100 101 100 100 104 105 103 102 100 101 100 99 97 96 95 96 95 95 94 95 92 91 90 91 90 86 84 84 83 84 84 83 83 87 63 52 94 110 116 130 133 137 142 140 161 177 177 147 142 161 139 125 124 119 117 113 113 113 112 113 113 115 114 111 111 115 110 142 216 220 216 215 210 210 217 212 212 214 212 214 216 220 168 110 110 114 114 117 115 114 115 114 115 115 117 117 114 115 117 117 117 117 116 117 119 120 120 114 132 98 30 23 23 86 125 127 115 121 75 19 41 93 123 118 120 122 121 125 125 123 121 119 122 126 124 125 131 130 127 127 124 124 126 131 124 119 181 243 228 229 229 222 227 233 237 233 225 234 246 244 192 132 142 146 141 141 144 135 136 142 132 123 109 94 84 60 25 30 29 23 26 28 33 43 51 56 56 58 56 55 55 59 60 61 64 64 66 69 71 73 77 82 84 89 93 102 109 117 131 141 115 62 20 0 0 0 0 0 0 0 0 0 0 0 0 0 0 0 0 0 0 0 0 0 0 0 0 0 0 0 0 0 0 0 0 0 0 0 0 0 0 0 0 0 0 0 0 0 0 0 0 0 0 0 0 0 0 0 0 0 0 0 
0 0 0 0 0 0 0 0 0 0 0 0 0 0 0 0 0 0 0 0 0 0 0 0 0 0 0 0 0 0 0 0 0 0 7 88 184 187 189 185 178 168 157 151 150 146 142 134 134 126 128 127 126 126 117 116 112 112 113 112 108 111 115 111 108 112 110 106 106 106 105 106 107 102 100 100 99 104 104 104 103 99 102 103 99 99 100 101 100 99 98 100 102 100 99 99 100 98 97 95 95 95 93 93 93 91 95 92 90 89 88 85 84 82 83 83 83 82 82 84 81 49 65 104 110 119 133 135 143 137 143 164 175 171 147 142 161 142 125 122 120 117 113 113 116 117 115 114 114 113 111 113 114 108 132 219 223 217 220 216 212 217 213 211 220 216 212 219 215 164 114 111 115 114 117 115 115 117 115 114 116 119 117 116 116 116 117 117 117 117 119 119 120 119 114 120 127 55 19 21 79 126 115 112 127 90 19 48 104 122 120 123 123 121 122 121 122 122 122 127 126 125 123 124 121 122 124 122 122 122 124 123 121 166 240 233 233 239 236 238 240 233 223 223 231 246 241 173 124 139 150 151 144 145 136 138 151 142 134 124 108 89 69 38 36 36 25 30 44 52 52 55 57 59 58 59 60 62 61 64 65 68 68 71 73 77 79 83 85 91 98 105 111 124 138 122 71 27 4 0 0 0 0 0 0 0 0 0 0 0 0 0 0 0 0 0 0 0 0 0 0 0 0 0 0 0 0 0 0 0 0 0 0 0 0 0 0 0 0 0 0 0 0 0 0 0 0 0 0 0 0 0 0 0 0 0 0 0 0 
0 0 0 0 0 0 0 0 0 0 0 0 0 0 0 0 0 0 0 0 0 0 0 0 0 0 0 0 0 0 0 0 0 0 26 145 188 189 185 181 179 164 147 146 149 143 133 135 129 131 130 124 119 124 119 113 112 114 112 113 113 115 108 107 111 107 104 105 106 106 104 102 103 103 99 100 106 101 102 103 100 98 102 99 98 98 99 100 98 97 97 98 98 98 95 95 97 96 94 94 94 96 95 93 90 92 92 90 90 86 84 84 82 80 81 82 81 80 79 82 69 47 82 107 109 125 136 132 147 145 153 166 180 175 145 142 158 148 124 123 121 117 114 113 114 115 115 118 117 114 113 114 115 110 127 214 226 218 216 222 218 212 209 215 218 215 211 218 220 170 113 110 114 116 116 118 118 116 116 115 116 117 118 119 117 117 119 118 121 120 118 119 119 118 119 116 131 94 29 19 59 114 116 118 123 79 21 53 107 124 124 124 121 120 122 122 124 127 123 124 126 122 123 123 122 122 123 121 125 129 128 123 121 159 239 239 234 237 242 231 232 232 226 223 224 238 245 201 141 143 153 156 150 146 142 136 148 150 141 132 120 102 77 47 31 39 41 44 51 59 62 62 63 63 62 63 64 65 66 68 67 70 72 74 73 79 84 90 93 101 113 124 135 127 76 27 6 0 0 0 0 0 0 0 0 0 0 0 0 0 0 0 0 0 0 0 0 0 0 0 0 0 0 0 0 0 0 0 0 0 0 0 0 0 0 0 0 0 0 0 0 0 0 0 0 0 0 0 0 0 0 0 0 0 0 0 0 0 0 
0 0 0 0 0 0 0 0 0 0 0 0 0 0 0 0 0 0 0 0 0 0 0 0 0 0 0 0 0 0 0 0 0 3 64 176 185 189 187 179 173 165 151 144 144 136 136 131 128 128 123 118 114 118 118 113 115 113 107 111 111 111 106 106 107 100 103 105 104 106 105 100 101 106 103 103 102 96 100 100 102 100 101 97 96 97 99 97 98 96 97 98 96 95 95 98 96 95 94 92 91 93 94 89 90 91 88 88 86 84 83 81 79 79 78 79 79 78 79 80 56 57 95 110 116 131 138 130 142 141 156 166 183 176 147 145 164 147 126 124 121 119 116 114 115 116 117 118 118 115 115 113 115 110 119 205 231 219 212 217 217 215 213 214 216 216 211 220 231 193 120 106 114 116 115 116 116 115 116 115 116 118 121 118 119 118 119 121 121 118 120 120 118 119 121 116 121 132 59 14 43 117 129 116 116 62 21 60 115 125 122 123 120 120 125 125 123 125 123 123 126 124 125 125 127 128 133 128 131 131 139 132 124 152 231 242 230 233 234 221 223 229 234 232 235 240 245 228 159 144 148 152 151 149 143 145 144 151 137 139 133 120 88 57 34 46 59 65 63 64 67 67 66 67 66 66 66 68 73 71 72 75 78 81 86 89 93 98 108 122 133 128 82 30 7 0 0 0 0 0 0 0 0 0 0 0 0 0 0 0 0 0 0 0 0 0 0 0 0 0 0 0 0 0 0 0 0 0 0 0 0 0 0 0 0 0 0 0 0 0 0 0 0 0 0 0 0 0 0 0 0 0 0 0 0 0 0 0 0 
0 0 0 0 0 0 0 0 0 0 0 0 0 0 0 0 0 0 0 0 0 0 0 0 0 0 0 0 0 0 0 0 0 15 120 186 188 188 181 175 170 159 150 140 136 136 134 131 125 123 123 116 113 117 112 109 107 108 108 106 108 105 103 103 102 102 103 102 103 104 101 102 102 103 101 99 97 96 102 102 98 102 99 97 96 98 98 95 97 95 95 96 95 94 96 95 91 93 92 90 90 89 87 86 88 86 88 84 83 82 81 78 77 76 77 79 80 78 78 68 46 74 105 111 125 137 134 142 147 141 158 168 186 172 147 150 170 145 127 123 119 118 116 115 117 116 116 116 116 116 116 113 111 111 110 183 234 220 213 210 214 214 212 213 215 218 218 225 231 206 131 105 115 119 117 115 114 115 117 116 117 118 120 118 118 118 118 120 119 119 120 120 119 122 120 117 115 141 100 26 32 110 122 109 126 48 19 70 123 125 119 119 122 122 126 126 124 124 125 126 125 129 128 130 124 129 135 130 127 132 139 133 122 137 222 244 233 237 236 233 228 233 236 238 249 245 238 239 176 137 141 152 146 150 148 147 151 151 150 153 141 130 104 81 66 67 73 74 73 70 70 70 70 72 73 72 74 74 75 78 78 81 84 86 93 98 107 121 131 110 72 29 7 0 0 0 0 0 0 0 0 0 0 0 0 0 0 0 0 0 0 0 0 0 0 0 0 0 0 0 0 0 0 0 0 0 0 0 0 0 0 0 0 0 0 0 0 0 0 0 0 0 0 0 0 0 0 0 0 0 0 0 0 0 0 0 0 0 0 
0 0 0 0 0 0 0 0 0 0 0 0 0 0 0 0 0 0 0 0 0 0 0 0 0 0 0 0 0 0 0 0 0 47 173 187 187 185 179 170 160 151 145 138 139 135 129 127 128 126 126 118 114 116 114 111 113 114 107 107 108 107 100 102 105 102 101 98 102 102 101 100 100 102 101 100 98 96 100 98 100 99 96 97 96 97 97 97 95 95 93 94 93 96 96 93 92 91 89 89 88 87 88 86 85 84 83 82 78 75 76 76 76 76 75 80 79 75 76 52 52 90 110 114 131 133 136 144 142 151 158 173 183 174 148 151 174 146 123 121 120 117 115 114 115 117 116 116 116 119 117 114 113 114 109 172 228 220 215 213 210 210 212 212 215 219 221 218 225 209 135 107 115 119 117 119 117 117 116 117 116 117 119 119 118 118 120 118 118 121 120 118 119 121 120 119 117 123 124 58 25 66 117 126 119 32 27 87 125 122 120 119 125 124 123 125 123 124 127 128 126 127 129 134 126 124 130 130 125 130 131 126 118 129 212 242 237 235 236 241 243 245 246 243 242 240 243 248 183 130 146 150 150 157 150 152 153 153 162 159 150 148 121 89 89 85 84 83 82 82 79 76 76 77 77 78 77 79 81 83 85 91 93 94 101 115 126 105 63 20 4 0 0 0 0 0 0 0 0 0 0 0 0 0 0 0 0 0 0 0 0 0 0 0 0 0 0 0 0 0 0 0 0 0 0 0 0 0 0 0 0 0 0 0 0 0 0 0 0 0 0 0 0 0 0 0 0 0 0 0 0 0 0 0 0 0 0 0 0 
0 0 0 0 0 0 0 0 0 0 0 0 0 0 0 0 0 0 0 0 0 0 0 0 0 0 0 0 0 0 0 0 8 93 187 185 183 177 176 165 156 148 141 141 135 129 125 128 124 123 120 117 111 110 108 111 106 105 107 105 105 106 101 104 104 98 100 99 100 102 99 99 99 99 104 98 96 96 96 95 95 96 97 95 94 95 94 95 94 92 92 92 93 94 90 93 91 87 89 87 86 83 82 83 81 81 83 82 76 71 74 75 75 75 74 74 72 72 64 43 68 104 113 123 139 131 141 145 144 154 155 176 185 176 147 151 175 145 122 122 119 115 114 116 118 118 114 117 118 117 117 115 113 114 110 168 228 223 224 214 212 216 220 223 226 228 221 213 220 205 142 112 116 118 116 119 121 119 119 118 119 118 118 117 119 120 121 120 119 121 120 121 121 119 121 121 118 117 130 92 27 30 107 140 95 21 45 105 126 120 122 125 126 124 122 124 123 128 131 130 129 130 128 130 128 126 128 130 124 127 134 124 124 129 203 250 240 238 241 237 237 230 237 240 234 230 238 251 197 130 136 152 157 158 155 159 152 161 163 156 157 156 138 98 96 98 94 93 90 90 90 86 86 85 81 83 86 88 91 94 98 105 114 123 120 94 48 12 2 0 0 0 0 0 0 0 0 0 0 0 0 0 0 0 0 0 0 0 0 0 0 0 0 0 0 0 0 0 0 0 0 0 0 0 0 0 0 0 0 0 0 0 0 0 0 0 0 0 0 0 0 0 0 0 0 0 0 0 0 0 0 0 0 0 0 0 0 0 0 
0 0 0 0 0 0 0 0 0 0 0 0 0 0 0 0 0 0 0 0 0 0 0 0 0 0 0 0 0 0 0 0 28 150 187 189 185 170 166 159 156 145 136 134 128 126 129 122 118 117 123 121 108 105 102 104 107 106 106 106 104 101 103 100 100 98 100 97 98 99 97 99 97 96 98 101 98 93 95 96 97 94 94 93 95 93 93 92 92 90 92 92 93 91 90 90 88 86 87 85 84 83 80 80 83 79 75 76 71 73 72 72 71 71 74 76 76 73 48 51 88 113 115 132 137 132 147 151 149 154 157 177 188 175 146 152 177 152 123 121 117 115 115 117 118 113 113 117 118 116 117 115 113 115 109 153 211 219 218 221 221 216 226 212 193 209 220 214 225 221 159 112 113 117 117 118 118 119 120 119 118 119 119 119 118 118 121 120 119 121 122 124 122 120 121 119 118 121 126 125 44 20 72 137 76 24 63 111 123 121 125 125 125 123 122 127 128 128 131 131 128 127 125 126 129 128 129 134 134 135 139 136 127 124 182 241 237 242 234 235 236 235 235 236 241 240 242 255 212 133 133 151 157 158 152 162 161 156 160 159 159 159 149 111 103 118 111 108 107 103 101 101 99 98 97 98 99 103 106 112 120 117 100 73 29 3 0 0 0 0 0 0 0 0 0 0 0 0 0 0 0 0 0 0 0 0 0 0 0 0 0 0 0 0 0 0 0 0 0 0 0 0 0 0 0 0 0 0 0 0 0 0 0 0 0 0 0 0 0 0 0 0 0 0 0 0 0 0 0 0 0 0 0 0 0 0 0 0 0 
0 0 0 0 0 0 0 0 0 0 0 0 0 0 0 0 0 0 0 0 0 0 0 0 0 0 0 0 0 0 0 4 63 179 184 190 182 168 161 156 150 138 132 128 125 120 117 117 112 121 114 117 114 108 102 102 103 102 107 106 101 100 102 99 97 95 95 95 96 97 97 96 95 96 98 105 96 96 96 94 96 92 93 93 92 90 94 93 91 91 91 89 89 89 87 86 81 83 83 80 80 80 77 76 76 67 69 64 64 67 67 71 74 78 81 76 72 58 42 69 101 112 121 139 133 135 150 147 155 157 158 181 189 175 147 152 171 148 121 119 118 115 116 116 115 113 116 118 116 116 117 117 115 118 110 140 213 221 216 221 223 220 204 156 134 148 196 228 227 231 181 116 113 118 115 117 118 119 118 119 120 120 121 121 120 119 121 120 120 122 122 124 123 121 118 117 119 125 122 136 87 26 32 114 62 26 61 113 123 125 127 122 121 123 127 131 130 128 127 127 126 128 129 128 134 132 130 134 136 133 135 135 126 114 180 248 242 238 238 240 241 248 244 235 237 246 245 255 221 153 150 158 159 161 153 154 161 158 162 166 168 166 158 128 66 26 42 61 72 83 90 97 103 107 105 104 104 100 90 78 59 32 3 0 0 0 0 0 0 0 0 0 0 0 0 0 0 0 0 0 0 0 0 0 0 0 0 0 0 0 0 0 0 0 0 0 0 0 0 0 0 0 0 0 0 0 0 0 0 0 0 0 0 0 0 0 0 0 0 0 0 0 0 0 0 0 0 0 0 0 0 0 0 0 0 0 0 0 0 
0 0 0 0 0 0 0 0 0 0 0 0 0 0 0 0 0 0 0 0 0 0 0 0 0 0 0 0 0 0 0 17 127 184 189 188 173 169 162 153 143 137 130 124 123 117 112 113 115 116 112 114 112 106 106 101 100 99 101 100 99 99 98 100 98 94 95 95 95 95 94 95 92 94 97 98 94 97 92 97 94 91 91 91 91 91 90 91 90 90 88 86 87 86 84 83 83 82 74 75 72 74 70 71 66 62 62 64 63 68 74 78 78 75 69 63 57 39 55 89 111 114 132 143 132 136 149 146 159 156 161 187 180 174 150 152 167 147 121 119 119 115 115 117 116 114 116 117 118 118 116 117 116 118 110 131 216 225 214 217 218 214 165 132 140 135 151 209 228 235 199 123 111 118 116 116 119 117 117 117 118 118 119 121 122 120 120 121 119 119 121 123 124 120 117 119 120 123 125 127 126 48 19 61 48 32 73 121 125 123 126 122 122 126 126 127 130 127 124 126 128 128 133 134 134 130 127 129 130 127 127 126 125 114 170 244 246 242 237 240 244 246 249 247 251 248 238 253 237 164 148 150 158 157 157 151 156 163 168 166 166 165 168 155 74 14 0 0 0 0 3 10 20 25 24 24 22 12 2 0 0 0 0 0 0 0 0 0 0 0 0 0 0 0 0 0 0 0 0 0 0 0 0 0 0 0 0 0 0 0 0 0 0 0 0 0 0 0 0 0 0 0 0 0 0 0 0 0 0 0 0 0 0 0 0 0 0 0 0 0 0 0 0 0 0 0 0 0 0 0 0 0 0 0 0 0 0 0 0 
0 0 0 0 0 0 0 0 0 0 0 0 0 0 0 0 0 0 0 0 0 0 0 0 0 0 0 0 0 0 1 47 173 183 190 187 175 165 159 150 140 137 130 125 123 113 108 114 117 109 109 110 108 110 105 102 101 100 96 98 100 97 97 98 95 94 95 95 94 92 90 95 92 91 94 91 94 92 90 97 91 90 89 88 89 90 88 86 85 85 85 86 84 83 81 83 79 74 75 72 73 68 64 62 58 62 71 81 78 73 69 70 67 65 64 62 41 41 76 104 113 123 135 134 134 148 145 153 159 157 165 183 182 174 146 147 164 142 121 121 119 116 115 115 116 116 117 119 119 117 119 116 116 116 111 125 208 229 216 214 220 205 150 141 142 146 137 182 227 233 203 129 111 117 117 116 121 116 117 118 117 119 119 122 122 120 122 121 121 120 123 124 121 119 119 120 122 123 127 118 131 96 33 27 34 35 83 126 124 119 125 126 125 125 123 125 126 125 125 128 131 131 130 129 128 127 125 127 132 134 134 133 133 120 157 238 249 244 242 241 241 244 244 239 241 247 243 252 246 167 138 139 153 154 155 157 157 164 168 167 167 167 172 167 114 38 0 0 0 0 0 0 0 0 0 0 0 0 0 0 0 0 0 0 0 0 0 0 0 0 0 0 0 0 0 0 0 0 0 0 0 0 0 0 0 0 0 0 0 0 0 0 0 0 0 0 0 0 0 0 0 0 0 0 0 0 0 0 0 0 0 0 0 0 0 0 0 0 0 0 0 0 0 0 0 0 0 0 0 0 0 0 0 0 0 0 0 0 0 
0 0 0 0 0 0 0 0 0 0 0 0 0 0 0 0 0 0 0 0 0 0 0 0 0 0 0 0 0 0 8 105 183 185 190 186 172 163 155 144 140 133 128 127 121 108 109 110 112 109 103 108 108 104 99 99 101 99 98 97 97 94 95 95 95 94 91 91 90 92 92 92 93 90 90 91 93 93 92 92 89 88 88 88 88 87 84 84 83 82 84 84 79 78 81 78 74 70 68 67 65 60 61 68 82 109 109 80 66 62 65 65 64 63 63 50 39 63 94 111 116 135 138 132 145 156 146 156 154 163 172 177 184 167 143 151 153 137 124 121 118 117 115 113 116 115 116 117 118 119 116 116 117 115 112 121 194 227 214 217 221 198 150 145 146 144 138 172 225 235 219 140 110 117 118 116 119 117 117 118 117 120 121 121 123 121 121 122 121 121 124 123 118 119 123 122 123 126 125 118 126 130 51 23 27 41 98 125 120 121 125 125 125 126 125 125 126 128 127 129 131 129 128 129 131 133 132 129 134 137 135 131 133 122 142 229 248 241 236 236 236 237 234 237 239 243 248 252 245 173 140 143 146 150 147 148 157 164 168 167 169 168 169 170 138 58 0 0 0 0 0 0 0 0 0 0 0 0 0 0 0 0 0 0 0 0 0 0 0 0 0 0 0 0 0 0 0 0 0 0 0 0 0 0 0 0 0 0 0 0 0 0 0 0 0 0 0 0 0 0 0 0 0 0 0 0 0 0 0 0 0 0 0 0 0 0 0 0 0 0 0 0 0 0 0 0 0 0 0 0 0 0 0 0 0 0 0 0 0 
0 0 0 0 0 0 0 0 0 0 0 0 0 0 0 0 0 0 0 0 0 0 0 0 0 0 0 0 0 0 26 156 182 188 188 180 170 165 155 143 136 122 122 120 111 109 108 112 106 110 102 106 104 100 100 97 99 98 96 97 95 96 97 95 96 92 90 90 92 93 89 92 90 89 90 90 89 90 89 89 86 87 85 84 87 85 82 81 79 80 82 78 75 76 73 70 70 63 63 62 68 67 73 88 101 94 68 60 63 64 64 64 65 64 54 38 53 84 109 114 125 145 138 138 151 145 148 156 153 164 177 182 184 170 143 146 151 134 122 120 117 115 114 116 118 118 117 117 119 120 118 116 115 115 113 115 183 234 224 222 230 203 146 134 147 145 137 164 222 242 219 142 112 115 115 118 118 117 118 119 118 119 121 123 124 123 122 121 122 122 124 123 120 121 124 122 123 127 129 122 126 141 89 25 25 50 111 123 119 123 126 124 124 126 125 125 128 132 130 126 128 127 130 134 135 137 135 129 130 131 126 131 126 123 133 220 247 240 237 238 238 243 245 240 241 245 244 250 245 178 146 151 148 149 155 150 160 163 167 166 169 169 175 171 147 73 3 0 0 0 0 0 0 0 0 0 0 0 0 0 0 0 0 0 0 0 0 0 0 0 0 0 0 0 0 0 0 0 0 0 0 0 0 0 0 0 0 0 0 0 0 0 0 0 0 0 0 0 0 0 0 0 0 0 0 0 0 0 0 0 0 0 0 0 0 0 0 0 0 0 0 0 0 0 0 0 0 0 0 0 0 0 0 0 0 0 0 0 0 
0 0 0 0 0 0 0 0 0 0 0 0 0 0 0 0 0 0 0 0 0 0 0 0 0 0 0 0 0 5 77 181 185 189 179 173 170 158 148 142 136 124 117 108 110 113 108 109 109 107 102 107 106 102 102 99 96 96 96 97 96 96 93 92 91 90 88 90 90 87 88 89 85 88 88 86 86 87 92 87 85 85 85 82 81 82 80 79 76 77 76 72 72 69 70 68 69 63 62 67 76 70 67 64 56 54 61 63 63 62 62 62 62 56 40 47 76 104 116 117 137 145 134 145 147 138 157 157 161 173 176 182 182 174 147 145 157 137 123 119 115 115 115 116 118 118 118 117 120 116 118 119 118 114 114 111 175 238 236 230 230 207 147 135 152 147 137 165 221 241 233 155 113 115 117 118 119 119 118 119 118 120 123 123 123 124 123 122 122 122 122 122 122 121 122 122 122 126 133 127 124 130 115 35 25 44 105 124 120 124 125 123 124 124 126 128 128 127 129 129 130 132 133 136 133 132 132 129 127 127 126 129 130 129 133 213 250 244 241 243 247 248 248 247 246 250 248 245 251 196 141 152 155 154 160 161 152 158 167 162 168 172 175 174 154 93 14 0 0 0 0 0 0 0 0 0 0 0 0 0 0 0 0 0 0 0 0 0 0 0 0 0 0 0 0 0 0 0 0 0 0 0 0 0 0 0 0 0 0 0 0 0 0 0 0 0 0 0 0 0 0 0 0 0 0 0 0 0 0 0 0 0 0 0 0 0 0 0 0 0 0 0 0 0 0 0 0 0 0 0 0 0 0 0 0 0 0 0 0 
0 0 0 0 0 0 0 0 0 0 0 0 0 0 0 0 0 0 0 0 0 0 0 0 0 0 0 0 0 16 133 183 188 192 182 165 162 153 143 140 133 125 117 108 105 107 108 105 101 104 105 104 105 105 104 95 91 94 97 94 92 94 91 89 90 89 88 87 86 87 87 84 84 85 86 84 85 86 86 85 83 82 81 78 77 77 76 73 73 72 72 69 70 70 70 66 69 71 71 69 64 58 56 59 59 64 63 61 61 61 61 61 58 45 45 69 96 115 115 132 145 138 139 152 148 148 159 157 162 172 172 181 182 174 145 140 161 141 121 120 118 116 115 117 117 117 118 118 118 115 116 117 120 116 115 109 161 233 225 220 224 216 159 146 160 151 146 175 222 237 242 174 113 114 118 117 120 120 118 118 117 122 123 124 123 122 122 124 121 120 121 121 123 122 121 121 123 125 130 124 122 128 121 43 29 38 98 125 123 125 122 124 127 127 127 129 128 124 126 132 136 132 133 132 127 132 131 129 130 134 133 132 133 132 131 199 252 240 243 244 245 244 244 249 246 246 252 242 250 211 142 147 156 152 149 155 155 160 167 167 169 175 173 169 158 113 28 0 0 0 0 0 0 0 0 0 0 0 0 0 0 0 0 0 0 0 0 0 0 0 0 0 0 0 0 0 0 0 0 0 0 0 0 0 0 0 0 0 0 0 0 0 0 0 0 0 0 0 0 0 0 0 0 0 0 0 0 0 0 0 0 0 0 0 0 0 0 0 0 0 0 0 0 0 0 0 0 0 0 0 0 0 0 0 0 0 0 0 0 
0 0 0 0 0 0 0 0 0 0 0 0 0 0 0 0 0 0 0 0 0 0 0 0 0 0 0 0 1 50 170 182 189 190 181 168 159 151 141 134 128 121 114 106 105 107 109 106 98 102 104 100 97 99 98 95 94 92 94 91 89 90 89 90 89 87 86 84 85 87 85 85 83 83 83 81 83 81 82 80 79 79 76 75 74 72 71 67 70 70 69 65 66 68 68 69 71 72 65 61 58 58 61 61 62 63 61 61 61 59 60 58 47 43 65 92 112 110 126 142 138 137 152 157 148 157 158 160 164 171 177 186 183 172 142 140 156 134 121 121 117 114 115 118 118 118 117 118 119 118 118 117 119 118 116 108 146 224 228 215 227 225 153 123 128 129 133 157 227 240 236 185 118 115 117 118 119 120 118 118 116 120 121 121 120 118 120 121 122 122 122 123 122 123 124 123 124 128 130 121 118 130 128 53 23 35 98 125 120 123 123 127 127 127 129 129 125 126 128 131 133 131 132 129 128 132 133 135 136 135 135 131 133 131 124 186 251 239 240 240 238 238 240 239 244 246 247 244 253 222 143 142 150 149 148 156 158 162 164 169 168 168 166 166 167 133 58 2 0 0 0 0 0 0 0 0 0 0 0 0 0 0 0 0 0 0 0 0 0 0 0 0 0 0 0 0 0 0 0 0 0 0 0 0 0 0 0 0 0 0 0 0 0 0 0 0 0 0 0 0 0 0 0 0 0 0 0 0 0 0 0 0 0 0 0 0 0 0 0 0 0 0 0 0 0 0 0 0 0 0 0 0 0 0 0 0 0 0 0 
0 0 0 0 0 0 0 0 0 0 0 0 0 0 0 0 0 0 0 0 0 0 0 0 0 0 0 0 8 100 179 185 187 185 177 168 160 146 142 133 120 113 113 109 106 106 106 103 99 100 99 98 95 95 95 95 93 91 92 90 89 87 90 89 85 86 85 84 83 83 81 81 82 83 81 79 78 79 81 75 75 77 73 74 70 67 69 67 68 67 64 63 66 70 69 63 65 62 61 63 63 60 61 60 61 62 60 60 60 61 59 48 40 60 88 107 107 121 148 140 132 149 160 151 152 158 153 161 166 172 185 187 185 173 147 145 164 137 119 119 116 115 114 116 119 119 118 120 119 120 118 119 118 117 116 109 129 213 238 236 224 142 56 36 37 38 47 70 168 238 247 198 122 114 115 116 117 119 118 118 118 120 121 122 120 119 120 122 123 124 125 123 121 122 124 123 124 126 126 121 119 126 135 59 20 33 87 125 120 123 126 126 123 126 128 128 129 130 128 127 127 129 132 131 135 130 130 132 133 135 134 134 132 130 122 179 247 242 246 241 239 241 242 245 247 242 242 243 254 238 162 144 154 153 146 157 152 158 167 169 169 165 166 174 176 157 96 18 0 0 0 0 0 0 0 0 0 0 0 0 0 0 0 0 0 0 0 0 0 0 0 0 0 0 0 0 0 0 0 0 0 0 0 0 0 0 0 0 0 0 0 0 0 0 0 0 0 0 0 0 0 0 0 0 0 0 0 0 0 0 0 0 0 0 0 0 0 0 0 0 0 0 0 0 0 0 0 0 0 0 0 0 0 0 0 0 0 0 0 
0 0 0 0 0 0 0 0 0 0 0 0 0 0 0 0 0 0 0 0 0 0 0 0 0 0 0 0 26 153 179 189 191 185 174 164 156 144 136 130 123 112 114 116 107 101 101 101 96 96 95 95 93 94 94 90 90 89 89 87 86 87 86 83 79 82 83 83 80 80 79 79 78 79 77 77 74 78 77 74 74 72 70 72 70 69 66 67 67 64 64 70 73 71 62 59 60 60 62 63 63 60 61 60 58 59 60 59 59 58 48 39 56 87 106 102 120 145 139 131 136 155 157 154 161 156 156 173 175 171 183 184 186 172 147 148 164 140 120 119 117 117 115 117 120 118 120 119 119 120 119 118 120 119 117 111 129 214 239 230 118 5 3 11 12 11 14 13 30 143 248 213 121 110 115 118 117 117 121 120 120 122 121 123 123 122 122 124 124 123 124 122 119 120 120 124 124 123 124 122 121 123 137 68 22 25 67 124 123 122 123 123 124 127 127 127 132 130 126 127 131 133 132 129 131 129 130 131 132 134 132 132 136 136 127 169 247 250 249 247 249 250 247 249 250 248 245 242 252 243 173 147 151 156 157 159 152 158 169 172 169 162 164 174 175 166 125 43 0 0 0 0 0 0 0 0 0 0 0 0 0 0 0 0 0 0 0 0 0 0 0 0 0 0 0 0 0 0 0 0 0 0 0 0 0 0 0 0 0 0 0 0 0 0 0 0 0 0 0 0 0 0 0 0 0 0 0 0 0 0 0 0 0 0 0 0 0 0 0 0 0 0 0 0 0 0 0 0 0 0 0 0 0 0 0 0 0 0 0 
0 0 0 0 0 0 0 0 0 0 0 0 0 0 0 0 0 0 0 0 0 0 0 0 0 0 0 3 70 178 181 191 193 183 171 161 152 139 131 129 123 115 111 111 106 102 98 97 96 97 94 92 91 91 91 91 91 89 87 84 83 85 83 79 78 78 78 77 79 78 75 76 75 76 73 73 71 75 74 73 72 69 69 71 71 69 64 64 65 66 70 71 65 58 57 59 58 59 59 58 60 58 59 60 57 58 58 58 52 42 40 60 91 106 102 118 153 145 129 135 148 151 150 160 162 159 167 181 172 177 177 183 188 173 143 145 161 144 121 119 117 116 117 116 118 118 118 119 120 121 119 118 121 122 119 113 130 212 241 142 4 13 20 11 15 18 16 15 5 15 149 223 139 109 116 119 118 117 121 121 120 123 124 123 123 123 121 120 121 122 122 122 120 120 121 123 123 122 123 123 122 120 134 83 30 24 57 122 128 122 123 125 128 128 126 127 129 128 129 132 133 133 131 129 129 132 135 133 133 134 136 133 138 141 134 161 242 254 247 247 250 247 245 246 249 249 248 249 252 250 177 142 143 148 155 154 159 155 164 167 164 161 164 169 174 172 143 67 0 0 0 0 0 0 0 0 0 0 0 0 0 0 0 0 0 0 0 0 0 0 0 0 0 0 0 0 0 0 0 0 0 0 0 0 0 0 0 0 0 0 0 0 0 0 0 0 0 0 0 0 0 0 0 0 0 0 0 0 0 0 0 0 0 0 0 0 0 0 0 0 0 0 0 0 0 0 0 0 0 0 0 0 0 0 0 0 0 0 0 
0 0 0 0 0 0 0 0 0 0 0 0 0 0 0 0 0 0 0 0 0 0 0 0 0 0 0 14 134 178 188 189 184 172 165 160 150 137 132 125 117 115 113 106 103 101 100 98 97 97 95 93 92 90 89 88 88 86 85 84 80 81 81 80 78 78 76 76 77 75 74 71 71 71 68 68 67 71 67 70 73 70 67 66 68 63 63 66 67 68 63 58 53 56 58 57 57 56 57 56 58 57 56 55 57 56 53 43 38 45 66 94 102 97 122 154 148 133 132 144 154 150 154 160 153 160 173 175 177 185 181 181 182 172 143 147 164 145 119 118 117 116 116 115 117 120 118 119 120 123 121 118 119 121 119 115 119 198 217 43 3 23 30 62 80 83 72 43 21 0 26 176 159 113 114 117 117 118 118 120 121 122 124 122 121 121 121 118 121 121 122 124 122 121 121 120 122 122 121 122 120 118 132 94 31 24 51 119 128 121 125 128 126 125 127 127 128 128 129 132 131 129 132 131 130 134 133 133 132 131 139 138 132 135 133 148 236 252 245 243 246 241 239 239 242 246 247 248 250 255 185 134 141 144 148 147 158 154 156 156 161 166 166 170 175 177 156 91 10 0 0 0 0 0 0 0 0 0 0 0 0 0 0 0 0 0 0 0 0 0 0 0 0 0 0 0 0 0 0 0 0 0 0 0 0 0 0 0 0 0 0 0 0 0 0 0 0 0 0 0 0 0 0 0 0 0 0 0 0 0 0 0 0 0 0 0 0 0 0 0 0 0 0 0 0 0 0 0 0 0 0 0 0 0 0 0 0 0 0 
0 0 0 0 0 0 0 0 0 0 0 0 0 0 0 0 0 0 0 0 0 0 0 0 0 0 1 42 169 178 189 183 177 169 163 154 142 134 125 123 116 110 109 105 100 99 100 99 96 94 94 94 91 89 86 85 85 83 82 83 80 77 78 79 77 76 72 73 69 67 70 67 65 66 67 68 66 68 68 67 72 72 66 65 66 62 68 69 60 54 54 52 51 55 55 55 55 52 55 53 55 55 52 51 50 46 43 42 53 70 85 90 96 124 152 141 126 131 143 150 147 148 158 151 150 166 173 171 181 179 185 183 183 176 146 142 162 147 120 117 117 116 116 116 118 120 120 119 120 122 122 119 118 121 118 115 117 187 161 9 18 26 99 156 159 156 152 139 65 17 0 82 146 118 113 117 119 118 118 119 122 122 120 121 122 121 121 122 122 121 123 123 121 121 119 122 123 122 120 119 120 119 129 108 31 25 53 117 124 122 127 128 124 124 129 127 128 129 129 131 132 131 132 133 133 131 128 135 133 132 137 133 130 128 124 137 226 252 245 245 243 247 243 241 245 247 248 250 250 255 199 137 143 144 149 152 156 156 154 154 160 168 172 174 175 177 164 113 31 0 0 0 0 0 0 0 0 0 0 0 0 0 0 0 0 0 0 0 0 0 0 0 0 0 0 0 0 0 0 0 0 0 0 0 0 0 0 0 0 0 0 0 0 0 0 0 0 0 0 0 0 0 0 0 0 0 0 0 0 0 0 0 0 0 0 0 0 0 0 0 0 0 0 0 0 0 0 0 0 0 0 0 0 0 0 0 0 0 0 
0 0 0 0 0 0 0 0 0 0 0 0 0 0 0 0 0 0 0 0 0 0 0 0 0 0 1 98 175 185 190 184 180 171 162 150 141 130 121 119 114 107 106 106 100 97 97 97 94 94 94 91 91 89 84 85 82 81 79 78 79 76 71 72 75 71 69 67 63 61 62 62 64 65 65 65 68 68 72 67 69 70 66 68 70 65 60 53 50 49 49 49 50 51 51 52 52 51 52 51 51 48 43 40 40 44 50 61 71 77 83 99 131 147 134 124 124 135 149 150 147 154 156 152 161 175 167 177 179 178 188 190 186 174 142 139 158 146 122 119 119 117 117 116 119 119 119 118 118 119 121 118 118 120 118 116 117 179 110 7 22 75 158 152 149 150 143 159 144 51 7 28 101 122 119 118 118 116 119 120 121 123 120 120 122 119 121 123 121 123 122 120 120 119 119 120 122 123 120 118 120 121 123 116 40 31 48 106 125 124 128 127 126 129 131 126 127 130 132 132 134 133 131 131 129 132 135 137 134 134 135 130 132 134 128 136 210 254 244 247 246 249 248 250 249 248 248 248 250 255 212 145 142 141 156 164 157 163 155 158 163 167 173 170 172 175 172 137 51 0 0 0 0 0 0 0 0 0 0 0 0 0 0 0 0 0 0 0 0 0 0 0 0 0 0 0 0 0 0 0 0 0 0 0 0 0 0 0 0 0 0 0 0 0 0 0 0 0 0 0 0 0 0 0 0 0 0 0 0 0 0 0 0 0 0 0 0 0 0 0 0 0 0 0 0 0 0 0 0 0 0 0 0 0 0 0 0 0 0 
0 0 0 0 0 0 0 0 0 0 0 0 0 0 0 0 0 0 0 0 0 0 0 0 0 0 19 154 177 189 190 184 174 166 157 146 140 132 122 115 110 111 106 103 101 97 97 96 95 95 93 91 91 90 87 86 83 80 78 75 74 72 66 67 67 64 64 62 61 60 60 59 62 63 66 67 68 71 73 73 73 69 65 67 61 52 47 45 45 42 42 43 44 45 46 45 46 46 44 42 42 40 37 41 49 55 61 69 80 92 107 126 134 122 118 127 138 145 147 148 162 156 156 159 166 167 169 181 176 175 186 192 186 171 140 141 153 138 123 119 118 117 117 115 118 120 118 119 119 118 121 119 117 118 118 118 117 159 75 10 29 115 169 143 145 146 140 142 165 107 23 8 60 118 122 118 117 116 120 121 120 121 122 120 120 119 121 122 122 124 121 119 118 118 120 119 121 125 119 118 121 120 117 121 49 32 37 96 126 125 124 127 128 129 128 125 126 134 135 130 129 132 129 128 131 135 136 134 133 132 134 134 137 138 132 130 189 254 247 247 248 247 247 247 245 246 247 248 249 255 223 143 138 144 157 160 154 161 160 161 162 167 170 167 169 176 175 148 77 5 0 0 0 0 0 0 0 0 0 0 0 0 0 0 0 0 0 0 0 0 0 0 0 0 0 0 0 0 0 0 0 0 0 0 0 0 0 0 0 0 0 0 0 0 0 0 0 0 0 0 0 0 0 0 0 0 0 0 0 0 0 0 0 0 0 0 0 0 0 0 0 0 0 0 0 0 0 0 0 0 0 0 0 0 0 0 0 0 0 
0 0 0 0 0 0 0 0 0 0 0 0 0 0 0 0 0 0 0 0 0 0 0 0 0 0 74 173 183 191 190 180 169 159 154 141 133 125 119 118 116 111 104 100 100 98 97 96 96 95 94 92 91 90 87 87 86 81 77 74 69 66 66 65 61 60 59 58 61 61 61 63 65 67 72 76 76 78 78 72 71 66 58 59 48 39 41 39 33 31 31 31 33 33 33 32 33 33 37 37 39 44 48 56 63 64 70 82 94 106 110 114 114 113 123 140 147 147 146 152 157 155 158 163 168 158 175 177 176 177 186 190 186 170 141 137 145 135 121 118 117 116 116 116 118 119 119 121 120 120 121 120 118 119 118 119 118 138 62 14 37 126 170 150 147 150 149 145 160 143 48 6 49 112 120 116 117 119 120 120 121 120 124 122 121 121 125 123 122 124 121 118 118 119 120 119 122 121 118 119 121 118 115 124 56 24 33 95 128 124 123 126 128 127 125 127 128 132 132 129 127 131 134 133 132 132 132 131 135 133 135 139 138 135 130 124 176 251 249 245 243 248 247 243 245 246 248 251 250 247 224 157 148 152 160 157 154 155 157 161 159 156 163 167 168 174 179 159 101 21 0 0 0 0 0 0 0 0 0 0 0 0 0 0 0 0 0 0 0 0 0 0 0 0 0 0 0 0 0 0 0 0 0 0 0 0 0 0 0 0 0 0 0 0 0 0 0 0 0 0 0 0 0 0 0 0 0 0 0 0 0 0 0 0 0 0 0 0 0 0 0 0 0 0 0 0 0 0 0 0 0 0 0 0 0 0 0 0 0 
0 0 0 0 0 0 0 0 0 0 0 0 0 0 0 0 0 0 0 0 0 0 0 0 0 10 133 177 188 190 183 177 168 157 149 137 130 122 116 116 114 109 105 103 101 99 99 96 94 94 95 91 91 89 89 87 85 82 80 77 71 64 61 58 56 57 56 55 58 59 61 68 70 74 79 82 84 79 73 73 68 60 50 44 36 30 27 22 18 18 19 20 24 28 29 32 34 35 39 44 48 51 55 60 67 71 78 90 95 99 104 104 111 124 139 149 147 141 154 157 148 160 159 168 166 166 175 174 177 183 188 187 187 170 142 145 153 135 120 118 117 116 116 116 117 122 120 121 120 121 123 122 118 119 119 120 119 129 63 14 38 125 166 155 150 132 140 149 152 147 64 13 37 101 119 117 117 118 119 119 122 121 122 124 122 122 125 124 121 122 121 120 118 119 118 120 125 120 120 124 119 117 114 128 66 24 34 87 127 124 124 126 131 129 128 129 129 126 127 129 132 132 135 133 132 128 132 132 135 133 132 135 134 132 127 126 173 247 252 248 243 249 251 248 248 250 252 252 251 250 234 174 158 155 161 165 162 161 155 159 167 160 163 169 169 174 182 170 124 39 0 0 0 0 0 0 0 0 0 0 0 0 0 0 0 0 0 0 0 0 0 0 0 0 0 0 0 0 0 0 0 0 0 0 0 0 0 0 0 0 0 0 0 0 0 0 0 0 0 0 0 0 0 0 0 0 0 0 0 0 0 0 0 0 0 0 0 0 0 0 0 0 0 0 0 0 0 0 0 0 0 0 0 0 0 0 0 0 0 
0 0 0 0 0 0 0 0 0 0 0 0 0 0 0 0 0 0 0 0 0 0 0 0 0 42 162 180 193 187 181 176 163 156 145 132 131 122 109 113 114 106 102 101 99 99 98 95 96 92 93 92 90 89 89 85 84 83 82 79 76 68 57 52 52 53 55 56 58 62 69 72 77 85 90 88 78 74 75 70 75 59 44 24 21 18 16 18 20 24 27 29 33 36 37 39 42 42 44 50 52 53 59 64 72 77 85 92 94 100 106 113 131 142 143 145 141 148 155 152 156 159 171 167 160 174 172 175 180 187 189 186 187 171 141 147 160 139 122 118 116 116 116 116 117 124 120 121 121 121 123 121 120 120 119 120 122 128 65 13 37 120 168 153 96 36 65 131 152 148 74 15 21 90 118 117 116 117 118 120 122 121 120 123 121 121 123 124 123 121 121 121 120 118 119 121 123 121 121 124 119 119 118 127 82 31 41 74 121 124 125 125 130 130 133 131 126 127 130 130 133 132 129 129 133 129 133 136 134 130 128 132 135 136 126 125 164 244 255 250 246 249 247 248 248 246 250 252 250 255 249 171 145 154 156 165 157 155 155 156 165 166 168 170 174 175 180 177 142 62 1 0 0 0 0 0 0 0 0 0 0 0 0 0 0 0 0 0 0 0 0 0 0 0 0 0 0 0 0 0 0 0 0 0 0 0 0 0 0 0 0 0 0 0 0 0 0 0 0 0 0 0 0 0 0 0 0 0 0 0 0 0 0 0 0 0 0 0 0 0 0 0 0 0 0 0 0 0 0 0 0 0 0 0 0 0 0 0 0 
0 0 0 0 0 0 0 0 0 0 0 0 0 0 0 0 0 0 0 0 0 0 0 0 0 91 170 186 195 183 179 173 159 151 142 132 124 115 109 114 109 102 101 101 98 96 96 94 94 92 92 92 90 88 86 85 84 84 81 78 77 74 64 55 52 51 53 58 65 73 78 79 89 93 83 79 80 86 96 71 72 51 24 14 18 21 23 29 34 35 35 37 38 39 40 42 44 46 48 52 55 59 65 72 79 84 90 94 96 106 122 134 141 138 138 140 146 151 148 154 154 165 172 162 167 170 167 171 186 191 189 185 186 165 137 140 151 136 122 118 117 116 116 117 118 124 119 119 120 122 124 123 120 122 119 119 123 132 62 12 34 115 174 141 49 9 21 86 151 155 80 15 15 83 117 116 118 119 118 121 119 119 122 123 122 121 122 124 122 123 124 121 120 119 120 120 119 121 121 119 119 123 121 123 95 34 39 59 118 128 124 122 124 128 131 129 125 129 135 132 128 128 129 132 132 130 131 132 129 131 135 134 138 139 133 124 149 236 255 247 248 246 241 248 249 245 249 251 248 252 254 176 130 151 148 155 152 149 152 153 157 160 165 167 174 175 178 182 156 84 12 0 0 0 0 0 0 0 0 0 0 0 0 0 0 0 0 0 0 0 0 0 0 0 0 0 0 0 0 0 0 0 0 0 0 0 0 0 0 0 0 0 0 0 0 0 0 0 0 0 0 0 0 0 0 0 0 0 0 0 0 0 0 0 0 0 0 0 0 0 0 0 0 0 0 0 0 0 0 0 0 0 0 0 0 0 0 0 0 
0 0 0 0 0 0 0 0 0 0 0 0 0 0 0 0 0 0 0 0 0 0 0 0 20 143 177 194 193 181 174 166 156 149 134 125 119 116 114 114 107 102 101 101 98 96 97 96 91 90 92 91 90 88 85 86 84 84 81 79 80 77 72 67 60 55 52 53 61 71 80 86 85 74 79 100 102 106 119 113 75 29 21 22 27 30 30 33 35 35 36 37 39 42 42 44 45 46 51 55 61 66 73 77 84 90 93 99 106 120 132 134 136 137 141 151 153 145 154 152 159 174 153 161 165 161 165 173 186 194 191 183 185 163 138 140 148 135 121 119 117 116 117 118 118 121 119 121 120 121 123 123 120 120 120 117 122 130 65 12 30 106 175 142 49 17 17 66 142 150 80 16 11 76 118 116 117 118 119 121 117 120 121 124 122 120 122 122 121 120 121 121 121 119 120 120 120 124 123 121 120 123 120 124 109 36 30 56 115 126 124 123 124 128 127 127 128 131 134 131 127 129 132 133 131 129 130 131 128 134 137 135 136 135 135 127 141 226 254 245 246 248 249 244 243 247 247 247 247 248 254 196 140 155 156 157 154 160 159 153 157 162 169 174 181 183 181 183 168 109 27 0 0 0 0 0 0 0 0 0 0 0 0 0 0 0 0 0 0 0 0 0 0 0 0 0 0 0 0 0 0 0 0 0 0 0 0 0 0 0 0 0 0 0 0 0 0 0 0 0 0 0 0 0 0 0 0 0 0 0 0 0 0 0 0 0 0 0 0 0 0 0 0 0 0 0 0 0 0 0 0 0 0 0 0 0 0 0 0 
0 0 0 0 0 0 0 0 0 0 0 0 0 0 0 0 0 0 0 0 0 0 0 0 63 170 184 195 187 181 171 162 153 141 131 121 114 117 114 109 106 102 100 99 98 97 95 96 94 91 91 89 88 87 88 86 85 84 81 81 81 78 75 70 67 61 54 51 49 49 58 66 68 75 92 112 115 119 114 88 23 14 45 22 30 30 32 33 35 36 38 40 43 43 45 47 49 52 56 63 68 72 80 82 89 95 101 107 112 126 128 130 135 142 153 148 139 153 154 154 171 158 150 159 159 156 172 182 185 187 183 186 185 171 142 151 164 134 122 120 118 115 117 119 117 120 121 120 121 119 121 123 122 120 122 117 120 127 76 13 27 100 173 148 57 16 20 66 134 149 89 20 11 67 118 118 116 115 117 119 117 119 118 120 121 119 119 122 122 120 120 120 119 119 122 121 120 123 122 122 120 120 119 123 119 40 31 55 110 124 120 123 126 127 129 129 128 128 129 128 129 131 131 127 129 131 128 133 131 133 132 131 131 133 130 128 136 215 255 252 252 255 255 252 250 255 255 255 255 255 255 221 155 156 167 164 155 164 162 151 142 151 152 154 150 152 165 182 179 137 47 0 0 0 0 0 0 0 0 0 0 0 0 0 0 0 0 0 0 0 0 0 0 0 0 0 0 0 0 0 0 0 0 0 0 0 0 0 0 0 0 0 0 0 0 0 0 0 0 0 0 0 0 0 0 0 0 0 0 0 0 0 0 0 0 0 0 0 0 0 0 0 0 0 0 0 0 0 0 0 0 0 0 0 0 0 0 0 0 
0 0 0 0 0 0 0 0 0 0 0 0 0 0 0 0 0 0 0 0 0 0 0 6 116 179 188 192 186 177 170 158 153 141 130 120 107 114 112 108 106 104 101 99 98 96 94 93 92 91 90 90 88 88 87 86 86 82 80 80 79 76 72 70 66 62 57 54 49 42 45 50 50 50 49 58 59 51 54 26 1 10 52 22 32 32 35 37 38 38 40 42 43 45 47 49 52 58 64 69 75 77 82 86 93 97 104 107 112 122 126 130 138 145 146 138 147 153 153 166 158 152 161 157 150 162 171 186 184 184 186 183 176 167 141 141 141 132 124 120 118 115 116 118 119 121 120 119 119 120 121 122 120 118 121 119 120 125 83 17 23 95 168 149 67 17 18 62 142 161 99 24 10 57 117 119 115 116 117 117 118 119 118 118 118 119 120 124 124 119 118 119 121 122 121 118 120 120 120 123 120 118 117 121 120 44 28 51 103 122 121 126 125 126 129 129 127 125 126 130 134 132 128 127 129 132 131 137 134 135 134 135 136 137 135 131 131 206 255 252 247 240 230 224 223 221 211 199 187 187 192 169 104 98 114 107 90 89 91 84 81 80 90 99 84 80 112 173 186 153 71 5 0 0 0 0 0 0 0 0 0 0 0 0 0 0 0 0 0 0 0 0 0 0 0 0 0 0 0 0 0 0 0 0 0 0 0 0 0 0 0 0 0 0 0 0 0 0 0 0 0 0 0 0 0 0 0 0 0 0 0 0 0 0 0 0 0 0 0 0 0 0 0 0 0 0 0 0 0 0 0 0 0 0 0 0 0 0 0 
0 0 0 0 0 0 0 0 0 0 0 0 0 0 0 0 0 0 0 0 0 0 0 30 157 178 193 188 181 174 165 157 150 142 125 116 119 119 114 113 107 103 100 99 98 96 94 95 93 91 91 89 87 88 86 86 84 82 83 80 77 76 73 69 65 60 55 52 48 43 55 48 35 29 26 20 13 13 46 10 0 14 41 25 33 35 36 37 38 41 43 44 44 47 49 53 57 64 69 74 81 82 85 89 95 102 107 111 115 124 134 139 141 138 141 149 151 155 170 161 150 160 162 147 153 182 182 182 184 186 190 186 185 170 138 146 147 127 126 122 118 117 115 117 118 121 122 120 121 119 119 119 118 118 119 120 119 125 87 20 22 91 168 152 73 14 20 57 141 171 111 28 11 53 114 119 116 116 116 117 118 118 119 119 120 120 121 121 122 121 121 121 119 121 121 120 120 117 119 122 120 116 117 119 123 56 25 45 95 123 121 123 123 124 126 126 124 126 132 133 131 127 128 127 127 133 123 114 105 107 105 94 92 91 93 89 92 102 103 98 93 84 78 76 76 76 74 67 59 53 51 59 52 56 58 48 42 39 41 37 41 41 47 65 58 56 84 151 190 165 95 18 0 0 0 0 0 0 0 0 0 0 0 0 0 0 0 0 0 0 0 0 0 0 0 0 0 0 0 0 0 0 0 0 0 0 0 0 0 0 0 0 0 0 0 0 0 0 0 0 0 0 0 0 0 0 0 0 0 0 0 0 0 0 0 0 0 0 0 0 0 0 0 0 0 0 0 0 0 0 0 0 0 0 0 0 0 0 0 
0 0 0 0 0 0 0 0 0 0 0 0 0 0 0 0 0 0 0 0 0 0 0 90 171 185 191 184 176 171 163 147 140 139 127 118 118 113 108 107 106 103 101 98 100 96 94 93 91 91 91 89 88 89 89 86 85 83 82 79 76 74 71 68 64 59 53 49 45 47 54 42 31 28 24 17 9 31 44 0 0 22 41 26 34 36 37 38 40 42 45 46 47 51 54 60 63 69 73 77 84 88 90 95 101 108 111 120 124 133 135 134 140 147 148 147 158 164 153 152 163 161 159 151 166 184 186 182 184 191 185 186 185 167 137 167 175 125 123 121 117 116 116 119 119 120 123 123 120 118 118 119 119 119 118 119 118 124 94 19 22 83 166 157 77 17 20 52 129 169 125 35 15 53 114 121 115 116 115 115 118 117 118 117 116 119 122 121 119 120 123 121 120 121 121 121 121 118 117 121 120 117 117 118 126 71 28 36 80 123 120 121 122 124 124 122 126 129 133 129 127 129 127 125 125 139 95 50 48 55 63 47 43 42 42 42 42 38 30 36 42 42 42 43 40 38 42 45 40 33 26 31 41 46 54 55 56 52 57 59 64 65 70 90 95 67 62 125 186 176 122 37 0 0 0 0 0 0 0 0 0 0 0 0 0 0 0 0 0 0 0 0 0 0 0 0 0 0 0 0 0 0 0 0 0 0 0 0 0 0 0 0 0 0 0 0 0 0 0 0 0 0 0 0 0 0 0 0 0 0 0 0 0 0 0 0 0 0 0 0 0 0 0 0 0 0 0 0 0 0 0 0 0 0 0 0 0 0 0 
0 0 0 0 0 0 0 0 0 0 0 0 0 0 0 0 0 0 0 0 0 0 16 143 177 190 189 184 176 169 160 143 139 128 122 115 107 108 106 105 107 104 99 100 100 96 96 95 92 91 92 90 89 89 86 87 86 82 81 79 76 72 70 67 63 56 51 49 46 50 49 36 30 27 22 16 27 77 9 0 0 25 44 27 36 37 38 40 42 44 46 49 52 58 62 65 68 74 79 85 88 93 96 99 108 114 118 122 127 131 136 141 145 143 146 162 166 154 150 159 165 164 147 158 173 181 183 184 186 189 182 185 185 165 139 156 167 135 122 119 119 116 116 119 119 119 122 122 120 120 120 121 118 120 117 117 121 126 101 19 20 73 166 168 89 20 21 43 121 171 140 43 16 52 111 119 115 115 120 118 122 121 122 126 126 122 118 119 119 121 123 121 122 122 120 119 119 118 118 120 120 119 117 115 123 80 32 38 74 122 119 122 126 127 125 125 127 126 127 127 127 127 124 125 124 138 94 35 36 34 43 55 51 39 36 39 41 48 46 48 55 55 57 68 74 83 90 96 116 130 142 146 129 112 123 126 137 132 134 140 144 152 160 162 165 105 57 106 173 188 151 57 0 0 0 0 0 0 0 0 0 0 0 0 0 0 0 0 0 0 0 0 0 0 0 0 0 0 0 0 0 0 0 0 0 0 0 0 0 0 0 0 0 0 0 0 0 0 0 0 0 0 0 0 0 0 0 0 0 0 0 0 0 0 0 0 0 0 0 0 0 0 0 0 0 0 0 0 0 0 0 0 0 0 0 0 0 0 0 
0 0 0 0 0 0 0 0 0 0 0 0 0 0 0 0 0 0 0 0 0 0 58 163 182 193 189 182 174 165 154 143 135 127 119 109 106 110 106 105 105 102 100 96 96 96 93 93 92 92 93 90 87 87 87 87 86 84 80 79 76 73 70 64 57 54 51 49 45 51 45 33 29 26 20 29 78 46 0 0 0 27 49 28 37 38 40 43 45 46 48 53 59 63 66 70 74 78 82 87 92 95 100 104 108 112 117 121 129 135 138 142 137 141 161 163 146 147 159 156 151 152 157 168 179 181 181 187 186 187 187 186 182 161 138 158 178 136 121 123 121 119 117 117 117 118 121 123 122 117 120 119 119 121 114 115 119 127 109 24 17 61 152 159 87 22 23 34 84 105 74 35 17 46 116 125 116 112 104 99 90 83 79 80 76 96 120 119 120 119 121 121 121 122 120 119 119 118 119 119 119 119 117 115 125 95 28 40 75 118 119 121 123 125 123 125 127 126 126 130 130 128 128 125 121 136 101 38 42 75 100 111 114 111 112 110 108 130 195 212 211 218 221 227 231 236 238 240 246 249 252 252 190 154 155 155 157 150 151 151 152 160 163 169 179 129 56 85 158 189 163 87 11 0 0 0 0 0 0 0 0 0 0 0 0 0 0 0 0 0 0 0 0 0 0 0 0 0 0 0 0 0 0 0 0 0 0 0 0 0 0 0 0 0 0 0 0 0 0 0 0 0 0 0 0 0 0 0 0 0 0 0 0 0 0 0 0 0 0 0 0 0 0 0 0 0 0 0 0 0 0 0 0 0 0 0 0 0 0 
0 0 0 0 0 0 0 0 0 0 0 0 0 0 0 0 0 0 0 0 0 2 114 173 189 190 186 180 171 160 150 140 133 125 118 111 111 107 105 104 104 101 98 97 97 92 94 92 92 94 91 88 89 89 87 87 85 82 79 79 73 70 65 61 57 54 51 47 47 54 41 32 30 27 19 54 90 6 0 0 0 27 50 30 39 39 42 44 46 50 54 58 62 66 70 74 79 83 88 91 95 98 102 108 109 114 124 125 125 131 135 143 149 150 148 145 152 158 157 147 142 154 175 184 182 177 176 184 188 186 187 186 181 163 139 145 150 127 123 124 120 117 115 114 116 117 122 124 121 118 121 123 122 123 119 121 122 129 122 33 20 35 49 46 36 29 30 30 25 22 22 27 29 30 49 66 69 58 38 34 29 28 24 23 26 62 119 123 119 119 120 118 118 120 121 121 120 119 121 119 120 119 115 116 125 110 28 36 69 114 120 118 119 121 123 127 126 123 125 132 131 130 130 127 124 137 104 38 41 100 138 136 137 142 134 129 126 150 234 255 250 254 255 252 250 251 250 250 249 249 251 255 192 147 145 145 147 143 150 150 145 148 150 155 171 153 76 72 145 187 167 113 25 0 0 0 0 0 0 0 0 0 0 0 0 0 0 0 0 0 0 0 0 0 0 0 0 0 0 0 0 0 0 0 0 0 0 0 0 0 0 0 0 0 0 0 0 0 0 0 0 0 0 0 0 0 0 0 0 0 0 0 0 0 0 0 0 0 0 0 0 0 0 0 0 0 0 0 0 0 0 0 0 0 0 0 0 0 0 
0 0 0 0 0 0 0 0 0 0 0 0 0 0 0 0 0 0 0 0 0 38 153 181 190 189 185 174 167 156 146 139 130 123 118 116 111 104 104 106 104 99 98 97 96 96 96 93 91 90 89 90 89 88 86 85 84 81 80 77 73 70 65 62 56 52 50 45 50 51 38 30 31 27 39 95 39 0 0 0 0 28 44 32 40 43 45 47 50 55 60 63 66 69 73 77 82 85 90 95 98 99 106 110 109 111 122 126 127 134 143 151 150 145 148 153 159 160 154 145 152 166 180 184 180 178 183 182 185 188 185 186 182 162 136 141 147 134 123 122 119 116 113 117 123 122 121 119 116 115 107 106 101 97 96 84 75 77 67 29 24 30 24 22 26 30 30 30 27 25 28 25 24 20 18 33 32 20 17 18 22 23 20 22 27 53 112 125 122 122 123 122 120 121 121 120 120 122 120 122 122 120 117 116 120 113 36 29 53 114 120 117 119 121 126 127 124 121 125 133 131 127 126 131 128 137 107 43 42 86 131 132 129 132 127 127 120 137 223 255 247 250 250 247 245 247 248 245 248 249 251 253 193 146 141 147 151 146 148 152 152 151 153 150 156 155 98 60 116 180 178 135 44 0 0 0 0 0 0 0 0 0 0 0 0 0 0 0 0 0 0 0 0 0 0 0 0 0 0 0 0 0 0 0 0 0 0 0 0 0 0 0 0 0 0 0 0 0 0 0 0 0 0 0 0 0 0 0 0 0 0 0 0 0 0 0 0 0 0 0 0 0 0 0 0 0 0 0 0 0 0 0 0 0 0 0 0 0 0 
0 0 0 0 0 0 0 0 0 0 0 0 0 0 0 0 0 0 0 0 1 85 168 188 191 189 181 172 164 155 143 134 124 119 113 109 106 103 103 104 103 100 99 98 98 97 94 92 92 91 90 89 87 87 87 86 83 82 79 73 71 66 63 60 55 53 48 44 54 46 34 34 40 37 80 98 6 0 0 0 0 29 48 35 42 45 49 52 55 60 65 68 70 74 76 79 85 89 94 98 103 103 109 106 113 117 131 136 137 142 141 143 149 158 162 157 154 157 147 149 161 175 180 179 179 174 182 185 184 189 187 184 182 161 136 150 163 140 121 122 118 116 119 116 93 75 70 54 47 49 39 34 34 29 27 16 16 18 18 23 24 29 29 25 23 25 29 30 22 17 14 16 16 17 20 32 45 40 46 50 64 76 76 48 20 42 103 125 121 122 122 122 120 120 122 120 123 120 118 122 122 119 117 116 119 120 45 31 58 109 122 118 119 123 126 124 125 126 126 129 128 127 127 131 129 136 109 43 44 92 131 132 127 130 135 134 123 129 205 255 250 249 247 248 248 247 248 248 249 249 251 255 203 143 138 143 151 149 150 151 154 154 151 155 161 164 115 48 86 171 183 151 75 4 0 0 0 0 0 0 0 0 0 0 0 0 0 0 0 0 0 0 0 0 0 0 0 0 0 0 0 0 0 0 0 0 0 0 0 0 0 0 0 0 0 0 0 0 0 0 0 0 0 0 0 0 0 0 0 0 0 0 0 0 0 0 0 0 0 0 0 0 0 0 0 0 0 0 0 0 0 0 0 0 0 0 0 0 0 
0 0 0 0 0 0 0 0 0 0 0 0 0 0 0 0 0 0 0 0 18 130 177 192 193 185 178 169 157 151 142 128 123 116 114 108 105 104 103 103 104 100 100 100 99 95 93 92 92 90 90 90 88 87 86 85 81 79 76 73 71 65 61 58 53 52 47 49 56 45 35 34 46 64 119 46 1 0 0 0 0 32 49 35 45 49 52 58 60 64 67 71 74 78 80 83 87 91 96 99 105 104 108 108 115 120 133 138 134 138 142 147 157 159 150 153 159 149 150 162 177 183 178 174 182 180 180 181 186 186 187 183 181 160 135 153 166 134 121 121 120 118 127 90 23 15 22 13 9 13 16 11 13 18 18 22 20 20 28 32 21 26 34 40 36 23 24 30 61 92 108 121 138 161 147 109 115 121 123 122 131 130 133 94 20 37 94 125 120 120 122 123 120 120 122 121 121 118 121 122 120 119 120 119 120 130 56 25 45 97 128 119 122 124 122 122 126 128 126 125 126 129 132 131 124 131 117 54 46 82 124 127 127 132 134 135 128 132 197 254 252 247 245 247 245 243 246 248 247 249 250 255 225 149 143 146 151 150 152 152 151 154 153 156 168 180 143 66 74 153 185 160 102 19 0 0 0 0 0 0 0 0 0 0 0 0 0 0 0 0 0 0 0 0 0 0 0 0 0 0 0 0 0 0 0 0 0 0 0 0 0 0 0 0 0 0 0 0 0 0 0 0 0 0 0 0 0 0 0 0 0 0 0 0 0 0 0 0 0 0 0 0 0 0 0 0 0 0 0 0 0 0 0 0 0 0 0 0 0 
0 0 0 0 0 0 0 0 0 0 0 0 0 0 0 0 0 0 0 0 58 160 185 192 189 181 172 167 155 148 137 126 122 117 112 106 105 104 102 104 102 102 103 100 97 94 94 92 90 89 90 89 87 87 87 85 80 80 77 71 69 64 59 56 54 52 48 53 50 40 32 37 55 100 99 9 0 0 0 0 0 33 49 38 51 54 57 60 65 68 70 74 76 79 83 88 91 93 95 101 103 105 108 112 119 124 135 139 135 146 151 149 149 146 154 160 147 142 160 171 178 180 177 179 189 180 180 184 183 180 186 184 178 160 138 148 157 134 122 121 118 117 126 81 17 13 21 20 24 24 26 33 38 41 56 73 79 86 96 116 151 172 185 210 160 36 8 25 163 253 250 251 249 255 221 130 120 122 118 117 119 117 122 106 29 31 78 124 121 121 122 124 121 120 120 122 120 118 123 122 119 122 119 118 119 126 65 20 42 94 125 121 126 125 121 123 129 127 122 125 130 132 129 128 122 131 121 53 41 76 124 129 130 130 131 136 133 130 187 252 251 247 248 244 244 248 248 243 243 248 249 255 237 155 139 146 152 152 161 163 159 157 163 159 159 173 161 95 79 136 184 170 128 35 0 0 0 0 0 0 0 0 0 0 0 0 0 0 0 0 0 0 0 0 0 0 0 0 0 0 0 0 0 0 0 0 0 0 0 0 0 0 0 0 0 0 0 0 0 0 0 0 0 0 0 0 0 0 0 0 0 0 0 0 0 0 0 0 0 0 0 0 0 0 0 0 0 0 0 0 0 0 0 0 0 0 0 0 0 
0 0 0 0 0 0 0 0 0 0 0 0 0 0 0 0 0 0 0 5 103 174 188 187 186 171 167 166 154 144 133 129 113 114 112 109 107 106 106 106 104 101 98 97 94 93 93 93 92 91 91 89 87 87 85 83 82 81 76 71 67 62 57 55 54 49 50 54 42 38 40 49 79 124 47 1 0 0 0 0 0 28 53 42 54 58 62 64 67 70 74 77 80 83 86 90 93 95 100 110 104 107 110 117 125 130 136 137 137 146 150 143 149 157 154 147 151 164 173 169 166 177 181 181 178 174 183 187 182 175 183 180 180 160 137 151 156 132 124 121 116 118 125 77 15 20 64 81 98 106 109 117 124 120 126 131 129 129 127 141 227 255 250 255 209 50 4 17 145 245 238 236 233 244 219 129 113 118 115 114 119 117 120 118 42 18 65 120 121 120 122 121 120 120 118 119 121 119 120 120 119 123 120 116 118 127 79 27 48 84 122 122 124 122 122 124 127 124 121 124 127 128 126 126 125 132 124 51 44 87 127 129 128 131 130 134 133 122 173 247 252 248 249 246 245 248 247 246 247 247 250 254 246 168 147 146 151 148 151 161 162 163 165 161 158 155 157 102 59 102 172 179 145 61 1 0 0 0 0 0 0 0 0 0 0 0 0 0 0 0 0 0 0 0 0 0 0 0 0 0 0 0 0 0 0 0 0 0 0 0 0 0 0 0 0 0 0 0 0 0 0 0 0 0 0 0 0 0 0 0 0 0 0 0 0 0 0 0 0 0 0 0 0 0 0 0 0 0 0 0 0 0 0 0 0 0 0 0 0 
0 0 0 0 0 0 0 0 0 0 0 0 0 0 0 0 0 0 0 31 142 180 189 188 183 168 164 165 151 137 131 127 118 112 112 111 110 108 105 103 102 99 97 96 95 93 93 93 92 91 90 90 88 86 84 83 82 78 75 71 64 59 56 56 52 48 53 49 42 46 50 63 107 104 9 0 0 0 0 0 0 23 54 47 58 62 65 67 70 73 77 80 82 86 91 94 95 98 104 109 107 107 117 122 120 128 133 135 138 143 144 148 153 148 148 148 162 174 174 173 177 181 182 180 167 172 183 184 186 181 180 178 181 160 137 150 151 129 122 119 116 120 127 68 6 19 104 134 133 128 122 123 121 123 119 115 115 114 111 120 204 250 235 254 211 58 7 13 119 239 237 231 240 251 226 137 115 116 115 115 117 119 119 124 56 14 49 111 125 120 120 121 120 118 120 118 118 120 119 119 118 121 119 115 117 127 88 29 43 74 122 121 121 121 125 124 122 121 122 124 124 125 126 126 125 127 125 53 49 86 125 132 128 131 130 131 138 124 162 244 254 247 248 249 249 247 246 242 242 245 249 254 252 179 152 151 149 153 147 151 155 159 169 172 162 157 165 118 47 73 154 185 158 85 11 0 0 0 0 0 0 0 0 0 0 0 0 0 0 0 0 0 0 0 0 0 0 0 0 0 0 0 0 0 0 0 0 0 0 0 0 0 0 0 0 0 0 0 0 0 0 0 0 0 0 0 0 0 0 0 0 0 0 0 0 0 0 0 0 0 0 0 0 0 0 0 0 0 0 0 0 0 0 0 0 0 0 0 0 
0 0 0 0 0 0 0 0 0 0 0 0 0 0 0 0 0 0 0 55 157 186 191 187 182 164 160 161 148 134 129 125 119 114 109 107 106 103 102 101 102 101 98 96 95 94 94 93 94 91 90 88 88 87 85 83 81 76 74 67 62 59 56 55 50 49 53 47 45 46 57 86 130 50 1 0 0 0 0 0 0 21 54 54 63 65 67 72 75 77 78 82 86 88 92 95 97 103 105 107 109 112 119 123 126 132 134 142 142 149 147 145 138 145 156 161 173 171 167 177 184 182 178 179 177 168 178 186 186 180 183 185 179 159 139 151 151 134 123 119 117 120 126 68 8 13 87 119 115 112 112 112 117 121 118 116 118 116 113 124 203 246 236 251 218 68 7 13 106 236 244 230 237 250 235 146 112 116 116 118 117 118 115 127 74 12 43 102 125 119 120 120 119 121 122 117 117 121 119 119 120 121 118 118 116 122 99 31 32 66 120 123 120 123 125 121 119 124 125 123 122 127 128 125 122 124 136 66 42 73 121 133 130 128 131 130 133 127 150 235 255 248 250 249 249 249 247 242 242 240 245 255 238 167 144 149 148 155 149 150 150 153 162 167 164 166 173 141 61 62 142 185 163 114 24 0 0 0 0 0 0 0 0 0 0 0 0 0 0 0 0 0 0 0 0 0 0 0 0 0 0 0 0 0 0 0 0 0 0 0 0 0 0 0 0 0 0 0 0 0 0 0 0 0 0 0 0 0 0 0 0 0 0 0 0 0 0 0 0 0 0 0 0 0 0 0 0 0 0 0 0 0 0 0 0 0 0 0 0 
0 0 0 0 0 0 0 0 0 0 0 0 0 0 0 0 0 0 0 40 157 194 194 186 177 159 157 157 146 132 126 120 118 112 110 106 104 104 103 103 103 101 97 96 96 95 93 93 93 91 90 89 88 85 85 83 80 77 70 63 60 58 57 55 50 53 54 44 46 57 75 111 110 8 0 0 0 0 0 0 0 25 56 58 66 68 71 74 79 82 82 84 88 93 95 96 100 104 108 112 112 116 122 126 132 132 136 145 142 143 142 144 146 154 163 171 173 168 170 178 176 177 179 177 178 173 180 186 182 179 183 182 177 157 136 148 160 137 124 120 116 118 123 66 11 23 95 122 118 116 114 114 117 121 119 117 117 116 113 121 187 242 238 245 230 87 5 12 99 231 250 235 233 238 239 158 111 116 118 118 119 118 116 123 88 19 41 95 124 120 120 119 120 120 119 118 119 119 119 117 120 118 120 120 114 121 112 40 28 57 115 125 121 124 122 118 118 121 122 121 123 127 126 122 123 127 137 75 36 70 118 129 132 128 130 131 131 129 140 220 255 248 247 243 244 247 246 244 246 244 248 255 241 172 146 146 147 153 149 153 150 150 161 163 160 157 168 153 73 47 121 183 169 133 45 0 0 0 0 0 0 0 0 0 0 0 0 0 0 0 0 0 0 0 0 0 0 0 0 0 0 0 0 0 0 0 0 0 0 0 0 0 0 0 0 0 0 0 0 0 0 0 0 0 0 0 0 0 0 0 0 0 0 0 0 0 0 0 0 0 0 0 0 0 0 0 0 0 0 0 0 0 0 0 0 0 0 0 0 
0 0 0 0 0 0 0 0 0 0 0 0 0 0 0 0 0 0 0 8 121 200 193 186 173 157 158 153 143 129 122 118 114 111 110 106 106 106 104 103 101 100 99 96 96 95 93 93 93 91 90 91 87 85 84 83 80 74 67 63 60 58 56 53 55 64 55 47 55 71 95 138 55 2 0 0 0 0 0 0 0 32 59 60 69 72 75 78 80 83 86 88 91 93 98 102 102 105 110 116 115 117 123 127 128 127 135 140 138 141 146 148 158 169 169 164 165 173 181 182 172 171 183 179 170 173 182 185 186 177 179 181 173 157 137 150 159 133 122 119 115 117 124 70 16 39 101 121 117 117 116 114 114 121 119 118 118 116 115 114 165 236 243 246 230 95 7 9 85 226 245 236 238 234 244 171 113 115 115 116 118 119 118 120 106 30 29 77 123 121 121 120 121 120 118 119 119 119 118 118 118 117 119 119 115 120 117 44 29 57 111 123 122 121 119 121 123 120 118 121 124 124 120 122 127 128 133 70 32 66 117 130 128 125 125 131 127 128 138 212 255 253 247 249 250 250 252 250 250 253 255 255 255 217 155 154 157 157 151 153 155 157 167 173 169 159 168 166 88 38 97 176 182 144 73 5 0 0 0 0 0 0 0 0 0 0 0 0 0 0 0 0 0 0 0 0 0 0 0 0 0 0 0 0 0 0 0 0 0 0 0 0 0 0 0 0 0 0 0 0 0 0 0 0 0 0 0 0 0 0 0 0 0 0 0 0 0 0 0 0 0 0 0 0 0 0 0 0 0 0 0 0 0 0 0 0 0 0 0 
0 0 0 0 0 0 0 0 0 0 0 0 0 0 0 0 0 0 0 0 44 174 194 180 171 157 154 149 140 123 122 115 113 110 109 108 107 105 103 102 101 101 99 97 95 95 95 93 94 91 91 89 87 85 83 81 78 71 66 63 60 59 56 51 60 69 54 56 65 83 116 122 18 0 0 0 0 0 0 0 0 32 63 63 71 74 77 80 82 85 89 91 94 94 98 104 104 109 112 117 115 117 122 125 132 132 138 143 142 147 153 157 162 164 165 164 170 174 181 178 173 174 179 174 171 178 181 187 187 182 182 182 174 156 138 159 164 133 121 119 114 116 125 70 15 33 96 119 117 115 114 117 118 121 118 118 118 117 115 112 154 228 237 243 235 110 11 6 73 222 245 234 241 245 249 178 113 115 114 114 117 118 116 118 114 46 22 65 119 123 118 120 121 119 119 121 123 119 117 118 117 116 116 119 117 119 118 46 29 50 96 124 122 120 119 122 124 121 118 121 124 124 123 125 125 124 132 76 36 58 113 128 127 127 130 134 133 135 148 218 255 255 252 252 250 248 245 241 234 234 227 225 223 205 143 139 144 140 136 137 135 144 138 147 149 143 156 163 107 38 68 158 185 159 99 15 0 0 0 0 0 0 0 0 0 0 0 0 0 0 0 0 0 0 0 0 0 0 0 0 0 0 0 0 0 0 0 0 0 0 0 0 0 0 0 0 0 0 0 0 0 0 0 0 0 0 0 0 0 0 0 0 0 0 0 0 0 0 0 0 0 0 0 0 0 0 0 0 0 0 0 0 0 0 0 0 0 0 0 
0 0 0 0 0 0 0 0 0 0 0 0 0 0 0 0 0 0 0 0 0 77 188 185 167 155 152 146 136 123 120 113 112 110 110 108 105 103 104 103 104 102 100 98 97 96 96 94 92 91 91 90 86 84 82 80 75 69 65 63 61 59 56 53 65 63 56 63 75 98 134 54 1 0 0 0 0 0 0 0 0 31 67 66 72 76 78 82 84 87 90 93 95 98 100 104 106 110 112 119 119 122 131 134 138 133 139 143 148 155 153 154 159 159 163 173 179 174 173 172 172 172 163 173 179 174 178 182 186 181 178 182 174 153 136 152 158 129 122 119 114 115 124 73 18 34 94 118 118 118 116 114 118 121 117 116 118 118 117 111 148 233 242 239 250 131 13 2 63 219 250 231 244 247 243 185 114 114 115 115 117 116 115 117 120 59 14 48 111 125 119 119 118 118 118 120 121 119 118 120 118 116 116 118 118 116 121 61 31 38 84 127 120 118 118 120 123 122 121 122 122 122 123 124 124 121 133 81 33 49 111 130 131 124 124 131 134 119 120 164 196 181 168 154 142 135 127 116 109 107 95 84 83 81 78 73 69 76 77 73 69 82 75 74 75 69 83 95 82 45 59 137 181 173 124 31 0 0 0 0 0 0 0 0 0 0 0 0 0 0 0 0 0 0 0 0 0 0 0 0 0 0 0 0 0 0 0 0 0 0 0 0 0 0 0 0 0 0 0 0 0 0 0 0 0 0 0 0 0 0 0 0 0 0 0 0 0 0 0 0 0 0 0 0 0 0 0 0 0 0 0 0 0 0 0 0 0 0 0 
0 0 0 0 0 0 0 0 0 0 0 0 0 0 0 0 0 0 0 0 0 5 88 177 171 156 150 141 128 124 115 112 111 110 109 107 105 104 106 105 105 103 101 97 97 95 96 94 92 92 90 88 85 83 84 79 73 68 64 62 61 59 55 57 69 58 57 69 85 116 117 17 0 0 0 0 0 0 0 0 1 37 67 69 75 78 81 84 86 90 91 92 97 100 103 106 110 111 112 115 126 128 132 135 135 126 136 143 151 152 151 155 158 159 171 181 178 166 168 173 172 173 166 175 173 171 178 181 185 183 179 178 173 152 134 153 156 130 122 118 115 116 123 76 20 37 95 117 116 119 115 113 117 120 118 117 118 118 116 110 138 230 245 238 251 141 15 6 52 206 246 228 239 241 248 207 118 111 117 117 117 116 116 118 120 67 13 37 96 125 120 119 119 117 116 118 117 117 120 120 118 117 118 116 117 115 126 82 31 34 82 125 118 117 119 119 120 122 121 121 121 121 121 121 121 122 134 83 31 54 85 94 90 69 77 89 82 63 53 58 52 40 35 31 31 30 28 22 24 27 24 17 22 25 36 44 43 48 44 36 36 42 43 41 42 39 36 41 44 44 63 128 184 182 147 52 1 0 0 0 0 0 0 0 0 0 0 0 0 0 0 0 0 0 0 0 0 0 0 0 0 0 0 0 0 0 0 0 0 0 0 0 0 0 0 0 0 0 0 0 0 0 0 0 0 0 0 0 0 0 0 0 0 0 0 0 0 0 0 0 0 0 0 0 0 0 0 0 0 0 0 0 0 0 0 0 0 0 0 
0 0 0 0 0 0 0 0 0 0 0 0 0 0 0 0 0 0 0 0 0 0 1 61 143 158 145 135 123 122 116 113 112 111 109 107 107 105 106 104 104 102 99 97 96 95 95 93 93 92 91 88 86 84 83 74 71 66 64 62 61 59 54 63 67 55 66 83 99 131 66 3 0 0 0 0 0 0 0 0 2 40 68 72 78 81 83 86 89 92 94 96 100 103 105 109 114 116 116 113 123 130 127 128 134 130 135 146 149 147 154 159 160 161 177 176 166 170 177 171 167 177 177 177 174 174 182 185 183 178 178 177 171 153 136 156 157 131 121 119 115 117 123 74 19 35 93 114 114 115 114 114 117 120 117 118 118 117 116 109 131 220 244 239 247 152 20 6 42 186 241 226 235 237 245 221 126 109 116 118 117 116 117 116 119 83 20 29 84 125 120 117 119 117 117 118 116 114 118 118 119 120 119 115 115 115 128 88 27 32 76 119 117 120 119 118 119 122 120 117 120 123 121 120 123 124 130 88 34 41 44 41 36 30 38 42 31 31 32 28 18 11 19 25 34 33 31 36 43 45 44 48 50 58 65 74 78 76 77 66 61 59 65 70 80 72 61 67 64 68 76 123 178 184 155 76 7 0 0 0 0 0 0 0 0 0 0 0 0 0 0 0 0 0 0 0 0 0 0 0 0 0 0 0 0 0 0 0 0 0 0 0 0 0 0 0 0 0 0 0 0 0 0 0 0 0 0 0 0 0 0 0 0 0 0 0 0 0 0 0 0 0 0 0 0 0 0 0 0 0 0 0 0 0 0 0 0 0 0 
0 0 0 0 0 0 0 0 0 0 0 0 0 0 0 0 0 0 0 0 0 0 9 17 99 157 140 129 123 119 116 114 111 112 111 109 108 107 106 104 103 102 99 98 98 95 95 93 92 91 91 89 87 83 81 75 72 66 64 63 61 57 56 68 64 62 77 93 117 126 28 0 0 0 0 0 0 0 0 0 1 39 70 73 81 83 86 88 90 94 95 99 104 106 109 113 116 119 119 118 123 130 131 127 133 136 136 146 151 151 155 159 165 162 169 168 170 177 172 158 165 178 178 178 180 178 184 187 183 178 173 175 169 153 137 157 152 129 122 119 115 117 125 76 18 30 89 115 114 113 113 112 114 118 114 115 117 117 117 108 121 207 247 240 253 172 26 3 31 184 255 250 249 252 255 253 148 112 119 123 122 123 123 119 123 103 34 29 78 120 119 117 119 119 117 117 116 116 118 117 116 119 117 117 118 112 126 95 25 29 64 113 117 118 118 118 118 119 120 118 120 121 121 123 125 121 128 97 36 24 30 35 33 35 42 45 47 56 63 70 88 95 116 137 149 153 155 169 183 185 190 199 200 206 157 129 132 130 140 141 139 136 144 147 150 143 144 155 149 144 135 135 158 172 157 108 18 0 0 0 0 0 0 0 0 0 0 0 0 0 0 0 0 0 0 0 0 0 0 0 0 0 0 0 0 0 0 0 0 0 0 0 0 0 0 0 0 0 0 0 0 0 0 0 0 0 0 0 0 0 0 0 0 0 0 0 0 0 0 0 0 0 0 0 0 0 0 0 0 0 0 0 0 0 0 0 0 0 0 
0 0 0 0 0 0 0 0 0 0 0 0 0 0 0 0 0 0 16 47 64 91 126 149 159 177 168 136 117 115 114 112 110 111 109 108 106 106 107 105 103 103 101 99 98 95 95 93 92 91 90 89 87 83 81 75 69 66 66 64 61 57 61 71 65 71 84 101 134 79 6 0 0 0 0 0 0 0 0 0 2 43 74 76 84 85 88 90 93 95 97 99 105 107 111 114 116 119 121 120 126 129 135 126 131 136 141 144 152 157 155 158 163 163 168 174 179 167 153 165 167 168 175 180 184 184 183 186 184 181 177 173 168 150 136 156 158 133 121 119 115 117 127 76 14 26 89 115 114 114 114 112 111 116 112 111 114 117 117 112 118 199 255 255 255 202 34 2 25 167 245 235 225 230 224 213 138 103 103 105 98 95 88 91 102 93 46 26 67 116 120 116 118 119 117 116 116 119 117 116 115 115 116 118 118 112 122 105 31 26 53 108 118 113 117 120 119 118 119 120 120 120 120 125 122 119 126 120 74 61 72 87 85 86 98 109 112 118 117 136 207 234 243 250 251 253 255 255 255 255 255 255 255 255 187 143 150 146 152 154 157 156 163 161 161 159 156 167 175 170 157 150 161 163 155 137 37 0 0 0 0 0 0 0 0 0 0 0 0 0 0 0 0 0 0 0 0 0 0 0 0 0 0 0 0 0 0 0 0 0 0 0 0 0 0 0 0 0 0 0 0 0 0 0 0 0 0 0 0 0 0 0 0 0 0 0 0 0 0 0 0 0 0 0 0 0 0 0 0 0 0 0 0 0 0 0 0 0 0 
0 0 0 0 0 0 0 0 0 0 0 0 0 0 0 7 56 98 135 167 184 195 202 197 194 198 215 185 139 114 110 112 113 111 109 107 107 105 106 106 103 103 100 99 98 96 95 94 92 92 90 89 85 83 78 75 69 67 67 63 59 58 68 70 67 77 92 113 135 32 0 0 0 0 0 0 0 0 0 0 2 47 78 79 87 89 89 92 94 95 98 103 106 106 112 118 120 115 119 125 127 129 134 129 137 139 142 147 147 150 151 159 166 172 176 173 170 168 166 173 169 161 162 176 183 185 183 183 183 180 178 176 169 148 136 153 156 131 121 118 114 117 126 72 11 27 91 117 116 115 114 112 115 122 120 121 122 123 119 116 116 164 203 186 179 128 32 14 25 68 95 85 82 83 72 58 59 55 47 50 41 36 35 41 58 55 31 21 54 111 123 116 118 119 116 116 118 119 117 115 115 114 116 118 114 112 119 110 38 26 44 102 120 112 116 121 121 118 120 120 118 120 123 120 120 121 122 130 124 119 122 127 125 130 132 133 131 136 133 141 216 255 252 250 248 248 250 248 248 248 249 246 248 250 193 137 142 143 146 138 144 145 145 150 154 156 144 143 158 168 166 165 165 166 163 146 69 4 0 0 0 0 0 0 0 0 0 0 0 0 0 0 0 0 0 0 0 0 0 0 0 0 0 0 0 0 0 0 0 0 0 0 0 0 0 0 0 0 0 0 0 0 0 0 0 0 0 0 0 0 0 0 0 0 0 0 0 0 0 0 0 0 0 0 0 0 0 0 0 0 0 0 0 0 0 0 0 0 0 
0 0 0 0 0 0 0 0 0 0 0 0 0 10 74 133 175 200 204 205 204 203 199 193 190 212 229 213 184 152 122 112 112 110 110 109 107 106 106 105 105 103 99 100 99 99 96 94 93 92 91 88 85 82 76 74 70 68 65 63 59 63 76 68 70 86 101 128 94 9 0 0 0 0 0 0 0 0 0 0 2 48 78 80 88 91 91 92 95 98 99 104 106 108 110 119 120 116 118 127 128 132 129 130 144 137 142 149 141 148 155 160 170 175 175 163 166 178 173 159 160 164 168 178 182 183 186 174 180 174 173 177 166 146 136 159 151 124 121 119 114 117 126 73 11 29 94 120 122 122 121 120 116 111 97 85 77 79 73 65 56 55 47 36 34 31 27 25 27 18 8 8 12 8 8 4 11 18 20 31 20 26 38 33 27 35 37 38 63 108 122 118 119 119 117 116 121 119 116 116 118 115 115 115 115 114 115 111 42 23 41 99 120 115 117 119 118 119 120 118 116 119 120 118 120 123 120 122 125 128 126 123 124 127 125 125 126 130 124 128 197 254 246 243 247 248 246 248 250 247 249 250 245 250 216 140 142 142 140 143 144 144 144 147 148 156 154 156 154 157 164 164 157 164 168 152 104 11 0 0 0 0 0 0 0 0 0 0 0 0 0 0 0 0 0 0 0 0 0 0 0 0 0 0 0 0 0 0 0 0 0 0 0 0 0 0 0 0 0 0 0 0 0 0 0 0 0 0 0 0 0 0 0 0 0 0 0 0 0 0 0 0 0 0 0 0 0 0 0 0 0 0 0 0 0 0 0 0 0 
0 0 0 0 0 0 0 0 0 0 0 0 62 139 190 205 206 205 205 205 203 201 195 189 197 225 227 213 200 180 150 128 116 112 110 109 107 107 109 107 105 103 100 99 97 96 95 94 93 92 90 87 86 80 74 75 72 68 65 62 60 67 75 67 75 90 110 141 46 1 0 0 0 0 0 0 0 0 0 0 3 49 78 83 88 92 92 94 98 100 102 105 108 108 111 119 122 122 121 128 131 131 129 133 144 146 149 149 149 155 164 164 171 168 170 173 173 173 167 163 156 164 178 174 176 183 187 178 176 175 176 176 164 145 137 163 153 123 121 118 116 117 127 81 14 21 87 114 105 94 83 68 47 40 34 24 24 29 24 22 20 14 6 5 0 3 20 31 32 21 9 12 20 22 23 28 39 55 61 84 77 85 98 89 82 88 106 107 103 108 118 117 118 119 117 119 121 119 115 117 117 116 117 115 116 114 112 115 51 23 40 93 119 114 116 117 117 119 118 117 117 118 119 120 122 122 123 120 122 123 124 124 122 123 124 131 130 128 125 126 185 249 250 246 246 247 244 249 251 248 248 250 247 252 224 139 146 140 133 139 141 140 138 136 138 139 142 155 152 145 147 145 148 160 172 158 128 21 0 0 0 0 0 0 0 0 0 0 0 0 0 0 0 0 0 0 0 0 0 0 0 0 0 0 0 0 0 0 0 0 0 0 0 0 0 0 0 0 0 0 0 0 0 0 0 0 0 0 0 0 0 0 0 0 0 0 0 0 0 0 0 0 0 0 0 0 0 0 0 0 0 0 0 0 0 0 0 0 0 
0 0 0 0 0 0 0 0 0 0 19 113 189 207 207 206 206 205 205 204 202 200 193 191 210 235 226 215 204 183 162 143 131 119 111 109 109 110 109 107 105 103 100 98 98 97 95 95 92 91 87 86 83 79 75 74 70 67 66 64 63 72 71 72 83 94 125 109 17 0 0 0 0 0 0 0 0 0 0 0 3 49 83 86 90 94 96 97 98 101 104 107 110 112 117 122 127 124 123 126 132 135 138 138 144 148 156 153 155 162 169 173 178 177 176 172 173 171 167 171 173 177 175 168 177 183 184 183 177 178 178 174 167 151 142 159 149 124 122 117 117 116 125 90 23 15 47 52 38 31 23 17 14 14 8 5 7 12 12 17 30 32 19 28 44 47 29 26 22 54 126 155 162 167 176 190 182 118 115 120 123 124 122 119 124 124 122 122 118 113 116 117 118 118 116 120 118 115 117 117 117 116 116 115 115 114 110 119 69 24 38 81 116 114 115 115 116 116 116 116 118 118 118 120 118 120 120 125 125 122 126 127 124 127 126 129 127 130 134 126 165 242 250 245 246 245 246 247 248 249 246 248 250 251 242 141 126 130 125 128 139 142 142 145 153 155 157 161 173 173 176 190 180 169 166 157 142 52 1 0 0 0 0 0 0 0 0 0 0 0 0 0 0 0 0 0 0 0 0 0 0 0 0 0 0 0 0 0 0 0 0 0 0 0 0 0 0 0 0 0 0 0 0 0 0 0 0 0 0 0 0 0 0 0 0 0 0 0 0 0 0 0 0 0 0 0 0 0 0 0 0 0 0 0 0 0 0 0 0 
0 0 0 0 0 0 0 0 0 39 151 206 208 207 206 207 208 206 205 204 202 200 195 196 226 238 224 217 208 188 166 153 145 133 123 114 109 107 105 104 105 105 100 98 98 96 96 95 93 91 86 86 83 80 75 72 69 67 66 63 66 76 70 74 90 105 139 59 1 0 0 0 0 0 0 0 0 0 0 0 3 51 85 86 91 94 97 99 99 105 107 108 112 117 121 122 127 125 124 128 137 142 141 140 144 148 153 153 155 162 167 173 179 177 178 175 177 173 178 179 175 177 170 173 179 183 184 177 178 176 178 174 170 150 142 156 148 126 122 118 116 116 125 102 33 10 13 16 12 12 10 8 12 14 25 37 49 63 71 83 93 109 156 186 215 209 74 6 4 98 233 251 246 247 251 255 235 123 113 114 114 114 113 114 115 116 113 113 114 114 115 115 116 117 115 117 116 114 116 115 115 119 116 113 114 113 110 121 73 27 36 69 115 116 114 116 118 116 116 116 116 117 118 118 117 119 122 127 123 120 124 123 121 123 121 121 122 122 119 106 143 234 252 247 249 248 248 249 248 248 249 251 249 250 249 198 189 199 202 204 203 211 224 226 230 234 233 225 231 237 238 249 232 202 180 156 142 84 7 0 0 0 0 0 0 0 0 0 0 0 0 0 0 0 0 0 0 0 0 0 0 0 0 0 0 0 0 0 0 0 0 0 0 0 0 0 0 0 0 0 0 0 0 0 0 0 0 0 0 0 0 0 0 0 0 0 0 0 0 0 0 0 0 0 0 0 0 0 0 0 0 0 0 0 0 0 0 0 0 
0 0 0 0 0 0 0 0 55 182 221 209 206 207 207 208 208 208 207 204 202 200 195 205 237 237 225 218 208 192 176 164 153 143 134 126 118 110 102 99 100 101 102 100 97 96 95 92 91 90 86 86 82 78 74 72 69 68 66 64 69 74 72 79 92 122 122 22 0 0 0 0 0 0 0 0 0 0 0 0 3 52 85 87 92 94 97 99 103 104 107 111 114 119 122 122 122 128 125 131 137 142 143 143 146 149 152 155 160 164 165 170 172 171 178 184 180 178 186 187 178 178 175 178 179 182 187 179 180 179 179 177 173 148 137 160 155 124 120 118 116 116 125 105 36 10 17 28 41 59 75 79 81 91 103 111 114 119 121 123 116 136 225 251 248 255 161 14 0 132 244 246 238 237 239 247 236 131 108 112 112 113 115 115 114 114 115 113 113 114 113 114 115 115 115 114 113 115 115 113 113 116 115 113 114 113 112 120 79 29 33 62 114 117 113 115 115 113 114 115 114 115 114 112 110 108 111 110 111 112 115 117 120 124 123 131 139 141 146 160 199 240 252 249 248 247 247 245 246 248 248 249 247 250 249 248 250 251 252 252 249 250 255 255 255 255 255 253 251 252 255 255 245 233 212 162 144 110 13 0 0 0 0 0 0 0 0 0 0 0 0 0 0 0 0 0 0 0 0 0 0 0 0 0 0 0 0 0 0 0 0 0 0 0 0 0 0 0 0 0 0 0 0 0 0 0 0 0 0 0 0 0 0 0 0 0 0 0 0 0 0 0 0 0 0 0 0 0 0 0 0 0 0 0 0 0 0 0 0 
0 0 0 0 0 0 0 51 192 234 218 207 206 208 209 208 207 207 206 204 202 200 193 216 241 234 225 218 207 194 181 170 161 153 144 131 122 118 114 111 102 97 95 97 97 97 95 93 91 89 87 83 81 77 75 71 70 67 66 67 72 71 72 87 104 137 80 5 0 0 0 0 0 0 0 0 0 0 0 0 4 54 87 91 94 97 98 99 105 108 109 112 117 122 123 119 123 130 131 137 130 136 144 147 149 150 155 154 160 163 161 164 169 173 177 183 179 178 182 186 186 183 179 183 184 185 184 180 177 180 180 177 170 148 138 155 148 125 120 117 115 114 116 118 89 75 97 107 113 120 122 120 119 117 120 117 114 115 116 114 109 120 207 253 232 238 235 172 159 219 238 238 234 237 237 243 234 139 109 112 112 112 116 116 112 112 114 113 115 115 114 114 114 114 115 114 114 114 114 111 109 110 109 109 109 106 106 110 88 27 30 62 103 105 102 106 109 110 114 112 111 118 130 131 134 149 162 171 178 186 194 203 205 203 205 198 213 229 231 242 249 249 247 248 248 247 247 246 248 248 248 249 249 250 250 253 252 251 253 253 252 249 252 253 253 252 252 252 250 251 254 254 248 250 231 175 150 129 31 0 0 0 0 0 0 0 0 0 0 0 0 0 0 0 0 0 0 0 0 0 0 0 0 0 0 0 0 0 0 0 0 0 0 0 0 0 0 0 0 0 0 0 0 0 0 0 0 0 0 0 0 0 0 0 0 0 0 0 0 0 0 0 0 0 0 0 0 0 0 0 0 0 0 0 0 0 0 0 0 
0 0 0 0 0 0 33 183 238 231 218 208 206 209 209 208 208 207 205 204 204 198 201 227 240 233 226 218 207 194 182 175 168 160 147 132 123 120 118 116 115 111 105 99 94 90 89 87 87 87 87 83 79 77 72 71 69 68 67 69 72 70 79 93 118 125 36 0 0 0 0 0 0 0 0 0 0 0 0 0 4 57 89 91 97 98 98 103 107 109 111 114 118 124 126 126 124 119 130 136 125 127 142 148 148 150 152 151 157 163 160 163 171 178 186 184 181 174 178 185 185 185 182 187 187 185 185 183 177 176 181 178 168 149 139 159 150 124 119 118 114 114 114 120 125 121 121 118 114 114 114 114 115 112 114 116 112 113 113 113 109 112 192 254 243 236 235 243 247 243 238 239 239 235 240 244 234 147 113 118 116 115 116 115 112 111 112 112 113 110 110 111 109 109 109 107 105 103 101 99 104 110 106 109 110 112 118 128 109 28 25 68 152 168 170 182 175 177 203 198 171 174 191 197 222 245 241 244 245 247 251 250 247 244 248 244 246 249 246 246 248 246 246 248 248 245 248 250 248 248 249 249 246 248 248 250 252 251 250 252 253 251 248 250 251 252 251 249 251 253 252 252 252 254 252 193 142 137 61 4 0 0 0 0 0 0 0 0 0 0 0 0 0 0 0 0 0 0 0 0 0 0 0 0 0 0 0 0 0 0 0 0 0 0 0 0 0 0 0 0 0 0 0 0 0 0 0 0 0 0 0 0 0 0 0 0 0 0 0 0 0 0 0 0 0 0 0 0 0 0 0 0 0 0 0 0 0 0 0 
0 0 0 0 0 17 144 234 232 228 219 209 208 210 208 208 208 206 205 203 206 202 213 233 237 231 225 216 206 197 188 177 170 158 143 132 127 124 120 118 116 115 114 111 107 103 96 90 84 81 78 77 76 75 72 71 68 66 65 70 67 72 87 102 127 61 4 0 0 0 0 0 0 0 0 0 0 0 0 0 4 57 90 92 98 99 99 104 107 110 112 116 120 123 126 128 127 121 124 135 133 134 141 148 147 149 153 156 162 164 161 166 177 186 192 184 173 174 182 184 183 181 187 186 183 183 185 183 181 173 179 180 171 149 138 160 148 121 120 118 115 115 117 114 114 116 114 116 114 113 114 112 114 112 111 115 115 114 114 115 113 109 164 247 252 238 239 243 238 236 236 237 233 234 240 238 246 175 109 117 113 108 111 108 111 110 105 108 109 113 118 121 124 128 138 144 151 160 163 169 182 192 193 194 204 205 213 227 183 29 15 68 228 250 247 250 230 225 249 252 231 217 211 219 246 252 249 249 244 247 250 250 249 251 251 249 248 248 240 242 248 246 245 244 245 247 248 248 247 247 249 250 251 250 250 251 253 251 249 250 252 251 248 246 248 251 252 250 249 250 250 250 252 252 254 205 147 141 95 7 0 0 0 0 0 0 0 0 0 0 0 0 0 0 0 0 0 0 0 0 0 0 0 0 0 0 0 0 0 0 0 0 0 0 0 0 0 0 0 0 0 0 0 0 0 0 0 0 0 0 0 0 0 0 0 0 0 0 0 0 0 0 0 0 0 0 0 0 0 0 0 0 0 0 0 0 0 0 0 
0 0 0 0 7 98 223 232 233 228 216 213 211 208 208 208 207 206 204 202 206 209 226 240 234 227 223 214 201 193 186 177 165 149 136 131 129 126 123 121 117 115 113 112 112 113 111 108 104 100 95 90 84 78 77 76 75 72 73 78 80 85 86 82 45 6 0 0 0 0 0 0 0 0 0 0 0 0 0 0 5 60 93 95 99 102 103 104 108 112 112 115 123 123 127 128 122 130 125 134 142 139 141 149 149 150 158 160 160 163 163 163 170 180 186 185 183 180 179 182 182 185 187 183 183 179 183 182 176 173 177 180 173 148 137 160 152 124 119 118 115 114 115 117 118 116 114 113 114 113 113 114 115 111 113 113 113 112 113 113 112 106 142 232 246 230 235 237 238 234 234 238 236 235 241 240 249 202 142 152 154 156 159 169 172 169 181 191 195 206 216 217 209 213 225 230 243 246 245 249 245 246 251 250 250 248 250 251 213 36 10 49 215 255 246 243 241 246 248 248 243 248 236 238 246 244 246 250 248 249 246 247 243 246 249 245 245 244 239 246 251 243 240 248 248 248 247 250 250 248 248 248 252 250 252 249 250 248 246 250 247 250 248 250 250 250 250 250 250 250 250 251 252 255 250 208 162 148 115 18 0 0 0 0 0 0 0 0 0 0 0 0 0 0 0 0 0 0 0 0 0 0 0 0 0 0 0 0 0 0 0 0 0 0 0 0 0 0 0 0 0 0 0 0 0 0 0 0 0 0 0 0 0 0 0 0 0 0 0 0 0 0 0 0 0 0 0 0 0 0 0 0 0 0 0 0 0 0 0 
0 0 0 0 49 208 225 230 233 229 220 216 210 208 209 209 209 206 204 201 205 218 234 239 233 227 220 209 196 190 186 171 152 140 133 132 130 127 124 121 119 115 114 113 111 112 112 110 111 112 111 108 105 95 90 98 108 116 74 28 15 17 17 6 1 0 0 0 0 0 0 0 0 0 0 0 0 0 0 0 5 61 91 96 99 102 104 107 112 115 113 112 119 123 127 129 124 132 129 134 144 149 145 138 150 154 163 165 165 167 160 161 166 173 180 182 182 184 183 179 176 185 189 186 183 182 182 178 174 173 172 173 174 151 137 159 150 125 118 116 114 115 114 114 117 118 115 113 110 107 109 110 110 106 107 108 105 106 109 110 114 117 156 228 240 232 232 232 233 242 242 232 236 236 240 240 245 235 234 238 237 238 241 239 228 225 240 244 250 250 245 246 243 248 250 244 244 244 245 246 248 246 247 245 246 243 240 247 225 55 11 40 192 255 248 243 246 247 248 248 244 245 245 245 247 247 243 249 250 245 246 248 243 243 243 248 245 246 244 244 246 245 244 248 248 247 246 246 248 248 248 249 248 248 246 247 249 248 250 250 248 250 250 250 250 249 249 249 251 250 249 250 250 252 255 230 175 150 130 47 1 0 0 0 0 0 0 0 0 0 0 0 0 0 0 0 0 0 0 0 0 0 0 0 0 0 0 0 0 0 0 0 0 0 0 0 0 0 0 0 0 0 0 0 0 0 0 0 0 0 0 0 0 0 0 0 0 0 0 0 0 0 0 0 0 0 0 0 0 0 0 0 0 0 0 0 0 0 0 
0 0 0 15 149 218 220 227 229 230 223 216 209 209 209 209 208 208 205 202 204 222 235 236 231 226 217 204 196 195 179 158 143 136 133 132 131 128 125 123 120 117 115 113 112 112 113 110 110 110 108 109 106 98 98 109 126 127 20 0 0 0 0 0 0 0 0 0 0 0 0 0 0 0 0 0 0 0 0 0 5 60 92 96 101 104 105 107 112 113 113 113 120 126 129 129 135 137 131 137 146 149 144 146 157 159 161 163 167 167 160 161 168 174 179 186 180 181 189 184 177 184 190 183 181 187 182 178 172 171 166 173 174 149 140 166 151 122 116 116 115 114 111 111 112 112 110 111 116 116 119 129 132 139 145 143 146 152 162 176 183 201 219 237 233 240 239 231 233 244 242 236 236 239 237 240 241 241 246 249 243 243 240 243 246 242 240 243 246 243 240 243 244 245 245 242 248 248 246 246 246 246 247 247 246 242 244 246 233 75 9 35 171 255 251 249 245 243 246 249 247 248 250 247 248 247 243 244 245 247 247 249 248 241 242 248 244 245 243 240 244 248 247 247 245 248 250 247 247 246 248 248 247 249 249 248 250 249 250 249 248 252 250 251 250 251 250 247 247 247 247 252 251 243 250 255 198 155 141 77 3 0 0 0 0 0 0 0 0 0 0 0 0 0 0 0 0 0 0 0 0 0 0 0 0 0 0 0 0 0 0 0 0 0 0 0 0 0 0 0 0 0 0 0 0 0 0 0 0 0 0 0 0 0 0 0 0 0 0 0 0 0 0 0 0 0 0 0 0 0 0 0 0 0 0 0 0 0 0 
0 0 3 72 213 216 220 226 233 237 227 217 211 210 209 207 207 206 205 204 201 214 232 233 228 223 213 200 198 186 158 143 140 136 134 132 129 128 126 123 121 120 117 115 113 112 112 111 111 108 111 109 106 100 101 118 135 92 0 0 0 0 0 0 0 0 0 0 0 0 0 0 0 0 0 0 0 0 0 0 6 63 93 98 102 106 106 110 113 111 113 118 122 130 130 129 138 136 133 139 140 149 151 151 155 154 159 159 171 174 164 165 165 174 183 181 177 183 189 186 180 183 187 181 181 189 184 170 172 172 178 176 168 147 137 157 144 120 118 117 114 115 127 145 157 165 171 185 205 206 210 223 229 233 234 230 232 230 227 240 236 240 239 233 233 243 239 236 236 237 241 242 238 238 236 243 241 245 240 241 243 242 237 244 244 243 240 236 239 247 244 244 245 246 249 245 245 244 244 246 245 246 247 244 239 245 249 242 238 99 7 27 140 255 250 247 241 242 247 242 241 241 243 243 246 247 244 242 247 247 243 241 243 245 246 244 247 244 242 243 246 247 245 248 248 249 251 248 247 249 248 248 248 250 250 250 250 250 250 248 248 250 252 250 249 248 248 250 250 250 248 247 250 252 252 255 223 155 145 94 9 0 0 0 0 0 0 0 0 0 0 0 0 0 0 0 0 0 0 0 0 0 0 0 0 0 0 0 0 0 0 0 0 0 0 0 0 0 0 0 0 0 0 0 0 0 0 0 0 0 0 0 0 0 0 0 0 0 0 0 0 0 0 0 0 0 0 0 0 0 0 0 0 0 0 0 0 0 0 
0 0 18 161 214 215 219 227 236 236 226 219 212 209 209 209 209 206 204 203 200 202 220 228 223 217 209 197 185 157 145 143 138 135 134 132 130 128 127 124 121 121 117 116 115 113 112 111 111 108 112 112 108 102 107 125 130 49 0 0 0 0 0 0 0 0 0 0 0 0 0 0 0 0 0 0 0 0 0 0 6 64 93 101 105 107 107 112 117 116 120 126 127 131 130 132 141 141 133 138 145 153 152 153 151 160 165 164 170 170 164 165 171 179 182 181 189 192 188 184 178 183 188 183 179 191 186 167 169 173 178 172 161 151 142 154 149 123 118 116 109 126 176 215 231 234 235 237 242 239 248 243 239 236 239 242 240 234 236 238 237 242 237 235 235 237 237 240 238 240 236 232 235 237 237 241 246 242 236 236 247 242 244 246 243 242 239 240 242 246 247 245 245 249 251 240 244 250 243 244 241 241 247 241 240 247 248 244 241 129 12 29 115 251 247 244 239 243 244 242 241 238 240 243 244 245 245 243 246 246 245 248 247 244 245 246 246 241 244 247 248 249 247 247 247 248 248 249 249 248 248 249 250 249 248 248 249 248 249 248 250 250 251 249 246 246 250 249 247 249 250 249 247 251 254 255 251 173 146 128 33 0 0 0 0 0 0 0 0 0 0 0 0 0 0 0 0 0 0 0 0 0 0 0 0 0 0 0 0 0 0 0 0 0 0 0 0 0 0 0 0 0 0 0 0 0 0 0 0 0 0 0 0 0 0 0 0 0 0 0 0 0 0 0 0 0 0 0 0 0 0 0 0 0 0 0 0 0 0 
0 2 72 207 209 214 220 228 234 232 226 216 210 209 209 209 209 207 204 203 203 200 205 218 219 209 196 178 166 152 144 138 134 133 131 129 127 127 126 123 121 120 118 118 116 115 114 113 112 112 111 112 108 102 113 133 118 17 0 0 0 0 0 0 0 0 0 0 0 0 0 0 0 0 0 0 0 0 0 0 6 63 96 105 111 110 108 114 119 123 124 130 133 134 133 133 139 143 143 147 148 150 156 155 157 164 165 162 170 174 168 170 176 182 179 178 186 190 183 178 182 186 190 189 184 187 183 169 167 171 171 170 163 153 146 161 148 121 115 115 109 130 194 226 234 242 235 233 233 238 244 236 232 237 238 238 235 232 236 236 227 236 239 232 233 236 237 240 237 236 235 230 242 246 238 236 242 239 238 241 243 239 242 242 243 245 239 242 249 247 245 248 247 243 247 244 241 244 247 243 236 237 245 244 240 239 240 246 248 155 16 27 90 241 250 243 240 244 242 241 242 241 241 239 241 242 247 247 244 243 248 248 246 242 241 244 245 245 246 249 247 249 246 246 248 248 245 247 249 249 247 248 250 249 250 249 248 248 248 249 249 250 249 249 249 249 249 247 245 249 250 250 250 251 253 254 255 194 145 143 59 1 0 0 0 0 0 0 0 0 0 0 0 0 0 0 0 0 0 0 0 0 0 0 0 0 0 0 0 0 0 0 0 0 0 0 0 0 0 0 0 0 0 0 0 0 0 0 0 0 0 0 0 0 0 0 0 0 0 0 0 0 0 0 0 0 0 0 0 0 0 0 0 0 0 0 0 0 0 
0 12 143 210 209 214 218 227 233 237 232 217 211 210 209 209 208 206 206 203 203 203 200 203 212 206 187 173 159 147 137 133 133 130 129 128 127 125 123 122 120 120 120 118 117 115 115 113 113 112 112 112 108 104 119 142 132 22 0 0 0 0 0 0 0 0 0 0 0 0 0 0 0 0 0 0 0 0 0 0 6 64 99 108 112 111 110 118 123 122 124 130 135 137 137 139 141 146 147 149 148 149 157 156 161 163 165 167 168 174 179 178 174 174 175 177 186 187 181 179 188 186 187 189 179 178 178 165 169 173 171 171 165 151 143 131 114 114 116 115 107 132 198 226 229 236 235 238 237 234 238 236 232 240 238 236 231 229 228 238 234 235 238 240 232 234 238 239 240 236 236 235 237 247 245 238 238 241 240 243 243 238 238 244 241 237 245 236 240 245 244 245 246 241 243 247 246 243 248 245 239 243 249 245 243 245 247 246 247 178 18 19 73 233 253 244 240 244 246 240 241 243 242 244 248 246 245 247 246 245 248 246 247 244 241 244 244 244 250 249 247 248 249 249 250 248 248 249 248 249 248 247 250 250 248 248 250 250 250 250 251 249 250 252 250 249 247 249 249 249 250 249 248 250 252 254 255 219 148 142 91 6 0 0 0 0 0 0 0 0 0 0 0 0 0 0 0 0 0 0 0 0 0 0 0 0 0 0 0 0 0 0 0 0 0 0 0 0 0 0 0 0 0 0 0 0 0 0 0 0 0 0 0 0 0 0 0 0 0 0 0 0 0 0 0 0 0 0 0 0 0 0 0 0 0 0 0 0 0 
1 47 197 209 208 213 219 227 234 237 232 220 211 210 210 209 208 206 206 205 204 204 204 200 202 200 193 183 155 152 152 149 146 144 140 136 134 130 124 121 120 119 118 117 116 116 115 114 113 113 113 116 109 106 125 151 156 57 0 0 0 0 0 0 0 0 0 0 0 0 0 0 0 0 0 0 0 0 0 0 6 67 98 105 112 112 108 116 125 125 125 128 133 137 138 144 145 146 152 160 157 158 161 158 163 166 174 172 166 173 177 174 172 174 182 183 184 185 184 180 186 189 187 188 181 178 181 171 159 166 167 169 170 147 124 116 121 120 115 114 107 131 196 234 235 231 234 236 235 232 236 237 228 232 238 233 228 232 235 234 236 235 236 241 233 238 241 234 236 242 242 237 234 239 242 242 239 236 238 239 242 241 242 247 240 235 245 238 236 242 240 239 243 245 249 244 244 249 244 244 244 247 243 245 243 245 245 245 250 200 31 16 60 220 254 241 241 246 242 236 246 247 240 243 249 247 246 247 246 244 244 246 246 246 245 242 243 246 244 244 246 249 249 249 250 248 248 249 250 250 247 250 249 248 249 250 247 248 250 248 250 249 249 252 250 250 250 249 250 249 248 250 251 251 254 254 255 240 162 140 119 17 0 0 0 0 0 0 0 0 0 0 0 0 0 0 0 0 0 0 0 0 0 0 0 0 0 0 0 0 0 0 0 0 0 0 0 0 0 0 0 0 0 0 0 0 0 0 0 0 0 0 0 0 0 0 0 0 0 0 0 0 0 0 0 0 0 0 0 0 0 0 0 0 0 0 0 0 0 
3 100 211 204 205 212 220 227 233 234 231 221 210 209 209 209 208 208 208 206 205 205 204 203 199 194 189 188 186 185 185 179 172 169 163 157 150 144 136 130 127 122 119 117 115 115 114 113 114 113 114 116 110 109 132 159 163 86 0 0 0 0 0 0 0 0 0 0 0 0 0 0 0 0 0 0 0 0 0 0 6 67 98 106 114 114 112 117 124 130 130 134 135 136 141 144 147 149 151 165 160 160 160 160 166 167 172 177 170 171 174 174 176 178 186 188 184 186 185 183 187 191 190 184 182 183 183 179 164 165 171 170 159 135 126 139 144 132 121 113 107 129 182 223 235 235 232 230 230 235 238 236 236 240 237 233 229 229 239 234 236 237 240 236 232 239 240 234 235 238 239 236 239 237 235 241 243 240 237 240 239 236 240 242 243 240 244 245 243 248 247 244 245 243 248 243 241 248 248 241 241 247 242 240 241 246 241 240 250 217 47 11 44 194 255 240 240 245 240 238 245 244 241 241 244 247 247 244 243 246 239 238 246 243 247 248 244 250 243 247 250 248 246 247 249 249 248 248 249 250 250 250 250 248 251 249 248 248 250 250 251 249 250 250 249 250 249 248 250 251 249 251 252 251 252 254 255 252 182 139 138 41 0 0 0 0 0 0 0 0 0 0 0 0 0 0 0 0 0 0 0 0 0 0 0 0 0 0 0 0 0 0 0 0 0 0 0 0 0 0 0 0 0 0 0 0 0 0 0 0 0 0 0 0 0 0 0 0 0 0 0 0 0 0 0 0 0 0 0 0 0 0 0 0 0 0 0 0 0 
16 155 207 202 205 211 221 228 233 235 233 222 210 209 209 209 208 208 208 208 206 204 205 204 201 195 194 195 196 193 189 189 186 181 177 171 164 158 148 142 134 130 124 121 117 114 112 114 113 114 114 114 110 116 142 159 162 110 3 0 0 0 0 0 0 0 0 0 0 0 0 0 0 0 0 0 0 0 0 0 7 70 99 108 113 115 114 119 131 132 128 135 138 142 148 147 152 153 150 160 156 159 156 162 168 166 169 174 179 174 174 175 176 176 183 188 182 183 184 186 185 189 191 183 183 180 179 182 175 167 174 172 149 136 145 151 142 137 130 116 107 131 190 226 233 232 234 233 234 238 236 239 239 239 235 232 238 228 234 241 239 237 236 234 238 236 232 235 236 234 232 238 240 238 237 244 244 241 245 238 241 245 238 234 234 242 241 241 242 246 245 242 246 243 242 247 243 243 248 245 241 242 241 241 241 242 243 244 248 227 64 8 37 168 255 246 244 241 243 248 246 241 243 244 243 247 247 244 242 246 240 245 246 247 242 245 244 245 245 244 245 245 249 249 249 249 250 249 250 250 251 250 249 251 249 250 251 251 251 250 249 250 250 248 248 249 248 250 250 250 251 251 251 252 252 252 254 255 211 140 138 74 1 0 0 0 0 0 0 0 0 0 0 0 0 0 0 0 0 0 0 0 0 0 0 0 0 0 0 0 0 0 0 0 0 0 0 0 0 0 0 0 0 0 0 0 0 0 0 0 0 0 0 0 0 0 0 0 0 0 0 0 0 0 0 0 0 0 0 0 0 0 0 0 0 0 0 0 0 
43 193 204 203 205 211 219 226 233 237 234 223 212 210 209 209 209 208 208 208 206 205 205 204 202 198 197 194 195 194 192 190 189 188 185 179 173 168 161 153 145 137 130 123 119 116 112 113 111 114 114 114 109 120 151 152 159 127 8 0 0 0 0 0 0 0 0 0 0 0 0 0 0 0 0 0 0 0 0 0 6 70 102 111 115 116 115 122 125 127 125 134 141 143 151 152 155 156 153 157 160 160 164 162 168 169 169 177 181 174 174 178 178 174 178 185 182 179 178 187 191 190 188 183 181 184 180 179 175 166 171 170 151 140 154 159 151 145 129 117 107 137 209 234 234 233 232 233 236 232 237 239 243 236 232 236 236 232 235 239 234 236 233 233 242 236 233 238 242 237 234 235 236 239 238 243 243 243 246 240 245 247 241 239 235 239 241 239 238 245 248 246 245 244 240 241 244 246 247 247 244 239 246 247 243 240 244 245 250 236 88 6 35 152 255 249 248 243 241 241 245 245 241 242 243 248 244 245 244 245 246 249 244 250 248 244 246 243 247 249 245 243 249 249 248 248 246 247 250 250 248 250 249 250 250 252 248 250 250 250 249 250 251 249 248 250 249 250 250 249 251 251 251 252 252 252 253 255 234 149 135 100 1 0 0 0 0 0 0 0 0 0 0 0 0 0 0 0 0 0 0 0 0 0 0 0 0 0 0 0 0 0 0 0 0 0 0 0 0 0 0 0 0 0 0 0 0 0 0 0 0 0 0 0 0 0 0 0 0 0 0 0 0 0 0 0 0 0 0 0 0 0 0 0 0 0 0 0 0 
83 205 203 205 207 211 217 227 232 238 236 221 211 209 209 209 209 209 208 208 206 206 206 205 202 200 197 195 195 195 193 192 191 189 188 185 182 177 171 164 157 150 143 132 125 118 114 114 112 110 111 113 108 127 153 141 159 135 13 0 0 0 0 0 0 0 0 0 0 0 0 0 0 0 0 0 0 0 0 0 6 68 102 110 117 118 117 122 119 127 129 134 147 149 151 153 152 153 153 159 165 163 168 160 166 173 174 174 183 183 172 176 183 172 174 182 185 182 184 191 190 182 181 183 182 186 183 177 179 173 167 167 155 146 160 168 167 148 123 116 107 137 215 237 234 232 236 237 236 233 236 236 244 240 231 236 243 236 237 238 236 233 235 233 240 243 241 239 236 240 242 236 236 243 239 238 237 243 238 240 247 249 243 243 245 239 237 241 242 246 249 247 245 241 243 247 245 246 242 247 246 241 241 244 243 247 244 241 250 244 115 6 32 139 255 252 250 243 243 243 245 246 245 246 245 248 248 246 244 244 242 247 247 249 248 250 250 246 245 249 249 249 250 250 250 249 246 247 249 250 250 249 250 248 250 251 249 249 250 250 249 250 251 251 252 250 249 250 252 252 250 250 250 250 252 252 253 254 245 168 129 114 7 0 0 0 0 0 0 0 0 0 0 0 0 0 0 0 0 0 0 0 0 0 0 0 0 0 0 0 0 0 0 0 0 0 0 0 0 0 0 0 0 0 0 0 0 0 0 0 0 0 0 0 0 0 0 0 0 0 0 0 0 0 0 0 0 0 0 0 0 0 0 0 0 0 0 0 0 
125 204 203 205 208 211 217 227 234 240 237 223 212 210 210 209 209 209 208 208 207 206 206 205 203 200 197 195 194 194 194 192 191 189 188 187 187 184 179 173 166 161 152 144 137 128 120 117 111 103 103 102 105 135 147 131 158 143 23 0 0 0 0 0 0 0 0 0 0 0 0 0 0 0 0 0 0 0 0 0 7 69 103 109 118 117 117 126 125 125 132 136 144 150 153 154 153 153 155 163 173 166 163 161 165 172 176 172 181 185 177 176 178 171 171 176 183 187 188 191 186 178 182 184 184 188 188 179 177 179 169 168 163 158 166 171 172 152 129 117 107 142 218 238 233 229 239 235 235 235 232 235 238 239 236 236 244 240 237 237 236 235 237 243 240 240 242 238 234 238 239 240 241 245 241 238 236 243 236 236 246 246 245 238 242 244 242 241 242 243 245 242 246 245 240 245 240 247 245 243 246 244 236 242 242 246 247 245 247 246 135 8 22 108 253 254 248 245 247 247 248 246 246 247 243 247 250 246 246 246 244 247 250 241 240 250 247 247 246 248 248 250 250 250 251 250 249 248 248 250 250 250 250 248 249 250 251 249 249 250 249 250 250 250 252 249 249 251 255 254 254 255 253 251 255 255 255 255 254 187 126 123 24 0 0 0 0 0 0 0 0 0 0 0 0 0 0 0 0 0 0 0 0 0 0 0 0 0 0 0 0 0 0 0 0 0 0 0 0 0 0 0 0 0 0 0 0 0 0 0 0 0 0 0 0 0 0 0 0 0 0 0 0 0 0 0 0 0 0 0 0 0 0 0 0 0 0 0 0 
158 203 204 204 206 211 217 227 235 240 237 226 213 209 210 209 210 209 208 208 207 207 205 206 203 200 199 196 196 195 194 193 192 190 189 189 187 186 184 180 175 169 163 155 147 141 132 123 114 106 103 87 84 127 144 134 152 148 35 0 0 0 0 0 0 0 0 0 0 0 0 0 0 0 0 0 0 0 0 0 7 72 105 111 118 115 117 127 126 126 134 137 139 148 156 155 154 159 158 164 174 169 160 161 162 168 179 178 177 180 183 176 174 174 171 174 183 187 186 184 183 183 185 184 183 179 183 177 170 178 178 173 167 165 180 177 178 172 139 113 106 145 215 234 232 231 236 235 230 233 233 239 234 234 239 237 237 239 235 238 237 238 241 244 236 239 243 235 236 242 241 238 242 244 240 239 242 244 240 241 245 238 243 238 238 243 245 245 244 240 240 242 244 247 244 244 242 246 247 245 247 243 240 244 245 247 245 242 248 250 163 15 15 87 242 255 246 245 248 249 249 249 247 246 247 247 250 249 248 249 249 244 244 240 240 250 247 243 248 248 249 250 250 250 248 247 250 252 250 250 252 250 252 253 251 253 254 253 254 255 255 255 255 255 255 255 255 251 239 248 254 249 249 248 246 244 240 245 247 187 131 128 39 0 0 0 0 0 0 0 0 0 0 0 0 0 0 0 0 0 0 0 0 0 0 0 0 0 0 0 0 0 0 0 0 0 0 0 0 0 0 0 0 0 0 0 0 0 0 0 0 0 0 0 0 0 0 0 0 0 0 0 0 0 0 0 0 0 0 0 0 0 0 0 0 0 0 0 0 
175 201 203 206 207 210 216 225 236 242 239 226 213 210 209 210 209 209 208 208 207 206 205 206 205 200 198 195 195 194 194 194 193 191 190 188 187 186 184 182 181 176 172 165 157 149 143 134 126 123 129 101 71 112 143 136 150 151 46 0 0 0 0 0 0 0 0 0 0 0 0 0 0 0 0 0 0 0 0 0 7 74 105 113 119 119 120 127 124 127 135 138 143 148 152 151 152 162 161 160 167 172 162 159 162 164 174 178 175 178 187 179 170 173 178 184 188 189 187 182 182 183 184 185 184 175 176 175 172 171 176 177 165 155 178 184 188 167 125 110 105 152 216 232 231 234 237 234 228 238 234 233 235 235 237 236 237 238 234 237 239 236 236 242 238 238 242 242 238 241 243 241 239 238 236 238 242 244 247 244 238 239 242 238 240 245 245 246 242 236 241 246 242 242 248 247 246 244 248 248 247 242 244 243 250 251 246 240 250 252 189 25 8 67 224 255 243 244 248 250 247 247 247 242 247 243 248 248 241 244 250 244 245 248 250 250 251 248 249 250 250 251 252 252 253 255 255 255 255 255 255 255 255 255 255 254 252 250 249 245 243 240 238 236 231 225 226 208 174 189 204 191 186 187 179 175 168 174 183 155 139 130 55 0 0 0 0 0 0 0 0 0 0 0 0 0 0 0 0 0 0 0 0 0 0 0 0 0 0 0 0 0 0 0 0 0 0 0 0 0 0 0 0 0 0 0 0 0 0 0 0 0 0 0 0 0 0 0 0 0 0 0 0 0 0 0 0 0 0 0 0 0 0 0 0 0 0 0 0 
182 201 204 205 207 210 216 224 234 242 242 229 214 209 209 209 209 208 208 207 208 207 206 204 205 201 197 195 194 194 194 194 193 191 189 188 187 186 184 182 181 179 176 172 165 159 150 143 137 148 166 163 111 117 139 136 149 154 58 0 0 0 0 0 0 0 0 0 0 0 0 0 0 0 0 0 0 0 0 0 8 73 105 113 116 117 120 128 125 129 137 140 147 153 156 154 152 158 163 166 170 174 164 159 167 164 166 170 170 177 191 186 173 172 182 187 191 190 190 185 182 182 178 185 185 172 171 175 173 168 173 177 163 147 156 169 164 130 114 112 105 156 223 232 235 235 234 236 235 237 234 229 233 239 240 238 243 246 239 237 243 238 233 241 247 236 236 243 239 238 239 243 241 236 240 241 238 243 246 243 234 242 247 239 243 242 238 243 242 237 246 247 239 243 246 244 245 246 247 247 247 242 245 243 251 247 244 244 247 253 206 37 3 50 204 255 242 246 243 245 248 248 244 242 248 245 248 249 248 241 250 255 255 255 255 255 255 255 255 255 254 254 254 253 246 240 237 234 233 230 223 218 212 208 204 193 191 183 179 178 170 169 161 158 155 150 156 151 141 142 149 147 139 136 131 134 139 130 130 141 143 132 77 0 0 0 0 0 0 0 0 0 0 0 0 0 0 0 0 0 0 0 0 0 0 0 0 0 0 0 0 0 0 0 0 0 0 0 0 0 0 0 0 0 0 0 0 0 0 0 0 0 0 0 0 0 0 0 0 0 0 0 0 0 0 0 0 0 0 0 0 0 0 0 0 0 0 0 0 
184 201 203 206 209 213 217 223 233 240 242 231 214 208 209 210 208 208 208 207 206 207 205 205 205 203 199 195 194 194 194 193 192 190 189 187 187 185 184 182 182 180 177 174 170 165 158 149 149 162 174 193 171 137 137 138 150 156 69 0 0 0 0 0 0 0 0 0 0 0 0 0 0 0 0 0 0 0 0 0 7 73 106 112 115 115 118 127 125 134 139 138 141 150 153 153 152 157 163 171 167 166 161 159 165 170 171 167 176 179 179 185 183 184 188 184 187 189 190 188 184 179 173 180 184 172 169 175 173 174 174 172 163 147 151 159 145 123 116 111 106 151 221 236 237 236 232 237 237 233 232 229 232 238 243 237 239 244 241 241 244 241 240 239 245 241 235 236 235 237 239 240 239 241 247 247 241 241 241 243 241 245 248 240 241 240 236 237 242 246 247 245 240 240 243 246 244 244 244 247 248 243 245 242 247 241 239 244 248 255 224 59 0 39 187 255 250 254 252 253 255 255 255 254 254 254 254 252 253 222 226 236 229 234 230 230 223 215 212 208 201 195 189 180 168 159 154 150 147 141 138 138 132 128 134 127 130 130 132 135 132 138 137 138 136 144 147 149 153 148 146 155 156 145 147 153 152 147 140 144 143 133 89 0 0 0 0 0 0 0 0 0 0 0 0 0 0 0 0 0 0 0 0 0 0 0 0 0 0 0 0 0 0 0 0 0 0 0 0 0 0 0 0 0 0 0 0 0 0 0 0 0 0 0 0 0 0 0 0 0 0 0 0 0 0 0 0 0 0 0 0 0 0 0 0 0 0 0 0 
182 202 203 207 210 214 215 223 233 239 241 230 214 209 210 209 207 208 207 206 206 206 205 205 205 203 199 196 194 194 192 192 190 189 189 186 186 185 184 182 181 180 177 175 172 168 162 155 156 169 180 184 198 165 143 143 150 159 79 0 0 0 0 0 0 0 0 0 0 0 0 0 0 0 0 0 0 0 0 0 8 75 108 113 116 118 121 127 124 131 136 141 141 145 149 149 149 152 161 168 163 167 161 158 165 179 178 170 185 183 168 184 189 191 191 188 187 188 189 184 181 182 176 176 177 170 165 172 177 181 179 175 160 146 148 157 150 132 117 111 106 155 223 236 235 237 234 233 230 232 234 230 236 236 242 236 239 244 236 241 244 243 238 236 239 243 237 234 235 240 243 242 240 242 241 244 239 242 243 239 245 245 243 243 241 240 240 238 241 242 242 243 243 241 242 243 240 238 244 252 249 248 250 249 253 248 253 255 255 255 244 93 0 25 167 255 252 245 243 240 218 216 221 216 207 202 194 184 175 149 148 148 139 143 138 138 131 126 126 126 123 119 118 117 119 117 121 123 119 120 124 128 128 130 136 136 136 139 143 146 143 144 147 151 148 150 154 149 150 153 149 150 150 146 143 146 148 148 146 143 141 133 101 0 0 0 0 0 0 0 0 0 0 0 0 0 0 0 0 0 0 0 0 0 0 0 0 0 0 0 0 0 0 0 0 0 0 0 0 0 0 0 0 0 0 0 0 0 0 0 0 0 0 0 0 0 0 0 0 0 0 0 0 0 0 0 0 0 0 0 0 0 0 0 0 0 0 0 0 
179 202 205 207 211 211 212 223 233 239 238 228 216 210 208 208 208 208 207 206 206 205 205 205 203 201 198 193 190 190 189 189 189 188 187 186 184 184 184 181 181 180 178 175 172 169 164 159 165 176 194 191 191 173 149 149 152 162 89 0 0 0 0 0 0 0 0 0 0 0 0 0 0 0 0 0 0 0 0 0 8 77 107 112 116 120 122 124 125 129 132 141 143 146 153 153 150 154 161 167 161 171 164 160 173 183 180 167 177 183 181 184 187 188 189 188 188 188 188 182 179 187 186 176 168 168 164 173 179 182 178 176 165 147 146 158 148 128 117 111 106 159 223 236 237 239 237 230 229 234 230 232 232 235 241 238 242 240 237 239 242 243 236 238 243 240 234 241 245 243 241 244 241 236 234 242 239 241 242 244 247 248 239 239 242 243 244 245 246 245 247 249 248 253 253 249 251 252 254 255 254 254 250 241 240 237 234 228 222 217 205 101 10 23 104 194 174 153 147 147 128 124 127 122 114 111 111 108 106 107 107 108 108 106 115 116 113 117 119 120 120 120 120 126 135 132 135 135 132 133 133 133 136 136 140 139 141 143 143 147 143 141 144 150 152 148 148 151 154 156 156 150 143 144 141 142 147 145 146 146 144 137 116 8 0 0 0 0 0 0 0 0 0 0 0 0 0 0 0 0 0 0 0 0 0 0 0 0 0 0 0 0 0 0 0 0 0 0 0 0 0 0 0 0 0 0 0 0 0 0 0 0 0 0 0 0 0 0 0 0 0 0 0 0 0 0 0 0 0 0 0 0 0 0 0 0 0 0 0 
172 204 205 207 209 209 212 222 232 239 239 231 217 209 208 209 209 207 206 206 205 201 198 198 199 202 207 209 210 210 208 206 199 196 192 190 189 187 188 187 182 178 176 174 172 170 167 162 163 177 201 204 189 172 151 152 155 163 98 0 0 0 0 0 0 0 0 0 0 0 0 0 0 0 0 0 0 0 0 0 8 76 106 109 113 116 116 121 129 133 132 136 140 145 152 152 154 159 160 167 163 164 164 163 177 174 175 166 170 180 185 182 183 186 192 190 191 190 186 178 176 186 182 168 167 170 171 179 178 180 176 171 163 145 146 156 144 123 115 111 109 155 193 214 236 240 236 231 234 233 232 237 233 234 237 236 231 230 239 238 238 238 238 242 242 239 236 241 245 238 239 247 245 237 240 245 246 248 251 248 236 246 247 242 242 254 254 251 249 251 250 242 230 225 219 212 207 202 195 191 186 176 163 152 148 146 136 131 126 122 127 95 26 24 65 110 107 101 100 104 107 108 107 106 107 108 108 109 112 114 114 116 117 118 125 125 125 126 128 131 129 124 123 126 132 131 133 135 132 132 133 129 133 137 142 137 140 146 144 146 149 146 146 146 149 153 148 153 156 156 152 147 144 143 149 151 149 145 140 143 152 143 122 24 0 0 0 0 0 0 0 0 0 0 0 0 0 0 0 0 0 0 0 0 0 0 0 0 0 0 0 0 0 0 0 0 0 0 0 0 0 0 0 0 0 0 0 0 0 0 0 0 0 0 0 0 0 0 0 0 0 0 0 0 0 0 0 0 0 0 0 0 0 0 0 0 0 0 0 
165 205 205 208 209 210 213 221 230 238 240 233 219 211 208 208 208 206 202 200 201 207 217 224 231 232 232 227 223 216 211 206 199 197 195 197 183 151 153 172 182 180 177 174 172 169 166 164 159 171 202 215 201 179 156 153 156 162 113 3 0 0 0 0 0 0 0 0 0 0 0 0 0 0 0 0 0 0 0 0 9 80 106 110 116 116 115 122 126 128 128 133 140 147 149 149 151 158 160 168 172 160 165 169 178 176 171 171 174 180 184 181 178 185 191 192 193 188 184 179 173 178 181 168 167 170 174 182 180 179 178 171 159 142 145 148 135 122 115 111 108 141 179 212 235 237 231 232 231 231 235 237 239 242 236 238 240 236 245 245 241 247 244 243 241 249 251 248 248 246 247 253 254 251 249 229 228 236 232 210 192 200 202 185 180 190 182 171 166 166 159 147 137 131 128 123 121 118 113 112 112 111 109 110 109 110 105 105 106 106 113 96 34 20 55 105 113 112 112 114 115 116 113 115 118 119 117 114 115 120 118 119 122 122 125 125 126 124 126 129 129 127 126 128 131 126 127 137 137 132 136 135 136 140 144 146 141 142 148 148 150 147 147 147 147 154 156 152 152 155 153 154 154 144 145 153 154 150 143 143 149 148 128 49 0 0 0 0 0 0 0 0 0 0 0 0 0 0 0 0 0 0 0 0 0 0 0 0 0 0 0 0 0 0 0 0 0 0 0 0 0 0 0 0 0 0 0 0 0 0 0 0 0 0 0 0 0 0 0 0 0 0 0 0 0 0 0 0 0 0 0 0 0 0 0 0 0 0 0 
152 205 206 208 208 211 215 218 229 238 241 234 221 211 208 208 203 200 206 218 231 237 234 226 216 204 194 186 183 178 176 176 174 175 176 180 168 147 136 155 189 192 186 180 174 169 166 165 159 165 198 218 208 186 164 154 158 162 125 9 0 0 0 0 0 0 0 0 0 0 0 0 0 0 0 0 0 0 0 0 9 80 104 110 121 119 119 122 123 126 126 126 135 143 148 150 151 157 160 164 168 164 159 171 176 172 170 176 179 179 179 174 173 183 186 191 193 186 183 182 180 182 187 176 169 171 175 178 173 174 175 169 159 141 137 136 127 122 115 111 108 128 177 220 232 231 233 232 237 233 241 238 246 253 250 250 250 255 253 248 247 252 246 237 236 235 226 216 214 207 199 191 185 182 171 146 142 141 139 129 122 121 121 112 111 113 110 108 110 109 108 109 108 110 111 111 112 111 109 111 115 114 115 116 116 117 113 114 114 113 118 99 37 24 61 112 118 114 115 118 119 119 117 114 114 117 120 116 115 120 118 122 121 124 126 124 125 126 125 128 128 129 130 130 134 134 131 135 141 134 136 139 134 139 144 145 148 149 148 151 153 151 155 158 157 159 161 159 154 153 148 146 144 132 124 123 130 131 130 137 136 128 129 62 0 0 0 0 0 0 0 0 0 0 0 0 0 0 0 0 0 0 0 0 0 0 0 0 0 0 0 0 0 0 0 0 0 0 0 0 0 0 0 0 0 0 0 0 0 0 0 0 0 0 0 0 0 0 0 0 0 0 0 0 0 0 0 0 0 0 0 0 0 0 0 0 0 0 0 
136 206 206 207 208 208 212 218 230 238 239 236 222 210 206 203 206 217 225 223 215 201 187 176 169 164 160 159 158 158 158 157 157 158 159 160 159 170 176 185 208 191 179 183 182 176 170 166 163 165 190 222 214 185 169 158 158 165 133 15 0 0 0 0 0 0 0 0 0 0 0 0 0 0 0 0 0 0 0 0 10 82 104 112 117 115 119 123 122 126 125 126 134 137 145 148 150 152 154 157 161 168 159 167 174 163 168 176 181 183 176 169 172 183 188 190 188 183 186 183 182 183 180 175 168 173 176 170 170 175 168 162 153 138 129 134 128 114 116 114 112 126 163 192 208 229 245 240 242 241 231 216 221 219 212 205 201 207 192 181 175 169 161 151 148 142 131 124 122 120 116 111 111 109 109 109 105 105 110 112 109 112 113 112 112 111 111 115 117 114 111 113 117 116 117 117 118 115 115 118 119 118 118 117 118 120 117 118 115 115 119 106 40 27 65 106 118 116 116 118 118 117 119 115 113 114 119 118 116 116 119 123 120 124 127 124 124 125 125 128 130 131 131 130 129 134 137 134 142 145 140 142 141 145 153 145 144 141 140 146 147 138 137 135 130 129 123 126 127 124 125 130 136 143 144 131 124 151 161 165 170 126 85 19 0 0 0 0 0 0 0 0 0 0 0 0 0 0 0 0 0 0 0 0 0 0 0 0 0 0 0 0 0 0 0 0 0 0 0 0 0 0 0 0 0 0 0 0 0 0 0 0 0 0 0 0 0 0 0 0 0 0 0 0 0 0 0 0 0 0 0 0 0 0 0 0 0 0 0 
119 206 207 208 208 210 210 219 232 238 241 235 224 210 206 209 212 211 195 179 170 161 158 155 153 153 151 151 150 150 150 149 150 149 150 150 150 157 165 172 174 163 163 169 173 176 176 171 166 169 189 218 218 188 168 162 160 167 141 24 0 0 0 0 0 0 0 0 0 0 0 0 0 0 0 0 0 0 0 0 11 84 106 112 116 114 115 120 119 123 122 128 135 137 143 147 146 147 151 159 163 165 160 170 172 161 164 174 173 176 180 179 174 182 187 185 182 183 183 175 176 184 176 170 168 173 172 170 169 171 163 157 152 140 129 133 133 127 123 114 110 118 147 152 154 183 182 171 166 163 143 132 133 130 124 124 118 116 115 112 112 109 107 109 109 108 106 107 108 108 108 110 114 113 114 116 115 113 116 117 117 116 119 119 118 119 115 116 118 115 112 114 116 116 118 119 119 117 117 118 120 118 119 119 119 120 118 118 115 116 119 111 47 23 52 97 122 118 116 117 117 116 118 116 113 114 114 119 119 117 119 121 123 124 130 126 124 126 131 131 134 136 137 134 134 137 139 132 136 144 121 110 118 120 117 106 99 100 106 112 119 128 130 141 152 157 163 171 176 176 179 183 189 189 186 184 179 186 192 192 183 169 110 1 0 0 0 0 0 0 0 0 0 0 0 0 0 0 0 0 0 0 0 0 0 0 0 0 0 0 0 0 0 0 0 0 0 0 0 0 0 0 0 0 0 0 0 0 0 0 0 0 0 0 0 0 0 0 0 0 0 0 0 0 0 0 0 0 0 0 0 0 0 0 0 0 0 0 0 
102 208 205 208 211 211 212 222 230 236 240 234 220 210 207 198 185 174 163 159 155 152 151 149 146 146 146 145 145 145 144 144 146 145 146 145 145 146 148 151 148 149 151 153 158 162 168 171 167 160 175 207 218 196 169 163 163 167 146 34 0 0 0 0 0 0 0 0 0 0 0 0 0 0 0 0 0 0 0 0 12 85 105 111 116 115 115 119 119 118 121 129 140 141 144 146 148 149 151 153 156 158 159 164 163 160 165 171 174 173 183 183 178 187 189 183 177 177 171 166 168 176 173 171 172 169 173 169 173 172 159 156 153 145 133 134 137 134 118 110 111 113 118 115 111 112 110 109 111 114 113 111 110 111 111 113 108 107 113 111 112 114 114 113 115 115 115 115 113 115 116 114 114 116 117 117 116 115 117 118 117 117 119 122 117 118 118 113 115 114 112 116 117 117 119 118 118 118 117 118 119 120 118 117 119 118 119 119 115 114 118 115 58 31 66 95 119 119 117 117 121 120 117 116 119 119 119 119 118 123 126 124 123 122 123 123 120 120 121 117 113 111 114 131 129 112 111 110 95 84 72 95 125 138 149 142 136 149 151 157 177 184 187 193 197 194 187 182 181 176 178 180 164 173 195 190 192 179 170 162 170 173 141 29 0 0 0 0 0 0 0 0 0 0 0 0 0 0 0 0 0 0 0 0 0 0 0 0 0 0 0 0 0 0 0 0 0 0 0 0 0 0 0 0 0 0 0 0 0 0 0 0 0 0 0 0 0 0 0 0 0 0 0 0 0 0 0 0 0 0 0 0 0 0 0 0 0 0 0 
88 207 207 208 208 209 213 219 229 235 238 231 212 198 185 172 164 159 153 151 148 146 144 144 143 143 142 143 142 142 141 142 141 141 143 143 144 143 142 143 144 145 145 145 148 151 153 159 164 152 158 173 205 200 173 165 163 166 152 47 0 0 0 0 0 0 0 0 0 0 0 0 0 0 0 0 0 0 0 0 12 86 107 113 116 113 113 117 120 120 119 127 138 139 142 143 146 148 150 151 156 154 158 163 159 162 165 167 173 175 172 180 187 188 184 178 178 175 166 161 165 167 164 169 172 170 176 170 169 168 163 159 157 143 133 138 137 122 114 112 114 112 113 111 111 109 111 114 114 113 116 116 113 114 115 118 113 110 117 117 116 117 116 115 116 116 117 116 113 114 114 114 114 115 116 117 117 117 117 118 117 119 121 120 117 117 118 116 117 117 117 118 114 115 118 118 118 119 117 118 119 119 118 119 120 119 120 118 114 116 116 122 95 62 85 99 113 117 115 115 113 114 121 113 108 104 110 112 108 109 105 103 100 100 101 98 100 104 106 112 123 135 143 153 159 154 163 167 140 127 143 174 178 179 181 174 176 173 167 168 169 165 164 162 154 155 165 169 167 165 166 171 158 108 74 67 63 53 37 52 160 180 147 49 0 0 0 0 0 0 0 0 0 0 0 0 0 0 0 0 0 0 0 0 0 0 0 0 0 0 0 0 0 0 0 0 0 0 0 0 0 0 0 0 0 0 0 0 0 0 0 0 0 0 0 0 0 0 0 0 0 0 0 0 0 0 0 0 0 0 0 0 0 0 0 0 0 0 0 
76 207 208 208 209 208 212 217 226 235 234 214 193 176 163 158 154 150 146 143 142 142 142 141 139 137 136 135 135 135 135 135 135 135 137 137 137 137 141 142 142 142 140 141 142 143 145 149 155 149 164 156 162 190 182 168 165 167 159 59 0 0 0 0 0 0 0 0 0 0 0 0 0 0 0 0 0 0 0 0 11 84 107 111 115 114 115 119 122 126 125 129 137 137 138 138 139 141 146 156 149 156 157 159 158 161 163 164 166 167 167 175 178 180 180 175 180 180 173 164 165 168 169 171 176 175 170 173 169 165 166 158 154 146 134 129 131 123 117 116 114 113 114 113 112 110 113 114 115 114 116 119 116 119 118 120 113 110 116 118 116 117 117 116 118 116 115 117 116 117 114 113 114 117 117 117 118 116 116 119 117 119 120 118 117 116 116 115 116 117 116 117 115 114 116 117 116 118 116 118 121 120 121 122 123 122 124 121 118 122 118 117 122 105 96 105 92 91 97 89 83 85 82 75 79 83 73 62 65 94 119 125 137 143 145 138 141 146 147 158 169 171 173 171 164 161 163 165 167 161 157 152 137 127 117 107 99 94 83 76 70 69 58 55 47 56 140 177 161 164 163 161 179 95 15 22 30 30 23 39 152 181 160 65 0 0 0 0 0 0 0 0 0 0 0 0 0 0 0 0 0 0 0 0 0 0 0 0 0 0 0 0 0 0 0 0 0 0 0 0 0 0 0 0 0 0 0 0 0 0 0 0 0 0 0 0 0 0 0 0 0 0 0 0 0 0 0 0 0 0 0 0 0 0 0 0 0 0 0 
60 206 207 208 208 208 211 217 228 234 212 186 169 159 153 149 146 144 142 142 140 139 137 134 131 130 129 116 102 91 85 84 87 94 110 125 131 132 136 135 137 137 138 140 140 138 140 142 144 149 160 153 155 170 183 170 164 167 164 69 0 0 0 0 0 0 0 0 0 0 0 0 0 0 0 0 0 0 0 0 12 85 107 111 113 113 116 117 119 126 130 128 135 142 142 136 141 142 142 151 149 152 154 155 160 160 159 165 164 161 165 172 171 175 176 177 179 178 174 167 167 171 171 176 181 180 176 167 166 163 165 161 153 148 135 131 125 120 120 116 113 112 112 110 110 109 112 113 116 116 116 119 117 119 119 120 116 111 115 116 116 118 115 115 117 117 114 114 118 116 115 114 115 118 118 118 117 117 116 116 118 118 118 118 116 116 117 116 118 118 117 120 120 120 122 121 120 120 118 119 119 116 114 110 107 103 99 93 88 84 78 77 79 81 82 77 64 63 69 64 79 106 108 108 118 129 126 115 138 135 139 165 167 164 163 162 156 144 130 134 151 156 154 153 150 153 166 121 58 51 49 46 46 38 36 32 28 27 24 22 27 27 28 29 28 34 119 176 165 163 159 161 178 116 26 26 31 29 25 37 136 180 166 85 0 0 0 0 0 0 0 0 0 0 0 0 0 0 0 0 0 0 0 0 0 0 0 0 0 0 0 0 0 0 0 0 0 0 0 0 0 0 0 0 0 0 0 0 0 0 0 0 0 0 0 0 0 0 0 0 0 0 0 0 0 0 0 0 0 0 0 0 0 0 0 0 0 0 0 
57 201 208 206 207 207 209 218 231 212 184 167 157 151 146 144 143 142 140 138 135 133 128 121 92 62 34 17 11 7 4 4 5 8 12 22 42 69 100 125 132 132 135 136 138 138 138 138 141 143 144 145 149 158 161 170 166 166 168 81 0 0 0 0 0 0 0 0 0 0 0 0 0 0 0 0 0 0 0 0 13 87 107 112 112 112 116 115 116 124 125 129 134 139 143 143 139 143 137 137 152 152 152 154 158 159 157 165 169 160 161 173 172 174 175 177 181 175 179 177 172 172 175 179 182 182 177 167 164 161 164 168 158 148 136 133 139 140 128 115 112 110 110 108 108 111 111 115 115 116 118 119 115 117 119 118 118 114 114 115 115 118 114 114 116 117 115 113 115 117 116 116 117 121 121 123 123 123 120 120 121 120 120 120 121 119 117 114 113 111 108 105 102 98 92 89 85 82 78 76 75 74 72 73 74 75 79 83 85 79 68 82 106 111 111 107 108 111 118 118 125 146 157 148 137 140 134 129 125 101 98 108 94 83 73 67 61 52 40 43 115 165 153 149 153 157 172 114 26 23 30 24 28 31 30 33 28 24 23 25 24 28 30 32 30 31 95 166 162 161 159 156 170 129 32 26 28 27 24 29 132 180 169 96 0 0 0 0 0 0 0 0 0 0 0 0 0 0 0 0 0 0 0 0 0 0 0 0 0 0 0 0 0 0 0 0 0 0 0 0 0 0 0 0 0 0 0 0 0 0 0 0 0 0 0 0 0 0 0 0 0 0 0 0 0 0 0 0 0 0 0 0 0 0 0 0 0 0 0 
48 195 209 207 207 207 210 227 217 181 165 158 149 144 144 142 141 139 136 132 126 104 63 22 2 0 0 0 0 0 0 0 0 0 0 0 0 0 3 25 64 105 128 132 134 137 137 138 138 138 141 144 154 163 150 153 165 166 172 91 0 0 0 0 0 0 0 0 0 0 0 0 0 0 0 0 0 0 0 0 13 87 108 112 112 114 114 117 117 117 121 132 131 135 145 145 142 145 135 128 149 149 151 155 157 160 158 162 169 161 161 167 168 174 175 176 179 172 176 179 176 177 178 182 180 177 173 169 170 167 169 173 160 149 135 132 143 134 118 116 113 113 111 109 108 110 113 111 110 114 113 118 117 116 117 117 119 118 116 116 116 119 117 118 120 123 122 120 121 120 119 116 119 119 113 112 111 109 104 99 96 90 89 84 80 75 71 68 66 63 64 65 67 71 76 79 81 84 84 87 98 102 106 109 116 124 123 128 131 136 132 128 154 158 164 176 179 182 191 199 203 211 228 210 75 35 35 35 32 30 29 28 27 26 27 26 27 28 26 30 100 162 147 149 158 156 166 129 39 25 30 28 28 32 31 32 29 24 27 26 28 31 30 27 23 27 83 163 162 161 166 157 165 146 38 23 29 27 25 26 118 177 171 112 0 0 0 0 0 0 0 0 0 0 0 0 0 0 0 0 0 0 0 0 0 0 0 0 0 0 0 0 0 0 0 0 0 0 0 0 0 0 0 0 0 0 0 0 0 0 0 0 0 0 0 0 0 0 0 0 0 0 0 0 0 0 0 0 0 0 0 0 0 0 0 0 0 0 0 
33 187 209 206 207 206 220 222 188 164 156 149 145 142 141 140 136 134 128 110 60 10 0 0 0 0 0 0 0 0 0 0 0 0 0 0 0 0 0 0 0 24 127 148 134 132 135 137 138 138 141 145 149 152 149 142 150 167 173 107 1 0 0 0 0 0 0 0 0 0 0 0 0 0 0 0 0 0 0 0 14 87 107 110 113 116 113 118 122 122 122 128 129 130 138 150 157 152 142 138 150 153 154 155 158 161 160 163 167 165 163 166 169 175 177 172 173 174 176 181 179 180 177 184 176 174 177 175 168 167 168 161 156 147 137 131 137 135 122 115 112 111 109 106 104 107 111 111 111 115 114 116 118 118 119 119 121 120 116 117 115 114 111 107 105 102 98 93 89 85 82 79 75 71 68 69 66 68 67 69 67 68 74 73 79 87 93 99 105 111 118 121 123 128 131 129 125 132 140 142 151 154 161 170 172 181 190 195 198 208 211 210 224 226 226 229 229 229 228 227 220 218 232 228 70 10 21 26 28 28 27 32 30 30 32 31 30 28 27 31 87 151 143 146 151 149 160 141 46 24 29 28 27 29 31 32 29 27 28 24 30 31 29 28 26 27 71 158 162 161 160 156 164 159 50 21 32 30 25 23 101 178 174 125 10 0 0 0 0 0 0 0 0 0 0 0 0 0 0 0 0 0 0 0 0 0 0 0 0 0 0 0 0 0 0 0 0 0 0 0 0 0 0 0 0 0 0 0 0 0 0 0 0 0 0 0 0 0 0 0 0 0 0 0 0 0 0 0 0 0 0 0 0 0 0 0 0 0 0 
25 179 209 206 206 212 224 196 164 154 147 144 143 142 141 135 130 127 90 24 0 0 0 0 0 0 0 0 0 0 0 0 0 0 0 0 0 0 0 0 0 42 151 176 161 139 131 134 137 138 137 138 139 142 145 142 138 153 173 122 7 0 0 0 0 0 0 0 0 0 0 0 0 0 0 0 0 0 0 0 15 90 105 112 115 112 113 118 124 126 125 126 126 123 133 148 150 148 148 151 155 153 154 156 158 157 158 159 167 166 165 171 176 173 172 170 175 179 180 178 177 176 174 181 181 177 175 180 172 158 164 157 152 151 140 129 137 150 136 122 124 127 131 133 135 133 118 111 109 107 105 102 99 95 93 89 85 80 74 71 68 64 61 60 59 58 59 60 63 67 71 75 78 75 80 90 90 99 105 112 111 112 121 118 121 122 115 112 108 103 96 86 77 68 65 59 41 118 212 220 220 222 224 229 229 228 229 226 223 232 228 217 223 226 218 215 216 217 217 215 215 215 223 230 92 17 24 26 26 25 28 28 27 28 28 27 28 29 28 29 71 146 150 149 150 150 155 148 56 26 32 29 27 29 31 29 28 27 28 26 28 29 27 28 27 24 60 150 162 159 157 154 161 165 68 20 30 34 27 20 80 174 178 135 24 0 0 0 0 0 0 0 0 0 0 0 0 0 0 0 0 0 0 0 0 0 0 0 0 0 0 0 0 0 0 0 0 0 0 0 0 0 0 0 0 0 0 0 0 0 0 0 0 0 0 0 0 0 0 0 0 0 0 0 0 0 0 0 0 0 0 0 0 0 0 0 0 0 0 
21 169 210 206 207 220 208 168 157 149 144 144 141 139 135 131 127 77 8 0 0 0 0 0 0 0 0 0 0 0 0 0 0 0 0 0 0 0 0 0 0 77 170 172 173 163 144 135 136 137 136 138 138 140 144 144 136 137 163 132 17 0 0 0 0 0 0 0 0 0 0 0 0 0 0 0 0 0 0 0 15 90 105 114 114 110 114 121 124 126 127 129 130 134 139 146 139 142 151 156 152 154 154 153 154 158 161 162 165 166 165 169 176 174 171 171 179 177 179 180 176 176 174 180 185 182 179 176 169 162 159 151 148 143 134 132 164 178 159 157 158 156 153 147 141 124 83 67 66 65 62 61 61 59 58 57 58 61 64 69 75 78 84 90 95 100 101 101 105 110 117 111 114 107 111 122 122 121 123 121 123 110 57 50 43 38 30 30 25 20 18 18 16 17 17 17 0 78 216 232 222 219 219 218 219 218 215 216 218 186 108 77 122 197 224 218 216 217 217 216 216 215 222 237 118 18 23 26 25 25 28 27 27 28 28 28 29 29 27 25 58 139 158 158 154 152 155 154 68 27 30 28 27 30 29 27 28 27 29 28 28 32 28 28 28 24 49 139 164 156 155 149 156 167 81 21 28 34 27 21 60 160 177 144 39 0 0 0 0 0 0 0 0 0 0 0 0 0 0 0 0 0 0 0 0 0 0 0 0 0 0 0 0 0 0 0 0 0 0 0 0 0 0 0 0 0 0 0 0 0 0 0 0 0 0 0 0 0 0 0 0 0 0 0 0 0 0 0 0 0 0 0 0 0 0 0 0 0 0 
19 155 210 205 214 219 178 155 150 145 144 142 135 133 130 129 78 6 0 0 0 0 0 0 0 0 0 0 0 0 0 0 0 0 0 0 0 0 0 0 7 110 171 164 161 160 162 146 135 137 138 137 140 139 139 144 140 131 146 138 27 0 0 0 0 0 0 0 0 0 0 0 0 0 0 0 0 0 0 0 15 89 107 114 114 111 119 125 126 130 133 132 137 142 141 145 146 147 152 154 153 155 151 155 157 159 161 165 167 168 169 170 175 175 178 179 180 176 174 181 177 173 174 177 184 181 183 177 174 168 153 137 131 110 105 113 141 136 110 101 96 85 80 78 72 67 67 71 73 73 75 84 89 95 87 86 91 95 101 101 100 95 92 89 87 80 72 62 58 56 51 46 35 35 97 126 129 119 119 118 120 109 22 8 15 18 17 19 19 19 20 22 22 24 25 26 6 50 193 225 216 214 216 215 216 218 219 225 155 35 8 1 7 101 226 224 216 216 217 218 215 215 219 242 147 23 22 25 26 27 29 29 29 28 27 28 28 28 28 24 50 133 159 161 156 152 155 162 82 27 27 28 29 28 27 28 27 26 26 26 27 30 30 26 26 22 44 130 168 159 158 151 154 170 96 23 26 30 26 21 53 152 174 155 51 0 0 0 0 0 0 0 0 0 0 0 0 0 0 0 0 0 0 0 0 0 0 0 0 0 0 0 0 0 0 0 0 0 0 0 0 0 0 0 0 0 0 0 0 0 0 0 0 0 0 0 0 0 0 0 0 0 0 0 0 0 0 0 0 0 0 0 0 0 0 0 0 0 0 
15 142 210 205 220 198 160 151 147 145 141 136 132 129 128 94 14 0 0 0 0 0 0 0 0 0 0 0 0 0 0 0 0 0 0 0 0 0 0 0 27 135 171 161 156 154 163 164 145 137 139 139 140 139 138 139 142 134 132 136 38 0 0 0 0 0 0 0 0 0 0 0 0 0 0 0 0 0 0 0 14 88 108 112 115 116 120 124 128 131 132 136 136 137 136 143 149 152 151 152 157 155 152 157 160 160 156 160 168 169 171 173 176 173 177 180 174 175 175 179 175 171 179 181 184 178 178 163 149 133 114 102 89 79 87 113 113 85 80 81 84 86 87 99 98 90 90 106 112 108 109 110 105 115 105 57 47 46 43 39 32 27 27 23 22 21 20 18 17 18 19 22 17 18 90 126 132 119 120 120 119 114 43 12 23 24 23 24 23 24 24 24 24 22 23 25 6 41 184 224 215 214 215 216 217 218 228 166 28 9 20 8 1 80 224 228 215 217 220 218 217 218 218 240 176 32 22 26 26 26 28 27 28 29 27 27 27 27 29 26 44 131 161 156 155 152 151 162 96 29 26 33 32 25 25 30 28 28 28 27 28 30 28 23 26 22 36 115 161 159 155 154 159 171 115 25 20 27 24 20 49 149 175 159 60 0 0 0 0 0 0 0 0 0 0 0 0 0 0 0 0 0 0 0 0 0 0 0 0 0 0 0 0 0 0 0 0 0 0 0 0 0 0 0 0 0 0 0 0 0 0 0 0 0 0 0 0 0 0 0 0 0 0 0 0 0 0 0 0 0 0 0 0 0 0 0 0 0 0 
12 134 209 208 207 168 154 149 144 143 140 134 133 132 113 30 0 0 0 0 0 0 0 0 0 0 0 0 0 0 0 0 0 0 0 0 0 0 0 0 49 156 170 161 159 158 160 167 161 144 141 140 138 139 138 138 140 136 126 129 51 0 0 0 0 0 0 0 0 0 0 0 0 0 0 0 0 0 0 0 9 82 107 112 118 120 120 122 127 132 134 132 132 140 137 141 150 149 149 154 160 160 156 160 159 156 156 160 160 165 166 171 171 169 172 175 168 172 178 177 172 172 173 164 153 135 118 106 94 92 92 89 114 146 160 168 145 111 112 109 80 65 60 54 52 45 37 89 120 112 114 114 106 112 105 28 8 18 18 18 18 21 23 25 24 26 26 24 24 24 25 26 25 19 78 127 130 126 121 122 121 120 53 12 24 21 21 23 23 25 24 21 22 24 23 25 13 24 166 224 215 215 215 217 215 226 208 43 7 23 15 20 34 146 233 222 216 218 221 220 218 220 221 238 195 43 20 27 27 27 28 26 27 27 28 29 28 30 30 28 38 117 163 153 152 154 149 161 109 31 28 33 33 23 24 29 27 26 27 30 31 30 28 26 27 24 29 95 157 157 153 148 158 172 131 28 17 28 24 20 40 140 166 162 86 0 0 0 0 0 0 0 0 0 0 0 0 0 0 0 0 0 0 0 0 0 0 0 0 0 0 0 0 0 0 0 0 0 0 0 0 0 0 0 0 0 0 0 0 0 0 0 0 0 0 0 0 0 0 0 0 0 0 0 0 0 0 0 0 0 0 0 0 0 0 0 0 0 0 
9 124 210 214 189 161 151 146 142 140 139 138 139 132 58 1 0 0 0 0 0 0 0 0 0 0 0 0 0 0 0 0 0 0 0 0 0 0 0 0 76 170 168 162 159 153 155 162 168 155 143 141 138 138 138 137 137 137 129 122 56 0 0 0 0 0 0 0 0 0 0 0 0 0 0 0 0 0 0 0 7 72 107 113 119 118 120 123 124 134 137 133 138 147 139 145 151 151 153 159 160 159 157 160 158 153 161 164 161 165 165 163 164 172 174 174 178 173 152 154 142 126 115 101 90 88 99 120 139 159 161 160 178 185 181 160 120 101 115 107 41 12 19 17 18 18 17 78 119 116 119 118 112 117 111 50 12 23 22 23 24 25 23 25 25 24 25 23 23 24 23 26 25 17 63 125 131 131 126 127 122 123 66 11 23 22 23 24 23 24 25 23 23 23 22 26 18 17 148 223 218 216 215 217 219 232 146 6 20 22 82 167 184 217 222 220 224 223 222 222 220 223 223 235 213 57 20 27 27 28 29 31 29 27 27 28 27 30 31 27 33 102 160 151 152 154 147 155 120 35 26 32 30 27 27 28 27 25 26 29 32 27 27 27 28 23 27 86 155 155 157 149 157 172 134 33 18 26 27 22 28 131 171 166 104 0 0 0 0 0 0 0 0 0 0 0 0 0 0 0 0 0 0 0 0 0 0 0 0 0 0 0 0 0 0 0 0 0 0 0 0 0 0 0 0 0 0 0 0 0 0 0 0 0 0 0 0 0 0 0 0 0 0 0 0 0 0 0 0 0 0 0 0 0 0 0 0 0 0 
5 111 212 210 187 158 146 144 140 139 139 135 132 97 14 0 0 0 0 0 0 0 0 0 0 0 0 0 0 0 0 0 0 0 0 0 0 0 0 5 102 172 167 163 154 151 155 163 167 165 149 144 140 138 137 136 136 136 130 118 61 0 0 0 0 0 0 0 0 0 0 0 0 0 0 0 0 0 0 0 6 63 107 113 119 121 126 125 126 135 137 139 143 142 146 152 152 152 154 158 161 158 160 159 159 156 159 162 161 161 166 168 166 167 164 159 147 130 104 95 93 89 95 109 127 148 169 180 183 188 183 178 179 174 173 158 112 107 113 111 53 11 23 25 24 27 24 71 118 120 121 122 114 116 116 61 11 21 20 21 22 24 24 23 24 23 24 22 21 25 24 25 26 17 53 121 132 129 128 131 124 124 78 14 20 23 24 24 24 24 25 25 25 23 22 25 22 6 120 221 220 217 217 217 221 227 94 5 20 82 224 242 230 223 218 224 224 225 226 222 220 222 223 233 224 71 21 26 27 26 29 33 30 27 25 26 26 28 29 26 28 91 157 152 153 156 148 151 129 38 24 32 31 30 31 27 28 27 28 30 30 28 26 25 27 22 22 73 153 157 156 155 156 164 141 40 20 25 27 22 24 119 170 167 120 5 0 0 0 0 0 0 0 0 0 0 0 0 0 0 0 0 0 0 0 0 0 0 0 0 0 0 0 0 0 0 0 0 0 0 0 0 0 0 0 0 0 0 0 0 0 0 0 0 0 0 0 0 0 0 0 0 0 0 0 0 0 0 0 0 0 0 0 0 0 0 0 0 0 
3 103 210 194 164 148 145 141 139 138 134 130 122 48 0 0 0 0 0 0 0 0 0 0 0 0 0 0 0 0 0 0 0 0 0 0 0 0 0 20 123 172 167 162 158 152 154 163 166 168 154 146 142 138 137 136 135 135 130 121 66 0 0 0 0 0 0 0 0 0 0 0 0 0 0 0 0 0 0 0 3 52 107 114 119 123 124 128 133 137 138 142 143 140 148 152 153 154 157 160 162 161 160 160 158 162 159 161 167 164 162 155 138 121 109 98 91 92 100 111 131 144 160 175 181 182 183 183 181 181 181 181 178 174 176 152 108 122 111 115 70 15 21 25 24 27 22 63 117 122 119 121 119 115 121 73 13 22 22 21 23 22 23 23 25 24 24 23 21 23 24 26 25 17 46 115 132 130 128 130 125 129 88 18 21 24 23 25 24 23 26 25 27 25 23 25 24 5 99 217 223 217 216 217 221 215 59 4 27 167 245 214 212 218 227 194 113 155 224 227 219 221 223 231 233 82 19 27 27 26 28 32 29 26 26 27 27 29 28 28 30 84 154 152 150 151 148 148 134 43 22 31 30 28 31 26 29 27 27 31 28 27 25 23 26 24 20 57 146 161 151 148 151 158 155 52 20 26 27 23 22 105 167 171 127 9 0 0 0 0 0 0 0 0 0 0 0 0 0 0 0 0 0 0 0 0 0 0 0 0 0 0 0 0 0 0 0 0 0 0 0 0 0 0 0 0 0 0 0 0 0 0 0 0 0 0 0 0 0 0 0 0 0 0 0 0 0 0 0 0 0 0 0 0 0 0 0 0 0 
3 91 215 196 160 149 144 140 138 135 131 129 90 10 0 0 0 0 0 0 0 0 0 0 0 0 0 0 0 0 0 0 0 0 0 0 0 0 0 35 140 172 168 164 158 147 152 161 164 166 155 149 144 138 136 136 134 133 129 121 73 0 0 0 0 0 0 0 0 0 0 0 0 0 0 0 0 0 0 0 2 43 106 115 121 122 120 130 137 140 140 139 145 150 153 153 155 157 154 159 164 163 167 166 157 162 156 143 139 124 107 95 88 90 96 109 126 141 158 175 185 180 180 184 181 181 182 182 182 179 177 181 178 175 177 151 111 130 111 118 85 20 17 23 25 27 20 54 113 124 122 123 122 121 124 82 17 19 23 21 22 21 24 24 23 25 24 24 21 22 24 25 23 19 38 110 130 130 129 130 125 132 100 23 20 26 24 25 27 25 25 25 26 26 24 23 24 5 79 211 223 216 217 217 222 207 44 4 35 185 231 215 213 224 229 124 0 39 190 232 221 221 223 229 239 98 19 28 27 26 28 31 32 28 28 28 28 29 28 26 25 64 142 151 144 145 143 149 146 54 20 30 28 27 32 28 30 28 27 27 27 26 27 25 27 23 18 46 133 157 152 149 146 159 169 67 19 25 26 24 21 91 171 176 141 23 0 0 0 0 0 0 0 0 0 0 0 0 0 0 0 0 0 0 0 0 0 0 0 0 0 0 0 0 0 0 0 0 0 0 0 0 0 0 0 0 0 0 0 0 0 0 0 0 0 0 0 0 0 0 0 0 0 0 0 0 0 0 0 0 0 0 0 0 0 0 0 0 0 
1 73 211 173 154 147 141 138 136 133 129 121 49 0 0 0 0 0 0 0 0 0 0 0 0 0 0 0 0 0 0 0 0 0 0 0 0 0 0 49 156 172 169 165 153 147 154 161 162 169 158 152 146 139 136 135 133 132 130 123 73 0 0 0 0 0 0 0 0 0 0 0 0 0 0 0 0 0 0 0 0 33 106 115 121 127 130 131 136 140 141 138 140 149 154 159 161 157 155 165 174 167 162 151 132 119 105 91 86 90 97 111 127 144 159 164 171 175 178 180 180 178 182 184 181 182 181 181 181 179 176 179 178 177 178 163 131 132 112 119 97 29 15 23 24 25 20 46 110 126 127 124 122 123 126 94 22 18 23 22 22 21 23 25 24 23 22 23 21 23 25 26 24 20 31 101 130 131 130 131 123 130 110 29 18 27 26 26 26 26 25 24 23 24 23 23 26 9 57 199 225 217 217 217 224 211 54 3 32 171 233 216 214 224 229 117 2 16 150 232 221 220 223 225 243 127 20 25 27 27 29 30 33 29 27 29 29 27 29 25 20 49 129 150 144 151 149 149 159 67 20 29 29 27 33 28 29 29 27 27 30 30 30 26 28 24 17 37 121 152 149 150 146 156 173 84 19 22 25 24 18 80 170 177 159 45 0 0 0 0 0 0 0 0 0 0 0 0 0 0 0 0 0 0 0 0 0 0 0 0 0 0 0 0 0 0 0 0 0 0 0 0 0 0 0 0 0 0 0 0 0 0 0 0 0 0 0 0 0 0 0 0 0 0 0 0 0 0 0 0 0 0 0 0 0 0 0 0 0 
1 63 193 151 144 142 138 136 134 131 128 97 16 0 0 0 0 0 0 0 0 0 0 0 0 0 0 0 0 0 0 0 0 0 0 0 0 0 0 62 165 173 170 166 153 150 154 160 162 171 167 156 147 142 136 134 133 133 130 123 71 0 0 0 0 0 0 0 0 0 0 0 0 0 0 0 0 0 0 0 0 20 104 115 123 131 137 136 134 134 141 141 140 148 157 154 155 157 156 152 139 120 102 88 85 88 99 114 129 145 157 169 177 176 174 173 173 176 177 177 176 179 181 184 182 181 181 180 178 180 178 180 180 178 179 175 157 142 116 116 105 38 16 23 24 25 20 41 105 125 126 122 121 118 126 106 29 16 25 23 23 22 22 24 25 25 22 23 22 22 25 26 24 23 26 88 128 132 129 131 128 131 114 40 16 27 26 25 25 25 25 23 22 22 22 23 26 13 42 186 225 219 216 219 222 227 100 0 15 170 233 214 213 222 234 133 6 16 146 232 223 221 223 222 242 149 26 24 27 27 28 28 33 29 27 27 28 27 28 29 22 41 119 149 146 153 153 148 165 82 22 25 28 27 29 29 29 27 25 27 32 32 29 29 28 27 18 29 112 155 144 145 146 156 179 107 20 21 25 23 17 59 157 170 160 56 0 0 0 0 0 0 0 0 0 0 0 0 0 0 0 0 0 0 0 0 0 0 0 0 0 0 0 0 0 0 0 0 0 0 0 0 0 0 0 0 0 0 0 0 0 0 0 0 0 0 0 0 0 0 0 0 0 0 0 0 0 0 0 0 0 0 0 0 0 0 0 0 0 
1 59 179 151 144 140 136 135 134 129 127 83 5 0 0 0 0 0 0 0 0 0 0 0 0 0 0 0 0 0 0 0 0 0 0 0 0 0 0 77 172 172 169 167 155 149 151 158 161 171 176 161 148 143 137 135 134 133 128 122 69 0 0 0 0 0 0 0 0 0 0 0 0 0 0 0 0 0 0 0 0 13 96 117 126 131 135 135 132 137 145 146 145 152 150 128 118 119 101 85 78 80 91 107 124 139 158 173 175 175 174 175 177 175 172 176 177 175 176 176 176 178 177 184 184 179 181 182 180 181 179 179 180 177 179 177 166 153 123 115 111 45 14 24 25 26 20 34 99 123 124 121 121 119 123 112 37 14 26 23 22 23 22 22 22 25 25 25 23 20 24 26 26 24 23 78 123 129 127 128 127 129 120 50 16 25 26 25 25 26 24 23 22 23 22 22 25 14 30 175 224 217 215 219 219 227 187 59 81 208 221 216 212 226 229 97 2 20 149 234 224 223 224 219 241 176 35 24 25 26 28 29 32 30 28 27 28 28 29 29 21 34 110 152 145 149 151 147 165 96 24 23 27 30 30 31 29 29 25 27 31 30 29 30 27 26 20 26 101 157 150 147 148 154 178 127 24 19 26 25 17 46 151 169 158 81 0 0 0 0 0 0 0 0 0 0 0 0 0 0 0 0 0 0 0 0 0 0 0 0 0 0 0 0 0 0 0 0 0 0 0 0 0 0 0 0 0 0 0 0 0 0 0 0 0 0 0 0 0 0 0 0 0 0 0 0 0 0 0 0 0 0 0 0 0 0 0 0 0 
1 51 166 151 144 139 136 135 133 129 127 75 3 0 0 0 0 0 0 0 0 0 0 0 0 0 0 0 0 0 0 0 0 0 0 0 0 0 5 91 172 170 167 166 156 148 149 156 163 173 184 163 148 142 137 135 134 132 128 121 62 0 0 0 0 0 0 0 0 0 0 0 0 0 0 0 0 0 0 0 0 10 85 118 129 135 133 133 145 149 143 134 123 110 95 79 72 76 79 91 115 136 155 167 171 169 175 179 173 172 175 173 172 174 176 176 177 175 175 178 176 179 181 185 185 181 181 183 183 180 177 179 181 177 177 177 163 137 115 117 118 55 14 23 25 25 23 29 90 122 123 127 124 120 123 118 49 14 27 23 22 23 23 21 20 22 24 25 22 19 22 25 26 25 19 70 120 127 125 127 127 127 126 61 17 25 27 26 25 25 26 25 24 26 23 23 27 17 24 168 224 217 217 218 217 217 224 211 211 220 215 228 236 241 184 34 5 32 167 236 223 223 224 219 235 214 58 23 24 25 28 31 34 31 29 27 28 28 28 26 22 30 102 157 149 149 155 147 164 115 26 23 28 31 32 32 28 29 30 26 27 27 29 30 26 26 23 24 86 150 152 153 153 150 169 143 31 18 26 27 17 36 149 175 155 99 0 0 0 0 0 0 0 0 0 0 0 0 0 0 0 0 0 0 0 0 0 0 0 0 0 0 0 0 0 0 0 0 0 0 0 0 0 0 0 0 0 0 0 0 0 0 0 0 0 0 0 0 0 0 0 0 0 0 0 0 0 0 0 0 0 0 0 0 0 0 0 0 0 
1 43 154 150 141 139 137 135 130 127 123 60 0 0 0 0 0 0 0 0 0 0 0 0 0 0 0 0 0 0 0 0 0 0 0 0 0 0 10 103 173 171 167 165 156 149 150 156 164 175 189 160 149 143 137 135 134 131 127 116 49 0 0 0 0 0 0 0 0 0 0 0 0 0 0 0 0 0 0 0 0 9 75 121 137 142 131 120 121 110 92 80 69 64 70 83 102 126 140 151 165 172 176 171 169 171 174 174 175 177 176 173 174 177 178 177 177 177 178 179 177 180 185 186 188 184 184 184 182 181 178 177 181 179 176 177 164 128 108 115 123 65 13 22 27 25 23 25 81 122 122 127 127 118 121 124 60 13 26 24 23 25 26 23 21 21 21 22 22 21 22 23 24 26 18 62 120 126 128 125 129 125 128 75 15 23 26 26 26 26 25 24 24 26 26 25 27 23 14 142 222 219 219 219 218 215 218 230 227 218 221 216 191 155 70 16 10 58 203 231 221 221 222 223 228 234 78 23 24 27 28 29 30 30 26 27 27 27 27 26 25 26 90 159 154 149 156 152 162 134 32 23 29 30 31 30 28 28 30 27 24 27 28 29 25 27 24 21 74 152 152 155 156 152 164 157 32 8 11 16 12 24 140 172 155 88 0 0 0 0 0 0 0 0 0 0 0 0 0 0 0 0 0 0 0 0 0 0 0 0 0 0 0 0 0 0 0 0 0 0 0 0 0 0 0 0 0 0 0 0 0 0 0 0 0 0 0 0 0 0 0 0 0 0 0 0 0 0 0 0 0 0 0 0 0 0 0 0 0 
0 33 144 150 139 136 135 134 129 125 109 34 0 0 0 0 0 0 0 0 0 0 0 0 0 0 0 0 0 0 0 0 0 0 0 0 0 0 15 108 172 172 169 166 158 152 154 159 166 180 189 156 150 142 137 136 134 130 127 110 36 0 0 0 0 0 0 0 0 0 0 0 0 0 0 0 0 0 0 0 0 4 63 122 120 106 89 74 66 63 61 64 83 104 124 147 159 169 175 172 168 171 173 166 170 176 174 175 177 176 176 176 177 179 180 177 176 178 180 180 181 181 182 186 189 183 185 184 183 182 180 177 180 181 177 178 167 131 110 112 126 79 17 20 29 25 22 20 70 122 123 123 127 119 118 125 72 13 25 26 23 26 27 26 23 21 21 23 22 23 23 22 23 26 18 54 117 124 127 124 127 124 126 86 18 20 26 27 26 26 25 25 23 25 26 26 25 27 10 115 220 219 215 220 219 216 216 215 219 225 205 91 35 24 22 20 13 124 230 223 221 220 221 224 226 238 93 24 27 27 28 29 25 28 26 27 25 27 27 27 27 24 74 152 155 146 153 153 160 150 41 23 27 27 27 28 29 25 26 24 21 24 20 18 15 14 13 10 49 156 166 158 155 152 159 157 70 37 50 57 61 77 133 148 143 97 0 0 0 0 0 0 0 0 0 0 0 0 0 0 0 0 0 0 0 0 0 0 0 0 0 0 0 0 0 0 0 0 0 0 0 0 0 0 0 0 0 0 0 0 0 0 0 0 0 0 0 0 0 0 0 0 0 0 0 0 0 0 0 0 0 0 0 0 0 0 0 0 0 
0 21 129 150 139 134 133 131 127 124 84 6 0 0 0 0 0 0 0 0 0 0 0 0 0 0 0 0 0 0 0 0 0 0 0 0 0 0 18 116 173 171 168 167 159 158 163 161 167 190 182 153 149 142 138 137 133 130 126 100 20 0 0 0 0 0 0 0 0 0 0 0 0 0 0 0 0 0 0 0 0 1 20 65 67 56 61 65 74 89 105 119 137 149 160 173 166 163 173 175 171 172 171 171 172 175 174 177 176 175 176 176 175 175 178 179 179 180 181 181 180 180 180 184 188 185 184 181 184 182 180 180 179 180 178 177 171 138 111 110 126 96 23 17 29 28 24 16 56 117 124 122 127 121 119 127 85 17 22 27 24 23 27 26 24 22 23 26 25 25 26 24 25 25 18 46 116 122 126 123 129 131 130 93 24 19 25 26 24 24 24 27 24 25 24 24 24 26 9 94 216 220 215 217 217 216 217 218 221 230 166 9 5 16 21 4 55 207 232 221 221 221 221 223 221 244 117 24 27 27 27 29 28 29 30 28 25 28 28 27 27 23 61 143 156 150 151 153 155 158 50 16 17 16 14 16 18 15 15 17 19 24 27 30 35 41 49 52 86 144 152 142 141 137 133 132 122 117 117 118 120 116 107 107 114 83 0 0 0 0 0 0 0 0 0 0 0 0 0 0 0 0 0 0 0 0 0 0 0 0 0 0 0 0 0 0 0 0 0 0 0 0 0 0 0 0 0 0 0 0 0 0 0 0 0 0 0 0 0 0 0 0 0 0 0 0 0 0 0 0 0 0 0 0 0 0 0 0 0 
0 9 112 150 136 130 130 128 124 117 49 0 0 0 0 0 0 0 0 0 0 0 0 0 0 0 0 0 0 0 0 0 0 0 0 0 0 0 20 120 173 170 168 167 163 168 170 162 171 197 172 153 147 142 137 136 133 129 125 82 3 0 0 0 0 0 0 0 0 0 0 0 0 0 0 0 0 0 0 0 0 0 0 41 83 85 99 112 127 140 152 159 162 167 171 171 164 162 169 173 171 169 171 175 173 175 177 177 174 179 179 177 175 175 179 179 180 181 181 181 181 181 180 181 187 185 182 182 184 180 180 180 178 179 177 175 173 142 111 108 124 106 30 14 29 27 26 17 48 111 121 122 125 120 118 126 94 21 20 27 25 23 24 26 24 24 24 26 29 27 26 23 24 25 19 36 114 126 128 122 125 130 133 110 29 17 26 28 25 24 26 29 27 24 23 24 25 27 10 76 210 221 216 216 217 217 216 219 221 230 189 22 0 5 3 47 181 234 222 221 223 221 221 223 219 245 140 26 26 27 27 28 28 27 25 23 18 20 20 16 16 13 43 133 155 151 155 153 152 162 78 31 37 41 48 56 65 73 77 87 92 95 105 112 117 119 118 119 120 117 116 114 111 106 105 98 97 104 107 107 112 106 91 83 64 19 0 0 0 0 0 0 0 0 0 0 0 0 0 0 0 0 0 0 0 0 0 0 0 0 0 0 0 0 0 0 0 0 0 0 0 0 0 0 0 0 0 0 0 0 0 0 0 0 0 0 0 0 0 0 0 0 0 0 0 0 0 0 0 0 0 0 0 0 0 0 0 0 0 
0 5 89 148 134 128 127 123 122 95 12 0 0 0 0 0 0 0 0 0 0 0 0 0 0 0 0 0 0 0 0 0 0 0 0 0 0 0 21 121 173 170 168 168 165 166 173 166 181 195 162 152 146 140 137 135 133 128 119 56 0 0 0 0 0 0 0 0 0 0 0 0 0 0 0 0 0 0 0 0 0 0 2 53 120 128 135 145 157 159 163 165 165 168 173 168 168 171 171 172 171 171 172 176 178 179 179 177 175 177 179 178 179 177 180 180 181 181 183 181 181 182 182 184 186 185 182 182 185 181 181 179 177 178 177 176 174 147 115 109 124 117 41 13 27 26 26 18 41 108 121 118 120 119 115 124 105 27 16 26 24 25 25 27 27 25 25 25 28 28 26 24 25 26 23 29 103 128 129 128 122 130 130 118 39 18 26 27 25 24 25 28 26 25 24 24 26 26 12 58 202 220 215 216 218 217 217 220 219 223 226 153 50 46 96 195 231 221 217 220 222 223 223 227 223 249 165 16 13 14 18 17 18 17 20 23 23 26 31 34 40 40 62 122 146 143 139 140 142 136 120 114 116 117 118 118 117 120 119 116 111 107 107 103 103 102 97 95 89 84 83 79 78 78 77 102 125 127 118 107 85 55 30 17 5 0 0 0 0 0 0 0 0 0 0 0 0 0 0 0 0 0 0 0 0 0 0 0 0 0 0 0 0 0 0 0 0 0 0 0 0 0 0 0 0 0 0 0 0 0 0 0 0 0 0 0 0 0 0 0 0 0 0 0 0 0 0 0 0 0 0 0 0 0 0 0 0 0 0 
0 3 60 148 132 124 123 120 117 57 0 0 0 0 0 0 0 0 0 0 0 0 0 0 0 0 0 0 0 0 0 0 0 0 0 0 0 0 21 121 174 170 169 170 166 169 181 171 196 183 158 149 143 138 136 135 131 126 107 26 0 0 0 0 0 0 0 0 0 0 0 0 0 0 0 0 0 0 0 0 0 0 2 46 131 138 146 153 162 162 164 167 166 169 168 169 173 173 171 174 177 174 175 181 177 179 181 177 176 178 178 180 181 180 177 179 182 181 183 181 179 182 183 185 181 184 185 182 182 181 181 177 176 177 177 174 174 150 117 109 121 121 50 13 24 25 28 22 32 101 121 121 121 120 116 123 113 35 15 24 24 24 26 26 28 28 27 25 26 26 26 26 23 24 25 25 92 125 127 130 122 129 128 120 49 16 24 24 26 25 23 26 26 25 24 24 26 25 16 41 187 220 213 214 218 217 217 218 217 218 222 230 218 209 224 234 225 225 224 225 226 224 224 224 219 232 183 39 35 44 53 61 69 76 83 92 94 100 105 108 112 112 111 115 119 119 115 116 115 109 110 113 107 101 95 90 84 81 76 70 67 63 58 52 50 49 47 47 48 50 53 58 65 66 68 92 97 59 27 15 7 0 0 0 0 0 0 0 0 0 0 0 0 0 0 0 0 0 0 0 0 0 0 0 0 0 0 0 0 0 0 0 0 0 0 0 0 0 0 0 0 0 0 0 0 0 0 0 0 0 0 0 0 0 0 0 0 0 0 0 0 0 0 0 0 0 0 0 0 0 0 0 0 0 0 0 0 0 0 
0 1 37 138 130 120 119 119 101 15 0 0 0 0 0 0 0 0 0 0 0 0 0 0 0 0 0 0 0 0 0 0 0 0 0 0 0 0 21 122 173 170 170 171 170 172 183 191 204 169 153 146 138 135 134 134 130 125 83 2 0 0 0 0 0 0 0 0 0 0 0 0 0 0 0 0 0 0 0 0 0 0 0 43 128 140 153 157 158 162 166 168 171 175 171 170 173 173 171 175 178 175 174 183 178 177 182 181 180 177 173 173 177 181 182 181 184 185 182 182 180 182 182 181 182 186 184 182 181 180 180 178 176 176 177 175 177 152 114 106 117 122 61 15 21 25 25 21 28 95 118 121 122 125 118 120 118 45 15 23 24 22 23 24 26 27 27 26 28 25 24 27 25 25 24 21 81 124 122 129 122 123 129 125 57 16 25 24 26 25 24 25 25 25 25 24 24 24 18 23 163 222 215 216 219 219 221 219 221 218 217 221 223 217 211 206 197 194 189 182 174 170 161 155 146 145 135 107 106 108 108 110 113 112 111 110 111 109 107 107 106 103 102 97 90 87 82 78 73 68 64 58 54 49 44 41 38 36 34 33 32 32 32 31 34 36 38 42 45 47 52 55 55 60 79 15 5 0 0 0 0 0 0 0 0 0 0 0 0 0 0 0 0 0 0 0 0 0 0 0 0 0 0 0 0 0 0 0 0 0 0 0 0 0 0 0 0 0 0 0 0 0 0 0 0 0 0 0 0 0 0 0 0 0 0 0 0 0 0 0 0 0 0 0 0 0 0 0 0 0 0 0 0 0 0 0 0 0 0 
0 0 14 118 131 121 117 114 61 0 0 0 0 0 0 0 0 0 0 0 0 0 0 0 0 0 0 0 0 0 0 0 0 0 0 0 0 0 19 120 172 171 171 172 172 177 193 197 188 161 150 142 137 135 134 131 127 115 45 0 0 0 0 0 0 0 0 0 0 0 0 0 0 0 0 0 0 0 0 0 0 0 0 37 126 146 152 156 161 166 170 167 168 175 178 174 172 174 175 177 181 178 176 178 180 180 181 180 174 169 169 169 168 175 183 183 183 182 181 184 182 184 183 182 184 186 182 182 181 181 179 176 176 175 176 174 175 157 118 106 111 125 71 18 20 24 25 22 24 86 117 122 118 121 119 119 120 55 15 23 24 23 24 24 26 26 26 24 28 27 24 25 25 25 25 19 65 124 121 128 129 123 129 130 68 14 20 21 20 19 18 19 20 18 18 17 17 17 16 13 134 211 206 197 192 189 182 172 166 160 150 143 139 132 125 121 116 112 111 106 102 101 99 99 97 97 98 101 99 98 96 91 91 89 86 82 79 75 70 65 61 56 52 48 44 40 38 35 33 30 31 29 27 28 27 27 28 29 31 33 34 35 38 39 42 43 44 44 44 43 45 46 46 42 105 64 2 0 0 0 0 0 0 0 0 0 0 0 0 0 0 0 0 0 0 0 0 0 0 0 0 0 0 0 0 0 0 0 0 0 0 0 0 0 0 0 0 0 0 0 0 0 0 0 0 0 0 0 0 0 0 0 0 0 0 0 0 0 0 0 0 0 0 0 0 0 0 0 0 0 0 0 0 0 0 0 0 0 0 
0 0 6 89 137 126 121 99 15 0 0 0 0 0 0 0 0 0 0 0 0 0 0 0 0 0 0 0 0 0 0 0 0 0 0 0 0 0 17 115 174 173 172 176 174 186 192 181 171 154 147 139 133 133 132 126 124 95 8 0 0 0 0 0 0 0 0 0 0 0 0 0 0 0 0 0 0 0 0 0 0 0 0 27 123 152 155 160 167 172 172 167 167 173 174 174 173 171 175 177 183 180 178 182 180 181 179 175 172 175 180 182 176 171 175 176 180 185 183 181 181 184 184 181 181 186 183 181 181 180 179 176 175 173 174 174 174 159 122 109 112 124 82 20 19 26 25 23 18 74 115 119 118 115 116 118 122 67 16 23 23 22 23 24 24 25 27 25 25 26 26 26 25 27 23 15 47 120 123 121 129 127 126 138 85 11 16 21 23 26 30 34 40 44 50 56 60 66 73 78 115 133 128 119 114 110 100 93 97 96 99 99 92 93 92 90 90 90 88 86 83 81 78 74 72 69 64 61 57 53 52 49 47 44 42 39 36 35 32 30 28 27 27 27 25 24 24 24 25 25 26 26 26 28 30 30 30 31 32 34 34 35 34 36 36 37 38 39 40 42 44 47 50 48 81 151 53 1 0 0 0 0 0 0 0 0 0 0 0 0 0 0 0 0 0 0 0 0 0 0 0 0 0 0 0 0 0 0 0 0 0 0 0 0 0 0 0 0 0 0 0 0 0 0 0 0 0 0 0 0 0 0 0 0 0 0 0 0 0 0 0 0 0 0 0 0 0 0 0 0 0 0 0 0 0 0 0 0 0 
0 0 1 49 141 135 120 47 0 0 0 0 0 0 0 0 0 0 0 0 0 0 0 0 0 0 0 0 0 0 0 0 0 0 0 0 0 0 13 107 174 174 174 177 177 194 177 174 165 148 142 136 135 133 130 126 116 49 0 0 0 0 0 0 0 0 0 0 0 0 0 0 0 0 0 0 0 0 0 0 0 0 0 18 114 158 159 165 172 174 173 169 168 174 175 172 176 176 174 176 182 180 177 181 182 178 176 176 172 167 160 145 129 118 114 114 133 156 165 171 176 180 183 182 183 185 182 178 181 181 178 176 176 173 173 173 174 161 124 111 111 124 94 26 15 25 24 25 19 62 117 118 119 116 115 118 126 80 18 22 23 23 22 22 22 20 18 19 18 18 17 17 18 25 21 16 44 115 125 124 120 123 118 123 108 71 76 82 91 96 98 101 106 107 108 110 108 108 106 104 98 90 88 91 86 79 82 80 79 80 77 73 68 65 60 56 54 51 48 46 42 40 39 37 34 32 30 28 27 25 25 25 24 24 24 24 24 24 23 22 22 23 24 25 25 26 28 28 28 30 30 30 31 31 32 32 32 33 34 35 34 35 37 37 37 39 42 42 43 45 48 50 53 63 77 137 160 36 0 0 0 0 0 0 0 0 0 0 0 0 0 0 0 0 0 0 0 0 0 0 0 0 0 0 0 0 0 0 0 0 0 0 0 0 0 0 0 0 0 0 0 0 0 0 0 0 0 0 0 0 0 0 0 0 0 0 0 0 0 0 0 0 0 0 0 0 0 0 0 0 0 0 0 0 0 0 0 0 0 
0 0 0 6 57 98 63 2 0 0 0 0 0 0 0 0 0 0 0 0 0 0 0 0 0 0 0 0 0 0 0 0 0 0 0 0 0 0 10 103 174 176 177 177 186 201 174 170 158 144 138 134 133 131 128 125 88 7 0 0 0 0 0 0 0 0 0 0 0 0 0 0 0 0 0 0 0 0 0 0 0 0 0 13 102 159 163 167 170 173 175 174 170 175 179 176 176 177 174 176 182 182 177 175 173 176 173 151 128 104 80 63 51 51 57 59 60 67 80 108 147 172 180 177 181 185 182 177 179 179 176 175 175 172 171 170 170 162 146 131 110 120 103 33 13 24 22 24 21 50 115 119 120 118 116 115 126 92 15 14 18 19 20 21 23 27 32 37 44 50 57 62 71 79 84 86 97 112 114 114 110 108 109 106 108 111 109 107 104 102 99 95 95 92 84 81 77 71 68 66 64 62 59 55 52 50 50 47 43 44 41 39 40 35 30 28 28 27 26 26 26 25 25 24 23 23 23 23 23 23 24 24 25 26 27 27 28 28 29 29 29 30 31 31 31 31 32 32 32 33 33 34 34 34 34 36 37 37 38 38 39 41 41 40 42 43 44 46 46 48 50 53 62 71 92 116 166 132 16 0 0 0 0 0 0 0 0 0 0 0 0 0 0 0 0 0 0 0 0 0 0 0 0 0 0 0 0 0 0 0 0 0 0 0 0 0 0 0 0 0 0 0 0 0 0 0 0 0 0 0 0 0 0 0 0 0 0 0 0 0 0 0 0 0 0 0 0 0 0 0 0 0 0 0 0 0 0 0 0 
0 0 0 0 1 6 2 0 0 0 0 0 0 0 0 0 0 0 0 0 0 0 0 0 0 0 0 0 0 0 0 0 0 0 0 0 0 0 6 92 175 177 179 178 200 195 169 159 147 139 135 133 132 129 124 109 31 0 0 0 0 0 0 0 0 0 0 0 0 0 0 0 0 0 0 0 0 0 0 0 0 0 0 11 88 163 165 164 169 174 176 177 175 177 179 179 178 177 177 176 182 180 176 172 169 159 128 93 71 58 56 69 87 102 120 129 128 118 100 77 71 98 143 165 175 182 181 177 178 178 177 175 173 169 168 167 166 163 158 134 107 119 113 42 10 19 19 18 14 38 109 120 118 119 121 118 120 107 57 60 71 77 83 90 98 102 104 108 110 112 113 112 110 111 111 110 107 104 100 99 96 92 89 86 82 77 71 67 64 60 58 54 50 46 43 40 35 29 37 43 41 40 42 42 45 44 44 48 49 47 48 50 50 30 22 25 25 24 25 24 24 25 26 26 27 28 29 29 29 30 30 30 31 31 32 32 32 32 33 33 33 34 34 34 35 35 36 37 37 37 38 37 39 38 39 40 40 41 41 41 43 44 45 45 45 46 48 50 50 52 55 60 69 78 95 118 144 172 98 5 0 0 0 0 0 0 0 0 0 0 0 0 0 0 0 0 0 0 0 0 0 0 0 0 0 0 0 0 0 0 0 0 0 0 0 0 0 0 0 0 0 0 0 0 0 0 0 0 0 0 0 0 0 0 0 0 0 0 0 0 0 0 0 0 0 0 0 0 0 0 0 0 0 0 0 0 0 0 0 
0 0 0 0 0 0 0 0 0 0 0 0 0 0 0 0 0 0 0 0 0 0 0 0 0 0 0 0 0 0 0 0 0 0 0 0 0 0 1 83 176 181 179 187 207 178 154 147 142 135 134 132 130 126 116 51 0 0 0 0 0 0 0 0 0 0 0 0 0 0 0 0 0 0 0 0 0 0 0 0 0 0 0 6 70 166 167 168 174 175 176 176 176 180 181 179 181 178 178 182 182 179 176 171 145 107 76 61 69 98 123 128 138 151 160 168 176 179 180 174 143 97 76 105 149 174 184 181 178 175 175 173 172 169 167 165 168 161 141 117 106 114 116 64 34 44 52 57 65 78 106 114 113 114 113 112 108 109 115 115 114 111 108 108 106 101 98 96 94 91 90 88 84 82 76 74 70 67 62 58 54 50 47 44 41 39 36 33 31 29 29 29 28 28 28 28 30 30 45 54 57 59 60 63 68 64 62 68 64 68 69 72 61 33 25 28 29 30 30 31 31 31 31 31 32 32 33 33 33 34 34 34 35 35 36 37 38 36 37 37 38 39 39 39 39 39 40 40 40 41 41 43 43 43 43 44 43 46 46 46 47 47 48 50 50 51 52 53 55 57 57 63 81 89 98 118 140 158 168 41 0 0 0 0 0 0 0 0 0 0 0 0 0 0 0 0 0 0 0 0 0 0 0 0 0 0 0 0 0 0 0 0 0 0 0 0 0 0 0 0 0 0 0 0 0 0 0 0 0 0 0 0 0 0 0 0 0 0 0 0 0 0 0 0 0 0 0 0 0 0 0 0 0 0 0 0 0 0 0 
0 0 0 0 0 0 0 0 0 0 0 0 0 0 0 0 0 0 0 0 0 0 0 0 0 0 0 0 0 0 0 0 0 0 0 0 0 0 0 74 176 183 180 201 198 163 149 141 134 134 131 128 125 119 63 0 0 0 0 0 0 0 0 0 0 0 0 0 0 0 0 0 0 0 0 0 0 0 0 0 0 0 0 2 55 163 172 173 177 176 180 179 172 177 183 181 178 177 176 179 181 178 168 135 94 67 61 87 129 158 162 160 169 185 189 187 186 184 183 187 192 185 148 89 90 137 176 182 178 174 171 173 171 169 168 163 160 152 137 115 106 107 110 111 107 109 111 112 114 111 104 105 104 100 91 90 95 91 88 85 81 76 74 71 68 65 60 57 55 53 49 48 44 41 39 38 35 33 33 30 31 31 30 30 28 28 26 26 25 25 25 25 24 25 24 26 33 36 56 61 76 86 82 87 98 85 71 78 69 83 75 70 58 38 30 33 33 34 34 34 34 35 35 35 36 36 37 37 38 39 39 39 40 40 40 42 41 42 42 42 42 43 44 44 45 45 46 46 46 47 45 46 47 49 49 49 49 51 51 51 52 54 54 55 54 57 58 58 62 66 67 71 89 102 107 120 135 147 171 123 9 0 0 0 0 0 0 0 0 0 0 0 0 0 0 0 0 0 0 0 0 0 0 0 0 0 0 0 0 0 0 0 0 0 0 0 0 0 0 0 0 0 0 0 0 0 0 0 0 0 0 0 0 0 0 0 0 0 0 0 0 0 0 0 0 0 0 0 0 0 0 0 0 0 0 0 0 0 0 
0 0 0 0 0 0 0 0 0 0 0 0 0 0 0 0 0 0 0 0 0 0 0 0 0 0 0 0 0 0 0 0 0 0 0 0 0 0 0 67 172 182 188 207 179 152 142 135 132 130 129 126 116 59 0 0 0 0 0 0 0 0 0 0 0 0 0 0 0 0 0 0 0 0 0 0 0 0 0 0 0 0 0 0 47 159 175 173 176 176 180 180 177 178 183 182 177 178 180 174 176 167 127 89 65 65 110 153 173 180 185 191 191 190 189 188 187 188 186 183 184 189 198 142 81 102 118 167 182 176 169 171 167 159 149 136 127 125 115 102 99 98 99 98 94 90 87 83 78 76 73 71 65 62 60 55 54 50 47 44 41 39 37 35 34 35 33 30 31 31 31 30 28 28 28 26 26 27 26 26 26 26 25 26 26 27 27 27 27 28 27 27 28 29 30 31 27 26 44 59 70 79 77 73 73 64 53 57 51 51 45 44 44 42 37 38 38 38 38 39 39 40 39 40 41 41 41 42 42 43 44 44 44 45 45 46 46 47 47 48 48 48 48 48 50 50 50 51 51 51 52 53 54 55 55 55 59 59 57 58 59 62 61 63 67 67 68 72 74 75 80 90 106 116 117 124 137 148 156 174 60 1 0 0 0 0 0 0 0 0 0 0 0 0 0 0 0 0 0 0 0 0 0 0 0 0 0 0 0 0 0 0 0 0 0 0 0 0 0 0 0 0 0 0 0 0 0 0 0 0 0 0 0 0 0 0 0 0 0 0 0 0 0 0 0 0 0 0 0 0 0 0 0 0 0 0 0 0 0 
0 0 0 0 0 0 0 0 0 0 0 0 0 0 0 0 0 0 0 0 0 0 0 0 0 0 0 0 0 0 0 0 0 0 0 0 0 0 0 55 167 183 200 199 161 143 133 130 130 126 127 113 45 0 0 0 0 0 0 0 0 0 0 0 0 0 0 0 0 0 0 0 0 0 0 0 0 0 0 0 0 0 0 0 35 153 178 175 176 177 179 180 180 181 182 181 177 181 178 169 166 131 86 63 70 127 175 187 189 190 189 189 186 186 188 188 186 187 187 185 185 185 188 170 92 93 112 108 165 165 153 148 136 123 112 100 91 85 74 67 66 65 62 56 52 50 47 44 41 40 39 38 36 35 33 33 31 30 30 28 29 28 26 27 27 27 27 27 27 27 27 28 28 28 28 29 29 30 30 30 30 31 32 31 33 33 32 32 33 33 32 33 35 34 35 35 35 29 37 52 46 42 42 40 40 40 41 41 42 41 42 43 44 47 45 42 43 43 43 43 43 44 45 45 45 46 47 47 48 46 48 49 49 48 50 51 53 51 51 52 53 54 55 55 56 57 58 60 61 61 61 67 65 63 67 69 73 71 68 69 72 74 75 80 81 78 79 93 91 84 99 103 115 121 123 138 144 152 152 171 141 16 0 0 0 0 0 0 0 0 0 0 0 0 0 0 0 0 0 0 0 0 0 0 0 0 0 0 0 0 0 0 0 0 0 0 0 0 0 0 0 0 0 0 0 0 0 0 0 0 0 0 0 0 0 0 0 0 0 0 0 0 0 0 0 0 0 0 0 0 0 0 0 0 0 0 0 0 0 
0 0 0 0 0 0 0 0 0 0 0 0 0 0 0 0 0 0 0 0 0 0 0 0 0 0 0 0 0 0 0 0 0 0 0 0 0 0 0 48 161 192 208 178 145 133 128 126 124 122 100 32 0 0 0 0 0 0 0 0 0 0 0 0 0 0 0 0 0 0 0 0 0 0 0 0 0 0 0 0 0 0 0 0 18 135 181 176 176 177 181 181 179 179 183 182 179 182 175 165 134 91 64 68 135 185 194 190 187 186 186 186 185 186 186 186 185 186 186 185 184 185 185 177 152 145 150 96 102 128 122 107 94 86 76 67 60 53 50 46 42 39 37 36 34 33 32 32 31 32 31 29 28 27 27 27 27 27 27 28 28 27 29 29 30 30 31 30 31 32 33 33 33 34 34 34 34 35 35 36 35 36 36 36 37 37 37 37 37 37 37 38 38 38 38 38 40 39 34 44 46 43 43 44 46 47 47 47 48 49 50 50 50 50 50 48 46 47 48 48 48 49 49 49 51 51 51 52 53 53 54 53 55 56 57 58 60 60 60 64 70 66 66 68 67 70 68 71 74 76 71 76 79 71 85 86 74 83 83 86 86 80 92 98 89 88 90 100 109 104 106 121 133 136 141 145 149 162 156 158 179 70 0 0 0 0 0 0 0 0 0 0 0 0 0 0 0 0 0 0 0 0 0 0 0 0 0 0 0 0 0 0 0 0 0 0 0 0 0 0 0 0 0 0 0 0 0 0 0 0 0 0 0 0 0 0 0 0 0 0 0 0 0 0 0 0 0 0 0 0 0 0 0 0 0 0 0 0 0 
0 0 0 0 0 0 0 0 0 0 0 0 0 0 0 0 0 0 0 0 0 0 0 0 0 0 0 0 0 0 0 0 0 0 0 0 0 0 0 41 150 206 196 152 129 124 123 122 113 75 17 0 0 0 0 0 0 0 0 0 0 0 0 0 0 0 0 0 0 0 0 0 0 0 0 0 0 0 0 0 0 0 0 0 12 107 180 176 179 177 180 184 182 181 182 182 182 180 172 142 99 67 64 127 174 191 188 182 183 182 183 186 185 184 183 184 185 185 185 185 185 185 183 183 183 181 177 157 99 76 78 70 64 56 51 47 43 40 39 37 36 35 33 34 32 31 31 32 30 30 31 30 31 30 31 31 31 32 35 34 34 34 35 35 36 36 36 37 36 36 37 37 38 39 38 39 40 39 39 40 39 40 40 40 40 40 41 41 40 41 41 41 42 42 42 43 43 46 40 39 49 49 49 50 50 51 50 52 51 53 53 53 54 54 55 55 52 52 53 52 53 53 55 56 56 58 58 59 59 61 59 62 72 68 66 69 69 73 77 83 89 82 84 86 78 81 85 84 84 90 87 88 89 82 94 91 81 85 91 104 105 103 105 102 105 110 106 106 121 124 119 134 146 152 164 161 157 176 162 157 172 132 0 0 0 0 0 0 0 0 0 0 0 0 0 0 0 0 0 0 0 0 0 0 0 0 0 0 0 0 0 0 0 0 0 0 0 0 0 0 0 0 0 0 0 0 0 0 0 0 0 0 0 0 0 0 0 0 0 0 0 0 0 0 0 0 0 0 0 0 0 0 0 0 0 0 0 0 0 
0 0 0 0 0 0 0 0 0 0 0 0 0 0 0 0 0 0 0 0 0 0 0 0 0 0 0 0 0 0 0 0 0 0 0 0 0 0 0 18 135 204 162 133 125 122 117 95 46 1 0 0 0 0 0 0 0 0 0 0 0 0 0 0 0 0 0 0 0 0 0 0 0 0 0 0 0 0 0 0 0 0 0 0 9 85 177 177 178 179 179 182 184 182 183 181 181 180 158 111 73 55 119 190 159 175 189 182 180 180 182 186 184 182 183 183 185 184 184 184 185 184 185 182 177 181 181 177 158 99 57 52 51 48 45 44 43 42 41 39 39 39 38 38 37 37 36 36 36 37 36 36 37 37 37 37 37 37 39 38 39 39 39 40 40 39 41 41 40 41 42 42 43 43 43 44 44 44 44 44 45 45 45 45 44 45 45 45 45 45 46 46 46 46 46 47 48 49 51 39 44 57 54 53 56 55 56 56 57 58 58 59 60 61 61 62 58 57 59 60 60 61 65 65 64 68 70 76 75 72 75 81 82 74 76 81 80 84 90 86 85 89 100 100 96 98 110 102 100 110 106 115 134 107 94 104 104 102 107 106 116 141 138 126 132 131 123 136 136 137 144 153 158 168 173 180 168 174 176 164 166 159 15 0 0 0 0 0 0 0 0 0 0 0 0 0 0 0 0 0 0 0 0 0 0 0 0 0 0 0 0 0 0 0 0 0 0 0 0 0 0 0 0 0 0 0 0 0 0 0 0 0 0 0 0 0 0 0 0 0 0 0 0 0 0 0 0 0 0 0 0 0 0 0 0 0 0 0 0 
0 0 0 0 0 0 0 0 0 0 0 0 0 0 0 0 0 0 0 0 0 0 0 0 0 0 0 0 0 0 0 0 0 0 0 0 0 0 0 0 87 165 138 133 121 100 61 16 0 0 0 0 0 0 0 0 0 0 0 0 0 0 0 0 0 0 0 0 0 0 0 0 0 0 0 0 0 0 0 0 0 0 0 0 6 76 176 180 178 181 180 182 185 182 182 180 182 176 132 85 58 93 186 203 165 168 184 182 177 179 182 186 185 181 181 181 184 182 180 181 183 183 183 183 181 181 179 177 173 153 112 73 61 55 51 49 49 48 47 45 45 44 42 43 42 42 42 40 41 40 39 40 41 41 40 41 41 41 41 42 42 42 42 43 44 44 44 45 45 46 47 46 46 48 48 48 48 48 49 49 49 49 48 49 50 49 49 49 49 49 49 50 50 50 51 51 51 52 55 51 41 61 63 60 61 62 63 64 64 64 65 65 68 70 68 71 69 66 67 72 70 70 74 74 73 85 89 93 92 81 101 98 84 80 89 99 97 107 100 99 103 108 113 118 115 111 120 119 108 108 109 129 149 131 122 125 138 129 131 127 132 149 163 161 155 140 143 150 142 147 160 164 163 168 178 176 170 177 188 183 177 183 83 0 0 0 0 0 0 0 0 0 0 0 0 0 0 0 0 0 0 0 0 0 0 0 0 0 0 0 0 0 0 0 0 0 0 0 0 0 0 0 0 0 0 0 0 0 0 0 0 0 0 0 0 0 0 0 0 0 0 0 0 0 0 0 0 0 0 0 0 0 0 0 0 0 0 0 0 
0 0 0 0 0 0 0 0 0 0 0 0 0 0 0 0 0 0 0 0 0 0 0 0 0 0 0 0 0 0 0 0 0 0 0 0 0 0 0 0 22 72 87 70 46 14 0 0 0 0 0 0 0 0 0 0 0 0 0 0 0 0 0 0 0 0 0 0 0 0 0 0 0 0 0 0 0 0 0 0 0 0 0 0 2 63 172 182 179 180 180 181 184 182 181 182 184 157 105 67 72 161 200 190 193 192 168 178 182 181 180 185 185 184 183 181 181 179 178 181 181 182 181 183 181 181 180 178 176 167 153 119 84 71 62 56 53 51 50 49 49 47 46 45 46 45 45 44 45 44 44 44 44 44 44 44 44 46 47 46 46 47 47 47 49 49 48 49 49 50 50 50 51 52 51 51 51 52 52 53 52 52 53 51 53 53 54 54 53 56 56 54 57 56 58 58 60 62 62 62 50 50 69 66 66 68 69 68 71 73 75 71 73 75 73 76 80 77 74 77 78 78 79 90 93 107 105 102 99 103 110 108 101 99 110 109 105 122 124 125 136 131 126 145 137 120 130 135 131 143 145 167 167 118 123 139 145 137 143 140 139 143 144 150 150 148 160 159 163 166 156 156 159 164 182 176 165 154 172 180 175 184 161 18 0 0 0 0 0 0 0 0 0 0 0 0 0 0 0 0 0 0 0 0 0 0 0 0 0 0 0 0 0 0 0 0 0 0 0 0 0 0 0 0 0 0 0 0 0 0 0 0 0 0 0 0 0 0 0 0 0 0 0 0 0 0 0 0 0 0 0 0 0 0 0 0 0 0 0 
0 0 0 0 0 0 0 0 0 0 0 0 0 0 0 0 0 0 0 0 0 0 0 0 0 0 0 0 0 0 0 0 0 0 0 0 0 0 0 0 0 0 0 0 0 0 0 0 0 0 0 0 0 0 0 0 0 0 0 0 0 0 0 0 0 0 0 0 0 0 0 0 0 0 0 0 0 0 0 0 0 0 0 0 0 52 169 181 178 179 179 180 184 180 179 184 177 131 84 61 116 181 193 185 193 205 176 177 185 185 183 182 184 184 182 181 181 178 179 180 180 180 181 181 181 180 181 180 177 172 162 157 113 90 81 70 62 59 56 53 52 51 51 50 50 49 49 48 48 47 48 48 48 49 49 48 49 50 51 50 51 51 52 52 52 53 52 53 53 54 55 56 56 55 57 57 57 58 58 59 59 59 59 59 59 61 62 60 62 65 66 63 66 66 66 67 71 74 72 69 64 48 80 82 70 73 76 77 78 86 86 79 78 80 84 86 89 91 82 81 92 90 92 104 109 111 108 116 119 127 122 128 130 126 135 125 120 130 132 139 146 143 143 151 147 145 154 155 151 140 119 144 173 146 126 144 145 155 149 139 141 155 157 152 149 167 172 155 160 158 141 138 140 141 150 157 154 143 148 162 171 183 192 79 0 0 0 0 0 0 0 0 0 0 0 0 0 0 0 0 0 0 0 0 0 0 0 0 0 0 0 0 0 0 0 0 0 0 0 0 0 0 0 0 0 0 0 0 0 0 0 0 0 0 0 0 0 0 0 0 0 0 0 0 0 0 0 0 0 0 0 0 0 0 0 0 0 0 0 
0 0 0 0 0 0 0 0 0 0 0 0 0 0 0 0 0 0 0 0 0 0 0 0 0 0 0 0 0 0 0 0 0 0 0 0 0 0 0 0 0 0 0 0 0 0 0 0 0 0 0 0 0 0 0 0 0 0 0 0 0 0 0 0 0 0 0 0 0 0 0 0 0 0 0 0 0 0 0 0 0 0 0 0 0 36 165 180 178 179 178 181 184 183 183 186 157 107 64 86 170 188 187 182 185 184 187 177 186 184 182 181 183 183 181 181 181 180 180 179 180 179 181 181 181 180 181 180 177 176 165 166 155 103 95 87 77 70 65 61 58 55 55 54 54 54 52 53 52 52 52 52 52 53 53 53 54 55 54 55 56 57 58 58 58 59 59 59 60 61 62 63 63 63 65 66 65 65 66 66 65 67 67 67 66 68 72 69 70 70 72 73 73 73 74 75 76 77 78 76 79 59 82 113 82 80 85 91 89 93 93 92 92 99 102 104 99 107 106 95 109 111 118 117 113 118 116 128 122 128 125 130 141 141 132 137 141 138 136 144 147 142 147 149 153 158 152 154 134 115 113 95 140 179 156 128 126 141 134 132 133 135 127 131 133 148 148 153 165 155 145 145 145 160 174 182 190 207 197 209 218 216 212 144 10 0 0 0 0 0 0 0 0 0 0 0 0 0 0 0 0 0 0 0 0 0 0 0 0 0 0 0 0 0 0 0 0 0 0 0 0 0 0 0 0 0 0 0 0 0 0 0 0 0 0 0 0 0 0 0 0 0 0 0 0 0 0 0 0 0 0 0 0 0 0 0 0 0 0 
0 0 0 0 0 0 0 0 0 0 0 0 0 0 0 0 0 0 0 0 0 0 0 0 0 0 0 0 0 0 0 0 0 0 0 0 0 0 0 0 0 0 0 0 0 0 0 0 0 0 0 0 0 0 0 0 0 0 0 0 0 0 0 0 0 0 0 0 0 0 0 0 0 0 0 0 0 0 0 0 0 0 0 0 0 24 144 181 178 178 181 180 179 179 180 174 134 83 63 150 200 189 183 182 184 165 171 178 183 184 183 182 181 184 183 181 181 181 180 178 180 179 181 180 180 179 179 180 177 178 174 162 176 138 98 97 89 83 76 71 66 63 60 58 58 57 57 57 57 56 57 57 57 57 58 59 59 61 64 62 62 63 64 65 66 67 67 68 68 68 69 70 71 71 73 73 73 72 72 73 76 75 72 73 73 73 75 78 76 76 78 81 80 79 83 87 86 84 84 87 94 78 61 126 107 94 95 102 105 105 99 102 108 114 111 114 112 115 130 112 111 120 126 132 125 125 127 132 129 133 127 124 131 141 140 135 140 131 135 142 140 124 133 136 136 128 131 165 144 126 146 146 108 166 182 144 158 152 170 186 173 155 156 173 189 174 165 187 208 205 188 181 183 200 212 204 204 226 220 229 238 230 229 193 61 0 0 0 0 0 0 0 0 0 0 0 0 0 0 0 0 0 0 0 0 0 0 0 0 0 0 0 0 0 0 0 0 0 0 0 0 0 0 0 0 0 0 0 0 0 0 0 0 0 0 0 0 0 0 0 0 0 0 0 0 0 0 0 0 0 0 0 0 0 0 0 0 0 0 
0 0 0 0 0 0 0 0 0 0 0 0 0 0 0 0 0 0 0 0 0 0 0 0 0 0 0 0 0 0 0 0 0 0 0 0 0 0 0 0 0 0 0 0 0 0 0 0 0 0 0 0 0 0 0 0 0 0 0 0 0 0 0 0 0 0 0 0 0 0 0 0 0 0 0 0 0 0 0 0 0 0 0 0 0 18 117 180 177 175 174 153 142 140 140 135 107 60 102 194 194 186 180 181 185 175 161 172 183 185 184 185 182 183 184 181 181 183 180 178 179 179 180 180 180 180 179 181 180 179 177 167 165 177 116 99 100 94 88 84 77 72 68 66 64 63 62 63 62 62 63 63 64 64 65 66 66 67 71 69 69 69 70 71 72 74 74 73 75 75 75 76 77 77 79 78 79 82 79 81 84 79 78 80 88 91 86 91 91 94 93 89 91 92 93 99 96 95 99 104 106 106 68 88 118 105 109 112 113 115 106 104 115 113 118 125 122 122 142 124 109 120 117 126 118 116 121 119 121 120 112 111 104 105 112 107 112 110 109 118 124 121 121 132 138 135 155 202 192 117 115 175 112 183 229 197 219 216 218 225 210 200 210 214 212 211 205 203 214 214 207 209 220 204 195 203 219 229 221 233 240 236 231 208 112 0 0 0 0 0 0 0 0 0 0 0 0 0 0 0 0 0 0 0 0 0 0 0 0 0 0 0 0 0 0 0 0 0 0 0 0 0 0 0 0 0 0 0 0 0 0 0 0 0 0 0 0 0 0 0 0 0 0 0 0 0 0 0 0 0 0 0 0 0 0 0 0 0 0 
0 0 0 0 0 0 0 0 0 0 0 0 0 0 0 0 0 0 0 0 0 0 0 0 0 0 0 0 0 0 0 0 0 0 0 0 0 0 0 0 0 0 0 0 0 0 0 0 0 0 0 0 0 0 0 0 0 0 0 0 0 0 0 0 0 0 0 0 0 0 0 0 0 0 0 0 0 0 0 0 0 0 0 0 0 13 95 166 161 147 130 114 106 112 115 119 119 100 162 197 186 186 181 179 183 184 168 164 178 186 185 185 185 184 182 182 183 182 181 178 177 181 181 179 180 181 178 180 177 178 176 173 161 182 158 100 105 102 97 93 86 81 77 75 72 70 71 68 69 70 69 69 69 70 71 70 72 72 73 75 76 76 76 77 77 78 78 79 81 81 82 84 85 86 85 86 88 91 92 95 92 92 92 97 103 106 108 107 109 111 109 106 107 108 108 109 110 115 116 114 116 124 107 59 114 109 114 125 120 130 132 112 122 124 145 146 143 146 153 136 109 107 101 101 103 105 113 111 112 111 119 123 118 103 107 124 144 141 137 161 175 166 163 183 191 187 185 216 239 188 139 133 129 226 249 208 204 228 222 221 212 227 219 220 212 218 225 225 223 213 222 232 232 207 199 215 221 223 216 221 226 226 221 207 153 12 0 0 0 0 0 0 0 0 0 0 0 0 0 0 0 0 0 0 0 0 0 0 0 0 0 0 0 0 0 0 0 0 0 0 0 0 0 0 0 0 0 0 0 0 0 0 0 0 0 0 0 0 0 0 0 0 0 0 0 0 0 0 0 0 0 0 0 0 0 0 0 0 0 
0 0 0 0 0 0 0 0 0 0 0 0 0 0 0 0 0 0 0 0 0 0 0 0 0 0 0 0 0 0 0 0 0 0 0 0 0 0 0 0 0 0 0 0 0 0 0 0 0 0 0 0 0 0 0 0 0 0 0 0 0 0 0 0 0 0 0 0 0 0 0 0 0 0 0 0 0 0 0 0 0 0 0 0 0 2 49 130 122 112 109 113 114 125 134 139 134 149 193 190 184 183 183 182 183 183 169 156 173 186 185 185 185 183 181 183 183 181 181 178 174 181 182 180 179 181 175 176 175 176 177 176 166 167 188 123 101 107 102 96 93 89 86 82 80 80 79 78 77 76 76 76 74 76 76 77 78 78 79 81 84 84 84 85 88 88 91 93 95 94 96 100 100 103 102 103 105 108 111 108 108 110 110 114 113 114 121 122 120 117 119 122 122 122 122 122 130 124 117 119 129 130 135 72 92 134 127 144 151 163 170 151 138 149 164 180 176 202 201 150 116 113 127 135 130 142 146 140 135 131 145 164 154 148 151 170 194 191 179 194 198 190 181 185 189 192 191 206 244 251 227 196 214 245 252 232 191 229 231 232 222 238 215 217 221 211 221 226 209 202 215 223 216 215 220 211 203 205 207 208 214 209 213 205 180 42 0 0 0 0 0 0 0 0 0 0 0 0 0 0 0 0 0 0 0 0 0 0 0 0 0 0 0 0 0 0 0 0 0 0 0 0 0 0 0 0 0 0 0 0 0 0 0 0 0 0 0 0 0 0 0 0 0 0 0 0 0 0 0 0 0 0 0 0 0 0 0 0 0 
0 0 0 0 0 0 0 0 0 0 0 0 0 0 0 0 0 0 0 0 0 0 0 0 0 0 0 0 0 0 0 0 0 0 0 0 0 0 0 0 0 0 0 0 0 0 0 0 0 0 0 0 0 0 0 0 0 0 0 0 0 0 0 0 0 0 0 0 0 0 0 0 0 0 0 0 0 0 0 0 0 0 0 0 0 0 10 49 71 79 76 69 67 64 56 45 31 114 197 187 180 180 181 184 184 185 175 170 177 182 185 184 185 185 183 183 183 182 181 181 178 178 181 180 179 181 176 172 176 176 179 178 172 159 183 166 101 107 106 102 98 94 93 89 88 87 85 87 86 84 84 86 86 84 84 88 90 89 90 91 93 95 97 100 106 110 110 110 109 110 111 113 114 117 119 121 123 125 123 120 122 124 122 128 131 130 130 133 131 128 132 134 136 138 139 136 141 127 123 129 128 134 148 113 66 144 174 183 187 187 190 190 154 171 190 202 196 232 247 178 124 134 157 164 157 172 185 157 157 160 160 160 167 192 175 178 188 209 194 190 172 179 195 190 189 202 215 210 233 250 246 238 236 229 231 228 190 214 220 228 202 211 206 195 199 201 207 210 192 189 194 203 195 206 222 201 195 200 202 192 203 202 208 205 194 88 0 0 0 0 0 0 0 0 0 0 0 0 0 0 0 0 0 0 0 0 0 0 0 0 0 0 0 0 0 0 0 0 0 0 0 0 0 0 0 0 0 0 0 0 0 0 0 0 0 0 0 0 0 0 0 0 0 0 0 0 0 0 0 0 0 0 0 0 0 0 0 0 0 
0 0 0 0 0 0 0 0 0 0 0 0 0 0 0 0 0 0 0 0 0 0 0 0 0 0 0 0 0 0 0 0 0 0 0 0 0 0 0 0 0 0 0 0 0 0 0 0 0 0 0 0 0 0 0 0 0 0 0 0 0 0 0 0 0 0 0 0 0 0 0 0 0 0 0 0 0 0 0 0 0 0 0 0 0 0 0 3 11 13 11 6 5 3 0 0 11 139 196 185 179 181 182 181 182 183 181 180 183 180 186 185 185 185 184 180 182 182 181 185 182 179 179 180 180 179 178 172 174 176 179 178 175 163 163 193 122 103 108 107 104 101 101 97 95 95 94 93 93 95 93 95 97 96 97 100 102 104 107 110 109 111 116 117 118 121 120 122 124 127 125 124 124 128 133 138 138 140 140 141 144 143 142 144 145 136 141 148 141 141 146 141 142 147 150 151 142 128 136 135 125 137 148 148 68 107 187 227 214 193 210 234 187 173 215 206 193 218 244 189 120 145 178 175 183 176 186 172 165 176 173 174 190 198 180 178 173 200 199 195 187 178 191 201 196 194 209 208 204 200 204 200 196 203 188 196 197 181 188 210 199 187 197 193 189 198 197 200 201 195 188 189 174 183 197 190 195 196 198 187 190 201 202 199 199 134 0 0 0 0 0 0 0 0 0 0 0 0 0 0 0 0 0 0 0 0 0 0 0 0 0 0 0 0 0 0 0 0 0 0 0 0 0 0 0 0 0 0 0 0 0 0 0 0 0 0 0 0 0 0 0 0 0 0 0 0 0 0 0 0 0 0 0 0 0 0 0 0 0 
0 0 0 0 0 0 0 0 0 0 0 0 0 0 0 0 0 0 0 0 0 0 0 0 0 0 0 0 0 0 0 0 0 0 0 0 0 0 0 0 0 0 0 0 0 0 0 0 0 0 0 0 0 0 0 0 0 0 0 0 0 0 0 0 0 0 0 0 0 0 0 0 0 0 0 0 0 0 0 0 0 0 0 0 0 0 0 0 0 0 0 0 0 0 0 0 53 183 190 183 181 183 183 181 180 181 182 163 180 181 183 185 186 185 185 181 180 180 183 183 183 181 177 179 181 176 176 172 175 176 176 177 176 169 157 186 170 107 113 112 112 111 109 106 104 105 105 104 104 103 104 106 107 107 109 108 110 113 117 122 125 131 135 130 126 126 129 133 139 141 141 141 141 139 145 148 151 153 160 161 163 158 162 159 148 137 146 166 162 154 153 143 141 146 153 159 148 144 146 143 136 145 151 163 97 78 167 225 219 197 203 228 195 157 214 210 193 186 213 184 122 146 196 195 199 190 160 178 182 177 171 192 192 200 193 183 184 190 182 193 213 202 181 188 185 190 190 181 192 178 183 195 196 194 195 179 194 196 182 189 202 183 180 184 191 198 195 196 191 193 194 183 163 178 194 192 179 182 185 194 192 192 195 194 201 167 16 0 0 0 0 0 0 0 0 0 0 0 0 0 0 0 0 0 0 0 0 0 0 0 0 0 0 0 0 0 0 0 0 0 0 0 0 0 0 0 0 0 0 0 0 0 0 0 0 0 0 0 0 0 0 0 0 0 0 0 0 0 0 0 0 0 0 0 0 0 0 0 0 
0 0 0 0 0 0 0 0 0 0 0 0 0 0 0 0 0 0 0 0 0 0 0 0 0 0 0 0 0 0 0 0 0 0 0 0 0 0 0 0 0 0 0 0 0 0 0 0 0 0 0 0 0 0 0 0 0 0 0 0 0 0 0 0 0 0 0 0 0 0 0 0 0 0 0 0 0 0 0 0 0 0 0 0 0 0 0 0 0 0 0 0 0 0 0 0 109 194 186 181 183 181 182 182 181 179 179 176 192 182 181 185 185 185 184 184 183 182 182 182 185 182 179 180 182 178 176 175 176 176 174 177 176 174 162 168 193 124 115 118 118 116 114 112 113 111 111 113 113 113 112 112 114 114 116 117 119 123 129 131 134 133 135 140 140 138 143 143 141 147 157 156 159 156 159 158 166 170 160 161 162 171 183 176 162 152 149 159 168 159 161 164 147 146 153 163 166 169 154 146 138 145 151 153 129 70 154 210 217 202 178 194 190 141 185 200 184 176 186 173 128 130 174 193 192 179 173 153 186 174 176 172 170 179 175 177 190 186 174 180 191 194 185 173 163 180 187 174 182 176 180 194 194 185 189 176 180 190 180 182 192 191 183 173 183 182 184 185 177 179 194 179 156 172 190 181 173 174 182 184 183 188 191 193 199 180 47 0 0 0 0 0 0 0 0 0 0 0 0 0 0 0 0 0 0 0 0 0 0 0 0 0 0 0 0 0 0 0 0 0 0 0 0 0 0 0 0 0 0 0 0 0 0 0 0 0 0 0 0 0 0 0 0 0 0 0 0 0 0 0 0 0 0 0 0 0 0 0 0 
0 0 0 0 0 0 0 0 0 0 0 0 0 0 0 0 0 0 0 0 0 0 0 0 0 0 0 0 0 0 0 0 0 0 0 0 0 0 0 0 0 0 0 0 0 0 0 0 0 0 0 0 0 0 0 0 0 0 0 0 0 0 0 0 0 0 0 0 0 0 0 0 0 0 0 0 0 0 0 0 0 0 0 0 0 0 0 0 0 0 0 0 0 0 0 12 146 191 184 182 184 180 181 181 182 182 184 188 197 186 178 186 185 184 183 183 185 184 181 180 183 183 181 181 181 177 176 179 177 176 175 176 176 175 168 158 187 151 112 123 122 121 119 119 122 117 115 118 117 119 119 121 122 121 120 126 129 134 136 134 131 128 125 139 145 138 145 155 151 156 166 166 166 171 172 173 172 181 171 166 162 177 193 187 182 173 156 156 170 172 158 168 163 146 143 164 171 169 163 148 139 150 146 154 153 73 121 184 185 178 166 167 174 137 154 177 163 166 170 168 146 120 154 185 157 148 178 167 169 165 171 157 163 153 161 177 178 170 168 176 171 178 173 164 161 163 173 177 171 168 181 183 173 161 166 164 176 178 173 176 181 182 181 169 171 170 175 180 183 175 174 171 170 174 172 173 181 182 178 173 172 184 186 193 197 182 82 0 0 0 0 0 0 0 0 0 0 0 0 0 0 0 0 0 0 0 0 0 0 0 0 0 0 0 0 0 0 0 0 0 0 0 0 0 0 0 0 0 0 0 0 0 0 0 0 0 0 0 0 0 0 0 0 0 0 0 0 0 0 0 0 0 0 0 0 0 0 0 0 
0 0 0 0 0 0 0 0 0 0 0 0 0 0 0 0 0 0 0 0 0 0 0 0 0 0 0 0 0 0 0 0 0 0 0 0 0 0 0 0 0 0 0 0 0 0 0 0 0 0 0 0 0 0 0 0 0 0 0 0 0 0 0 0 0 0 0 0 0 0 0 0 0 0 0 0 0 0 0 0 0 0 0 0 0 0 0 0 0 0 0 0 0 0 0 43 173 187 182 181 181 183 182 180 182 184 182 181 194 188 176 185 185 184 184 183 184 184 183 180 182 183 180 181 179 179 178 179 176 176 176 174 176 176 172 158 170 171 116 124 124 125 124 123 125 127 124 123 124 126 128 132 132 131 133 133 137 137 138 136 132 130 133 133 130 138 140 147 154 162 167 174 174 182 181 182 172 183 181 172 157 166 189 179 175 181 174 150 165 173 164 158 157 153 154 172 168 157 167 161 142 154 156 156 162 92 97 167 170 166 159 158 159 139 135 164 157 157 161 168 146 116 135 175 160 149 155 170 163 170 172 161 158 148 147 168 170 173 167 163 166 175 158 158 173 167 168 171 170 169 169 171 170 159 170 166 162 175 175 180 178 173 173 167 161 156 172 181 187 170 166 170 181 176 167 180 182 181 169 165 173 182 180 186 193 185 109 0 0 0 0 0 0 0 0 0 0 0 0 0 0 0 0 0 0 0 0 0 0 0 0 0 0 0 0 0 0 0 0 0 0 0 0 0 0 0 0 0 0 0 0 0 0 0 0 0 0 0 0 0 0 0 0 0 0 0 0 0 0 0 0 0 0 0 0 0 0 0 0 
0 0 0 0 0 0 0 0 0 0 0 0 0 0 0 0 0 0 0 0 0 0 0 0 0 0 0 0 0 0 0 0 0 0 0 0 0 0 0 0 0 0 0 0 0 0 0 0 0 0 0 0 0 0 0 0 0 0 0 0 0 0 0 0 0 0 0 0 0 0 0 0 0 0 0 0 0 0 0 0 0 0 0 0 0 0 0 0 0 0 0 0 0 0 0 89 190 183 180 181 180 183 181 180 182 183 183 184 191 185 173 185 182 181 185 184 181 184 184 181 182 185 180 179 177 177 180 179 178 176 177 175 176 177 174 164 158 172 132 125 131 127 132 131 127 129 131 131 132 134 136 136 132 136 133 134 135 138 140 140 133 129 138 140 132 138 143 148 150 156 167 165 169 174 177 181 181 173 185 178 160 173 183 166 161 167 160 151 157 164 165 157 150 149 158 163 163 154 159 160 143 145 150 142 161 120 79 150 160 158 153 154 157 145 128 153 159 157 155 162 153 125 120 157 177 162 153 152 160 167 173 163 161 158 147 157 162 161 156 158 166 168 160 161 170 164 162 161 171 170 156 163 166 159 169 163 158 175 173 166 172 172 174 171 169 160 163 171 175 165 166 172 169 172 168 174 174 173 164 167 179 178 176 178 183 188 136 3 0 0 0 0 0 0 0 0 0 0 0 0 0 0 0 0 0 0 0 0 0 0 0 0 0 0 0 0 0 0 0 0 0 0 0 0 0 0 0 0 0 0 0 0 0 0 0 0 0 0 0 0 0 0 0 0 0 0 0 0 0 0 0 0 0 0 0 0 0 0 0 
0 0 0 0 0 0 0 0 0 0 0 0 0 0 0 0 0 0 0 0 0 0 0 0 0 0 0 0 0 0 0 0 0 0 0 0 0 0 0 0 0 0 0 0 0 0 0 0 0 0 0 0 0 0 0 0 0 0 0 0 0 0 0 0 0 0 0 0 0 0 0 0 0 0 0 0 0 0 0 0 0 0 0 0 0 0 0 0 0 0 0 0 0 0 1 106 187 184 177 178 178 182 181 182 183 184 182 185 193 193 173 180 186 184 182 182 182 183 183 184 181 182 181 178 176 180 181 178 180 177 177 175 176 176 175 169 155 166 149 126 140 134 136 132 128 132 136 135 134 133 134 135 131 134 129 132 132 141 145 134 136 141 135 136 138 134 133 147 152 145 165 166 163 163 171 179 175 169 176 177 170 173 173 161 156 160 151 155 154 156 160 161 157 143 146 152 158 158 154 155 149 146 152 149 149 138 76 128 156 153 151 155 155 146 133 143 153 155 154 156 157 135 117 138 169 174 162 155 165 161 160 161 157 161 156 155 157 155 158 159 162 164 157 155 159 161 164 154 161 168 163 159 159 161 162 159 163 171 170 152 163 165 157 166 175 166 151 158 166 157 158 161 159 161 157 169 173 168 161 172 178 166 165 167 174 184 151 19 0 0 0 0 0 0 0 0 0 0 0 0 0 0 0 0 0 0 0 0 0 0 0 0 0 0 0 0 0 0 0 0 0 0 0 0 0 0 0 0 0 0 0 0 0 0 0 0 0 0 0 0 0 0 0 0 0 0 0 0 0 0 0 0 0 0 0 0 0 0 0 
0 0 0 0 0 0 0 0 0 0 0 0 0 0 0 0 0 0 0 0 0 0 0 0 0 0 0 0 0 0 0 0 0 0 0 0 0 0 0 0 0 0 0 0 0 0 0 0 0 0 0 0 0 0 0 0 0 0 0 0 0 0 0 0 0 0 0 0 0 0 0 0 0 0 0 0 0 0 0 0 0 0 0 0 0 0 0 0 0 0 0 0 0 0 16 130 187 182 177 176 175 181 181 183 184 185 181 181 189 200 180 172 188 183 183 183 181 183 185 183 182 182 183 177 176 182 181 179 179 177 177 176 175 176 176 173 159 159 155 125 136 136 134 132 132 135 134 132 132 135 132 134 133 132 133 133 133 138 143 140 136 147 144 136 134 132 132 141 152 144 147 155 161 155 160 166 163 157 153 159 161 160 161 154 150 155 154 146 141 150 153 145 151 148 138 141 146 148 144 146 143 139 146 146 140 147 85 106 150 152 148 149 150 142 134 136 149 146 146 151 153 134 119 133 152 158 154 148 157 160 161 156 154 152 148 149 154 152 153 160 160 157 151 151 153 152 157 156 154 163 159 158 148 156 167 158 154 157 163 150 155 161 158 160 165 165 149 152 161 152 151 158 162 163 152 160 164 155 157 165 163 158 152 153 162 172 151 40 0 0 0 0 0 0 0 0 0 0 0 0 0 0 0 0 0 0 0 0 0 0 0 0 0 0 0 0 0 0 0 0 0 0 0 0 0 0 0 0 0 0 0 0 0 0 0 0 0 0 0 0 0 0 0 0 0 0 0 0 0 0 0 0 0 0 0 0 0 0 0 
0 0 0 0 0 0 0 0 0 0 0 0 0 0 0 0 0 0 0 0 0 0 0 0 0 0 0 0 0 0 0 0 0 0 0 0 0 0 0 0 0 0 0 0 0 0 0 0 0 0 0 0 0 0 0 0 0 0 0 0 0 0 0 0 0 0 0 0 0 0 0 0 0 0 0 0 0 0 0 0 0 0 0 0 0 0 0 0 0 0 0 0 0 0 39 153 187 180 179 176 177 179 180 182 183 185 183 181 183 200 203 177 181 184 184 184 182 184 185 183 183 184 181 177 178 181 181 180 177 178 177 176 176 175 176 174 163 152 151 130 134 138 135 138 135 134 133 131 132 131 133 132 132 135 139 135 137 134 135 139 135 141 143 139 138 133 137 142 141 140 140 148 152 149 150 152 151 148 151 147 147 150 149 149 148 145 142 142 141 138 142 142 142 145 140 137 137 138 141 141 141 140 141 142 138 150 100 89 144 153 147 142 145 149 134 126 147 148 149 150 151 133 116 125 145 155 151 145 136 146 154 144 159 149 142 153 145 147 153 154 148 147 148 146 146 146 152 157 151 157 144 150 147 148 153 153 148 151 154 149 157 156 157 162 156 152 157 152 149 149 148 150 151 161 152 147 156 146 146 145 155 153 145 149 152 154 145 65 0 0 0 0 0 0 0 0 0 0 0 0 0 0 0 0 0 0 0 0 0 0 0 0 0 0 0 0 0 0 0 0 0 0 0 0 0 0 0 0 0 0 0 0 0 0 0 0 0 0 0 0 0 0 0 0 0 0 0 0 0 0 0 0 0 0 0 0 0 0 0 
0 0 0 0 0 0 0 0 0 0 0 0 0 0 0 0 0 0 0 0 0 0 0 0 0 0 0 0 0 0 0 0 0 0 0 0 0 0 0 0 0 0 0 0 0 0 0 0 0 0 0 0 0 0 0 0 0 0 0 0 0 0 0 0 0 0 0 0 0 0 0 0 0 0 0 0 0 0 0 0 0 0 0 0 0 0 0 0 0 0 0 0 0 0 63 177 187 175 177 178 178 176 177 181 184 185 185 182 180 190 207 187 176 187 186 185 184 184 185 183 183 183 179 179 180 180 181 180 178 180 176 172 174 174 176 176 168 151 145 129 128 136 133 135 135 133 132 130 131 130 130 127 132 131 130 129 136 132 133 143 139 134 135 126 126 134 138 138 141 141 140 142 144 143 142 142 141 141 140 141 142 138 138 139 139 138 135 140 141 131 132 140 141 141 138 136 137 134 139 137 139 137 131 136 135 147 113 82 134 144 140 138 140 147 130 118 141 145 144 147 147 133 118 120 137 148 143 148 137 140 144 144 149 153 146 143 143 148 152 145 144 146 152 144 143 154 153 153 147 145 144 144 140 146 147 142 139 149 142 143 149 151 143 154 158 147 153 149 138 140 143 149 147 148 147 146 148 139 141 143 146 140 138 141 141 143 139 79 0 0 0 0 0 0 0 0 0 0 0 0 0 0 0 0 0 0 0 0 0 0 0 0 0 0 0 0 0 0 0 0 0 0 0 0 0 0 0 0 0 0 0 0 0 0 0 0 0 0 0 0 0 0 0 0 0 0 0 0 0 0 0 0 0 0 0 0 0 0 0 
0 0 0 0 0 0 0 0 0 0 0 0 0 0 0 0 0 0 0 0 0 0 0 0 0 0 0 0 0 0 0 0 0 0 0 0 0 0 0 0 0 0 0 0 0 0 0 0 0 0 0 0 0 0 0 0 0 0 0 0 0 0 0 0 0 0 0 0 0 0 0 0 0 0 0 0 0 0 0 0 0 0 0 0 0 0 0 0 0 0 0 0 0 0 90 184 183 178 178 176 178 179 179 178 183 184 185 182 183 188 189 180 177 184 184 185 186 183 182 180 181 180 181 183 183 177 180 178 179 178 177 176 175 172 173 176 174 155 141 129 120 130 131 130 132 131 127 130 132 127 131 130 129 131 133 123 130 140 134 131 133 129 130 124 125 128 135 135 135 137 137 138 138 138 135 136 136 139 140 136 136 134 130 132 134 134 134 137 136 134 135 136 135 134 136 137 134 132 135 137 136 133 131 130 133 142 128 78 121 139 139 137 136 139 131 115 134 141 139 143 147 134 112 115 134 144 140 143 140 137 139 139 143 149 143 140 139 141 142 144 146 141 139 144 145 139 138 143 145 136 138 141 140 148 148 138 143 140 140 139 138 137 140 143 144 136 136 142 136 137 141 141 138 141 143 143 141 135 135 137 138 130 132 135 139 132 127 84 0 0 0 0 0 0 0 0 0 0 0 0 0 0 0 0 0 0 0 0 0 0 0 0 0 0 0 0 0 0 0 0 0 0 0 0 0 0 0 0 0 0 0 0 0 0 0 0 0 0 0 0 0 0 0 0 0 0 0 0 0 0 0 0 0 0 0 0 0 0 0 
0 0 0 0 0 0 0 0 0 0 0 0 0 0 0 0 0 0 0 0 0 0 0 0 0 0 0 0 0 0 0 0 0 0 0 0 0 0 0 0 0 0 0 0 0 0 0 0 0 0 0 0 0 0 0 0 0 0 0 0 0 0 0 0 0 0 0 0 0 0 0 0 0 0 0 0 0 0 0 0 0 0 0 0 0 0 0 0 0 0 0 0 0 3 105 186 181 178 178 181 180 180 178 181 181 182 185 184 183 183 182 181 178 183 185 182 181 185 183 181 184 181 182 182 181 180 180 180 179 176 176 174 173 175 175 175 175 162 140 130 115 121 131 129 131 133 127 124 130 126 127 127 131 129 131 129 126 132 135 130 127 130 130 124 126 132 130 128 129 135 137 135 135 132 133 133 133 132 136 135 132 129 130 131 129 130 132 133 135 132 131 131 134 133 132 132 130 129 130 132 133 133 130 128 127 134 136 78 111 137 137 135 136 135 128 111 124 135 131 133 140 136 111 108 124 141 133 126 133 142 134 139 143 139 137 138 139 137 133 134 142 141 128 137 142 129 132 137 137 133 136 141 139 139 139 137 137 137 138 134 134 129 138 141 130 126 123 128 130 125 128 127 127 133 130 130 131 129 131 126 128 125 127 127 129 125 122 67 0 0 0 0 0 0 0 0 0 0 0 0 0 0 0 0 0 0 0 0 0 0 0 0 0 0 0 0 0 0 0 0 0 0 0 0 0 0 0 0 0 0 0 0 0 0 0 0 0 0 0 0 0 0 0 0 0 0 0 0 0 0 0 0 0 0 0 0 0 0 0 
0 0 0 0 0 0 0 0 0 0 0 0 0 0 0 0 0 0 0 0 0 0 0 0 0 0 0 0 0 0 0 0 0 0 0 0 0 0 0 0 0 0 0 0 0 0 0 0 0 0 0 0 0 0 0 0 0 0 0 0 0 0 0 0 0 0 0 0 0 0 0 0 0 0 0 0 0 0 0 0 0 0 0 0 0 0 0 0 0 0 0 0 0 13 123 185 180 178 179 181 182 179 177 183 181 182 186 184 184 185 180 178 183 181 185 184 183 184 182 183 183 180 183 182 180 182 181 181 178 178 177 173 173 176 174 174 176 166 142 130 115 117 130 129 130 132 127 122 125 130 123 131 127 129 127 131 129 126 124 127 128 127 126 129 126 125 125 128 127 128 130 129 130 129 129 131 131 127 130 130 130 130 127 129 127 126 129 129 131 130 124 122 126 127 127 127 130 127 125 126 127 130 124 124 123 128 135 83 102 138 135 124 118 113 108 104 106 106 105 105 114 116 143 140 116 130 133 123 134 139 130 133 137 135 131 132 135 132 126 126 131 136 128 130 136 128 129 130 126 128 129 135 133 126 124 127 129 132 127 128 125 123 126 128 125 122 123 125 124 121 121 122 118 123 126 126 120 118 122 120 124 125 119 119 123 123 122 75 0 0 0 0 0 0 0 0 0 0 0 0 0 0 0 0 0 0 0 0 0 0 0 0 0 0 0 0 0 0 0 0 0 0 0 0 0 0 0 0 0 0 0 0 0 0 0 0 0 0 0 0 0 0 0 0 0 0 0 0 0 0 0 0 0 0 0 0 0 0 0 
0 0 0 0 0 0 0 0 0 0 0 0 0 0 0 0 0 0 0 0 0 0 0 0 0 0 0 0 0 0 0 0 0 0 0 0 0 0 0 0 0 0 0 0 0 0 0 0 0 0 0 0 0 0 0 0 0 0 0 0 0 0 0 0 0 0 0 0 0 0 0 0 0 0 0 0 0 0 0 0 0 0 0 0 0 0 0 0 0 0 0 0 0 26 141 183 178 178 178 179 182 181 180 181 182 183 185 184 181 183 185 182 182 179 186 187 185 181 183 184 181 180 182 182 182 181 181 181 177 178 176 175 174 174 171 175 176 171 146 129 117 115 128 129 129 129 123 125 124 130 126 128 129 129 128 128 125 125 123 125 125 125 123 128 122 120 123 123 120 123 126 126 127 129 125 125 126 129 123 123 124 129 124 124 126 123 124 129 126 125 122 118 122 122 124 125 125 122 120 123 123 124 120 121 119 122 132 89 91 121 115 105 100 101 101 106 106 105 107 112 114 114 118 123 117 122 128 123 124 128 127 124 126 127 126 124 127 125 124 122 121 125 126 126 131 128 126 125 121 118 121 122 121 121 120 118 120 128 127 123 117 119 119 118 118 119 120 122 122 121 117 116 118 119 118 119 118 116 116 115 119 116 118 118 118 122 120 81 0 0 0 0 0 0 0 0 0 0 0 0 0 0 0 0 0 0 0 0 0 0 0 0 0 0 0 0 0 0 0 0 0 0 0 0 0 0 0 0 0 0 0 0 0 0 0 0 0 0 0 0 0 0 0 0 0 0 0 0 0 0 0 0 0 0 0 0 0 0 0 
0 0 0 0 0 0 0 0 0 0 0 0 0 0 0 0 0 0 0 0 0 0 0 0 0 0 0 0 0 0 0 0 0 0 0 0 0 0 0 0 0 0 0 0 0 0 0 0 0 0 0 0 0 0 0 0 0 0 0 0 0 0 0 0 0 0 0 0 0 0 0 0 0 0 0 0 0 0 0 0 0 0 0 0 0 0 0 0 0 0 0 0 0 27 146 184 177 178 180 179 181 182 182 181 182 185 186 182 181 182 184 179 180 179 183 187 185 183 185 184 182 182 183 182 182 181 178 180 176 179 178 175 172 174 173 175 176 174 151 131 119 113 122 127 129 129 123 126 123 125 122 125 125 125 124 127 123 124 125 123 126 126 124 125 118 119 123 120 120 121 123 124 123 125 124 118 122 124 124 119 118 123 122 121 123 121 121 123 122 121 120 117 119 121 119 120 120 118 120 120 119 120 116 118 116 115 123 90 102 125 105 107 111 115 114 116 116 114 114 119 117 109 117 139 116 117 120 120 119 118 119 124 121 118 125 123 122 116 120 120 118 123 122 123 127 124 120 117 119 118 116 113 118 118 119 117 114 116 114 116 115 118 116 115 116 118 117 118 117 114 112 116 121 116 112 112 114 115 115 113 114 114 117 117 116 115 121 90 0 0 0 0 0 0 0 0 0 0 0 0 0 0 0 0 0 0 0 0 0 0 0 0 0 0 0 0 0 0 0 0 0 0 0 0 0 0 0 0 0 0 0 0 0 0 0 0 0 0 0 0 0 0 0 0 0 0 0 0 0 0 0 0 0 0 0 0 0 0 0 
0 0 0 0 0 0 0 0 0 0 0 0 0 0 0 0 0 0 0 0 0 0 0 0 0 0 0 0 0 0 0 0 0 0 0 0 0 0 0 0 0 0 0 0 0 0 0 0 0 0 0 0 0 0 0 0 0 0 0 0 0 0 0 0 0 0 0 0 0 0 0 0 0 0 0 0 0 0 0 0 0 0 0 0 0 0 0 0 0 0 0 0 0 31 151 183 172 176 180 180 181 180 180 181 182 182 185 184 183 184 180 176 179 181 178 186 185 185 184 182 182 184 184 182 180 181 178 180 179 181 177 176 173 171 174 176 177 176 159 135 123 112 118 125 128 131 123 122 119 121 119 121 123 120 117 121 120 121 123 123 122 121 119 120 116 117 119 119 125 121 117 120 120 121 121 121 117 119 120 122 118 118 118 116 118 118 117 119 118 117 117 116 116 118 117 114 115 114 116 117 116 115 113 113 115 109 119 95 104 134 104 106 106 108 108 107 107 106 109 108 105 104 106 124 116 115 117 116 115 114 110 117 118 112 121 120 114 112 118 122 116 118 118 119 117 114 113 111 114 118 110 110 113 113 114 112 111 109 107 112 112 110 115 114 107 109 109 109 110 112 112 114 114 110 111 112 111 111 112 112 113 113 113 117 112 111 120 103 0 0 0 0 0 0 0 0 0 0 0 0 0 0 0 0 0 0 0 0 0 0 0 0 0 0 0 0 0 0 0 0 0 0 0 0 0 0 0 0 0 0 0 0 0 0 0 0 0 0 0 0 0 0 0 0 0 0 0 0 0 0 0 0 0 0 0 0 0 0 0 
0 0 0 0 0 0 0 0 0 0 0 0 0 0 0 0 0 0 0 0 0 0 0 0 0 0 0 0 0 0 0 0 0 0 0 0 0 0 0 0 0 0 0 0 0 0 0 0 0 0 0 0 0 0 0 0 0 0 0 0 0 0 0 0 0 0 0 0 0 0 0 0 0 0 0 0 0 0 0 0 0 0 0 0 0 0 0 0 0 0 0 0 0 43 158 181 176 177 178 177 180 180 181 180 181 181 182 184 183 182 184 183 189 188 176 185 186 185 184 179 181 185 183 182 180 182 181 179 179 180 177 176 173 172 176 174 173 177 164 136 120 114 117 122 124 130 121 119 119 120 119 119 123 122 117 119 117 117 123 118 117 118 119 118 116 116 115 114 119 117 114 117 118 118 114 117 117 115 114 117 117 116 114 115 115 114 116 115 114 114 112 110 109 113 115 113 111 111 110 112 113 111 109 107 107 107 112 94 77 110 101 102 101 102 103 103 104 102 102 103 103 106 97 106 111 109 112 111 112 115 112 111 110 111 116 114 110 108 112 113 114 112 112 112 110 109 110 109 107 108 107 105 109 109 109 108 110 108 106 108 109 107 107 108 107 107 107 106 106 109 111 109 108 108 111 112 110 110 109 111 112 110 111 110 110 111 116 91 0 0 0 0 0 0 0 0 0 0 0 0 0 0 0 0 0 0 0 0 0 0 0 0 0 0 0 0 0 0 0 0 0 0 0 0 0 0 0 0 0 0 0 0 0 0 0 0 0 0 0 0 0 0 0 0 0 0 0 0 0 0 0 0 0 0 0 0 0 0 0 
0 0 0 0 0 0 0 0 0 0 0 0 0 0 0 0 0 0 0 0 0 0 0 0 0 0 0 0 0 0 0 0 0 0 0 0 0 0 0 0 0 0 0 0 0 0 0 0 0 0 0 0 0 0 0 0 0 0 0 0 0 0 0 0 0 0 0 0 0 0 0 0 0 0 0 0 0 0 0 0 0 0 0 0 0 0 0 0 0 0 0 0 0 47 161 179 178 178 177 178 178 181 182 180 181 182 181 185 184 183 187 183 173 186 182 180 187 185 182 181 183 182 181 182 180 183 181 177 179 181 176 176 175 174 172 168 170 174 168 142 122 114 114 119 120 125 119 116 117 119 121 119 119 119 117 117 115 116 116 113 114 118 113 116 116 113 111 111 111 112 112 111 112 112 111 111 113 113 110 111 112 111 114 112 111 110 111 110 110 109 106 106 105 106 108 110 110 107 107 108 107 106 106 103 104 108 109 93 75 110 98 99 100 98 99 103 102 99 101 102 102 103 99 106 110 104 105 109 109 110 109 108 107 107 110 109 107 109 108 110 113 107 105 107 107 106 106 107 105 103 106 106 107 108 105 102 106 106 105 105 103 105 104 103 106 106 106 106 105 106 106 107 106 107 106 110 109 107 107 109 109 109 111 109 109 108 116 80 0 0 0 0 0 0 0 0 0 0 0 0 0 0 0 0 0 0 0 0 0 0 0 0 0 0 0 0 0 0 0 0 0 0 0 0 0 0 0 0 0 0 0 0 0 0 0 0 0 0 0 0 0 0 0 0 0 0 0 0 0 0 0 0 0 0 0 0 0 0 0 
0 0 0 0 0 0 0 0 0 0 0 0 0 0 0 0 0 0 0 0 0 0 0 0 0 0 0 0 0 0 0 0 0 0 0 0 0 0 0 0 0 0 0 0 0 0 0 0 0 0 0 0 0 0 0 0 0 0 0 0 0 0 0 0 0 0 0 0 0 0 0 0 0 0 0 0 0 0 0 0 0 0 0 0 0 0 0 0 0 0 0 0 0 53 169 179 178 178 179 180 178 181 182 182 183 182 183 185 185 185 185 187 173 177 187 176 186 184 182 183 184 183 184 182 180 182 181 179 181 178 176 174 172 170 167 168 176 175 169 148 125 113 111 117 119 120 117 113 117 118 119 116 115 115 116 114 111 112 112 112 111 117 112 111 111 112 112 107 111 112 109 109 109 108 109 108 105 109 109 106 109 109 108 107 107 105 104 104 105 102 101 105 104 102 102 104 105 105 102 102 102 104 103 101 104 102 104 98 74 107 98 96 98 98 98 99 99 98 98 101 100 102 97 106 110 103 103 104 105 105 104 105 110 106 105 104 105 105 103 103 107 107 105 104 105 104 102 103 102 102 102 103 102 102 101 102 101 103 102 103 101 101 100 101 102 101 104 105 105 103 103 104 106 106 105 106 106 105 106 106 105 107 107 107 109 107 113 89 0 0 0 0 0 0 0 0 0 0 0 0 0 0 0 0 0 0 0 0 0 0 0 0 0 0 0 0 0 0 0 0 0 0 0 0 0 0 0 0 0 0 0 0 0 0 0 0 0 0 0 0 0 0 0 0 0 0 0 0 0 0 0 0 0 0 0 0 0 0 0 
0 0 0 0 0 0 0 0 0 0 0 0 0 0 0 0 0 0 0 0 0 0 0 0 0 0 0 0 0 0 0 0 0 0 0 0 0 0 0 0 0 0 0 0 0 0 0 0 0 0 0 0 0 0 0 0 0 0 0 0 0 0 0 0 0 0 0 0 0 0 0 0 0 0 0 0 0 0 0 0 0 0 0 0 0 0 0 0 0 0 0 0 0 61 171 178 175 178 180 181 180 180 181 183 183 181 183 184 183 183 184 190 179 170 186 179 185 184 184 185 184 185 185 184 182 180 181 180 179 177 176 174 169 168 169 173 174 175 170 147 125 114 110 115 116 116 119 115 112 113 115 109 112 113 114 110 112 108 108 111 108 110 110 108 109 107 107 107 108 107 106 109 107 108 107 103 104 106 107 104 103 104 104 104 103 102 101 100 100 99 100 102 102 101 102 101 98 98 101 100 99 101 102 102 104 99 101 99 72 104 96 94 98 99 98 97 96 98 96 96 98 101 90 100 109 102 101 101 101 103 103 103 106 103 102 103 104 101 102 101 102 102 102 103 102 101 100 99 102 101 100 99 97 96 98 97 97 97 93 92 93 95 97 99 100 98 100 102 102 101 101 101 103 105 104 105 105 104 104 103 105 106 105 106 107 106 109 86 0 0 0 0 0 0 0 0 0 0 0 0 0 0 0 0 0 0 0 0 0 0 0 0 0 0 0 0 0 0 0 0 0 0 0 0 0 0 0 0 0 0 0 0 0 0 0 0 0 0 0 0 0 0 0 0 0 0 0 0 0 0 0 0 0 0 0 0 0 0 0 
0 0 0 0 0 0 0 0 0 0 0 0 0 0 0 0 0 0 0 0 0 0 0 0 0 0 0 0 0 0 0 0 0 0 0 0 0 0 0 0 0 0 0 0 0 0 0 0 0 0 0 0 0 0 0 0 0 0 0 0 0 0 0 0 0 0 0 0 0 0 0 0 0 0 0 0 0 0 0 0 0 0 0 0 0 0 0 0 0 0 0 0 0 66 172 177 173 178 180 181 180 180 182 182 181 182 184 183 184 184 184 187 182 166 182 183 181 185 183 185 184 184 185 185 182 177 181 179 178 178 173 174 169 170 174 173 171 174 172 148 124 114 107 111 113 113 112 109 110 110 109 107 110 108 107 107 106 107 106 108 107 106 106 104 107 105 105 106 104 104 104 105 104 103 102 102 103 103 100 100 100 100 100 100 99 99 100 98 99 99 98 99 99 98 98 95 95 97 98 98 98 97 101 100 98 95 96 96 71 103 95 94 95 97 95 97 95 94 96 98 96 98 89 100 108 100 100 99 100 101 102 100 101 100 99 100 102 101 100 100 103 102 99 99 100 100 99 99 100 99 97 97 98 97 86 82 86 86 87 87 94 118 116 97 96 97 98 99 100 99 99 100 102 102 102 105 103 103 102 101 103 104 104 103 104 104 105 96 0 0 0 0 0 0 0 0 0 0 0 0 0 0 0 0 0 0 0 0 0 0 0 0 0 0 0 0 0 0 0 0 0 0 0 0 0 0 0 0 0 0 0 0 0 0 0 0 0 0 0 0 0 0 0 0 0 0 0 0 0 0 0 0 0 0 0 0 0 0 0 
0 0 0 0 0 0 0 0 0 0 0 0 0 0 0 0 0 0 0 0 0 0 0 0 0 0 0 0 0 0 0 0 0 0 0 0 0 0 0 0 0 0 0 0 0 0 0 0 0 0 0 0 0 0 0 0 0 0 0 0 0 0 0 0 0 0 0 0 0 0 0 0 0 0 0 0 0 0 0 0 0 0 0 0 0 0 0 0 0 0 0 0 0 68 172 178 175 177 180 179 179 182 182 181 182 183 183 183 186 185 184 184 187 167 175 187 177 185 185 184 184 183 185 185 182 179 181 179 177 175 172 173 169 169 169 172 172 174 173 152 127 113 105 107 107 108 108 106 107 109 107 106 106 106 105 106 105 106 104 103 101 101 102 100 102 105 103 102 101 103 103 99 99 100 100 102 98 98 98 99 100 98 96 96 96 93 94 94 94 95 97 97 95 93 93 93 95 95 95 95 93 97 95 94 94 93 94 96 71 100 95 94 95 95 95 94 92 92 94 95 95 96 94 103 107 98 98 97 98 99 99 98 99 99 99 99 99 99 97 98 98 98 97 96 97 97 97 98 98 97 95 97 112 118 112 119 130 137 151 158 153 116 111 92 92 97 96 97 97 99 100 100 99 98 101 101 100 100 102 101 102 101 102 102 102 103 104 94 0 0 0 0 0 0 0 0 0 0 0 0 0 0 0 0 0 0 0 0 0 0 0 0 0 0 0 0 0 0 0 0 0 0 0 0 0 0 0 0 0 0 0 0 0 0 0 0 0 0 0 0 0 0 0 0 0 0 0 0 0 0 0 0 0 0 0 0 0 0 0 
0 0 0 0 0 0 0 0 0 0 0 0 0 0 0 0 0 0 0 0 0 0 0 0 0 0 0 0 0 0 0 0 0 0 0 0 0 0 0 0 0 0 0 0 0 0 0 0 0 0 0 0 0 0 0 0 0 0 0 0 0 0 0 0 0 0 0 0 0 0 0 0 0 0 0 0 0 0 0 0 0 0 0 0 0 0 0 0 0 0 0 0 0 69 172 177 175 178 179 179 179 182 181 181 184 184 181 178 186 185 183 183 189 178 174 186 179 178 183 184 185 183 185 185 182 181 181 180 175 171 177 174 175 169 167 169 172 172 174 156 129 113 105 105 106 106 106 105 105 104 104 104 103 104 103 102 102 103 100 101 100 101 101 100 99 99 100 96 101 100 96 95 99 100 98 95 96 95 98 98 96 95 94 93 95 95 92 92 93 94 95 94 92 91 90 91 92 93 93 92 92 93 91 93 93 92 93 95 70 96 94 92 94 95 93 92 92 91 92 93 93 94 93 104 105 97 95 96 95 95 95 97 97 96 97 97 96 95 97 97 95 96 96 97 97 95 93 94 94 92 96 95 70 74 163 198 197 201 206 214 177 29 47 92 93 93 93 95 96 97 98 97 96 97 98 100 97 97 99 101 100 99 100 102 101 100 105 82 0 0 0 0 0 0 0 0 0 0 0 0 0 0 0 0 0 0 0 0 0 0 0 0 0 0 0 0 0 0 0 0 0 0 0 0 0 0 0 0 0 0 0 0 0 0 0 0 0 0 0 0 0 0 0 0 0 0 0 0 0 0 0 0 0 0 0 0 0 0 0 
0 0 0 0 0 0 0 0 0 0 0 0 0 0 0 0 0 0 0 0 0 0 0 0 0 0 0 0 0 0 0 0 0 0 0 0 0 0 0 0 0 0 0 0 0 0 0 0 0 0 0 0 0 0 0 0 0 0 0 0 0 0 0 0 0 0 0 0 0 0 0 0 0 0 0 0 0 0 0 0 0 0 0 0 0 0 0 0 0 0 0 0 0 66 172 177 174 178 178 180 180 181 181 181 182 182 181 177 183 183 182 184 188 186 181 187 181 173 183 186 184 184 182 185 181 181 181 181 179 176 177 173 176 173 173 172 171 170 174 156 128 114 103 102 104 104 103 101 103 99 98 102 99 99 101 99 97 96 98 100 99 98 99 96 95 95 99 98 96 96 95 95 97 96 92 92 96 93 93 93 92 93 94 93 93 94 93 92 92 93 91 91 91 91 90 90 92 91 91 91 92 89 89 91 89 89 91 93 69 95 91 91 92 91 90 91 92 91 92 94 92 91 93 106 103 95 93 94 94 93 93 95 95 95 96 95 92 94 94 94 94 94 93 95 93 93 92 92 92 89 97 85 22 12 155 208 198 198 197 205 150 6 29 90 90 89 91 92 94 93 94 94 94 95 96 97 96 95 97 97 97 97 98 99 99 98 104 76 0 0 0 0 0 0 0 0 0 0 0 0 0 0 0 0 0 0 0 0 0 0 0 0 0 0 0 0 0 0 0 0 0 0 0 0 0 0 0 0 0 0 0 0 0 0 0 0 0 0 0 0 0 0 0 0 0 0 0 0 0 0 0 0 0 0 0 0 0 0 0 
0 0 0 0 0 0 0 0 0 0 0 0 0 0 0 0 0 0 0 0 0 0 0 0 0 0 0 0 0 0 0 0 0 0 0 0 0 0 0 0 0 0 0 0 0 0 0 0 0 0 0 0 0 0 0 0 0 0 0 0 0 0 0 0 0 0 0 0 0 0 0 0 0 0 0 0 0 0 0 0 0 0 0 0 0 0 0 0 0 0 0 0 0 60 169 178 175 178 177 179 181 180 182 184 180 182 182 182 181 183 184 183 186 187 177 184 186 179 185 186 183 183 182 183 183 182 181 177 180 177 176 175 176 173 176 173 171 172 173 158 129 114 104 100 99 101 100 102 100 97 96 100 97 96 97 96 95 97 100 98 95 94 94 95 93 94 99 97 92 92 94 94 94 92 91 92 93 92 91 91 91 93 92 92 91 92 91 92 91 89 90 91 93 90 90 91 90 89 89 90 88 88 89 89 88 87 88 90 67 97 92 91 89 89 88 90 90 92 92 92 91 90 93 106 103 92 93 93 93 95 93 95 95 94 93 94 92 92 91 92 93 93 92 93 91 92 91 91 91 87 90 81 20 9 146 196 189 191 191 199 135 6 34 96 94 88 89 89 93 93 92 93 94 93 95 93 94 94 96 95 96 96 96 96 97 97 103 66 0 0 0 0 0 0 0 0 0 0 0 0 0 0 0 0 0 0 0 0 0 0 0 0 0 0 0 0 0 0 0 0 0 0 0 0 0 0 0 0 0 0 0 0 0 0 0 0 0 0 0 0 0 0 0 0 0 0 0 0 0 0 0 0 0 0 0 0 0 0 0 
0 0 0 0 0 0 0 0 0 0 0 0 0 0 0 0 0 0 0 0 0 0 0 0 0 0 0 0 0 0 0 0 0 0 0 0 0 0 0 0 0 0 0 0 0 0 0 0 0 0 0 0 0 0 0 0 0 0 0 0 0 0 0 0 0 0 0 0 0 0 0 0 0 0 0 0 0 0 0 0 0 0 0 0 0 0 0 0 0 0 0 0 0 58 164 179 175 177 178 178 182 180 181 184 181 182 183 183 184 184 184 183 184 186 172 174 188 179 181 184 181 184 185 183 183 182 182 176 179 175 174 177 175 170 176 170 171 173 171 158 129 114 102 98 98 99 100 101 96 95 97 95 96 94 94 93 93 95 96 93 93 92 93 93 93 93 94 92 91 93 92 92 91 91 92 91 91 92 90 90 91 90 91 90 89 90 90 90 90 89 89 89 89 88 88 88 86 87 87 87 86 88 88 85 86 86 89 82 58 98 90 89 89 89 89 88 89 90 90 89 90 89 90 103 99 91 91 90 92 91 92 92 92 92 93 92 91 90 92 90 90 91 91 90 90 91 88 89 87 90 101 89 19 15 159 194 189 188 189 197 116 5 44 104 92 83 86 87 89 89 91 91 92 92 93 93 94 94 94 94 95 94 94 94 96 97 101 49 0 0 0 0 0 0 0 0 0 0 0 0 0 0 0 0 0 0 0 0 0 0 0 0 0 0 0 0 0 0 0 0 0 0 0 0 0 0 0 0 0 0 0 0 0 0 0 0 0 0 0 0 0 0 0 0 0 0 0 0 0 0 0 0 0 0 0 0 0 0 0 
0 0 0 0 0 0 0 0 0 0 0 0 0 0 0 0 0 0 0 0 0 0 0 0 0 0 0 0 0 0 0 0 0 0 0 0 0 0 0 0 0 0 0 0 0 0 0 0 0 0 0 0 0 0 0 0 0 0 0 0 0 0 0 0 0 0 0 0 0 0 0 0 0 0 0 0 0 0 0 0 0 0 0 0 0 0 0 0 0 0 0 0 0 53 160 180 174 174 178 179 179 182 181 182 184 184 184 184 185 184 185 184 185 186 179 171 182 179 176 178 181 184 185 183 181 180 183 177 176 176 177 175 173 170 174 172 172 173 174 160 129 113 102 96 96 96 98 96 93 94 94 94 94 93 92 91 92 93 91 91 92 92 91 92 92 91 90 89 90 92 92 90 92 90 91 90 89 90 89 89 90 87 89 90 87 89 89 87 87 87 87 86 86 87 86 84 86 86 87 86 85 86 85 83 83 84 88 75 55 97 88 88 89 88 88 86 87 88 88 90 90 87 89 102 97 88 90 89 89 90 89 89 90 89 91 89 90 89 89 89 89 88 88 88 89 88 86 86 85 81 91 62 12 21 166 191 186 186 187 193 98 4 26 42 52 82 86 85 87 88 88 88 89 91 91 91 92 93 91 93 94 94 93 92 95 96 101 28 0 0 0 0 0 0 0 0 0 0 0 0 0 0 0 0 0 0 0 0 0 0 0 0 0 0 0 0 0 0 0 0 0 0 0 0 0 0 0 0 0 0 0 0 0 0 0 0 0 0 0 0 0 0 0 0 0 0 0 0 0 0 0 0 0 0 0 0 0 0 0 
0 0 0 0 0 0 0 0 0 0 0 0 0 0 0 0 0 0 0 0 0 0 0 0 0 0 0 0 0 0 0 0 0 0 0 0 0 0 0 0 0 0 0 0 0 0 0 0 0 0 0 0 0 0 0 0 0 0 0 0 0 0 0 0 0 0 0 0 0 0 0 0 0 0 0 0 0 0 0 0 0 0 0 0 0 0 0 0 0 0 0 0 0 41 152 179 172 167 175 179 180 182 181 182 184 182 184 183 184 183 184 184 185 186 185 172 180 183 176 179 185 184 182 184 182 180 181 175 176 181 177 171 174 176 171 173 171 172 177 163 131 114 102 95 95 94 94 94 93 94 92 93 93 92 92 91 91 91 90 90 90 91 91 89 90 90 89 88 88 90 91 90 90 89 88 88 88 89 87 87 87 86 88 87 87 88 87 85 85 85 85 85 86 86 84 84 84 84 87 85 85 84 82 83 83 81 85 81 62 91 84 86 88 88 85 85 85 87 87 88 89 86 88 102 94 86 88 88 88 89 88 89 88 87 88 87 87 87 88 87 87 87 87 86 86 86 85 83 88 49 25 20 8 32 174 186 183 183 186 187 75 4 12 10 29 83 87 83 85 86 86 87 87 88 89 89 89 91 89 91 90 92 92 92 91 94 93 5 0 0 0 0 0 0 0 0 0 0 0 0 0 0 0 0 0 0 0 0 0 0 0 0 0 0 0 0 0 0 0 0 0 0 0 0 0 0 0 0 0 0 0 0 0 0 0 0 0 0 0 0 0 0 0 0 0 0 0 0 0 0 0 0 0 0 0 0 0 0 0 
0 0 0 0 0 0 0 0 0 0 0 0 0 0 0 0 0 0 0 0 0 0 0 0 0 0 0 0 0 0 0 0 0 0 0 0 0 0 0 0 0 0 0 0 0 0 0 0 0 0 0 0 0 0 0 0 0 0 0 0 0 0 0 0 0 0 0 0 0 0 0 0 0 0 0 0 0 0 0 0 0 0 0 0 0 0 0 0 0 0 0 0 0 31 147 179 174 173 177 178 182 183 181 181 182 183 181 182 185 183 183 184 185 186 188 169 178 190 180 183 187 184 180 183 181 182 181 172 181 181 176 168 176 178 171 173 174 175 176 164 134 113 101 94 94 93 92 92 92 92 90 91 92 91 91 90 90 89 89 89 90 89 88 88 89 89 88 88 87 88 89 88 89 88 85 87 87 86 87 86 85 85 85 86 86 86 86 84 83 83 84 84 84 84 84 83 84 84 84 83 83 85 83 83 82 82 86 80 65 91 83 85 87 87 84 86 85 86 86 84 86 85 90 100 92 85 85 85 86 86 86 87 87 86 87 85 86 86 87 85 86 86 84 84 83 83 83 85 84 29 10 13 6 50 179 182 181 181 183 180 52 5 14 11 29 81 86 81 84 83 84 86 85 85 85 86 87 89 88 89 86 88 90 91 90 97 88 0 0 0 0 0 0 0 0 0 0 0 0 0 0 0 0 0 0 0 0 0 0 0 0 0 0 0 0 0 0 0 0 0 0 0 0 0 0 0 0 0 0 0 0 0 0 0 0 0 0 0 0 0 0 0 0 0 0 0 0 0 0 0 0 0 0 0 0 0 0 0 0 
0 0 0 0 0 0 0 0 0 0 0 0 0 0 0 0 0 0 0 0 0 0 0 0 0 0 0 0 0 0 0 0 0 0 0 0 0 0 0 0 0 0 0 0 0 0 0 0 0 0 0 0 0 0 0 0 0 0 0 0 0 0 0 0 0 0 0 0 0 0 0 0 0 0 0 0 0 0 0 0 0 0 0 0 0 0 0 0 0 0 0 0 0 33 146 178 176 176 179 178 180 182 182 181 183 185 182 184 184 183 184 182 184 185 188 174 173 189 181 181 187 185 179 183 180 180 179 176 179 177 178 173 178 178 171 172 176 174 175 164 132 110 100 93 93 92 91 91 90 89 89 89 89 89 88 89 88 88 88 87 88 87 87 88 88 86 86 86 86 85 86 86 87 86 85 86 88 85 85 85 84 84 83 85 84 84 85 82 82 83 83 84 83 82 84 83 83 82 84 82 83 82 82 81 83 82 86 68 65 95 81 83 85 84 85 85 84 84 85 85 84 84 90 97 89 84 84 85 86 85 85 85 85 85 86 85 84 85 84 84 84 84 83 84 82 81 80 88 68 20 13 15 6 71 183 181 180 179 182 171 32 6 15 13 35 80 82 81 82 81 83 84 83 84 84 84 85 86 85 86 87 88 87 88 89 95 72 0 0 0 0 0 0 0 0 0 0 0 0 0 0 0 0 0 0 0 0 0 0 0 0 0 0 0 0 0 0 0 0 0 0 0 0 0 0 0 0 0 0 0 0 0 0 0 0 0 0 0 0 0 0 0 0 0 0 0 0 0 0 0 0 0 0 0 0 0 0 0 0 
0 0 0 0 0 0 0 0 0 0 0 0 0 0 0 0 0 0 0 0 0 0 0 0 0 0 0 0 0 0 0 0 0 0 0 0 0 0 0 0 0 0 0 0 0 0 0 0 0 0 0 0 0 0 0 0 0 0 0 0 0 0 0 0 0 0 0 0 0 0 0 0 0 0 0 0 0 0 0 0 0 0 0 0 0 0 0 0 0 0 0 0 0 23 135 178 176 177 180 180 179 183 182 181 183 184 184 185 182 179 179 185 184 181 182 184 167 185 185 177 185 184 177 181 181 179 176 174 177 181 178 174 178 177 174 172 174 172 175 163 131 109 98 93 91 90 91 90 89 88 88 88 88 89 87 88 88 89 87 86 86 85 87 87 85 85 86 85 84 84 85 85 85 84 85 83 84 84 84 84 84 85 84 83 83 83 83 81 81 82 83 82 81 80 81 81 80 80 83 82 81 83 81 81 81 80 86 69 70 94 81 83 83 83 84 83 82 84 83 84 83 83 86 94 87 84 84 84 83 84 84 85 85 85 84 82 83 84 83 82 83 81 82 82 79 79 79 85 60 19 13 13 6 99 182 177 176 175 181 155 16 9 13 14 44 82 79 78 78 80 82 83 82 83 83 83 82 81 83 84 85 85 84 85 86 96 32 0 0 0 0 0 0 0 0 0 0 0 0 0 0 0 0 0 0 0 0 0 0 0 0 0 0 0 0 0 0 0 0 0 0 0 0 0 0 0 0 0 0 0 0 0 0 0 0 0 0 0 0 0 0 0 0 0 0 0 0 0 0 0 0 0 0 0 0 0 0 0 0 
0 0 0 0 0 0 0 0 0 0 0 0 0 0 0 0 0 0 0 0 0 0 0 0 0 0 0 0 0 0 0 0 0 0 0 0 0 0 0 0 0 0 0 0 0 0 0 0 0 0 0 0 0 0 0 0 0 0 0 0 0 0 0 0 0 0 0 0 0 0 0 0 0 0 0 0 0 0 0 0 0 0 0 0 0 0 0 0 0 0 0 0 0 10 118 182 174 177 178 179 180 182 182 182 181 181 184 185 184 181 181 185 184 183 183 189 173 183 189 179 180 180 181 183 184 178 176 176 179 181 174 172 172 175 176 176 175 172 174 163 129 108 96 91 91 90 89 87 88 86 86 87 85 88 86 85 85 87 86 85 84 84 86 85 84 85 83 84 85 83 83 84 84 82 83 84 83 83 83 82 82 84 84 83 81 81 82 82 81 81 81 81 81 81 79 79 81 80 81 81 79 80 80 80 79 80 83 72 75 89 80 83 82 82 81 82 82 82 82 84 83 82 84 90 85 82 81 83 82 81 82 83 83 82 82 81 81 80 79 80 81 81 79 79 77 77 76 83 54 16 13 11 13 128 181 174 174 173 179 128 7 12 13 15 52 81 76 77 78 78 79 80 80 81 81 82 80 80 83 84 84 84 84 87 85 92 6 0 0 0 0 0 0 0 0 0 0 0 0 0 0 0 0 0 0 0 0 0 0 0 0 0 0 0 0 0 0 0 0 0 0 0 0 0 0 0 0 0 0 0 0 0 0 0 0 0 0 0 0 0 0 0 0 0 0 0 0 0 0 0 0 0 0 0 0 0 0 0 0 
0 0 0 0 0 0 0 0 0 0 0 0 0 0 0 0 0 0 0 0 0 0 0 0 0 0 0 0 0 0 0 0 0 0 0 0 0 0 0 0 0 0 0 0 0 0 0 0 0 0 0 0 0 0 0 0 0 0 0 0 0 0 0 0 0 0 0 0 0 0 0 0 0 0 0 0 0 0 0 0 0 0 0 0 0 0 0 0 0 0 0 0 0 2 105 183 174 176 179 180 180 179 182 183 183 182 182 182 184 184 184 182 184 186 185 187 181 174 186 179 176 180 183 181 181 179 176 182 180 174 174 178 174 178 176 176 176 173 176 163 128 107 95 90 89 87 88 87 88 87 86 84 84 85 84 85 85 86 85 84 83 85 83 82 82 83 83 84 84 82 83 83 82 82 83 84 83 81 81 80 81 81 80 80 80 80 80 80 81 79 80 80 81 80 79 78 80 79 80 78 78 80 79 78 77 78 81 67 77 83 79 81 81 82 80 80 81 81 80 80 80 81 83 85 80 81 80 81 80 80 81 81 80 80 81 79 79 79 78 79 79 79 76 77 77 75 76 80 41 13 15 9 23 151 177 170 169 170 179 90 6 15 13 20 63 80 75 76 75 77 77 78 79 80 79 79 79 80 81 81 84 83 82 83 88 88 0 0 0 0 0 0 0 0 0 0 0 0 0 0 0 0 0 0 0 0 0 0 0 0 0 0 0 0 0 0 0 0 0 0 0 0 0 0 0 0 0 0 0 0 0 0 0 0 0 0 0 0 0 0 0 0 0 0 0 0 0 0 0 0 0 0 0 0 0 0 0 0 0 
0 0 0 0 0 0 0 0 0 0 0 0 0 0 0 0 0 0 0 0 0 0 0 0 0 0 0 0 0 0 0 0 0 0 0 0 0 0 0 0 0 0 0 0 0 0 0 0 0 0 0 0 0 0 0 0 0 0 0 0 0 0 0 0 0 0 0 0 0 0 0 0 0 0 0 0 0 0 0 0 0 0 0 0 0 0 0 0 0 0 0 0 0 0 86 179 176 175 179 179 179 178 181 183 182 182 182 182 185 186 185 184 185 186 185 183 185 166 184 183 178 183 185 182 181 181 179 184 172 170 180 178 176 177 173 175 177 176 175 159 126 105 91 89 88 87 87 87 86 85 86 85 83 83 85 84 83 84 83 83 82 82 82 80 82 82 81 83 83 82 81 81 81 82 81 80 82 81 81 81 81 81 79 79 79 79 80 81 78 78 78 77 78 80 79 78 79 78 80 79 77 78 78 78 77 78 83 68 79 82 78 80 80 79 79 79 79 79 80 81 80 80 82 82 78 79 81 79 79 77 78 78 79 79 79 78 77 77 78 76 77 77 75 77 74 73 77 75 32 14 15 6 43 164 174 170 171 171 178 46 7 15 13 37 76 74 73 73 74 76 74 76 80 79 77 78 77 79 79 80 81 80 80 83 89 73 0 0 0 0 0 0 0 0 0 0 0 0 0 0 0 0 0 0 0 0 0 0 0 0 0 0 0 0 0 0 0 0 0 0 0 0 0 0 0 0 0 0 0 0 0 0 0 0 0 0 0 0 0 0 0 0 0 0 0 0 0 0 0 0 0 0 0 0 0 0 0 0 0 
0 0 0 0 0 0 0 0 0 0 0 0 0 0 0 0 0 0 0 0 0 0 0 0 0 0 0 0 0 0 0 0 0 0 0 0 0 0 0 0 0 0 0 0 0 0 0 0 0 0 0 0 0 0 0 0 0 0 0 0 0 0 0 0 0 0 0 0 0 0 0 0 0 0 0 0 0 0 0 0 0 0 0 0 0 0 0 0 0 0 0 0 0 0 59 173 178 174 178 180 180 180 179 181 182 183 184 185 184 186 186 183 185 185 185 182 185 175 183 185 177 183 186 183 182 183 175 177 171 179 180 176 175 174 174 177 178 176 176 155 122 102 90 87 87 86 84 84 84 83 84 84 84 84 85 83 81 83 82 81 80 80 80 80 80 81 81 81 82 80 81 80 80 80 80 79 80 80 80 81 79 79 78 78 79 78 78 80 78 77 78 77 77 77 76 76 77 78 80 78 77 78 79 77 76 78 81 69 80 80 79 77 79 78 76 77 76 78 79 79 79 80 82 81 77 78 78 79 78 77 78 76 77 77 75 77 76 75 74 75 77 76 74 74 73 74 79 64 22 13 14 6 57 176 180 174 171 172 117 13 12 14 15 46 76 72 73 72 73 73 74 75 77 76 77 77 77 79 78 80 80 82 80 82 94 41 0 0 0 0 0 0 0 0 0 0 0 0 0 0 0 0 0 0 0 0 0 0 0 0 0 0 0 0 0 0 0 0 0 0 0 0 0 0 0 0 0 0 0 0 0 0 0 0 0 0 0 0 0 0 0 0 0 0 0 0 0 0 0 0 0 0 0 0 0 0 0 0 0 
0 0 0 0 0 0 0 0 0 0 0 0 0 0 0 0 0 0 0 0 0 0 0 0 0 0 0 0 0 0 0 0 0 0 0 0 0 0 0 0 0 0 0 0 0 0 0 0 0 0 0 0 0 0 0 0 0 0 0 0 0 0 0 0 0 0 0 0 0 0 0 0 0 0 0 0 0 0 0 0 0 0 0 0 0 0 0 0 0 0 0 0 0 0 41 163 180 174 178 178 179 180 179 182 183 185 185 184 183 186 186 183 180 183 186 183 185 183 167 180 179 179 185 183 179 179 175 176 179 179 177 175 178 176 179 177 178 178 178 155 118 98 88 85 85 83 83 83 82 83 83 83 84 82 82 81 80 82 81 80 79 78 78 78 79 78 79 79 79 80 80 79 78 79 79 78 79 80 79 78 78 78 78 77 77 78 78 78 76 76 78 78 77 76 76 78 77 78 77 76 77 79 78 75 76 77 80 72 79 77 74 73 75 75 76 76 76 77 76 74 80 80 77 75 76 78 77 77 76 75 77 74 77 75 74 76 74 73 72 74 73 73 73 73 71 69 78 53 17 12 15 10 29 89 90 76 64 49 19 12 15 14 18 52 75 71 71 71 72 73 73 75 77 76 77 79 79 78 78 77 79 78 80 85 86 8 0 0 0 0 0 0 0 0 0 0 0 0 0 0 0 0 0 0 0 0 0 0 0 0 0 0 0 0 0 0 0 0 0 0 0 0 0 0 0 0 0 0 0 0 0 0 0 0 0 0 0 0 0 0 0 0 0 0 0 0 0 0 0 0 0 0 0 0 0 0 0 0 0 
0 0 0 0 0 0 0 0 0 0 0 0 0 0 0 0 0 0 0 0 0 0 0 0 0 0 0 0 0 0 0 0 0 0 0 0 0 0 0 0 0 0 0 0 0 0 0 0 0 0 0 0 0 0 0 0 0 0 0 0 0 0 0 0 0 0 0 0 0 0 0 0 0 0 0 0 0 0 0 0 0 0 0 0 0 0 0 0 0 0 0 0 0 0 27 148 179 174 176 178 180 182 181 181 183 184 185 185 183 184 187 185 179 182 186 185 185 186 168 188 186 177 185 185 176 179 177 176 184 177 168 176 174 174 177 175 177 178 177 153 116 97 87 85 84 83 83 83 82 81 80 80 80 81 81 80 80 79 79 78 78 78 77 77 78 77 77 77 77 77 78 78 76 79 76 77 77 78 77 78 77 76 77 76 77 77 75 77 77 76 77 76 76 77 76 77 75 77 75 76 77 78 79 76 76 78 82 77 75 75 73 73 72 74 74 75 74 75 75 75 79 77 74 72 74 77 74 74 75 74 75 73 74 73 75 74 72 73 72 72 72 72 72 72 69 68 74 40 14 14 16 15 13 10 10 9 9 9 12 15 15 14 24 64 73 70 70 70 71 71 68 65 63 63 59 57 63 76 77 77 78 80 79 89 70 0 0 0 0 0 0 0 0 0 0 0 0 0 0 0 0 0 0 0 0 0 0 0 0 0 0 0 0 0 0 0 0 0 0 0 0 0 0 0 0 0 0 0 0 0 0 0 0 0 0 0 0 0 0 0 0 0 0 0 0 0 0 0 0 0 0 0 0 0 0 0 0 0 0 
0 0 0 0 0 0 0 0 0 0 0 0 0 0 0 0 0 0 0 0 0 0 0 0 0 0 0 0 0 0 0 0 0 0 0 0 0 0 0 0 0 0 0 0 0 0 0 0 0 0 0 0 0 0 0 0 0 0 0 0 0 0 0 0 0 0 0 0 0 0 0 0 0 0 0 0 0 0 0 0 0 0 0 0 0 0 0 0 0 0 0 0 0 0 8 129 182 174 174 178 180 182 180 181 181 184 185 183 181 181 180 179 185 185 186 185 184 186 167 180 191 179 183 184 180 178 176 168 175 170 176 179 177 172 176 175 177 178 175 151 112 93 88 86 83 82 82 82 81 80 79 80 78 79 79 79 79 79 78 77 76 76 77 76 75 76 75 78 79 77 75 75 75 76 77 76 76 76 78 77 76 77 75 75 76 75 76 76 74 75 76 75 76 75 76 76 76 77 79 79 78 77 77 78 77 79 87 77 70 75 74 73 73 74 73 74 74 73 74 77 77 73 71 69 73 74 71 73 73 74 74 72 74 72 72 71 71 70 70 71 72 70 70 68 68 73 63 24 13 17 17 15 15 13 14 15 16 17 15 16 15 15 26 58 61 56 60 63 56 44 37 27 23 25 21 17 25 63 76 77 76 79 79 91 35 0 0 0 0 0 0 0 0 0 0 0 0 0 0 0 0 0 0 0 0 0 0 0 0 0 0 0 0 0 0 0 0 0 0 0 0 0 0 0 0 0 0 0 0 0 0 0 0 0 0 0 0 0 0 0 0 0 0 0 0 0 0 0 0 0 0 0 0 0 0 0 0 0 0 
0 0 0 0 0 0 0 0 0 0 0 0 0 0 0 0 0 0 0 0 0 0 0 0 0 0 0 0 0 0 0 0 0 0 0 0 0 0 0 0 0 0 0 0 0 0 0 0 0 0 0 0 0 0 0 0 0 0 0 0 0 0 0 0 0 0 0 0 0 0 0 0 0 0 0 0 0 0 0 0 0 0 0 0 0 0 0 0 0 0 0 0 0 0 0 97 181 176 176 180 180 182 181 182 182 185 185 183 182 185 182 180 181 181 184 184 183 185 176 180 196 179 179 179 174 172 177 168 166 171 179 179 176 173 176 176 178 178 174 145 109 91 86 84 82 81 80 79 78 79 78 79 77 77 76 77 75 75 78 76 76 75 73 74 74 74 74 74 75 74 75 75 75 74 75 76 76 77 75 75 75 76 76 75 75 76 75 76 76 75 77 77 77 75 77 78 80 82 82 82 81 83 87 89 92 96 106 94 73 72 73 74 74 74 73 73 72 73 75 78 74 63 63 68 73 73 71 72 73 74 73 69 73 71 71 70 70 69 68 69 68 68 69 69 70 73 50 18 14 17 16 15 16 16 15 16 17 17 16 15 15 15 16 20 20 15 23 27 22 17 16 18 18 16 16 14 18 55 77 76 76 78 84 80 3 0 0 0 0 0 0 0 0 0 0 0 0 0 0 0 0 0 0 0 0 0 0 0 0 0 0 0 0 0 0 0 0 0 0 0 0 0 0 0 0 0 0 0 0 0 0 0 0 0 0 0 0 0 0 0 0 0 0 0 0 0 0 0 0 0 0 0 0 0 0 0 0 0 0 
0 0 0 0 0 0 0 0 0 0 0 0 0 0 0 0 0 0 0 0 0 0 0 0 0 0 0 0 0 0 0 0 0 0 0 0 0 0 0 0 0 0 0 0 0 0 0 0 0 0 0 0 0 0 0 0 0 0 0 0 0 0 0 0 0 0 0 0 0 0 0 0 0 0 0 0 0 0 0 0 0 0 0 0 0 0 0 0 0 0 0 0 0 0 0 62 173 179 176 178 180 181 181 181 183 183 184 185 182 181 184 180 175 179 177 182 186 183 183 177 173 171 177 174 176 176 182 182 178 182 176 172 177 181 176 175 178 180 171 135 106 89 83 81 80 79 77 77 77 76 74 76 76 75 73 72 75 74 73 73 72 73 72 72 73 72 72 72 73 74 73 74 75 75 77 76 77 78 77 77 76 76 78 76 77 79 78 80 82 83 84 83 85 88 93 96 102 105 107 112 118 125 133 141 138 150 154 134 111 89 68 73 72 71 73 74 71 73 74 75 74 60 60 70 73 73 73 73 71 71 71 71 72 71 70 69 68 68 67 68 67 65 60 54 46 42 28 17 16 16 16 17 13 13 17 12 12 16 13 10 10 13 15 15 23 36 30 15 16 18 18 18 19 18 18 16 24 62 75 77 79 78 90 46 0 0 0 0 0 0 0 0 0 0 0 0 0 0 0 0 0 0 0 0 0 0 0 0 0 0 0 0 0 0 0 0 0 0 0 0 0 0 0 0 0 0 0 0 0 0 0 0 0 0 0 0 0 0 0 0 0 0 0 0 0 0 0 0 0 0 0 0 0 0 0 0 0 0 0 
0 0 0 0 0 0 0 0 0 0 0 0 0 0 0 0 0 0 0 0 0 0 0 0 0 0 0 0 0 0 0 0 0 0 0 0 0 0 0 0 0 0 0 0 0 0 0 0 0 0 0 0 0 0 0 0 0 0 0 0 0 0 0 0 0 0 0 0 0 0 0 0 0 0 0 0 0 0 0 0 0 0 0 0 0 0 0 0 0 0 0 0 0 0 0 30 159 181 175 177 178 180 182 179 181 182 185 186 183 181 183 185 185 185 184 185 185 182 187 173 170 181 171 178 182 177 180 186 178 180 181 175 181 181 177 177 178 180 168 132 102 86 80 78 76 76 76 75 74 73 73 74 73 72 72 71 73 74 73 72 73 73 73 73 74 75 74 75 75 77 77 78 77 79 78 80 82 81 84 84 84 87 89 91 94 99 102 106 111 116 120 126 133 135 141 150 154 156 159 168 183 181 174 178 178 177 183 166 163 133 71 69 72 70 71 72 71 72 72 72 82 76 64 69 72 71 71 72 70 72 71 65 60 59 61 67 65 57 67 56 38 27 23 19 16 10 11 16 13 12 18 15 16 23 16 28 49 22 41 111 140 106 92 193 223 226 100 8 18 20 20 20 20 19 20 16 37 74 78 75 77 83 89 4 0 0 0 0 0 0 0 0 0 0 0 0 0 0 0 0 0 0 0 0 0 0 0 0 0 0 0 0 0 0 0 0 0 0 0 0 0 0 0 0 0 0 0 0 0 0 0 0 0 0 0 0 0 0 0 0 0 0 0 0 0 0 0 0 0 0 0 0 0 0 0 0 0 0 0 
0 0 0 0 0 0 0 0 0 0 0 0 0 0 0 0 0 0 0 0 0 0 0 0 0 0 0 0 0 0 0 0 0 0 0 0 0 0 0 0 0 0 0 0 0 0 0 0 0 0 0 0 0 0 0 0 0 0 0 0 0 0 0 0 0 0 0 0 0 0 0 0 0 0 0 0 0 0 0 0 0 0 0 0 0 0 0 0 0 0 0 0 0 0 0 9 135 184 176 178 178 180 180 179 181 182 185 185 182 183 186 182 181 185 187 187 186 183 185 178 183 192 177 180 181 179 180 182 178 182 176 175 181 181 175 171 178 179 167 130 97 83 77 77 75 75 75 74 74 74 74 75 74 76 77 75 75 75 76 75 75 76 77 77 77 80 81 80 82 85 86 87 92 92 97 102 106 108 112 116 123 128 138 139 136 143 146 152 164 166 169 184 189 181 171 166 170 176 174 187 196 177 170 169 169 170 173 173 179 158 90 63 72 71 70 71 70 71 72 70 68 70 67 69 70 71 70 69 71 67 58 35 27 25 27 35 31 22 25 18 12 15 21 22 16 36 43 15 59 122 28 36 182 146 37 214 216 31 192 250 238 160 171 255 249 183 42 11 22 23 21 21 21 22 19 20 55 77 77 76 78 91 49 0 0 0 0 0 0 0 0 0 0 0 0 0 0 0 0 0 0 0 0 0 0 0 0 0 0 0 0 0 0 0 0 0 0 0 0 0 0 0 0 0 0 0 0 0 0 0 0 0 0 0 0 0 0 0 0 0 0 0 0 0 0 0 0 0 0 0 0 0 0 0 0 0 0 0 0 
0 0 0 0 0 0 0 0 0 0 0 0 0 0 0 0 0 0 0 0 0 0 0 0 0 0 0 0 0 0 0 0 0 0 0 0 0 0 0 0 0 0 0 0 0 0 0 0 0 0 0 0 0 0 0 0 0 0 0 0 0 0 0 0 0 0 0 0 0 0 0 0 0 0 0 0 0 0 0 0 0 0 0 0 0 0 0 0 0 0 0 0 0 0 0 0 98 185 178 177 178 178 180 180 179 181 183 185 183 183 186 180 180 184 184 185 185 184 185 186 162 179 181 179 181 184 182 183 182 177 176 180 181 179 172 168 179 182 162 121 94 80 78 77 77 77 77 77 78 78 80 79 79 79 81 81 80 82 85 85 87 89 92 94 97 103 108 113 115 118 123 127 134 142 151 158 164 162 165 168 171 174 186 179 165 164 170 173 175 168 163 175 185 178 163 152 164 171 165 161 174 168 166 169 155 160 162 169 177 163 115 65 68 70 72 70 71 71 73 65 54 60 69 70 69 70 68 70 64 36 23 17 16 18 16 16 16 18 13 18 107 180 201 98 53 223 189 65 226 243 30 156 255 171 176 255 154 61 251 210 105 18 86 244 117 2 17 24 23 23 22 22 23 23 18 39 72 77 77 78 85 84 1 0 0 0 0 0 0 0 0 0 0 0 0 0 0 0 0 0 0 0 0 0 0 0 0 0 0 0 0 0 0 0 0 0 0 0 0 0 0 0 0 0 0 0 0 0 0 0 0 0 0 0 0 0 0 0 0 0 0 0 0 0 0 0 0 0 0 0 0 0 0 0 0 0 0 0 0 
0 0 0 0 0 0 0 0 0 0 0 0 0 0 0 0 0 0 0 0 0 0 0 0 0 0 0 0 0 0 0 0 0 0 0 0 0 0 0 0 0 0 0 0 0 0 0 0 0 0 0 0 0 0 0 0 0 0 0 0 0 0 0 0 0 0 0 0 0 0 0 0 0 0 0 0 0 0 0 0 0 0 0 0 0 0 0 0 0 0 0 0 0 0 0 0 56 176 179 177 177 178 179 181 179 180 183 186 185 184 185 186 185 185 185 185 184 184 185 190 165 178 185 176 179 178 182 176 180 178 181 184 178 176 178 180 180 183 155 116 97 86 83 83 83 82 85 86 86 89 92 93 96 98 100 105 108 109 110 111 115 120 129 135 143 145 146 156 162 158 165 171 168 180 183 182 188 177 186 181 171 164 166 171 166 157 164 171 168 163 157 159 170 171 160 159 167 168 155 143 155 171 169 159 149 155 150 152 161 157 137 80 63 71 70 70 71 71 72 58 53 66 71 69 70 68 69 69 42 16 18 20 20 21 20 19 20 20 9 73 248 248 209 70 157 255 196 198 255 140 47 237 253 205 252 243 41 178 247 222 84 3 177 219 18 14 26 24 25 25 23 24 24 21 24 61 79 77 78 80 93 28 0 0 0 0 0 0 0 0 0 0 0 0 0 0 0 0 0 0 0 0 0 0 0 0 0 0 0 0 0 0 0 0 0 0 0 0 0 0 0 0 0 0 0 0 0 0 0 0 0 0 0 0 0 0 0 0 0 0 0 0 0 0 0 0 0 0 0 0 0 0 0 0 0 0 0 0 0 
0 0 0 0 0 0 0 0 0 0 0 0 0 0 0 0 0 0 0 0 0 0 0 0 0 0 0 0 0 0 0 0 0 0 0 0 0 0 0 0 0 0 0 0 0 0 0 0 0 0 0 0 0 0 0 0 0 0 0 0 0 0 0 0 0 0 0 0 0 0 0 0 0 0 0 0 0 0 0 0 0 0 0 0 0 0 0 0 0 0 0 0 0 0 0 0 24 157 182 176 176 177 178 182 181 182 182 183 185 184 184 184 184 185 186 185 185 185 186 188 182 165 185 178 179 176 180 179 184 183 181 182 180 178 178 180 181 181 157 122 104 95 95 101 105 107 110 113 116 119 123 128 132 132 132 140 145 138 135 134 138 142 143 151 159 158 154 159 168 166 169 173 160 168 166 154 163 168 170 159 159 152 141 153 150 151 153 153 153 154 156 156 163 168 158 158 157 154 152 149 145 154 155 160 144 151 161 151 147 158 157 102 61 68 69 70 70 72 68 51 56 68 69 69 69 68 68 42 24 21 22 22 22 21 22 21 23 15 16 182 255 194 40 51 238 255 226 252 243 45 169 249 250 238 252 161 71 245 194 140 25 88 246 103 10 30 26 26 26 24 22 23 27 23 40 72 79 79 78 88 68 0 0 0 0 0 0 0 0 0 0 0 0 0 0 0 0 0 0 0 0 0 0 0 0 0 0 0 0 0 0 0 0 0 0 0 0 0 0 0 0 0 0 0 0 0 0 0 0 0 0 0 0 0 0 0 0 0 0 0 0 0 0 0 0 0 0 0 0 0 0 0 0 0 0 0 0 0 0 
0 0 0 0 0 0 0 0 0 0 0 0 0 0 0 0 0 0 0 0 0 0 0 0 0 0 0 0 0 0 0 0 0 0 0 0 0 0 0 0 0 0 0 0 0 0 0 0 0 0 0 0 0 0 0 0 0 0 0 0 0 0 0 0 0 0 0 0 0 0 0 0 0 0 0 0 0 0 0 0 0 0 0 0 0 0 0 0 0 0 0 0 0 0 0 0 5 120 185 177 177 178 179 181 180 182 183 182 185 184 184 184 183 183 184 185 185 185 185 184 186 160 194 180 179 183 183 186 182 184 181 180 182 179 176 179 179 181 162 131 114 108 122 133 135 137 137 136 138 137 142 141 141 139 138 140 146 144 139 139 139 142 140 140 142 143 145 147 153 157 156 156 147 154 154 140 147 159 153 144 140 141 136 138 140 144 143 143 137 137 146 149 149 156 161 154 154 160 162 157 151 154 160 169 153 144 159 160 153 172 168 127 68 65 70 69 70 72 58 48 60 70 68 69 68 72 58 22 19 24 23 24 23 23 23 23 24 11 68 239 236 185 59 163 254 252 242 253 153 99 231 243 243 222 234 68 207 254 203 66 12 187 184 10 15 19 18 19 21 19 23 30 26 37 70 81 79 80 84 89 11 0 0 0 0 0 0 0 0 0 0 0 0 0 0 0 0 0 0 0 0 0 0 0 0 0 0 0 0 0 0 0 0 0 0 0 0 0 0 0 0 0 0 0 0 0 0 0 0 0 0 0 0 0 0 0 0 0 0 0 0 0 0 0 0 0 0 0 0 0 0 0 0 0 0 0 0 0 0 
0 0 0 0 0 0 0 0 0 0 0 0 0 0 0 0 0 0 0 0 0 0 0 0 0 0 0 0 0 0 0 0 0 0 0 0 0 0 0 0 0 0 0 0 0 0 0 0 0 0 0 0 0 0 0 0 0 0 0 0 0 0 0 0 0 0 0 0 0 0 0 0 0 0 0 0 0 0 0 0 0 0 0 0 0 0 0 0 0 0 0 0 0 0 0 0 0 75 183 179 177 176 179 180 181 180 182 183 185 182 185 183 183 185 185 186 185 185 182 181 187 170 188 188 176 184 184 185 181 182 182 182 181 179 173 179 180 182 165 145 138 117 134 140 136 137 135 133 133 134 135 133 131 133 133 133 133 136 138 139 136 137 138 134 132 138 139 135 136 145 145 142 145 146 150 136 140 142 137 141 134 136 144 141 135 142 139 136 137 137 143 145 142 140 145 145 147 157 162 159 158 160 163 165 164 148 155 165 169 178 178 155 85 60 70 70 72 68 51 53 66 70 69 67 68 69 39 22 25 24 24 24 23 24 23 24 19 25 194 252 169 76 132 236 241 229 225 222 89 194 183 199 144 170 125 39 167 144 129 34 25 78 41 28 47 58 71 87 102 128 154 76 29 65 87 84 83 87 94 33 0 0 0 0 0 0 0 0 0 0 0 0 0 0 0 0 0 0 0 0 0 0 0 0 0 0 0 0 0 0 0 0 0 0 0 0 0 0 0 0 0 0 0 0 0 0 0 0 0 0 0 0 0 0 0 0 0 0 0 0 0 0 0 0 0 0 0 0 0 0 0 0 0 0 0 0 0 0 0 
0 0 0 0 0 0 0 0 0 0 0 0 0 0 0 0 0 0 0 0 0 0 0 0 0 0 0 0 0 0 0 0 0 0 0 0 0 0 0 0 0 0 0 0 0 0 0 0 0 0 0 0 0 0 0 0 0 0 0 0 0 0 0 0 0 0 0 0 0 0 0 0 0 0 0 0 0 0 0 0 0 0 0 0 0 0 0 0 0 0 0 0 0 0 0 0 0 39 170 182 177 178 179 180 181 178 181 182 184 183 184 184 184 184 183 186 185 184 185 183 183 181 169 184 172 181 181 184 184 180 181 183 181 179 176 178 180 183 170 155 162 125 124 141 131 125 126 128 128 128 128 129 127 131 131 130 130 133 134 130 131 132 132 130 128 131 131 131 124 133 141 141 145 145 144 136 137 137 139 146 145 150 153 144 140 148 140 131 135 138 138 139 145 140 137 136 139 149 155 151 153 168 173 172 170 160 163 172 173 177 182 174 107 63 68 71 74 57 48 61 67 68 67 66 71 56 27 25 25 25 26 26 27 27 27 24 19 100 250 246 178 77 154 165 128 93 108 80 40 85 39 42 33 54 44 61 69 75 91 129 159 162 188 214 223 233 235 232 241 254 215 62 49 85 86 85 91 97 47 0 0 0 0 0 0 0 0 0 0 0 0 0 0 0 0 0 0 0 0 0 0 0 0 0 0 0 0 0 0 0 0 0 0 0 0 0 0 0 0 0 0 0 0 0 0 0 0 0 0 0 0 0 0 0 0 0 0 0 0 0 0 0 0 0 0 0 0 0 0 0 0 0 0 0 0 0 0 0 0 
0 0 0 0 0 0 0 0 0 0 0 0 0 0 0 0 0 0 0 0 0 0 0 0 0 0 0 0 0 0 0 0 0 0 0 0 0 0 0 0 0 0 0 0 0 0 0 0 0 0 0 0 0 0 0 0 0 0 0 0 0 0 0 0 0 0 0 0 0 0 0 0 0 0 0 0 0 0 0 0 0 0 0 0 0 0 0 0 0 0 0 0 0 0 0 0 0 10 137 186 177 178 178 179 181 178 181 181 183 184 183 185 184 184 183 185 184 185 186 183 179 185 166 169 170 179 181 185 182 180 181 180 184 178 175 178 181 182 177 154 162 139 118 142 135 125 126 128 127 126 126 125 125 127 127 126 128 126 131 130 130 127 127 128 126 126 127 130 126 130 139 144 150 146 137 129 139 145 142 150 151 154 154 153 152 153 145 137 136 140 141 138 141 143 138 128 141 150 144 149 152 163 165 172 169 169 173 175 171 168 179 183 136 73 65 76 67 44 50 65 68 69 69 70 68 43 27 27 26 24 23 21 19 17 15 12 14 79 129 98 75 42 58 46 44 54 68 83 109 119 146 163 190 201 221 232 239 246 249 252 250 248 245 236 226 208 198 231 255 226 73 39 87 89 88 93 96 54 0 0 0 0 0 0 0 0 0 0 0 0 0 0 0 0 0 0 0 0 0 0 0 0 0 0 0 0 0 0 0 0 0 0 0 0 0 0 0 0 0 0 0 0 0 0 0 0 0 0 0 0 0 0 0 0 0 0 0 0 0 0 0 0 0 0 0 0 0 0 0 0 0 0 0 0 0 0 0 0 0 
0 0 0 0 0 0 0 0 0 0 0 0 0 0 0 0 0 0 0 0 0 0 0 0 0 0 0 0 0 0 0 0 0 0 0 0 0 0 0 0 0 0 0 0 0 0 0 0 0 0 0 0 0 0 0 0 0 0 0 0 0 0 0 0 0 0 0 0 0 0 0 0 0 0 0 0 0 0 0 0 0 0 0 0 0 0 0 0 0 0 0 0 0 0 0 0 0 0 92 186 179 176 177 178 180 179 181 181 180 183 183 183 180 182 184 184 184 184 185 185 182 185 168 164 182 172 183 185 181 179 184 182 183 179 176 178 181 180 181 159 157 154 118 124 132 126 126 126 125 122 122 122 121 122 127 127 128 126 128 130 132 134 129 127 128 127 127 132 133 131 140 143 148 150 144 139 139 145 144 148 154 162 164 161 146 149 150 140 137 142 150 142 138 145 146 134 145 154 145 147 155 157 159 158 155 160 168 167 175 175 176 177 155 97 67 75 51 42 60 68 69 69 70 71 61 32 15 11 13 15 18 22 27 39 52 66 91 116 105 119 153 183 195 204 211 222 230 246 253 254 253 253 247 242 230 218 202 182 160 135 113 94 78 69 56 47 130 241 228 88 43 91 100 93 98 97 51 0 0 0 0 0 0 0 0 0 0 0 0 0 0 0 0 0 0 0 0 0 0 0 0 0 0 0 0 0 0 0 0 0 0 0 0 0 0 0 0 0 0 0 0 0 0 0 0 0 0 0 0 0 0 0 0 0 0 0 0 0 0 0 0 0 0 0 0 0 0 0 0 0 0 0 0 0 0 0 0 0 0 
0 0 0 0 0 0 0 0 0 0 0 0 0 0 0 0 0 0 0 0 0 0 0 0 0 0 0 0 0 0 0 0 0 0 0 0 0 0 0 0 0 0 0 0 0 0 0 0 0 0 0 0 0 0 0 0 0 0 0 0 0 0 0 0 0 0 0 0 0 0 0 0 0 0 0 0 0 0 0 0 0 0 0 0 0 0 0 0 0 0 0 0 0 0 0 0 0 0 44 173 182 176 177 177 177 180 177 180 182 185 183 181 182 180 180 182 183 181 181 183 183 185 181 164 171 170 181 185 182 178 185 184 175 177 179 175 178 182 184 169 155 160 126 113 125 125 125 126 123 121 120 121 124 120 123 122 128 128 125 127 129 135 129 127 130 129 127 130 133 135 141 138 145 146 146 151 134 129 140 143 153 165 158 149 144 147 147 138 137 139 150 145 141 140 143 147 150 153 154 152 155 154 156 145 134 129 124 123 147 167 173 169 159 122 74 57 39 54 72 69 71 72 71 72 47 22 69 115 134 158 179 197 209 222 232 240 247 246 246 248 246 240 223 235 254 255 254 216 160 140 121 103 84 75 71 67 68 75 84 96 112 128 142 148 150 184 235 224 100 54 96 105 103 104 95 38 0 0 0 0 0 0 0 0 0 0 0 0 0 0 0 0 0 0 0 0 0 0 0 0 0 0 0 0 0 0 0 0 0 0 0 0 0 0 0 0 0 0 0 0 0 0 0 0 0 0 0 0 0 0 0 0 0 0 0 0 0 0 0 0 0 0 0 0 0 0 0 0 0 0 0 0 0 0 0 0 0 0 0 
0 0 0 0 0 0 0 0 0 0 0 0 0 0 0 0 0 0 0 0 0 0 0 0 0 0 0 0 0 0 0 0 0 0 0 0 0 0 0 0 0 0 0 0 0 0 0 0 0 0 0 0 0 0 0 0 0 0 0 0 0 0 0 0 0 0 0 0 0 0 0 0 0 0 0 0 0 0 0 0 0 0 0 0 0 0 0 0 0 0 0 0 0 0 0 0 0 0 12 143 183 177 177 178 178 179 179 180 181 180 180 180 185 181 180 182 183 184 183 182 182 182 186 160 154 176 179 178 179 177 180 176 174 180 180 176 177 183 182 178 157 163 140 113 123 123 122 127 123 121 122 122 122 120 117 124 125 126 126 128 127 125 127 130 133 131 128 127 135 141 135 137 139 140 145 158 147 136 142 147 144 150 142 152 156 144 138 129 128 136 138 138 136 128 125 131 132 135 143 144 145 151 136 133 149 169 185 190 199 187 161 168 161 141 72 33 48 68 72 73 73 74 71 66 19 100 233 252 251 250 247 240 225 211 195 182 177 164 146 127 102 60 89 216 251 253 228 118 76 99 114 131 145 157 170 178 182 187 188 188 187 178 165 180 238 253 209 94 69 108 117 108 107 72 20 0 0 0 0 0 0 0 0 0 0 0 0 0 0 0 0 0 0 0 0 0 0 0 0 0 0 0 0 0 0 0 0 0 0 0 0 0 0 0 0 0 0 0 0 0 0 0 0 0 0 0 0 0 0 0 0 0 0 0 0 0 0 0 0 0 0 0 0 0 0 0 0 0 0 0 0 0 0 0 0 0 0 0 0 
0 0 0 0 0 0 0 0 0 0 0 0 0 0 0 0 0 0 0 0 0 0 0 0 0 0 0 0 0 0 0 0 0 0 0 0 0 0 0 0 0 0 0 0 0 0 0 0 0 0 0 0 0 0 0 0 0 0 0 0 0 0 0 0 0 0 0 0 0 0 0 0 0 0 0 0 0 0 0 0 0 0 0 0 0 0 0 0 0 0 0 0 0 0 0 0 0 0 0 100 185 178 175 176 178 180 182 179 181 181 182 182 183 182 182 182 183 184 185 183 183 180 181 169 154 163 170 176 179 178 176 177 184 182 179 178 178 181 181 180 162 161 152 118 121 126 123 127 126 118 121 122 120 123 119 124 122 128 125 130 126 118 122 132 132 129 135 132 137 137 133 140 136 139 148 156 158 143 146 145 142 138 137 138 133 119 117 126 118 120 125 141 154 159 164 175 189 199 206 215 222 225 202 213 233 242 251 250 250 229 151 162 165 152 85 37 64 76 75 75 74 71 71 27 63 236 250 170 142 121 85 64 68 71 77 82 43 27 37 28 15 44 191 250 250 241 216 187 191 192 188 184 178 174 168 162 156 153 150 147 142 143 165 210 232 181 97 90 119 123 109 80 38 0 0 0 0 0 0 0 0 0 0 0 0 0 0 0 0 0 0 0 0 0 0 0 0 0 0 0 0 0 0 0 0 0 0 0 0 0 0 0 0 0 0 0 0 0 0 0 0 0 0 0 0 0 0 0 0 0 0 0 0 0 0 0 0 0 0 0 0 0 0 0 0 0 0 0 0 0 0 0 0 0 0 0 0 0 0 
0 0 0 0 0 0 0 0 0 0 0 0 0 0 0 0 0 0 0 0 0 0 0 0 0 0 0 0 0 0 0 0 0 0 0 0 0 0 0 0 0 0 0 0 0 0 0 0 0 0 0 0 0 0 0 0 0 0 0 0 0 0 0 0 0 0 0 0 0 0 0 0 0 0 0 0 0 0 0 0 0 0 0 0 0 0 0 0 0 0 0 0 0 0 0 0 0 0 0 51 181 177 175 175 177 179 180 180 183 184 186 185 184 183 180 181 184 183 181 181 180 177 181 182 150 150 169 175 182 182 182 182 182 180 181 179 177 181 183 182 168 156 162 127 119 129 124 125 124 117 119 122 117 121 121 124 123 128 120 124 128 121 119 131 135 137 136 135 134 131 133 133 129 123 124 126 130 123 123 120 134 135 144 143 154 168 172 190 201 198 208 225 235 237 241 244 249 251 251 254 255 253 250 252 255 251 251 252 254 242 165 152 170 171 126 67 70 79 79 79 77 74 33 53 225 252 131 25 16 14 27 140 197 210 222 216 134 51 39 31 86 216 255 246 193 141 141 155 158 154 151 151 151 149 149 152 154 160 169 168 193 232 233 201 146 103 107 110 91 61 31 4 0 0 0 0 0 0 0 0 0 0 0 0 0 0 0 0 0 0 0 0 0 0 0 0 0 0 0 0 0 0 0 0 0 0 0 0 0 0 0 0 0 0 0 0 0 0 0 0 0 0 0 0 0 0 0 0 0 0 0 0 0 0 0 0 0 0 0 0 0 0 0 0 0 0 0 0 0 0 0 0 0 0 0 0 0 0 0 
0 0 0 0 0 0 0 0 0 0 0 0 0 0 0 0 0 0 0 0 0 0 0 0 0 0 0 0 0 0 0 0 0 0 0 0 0 0 0 0 0 0 0 0 0 0 0 0 0 0 0 0 0 0 0 0 0 0 0 0 0 0 0 0 0 0 0 0 0 0 0 0 0 0 0 0 0 0 0 0 0 0 0 0 0 0 0 0 0 0 0 0 0 0 0 0 0 0 0 9 155 182 177 176 177 179 182 182 183 180 183 185 185 185 180 182 186 184 180 180 179 181 180 186 161 163 179 173 182 186 185 181 179 183 180 179 178 180 182 182 175 154 166 141 117 128 126 123 124 122 119 120 118 121 123 124 126 127 122 113 118 119 111 113 118 114 109 114 112 119 124 129 133 146 155 164 173 188 198 201 205 219 224 229 239 242 243 246 247 245 249 255 252 248 246 250 251 250 246 248 250 250 252 253 254 250 250 252 253 246 192 152 170 172 152 94 71 81 81 80 79 43 66 224 251 136 24 38 96 147 199 248 252 251 254 254 207 60 39 138 233 253 248 225 178 159 164 165 165 170 171 175 182 184 190 190 194 193 187 189 180 147 97 62 50 42 32 21 9 0 0 0 0 0 0 0 0 0 0 0 0 0 0 0 0 0 0 0 0 0 0 0 0 0 0 0 0 0 0 0 0 0 0 0 0 0 0 0 0 0 0 0 0 0 0 0 0 0 0 0 0 0 0 0 0 0 0 0 0 0 0 0 0 0 0 0 0 0 0 0 0 0 0 0 0 0 0 0 0 0 0 0 0 0 0 0 0 0 0 
0 0 0 0 0 0 0 0 0 0 0 0 0 0 0 0 0 0 0 0 0 0 0 0 0 0 0 0 0 0 0 0 0 0 0 0 0 0 0 0 0 0 0 0 0 0 0 0 0 0 0 0 0 0 0 0 0 0 0 0 0 0 0 0 0 0 0 0 0 0 0 0 0 0 0 0 0 0 0 0 0 0 0 0 0 0 0 0 0 0 0 0 0 0 0 0 0 0 0 0 99 188 179 177 177 179 180 182 181 179 181 185 184 183 182 181 184 186 183 182 181 183 177 180 174 150 168 174 174 185 186 183 180 180 182 182 175 175 181 184 181 159 163 153 120 128 131 124 123 115 106 108 110 108 109 104 111 115 117 111 118 129 136 140 153 170 173 170 175 196 203 209 219 229 232 233 236 244 245 250 248 248 249 251 249 252 244 247 250 247 247 249 247 244 245 244 246 250 245 245 246 246 252 252 252 251 250 251 251 250 224 146 165 176 168 117 77 87 88 67 42 104 234 240 111 29 110 211 238 245 250 250 251 252 244 186 100 113 206 250 252 220 190 191 197 205 211 207 196 189 179 168 154 138 122 98 75 68 61 52 35 17 3 0 0 0 0 0 0 0 0 0 0 0 0 0 0 0 0 0 0 0 0 0 0 0 0 0 0 0 0 0 0 0 0 0 0 0 0 0 0 0 0 0 0 0 0 0 0 0 0 0 0 0 0 0 0 0 0 0 0 0 0 0 0 0 0 0 0 0 0 0 0 0 0 0 0 0 0 0 0 0 0 0 0 0 0 0 0 0 0 0 0 0 0 0 0 0 0 
0 0 0 0 0 0 0 0 0 0 0 0 0 0 0 0 0 0 0 0 0 0 0 0 0 0 0 0 0 0 0 0 0 0 0 0 0 0 0 0 0 0 0 0 0 0 0 0 0 0 0 0 0 0 0 0 0 0 0 0 0 0 0 0 0 0 0 0 0 0 0 0 0 0 0 0 0 0 0 0 0 0 0 0 0 0 0 0 0 0 0 0 0 0 0 0 0 0 0 0 44 186 179 177 178 180 180 183 179 178 181 181 181 183 184 182 183 184 184 182 180 181 176 178 183 146 158 177 176 180 184 184 182 179 180 181 176 176 180 181 182 167 157 164 128 121 130 127 117 114 113 126 130 135 154 154 157 167 195 212 219 224 231 234 235 235 235 238 236 236 245 243 242 248 246 245 245 249 248 248 244 244 244 243 246 251 241 243 248 247 248 249 248 245 247 248 246 245 247 249 246 246 250 252 250 250 247 248 246 249 242 171 148 168 173 139 89 72 54 59 159 241 214 83 68 181 245 255 255 255 253 248 241 215 158 138 190 234 243 234 214 189 178 179 174 169 149 133 49 35 29 20 12 5 0 0 0 0 0 0 0 0 0 0 0 0 0 0 0 0 0 0 0 0 0 0 0 0 0 0 0 0 0 0 0 0 0 0 0 0 0 0 0 0 0 0 0 0 0 0 0 0 0 0 0 0 0 0 0 0 0 0 0 0 0 0 0 0 0 0 0 0 0 0 0 0 0 0 0 0 0 0 0 0 0 0 0 0 0 0 0 0 0 0 0 0 0 0 0 0 0 0 0 0 0 0 0 0 0 
0 0 0 0 0 0 0 0 0 0 0 0 0 0 0 0 0 0 0 0 0 0 0 0 0 0 0 0 0 0 0 0 0 0 0 0 0 0 0 0 0 0 0 0 0 0 0 0 0 0 0 0 0 0 0 0 0 0 0 0 0 0 0 0 0 0 0 0 0 0 0 0 0 0 0 0 0 0 0 0 0 0 0 0 0 0 0 0 0 0 0 0 0 0 0 0 0 0 0 0 12 153 185 178 178 182 183 183 180 176 176 177 181 181 184 185 184 179 182 181 180 182 184 181 180 165 155 169 180 182 182 183 182 176 179 180 180 178 174 177 181 176 155 167 140 120 126 132 161 201 212 221 228 229 234 239 233 230 229 239 244 243 242 243 242 240 243 241 237 237 241 245 244 242 238 243 239 243 247 243 241 241 250 244 250 249 248 246 243 244 248 248 248 245 247 246 246 247 248 248 246 247 246 250 246 247 250 249 247 247 252 206 146 162 168 160 95 59 121 212 228 160 87 160 238 254 249 241 234 223 199 167 118 94 122 157 166 154 137 134 136 140 150 127 90 90 60 15 0 0 0 0 0 0 0 0 0 0 0 0 0 0 0 0 0 0 0 0 0 0 0 0 0 0 0 0 0 0 0 0 0 0 0 0 0 0 0 0 0 0 0 0 0 0 0 0 0 0 0 0 0 0 0 0 0 0 0 0 0 0 0 0 0 0 0 0 0 0 0 0 0 0 0 0 0 0 0 0 0 0 0 0 0 0 0 0 0 0 0 0 0 0 0 0 0 0 0 0 0 0 0 0 0 0 0 0 0 0 0 
0 0 0 0 0 0 0 0 0 0 0 0 0 0 0 0 0 0 0 0 0 0 0 0 0 0 0 0 0 0 0 0 0 0 0 0 0 0 0 0 0 0 0 0 0 0 0 0 0 0 0 0 0 0 0 0 0 0 0 0 0 0 0 0 0 0 0 0 0 0 0 0 0 0 0 0 0 0 0 0 0 0 0 0 0 0 0 0 0 0 0 0 0 0 0 0 0 0 0 0 1 94 189 179 178 179 180 178 181 180 174 178 178 181 186 185 181 182 185 185 183 182 184 182 183 183 149 152 181 184 181 179 180 179 181 181 180 175 178 180 182 179 156 162 151 120 126 121 186 233 241 239 244 243 233 241 241 237 235 236 238 238 237 235 240 244 245 243 245 238 239 245 245 241 240 242 244 242 248 234 244 243 246 242 247 252 249 246 245 245 247 245 249 250 247 246 245 246 250 249 249 246 246 250 249 249 252 252 252 251 251 217 146 160 166 167 149 173 203 176 115 84 113 174 182 160 144 140 133 121 126 129 127 140 152 156 150 156 165 171 175 188 173 115 91 70 5 0 0 0 0 0 0 0 0 0 0 0 0 0 0 0 0 0 0 0 0 0 0 0 0 0 0 0 0 0 0 0 0 0 0 0 0 0 0 0 0 0 0 0 0 0 0 0 0 0 0 0 0 0 0 0 0 0 0 0 0 0 0 0 0 0 0 0 0 0 0 0 0 0 0 0 0 0 0 0 0 0 0 0 0 0 0 0 0 0 0 0 0 0 0 0 0 0 0 0 0 0 0 0 0 0 0 0 0 0 0 0 0 
0 0 0 0 0 0 0 0 0 0 0 0 0 0 0 0 0 0 0 0 0 0 0 0 0 0 0 0 0 0 0 0 0 0 0 0 0 0 0 0 0 0 0 0 0 0 0 0 0 0 0 0 0 0 0 0 0 0 0 0 0 0 0 0 0 0 0 0 0 0 0 0 0 0 0 0 0 0 0 0 0 0 0 0 0 0 0 0 0 0 0 0 0 0 0 0 0 0 0 0 0 46 186 179 175 179 179 179 182 178 179 180 179 180 181 181 182 186 185 180 180 180 180 186 182 175 171 185 179 175 180 182 176 178 181 181 181 179 178 178 169 171 166 156 166 125 127 123 152 223 240 237 237 241 235 236 238 241 241 240 237 232 234 240 242 240 240 242 245 240 238 242 242 242 242 239 244 239 245 243 245 243 239 243 246 247 250 244 246 248 242 240 244 246 245 250 247 243 246 251 250 250 251 252 247 249 248 252 251 248 252 239 168 154 166 167 164 132 97 93 105 122 134 140 138 141 150 152 157 164 161 171 179 179 179 177 170 174 179 180 184 163 110 93 64 5 0 0 0 0 0 0 0 0 0 0 0 0 0 0 0 0 0 0 0 0 0 0 0 0 0 0 0 0 0 0 0 0 0 0 0 0 0 0 0 0 0 0 0 0 0 0 0 0 0 0 0 0 0 0 0 0 0 0 0 0 0 0 0 0 0 0 0 0 0 0 0 0 0 0 0 0 0 0 0 0 0 0 0 0 0 0 0 0 0 0 0 0 0 0 0 0 0 0 0 0 0 0 0 0 0 0 0 0 0 0 0 0 0 
0 0 0 0 0 0 0 0 0 0 0 0 0 0 0 0 0 0 0 0 0 0 0 0 0 0 0 0 0 0 0 0 0 0 0 0 0 0 0 0 0 0 0 0 0 0 0 0 0 0 0 0 0 0 0 0 0 0 0 0 0 0 0 0 0 0 0 0 0 0 0 0 0 0 0 0 0 0 0 0 0 0 0 0 0 0 0 0 0 0 0 0 0 0 0 0 0 0 0 0 0 17 149 186 178 180 179 179 180 180 179 177 182 182 177 179 181 181 178 179 183 183 185 185 178 180 171 189 177 171 183 185 183 178 184 186 184 184 180 170 162 171 174 156 147 116 119 129 140 220 234 236 235 239 239 230 232 240 240 241 240 234 237 241 240 239 238 240 242 241 243 243 236 240 243 243 245 244 243 244 249 248 243 245 243 244 249 245 241 247 243 242 247 247 245 247 248 247 249 249 250 250 252 250 250 246 247 250 252 249 252 253 212 150 169 167 164 157 150 159 175 174 171 172 173 167 166 174 178 171 166 166 176 180 170 165 173 178 177 186 161 101 93 61 3 0 0 0 0 0 0 0 0 0 0 0 0 0 0 0 0 0 0 0 0 0 0 0 0 0 0 0 0 0 0 0 0 0 0 0 0 0 0 0 0 0 0 0 0 0 0 0 0 0 0 0 0 0 0 0 0 0 0 0 0 0 0 0 0 0 0 0 0 0 0 0 0 0 0 0 0 0 0 0 0 0 0 0 0 0 0 0 0 0 0 0 0 0 0 0 0 0 0 0 0 0 0 0 0 0 0 0 0 0 0 0 0 0 0 
0 0 0 0 0 0 0 0 0 0 0 0 0 0 0 0 0 0 0 0 0 0 0 0 0 0 0 0 0 0 0 0 0 0 0 0 0 0 0 0 0 0 0 0 0 0 0 0 0 0 0 0 0 0 0 0 0 0 0 0 0 0 0 0 0 0 0 0 0 0 0 0 0 0 0 0 0 0 0 0 0 0 0 0 0 0 0 0 0 0 0 0 0 0 0 0 0 0 0 0 0 2 99 191 178 179 179 177 176 178 178 180 181 180 183 184 181 182 182 186 185 180 180 180 181 179 186 157 161 181 182 178 182 180 184 186 182 180 179 177 168 155 175 168 151 131 112 127 127 197 235 229 230 235 236 235 236 239 245 240 240 240 241 239 237 236 237 240 244 239 244 240 242 242 241 244 249 244 245 245 248 245 244 245 246 245 246 248 250 245 248 247 244 247 249 250 250 244 248 251 251 249 250 249 249 250 252 250 249 250 252 253 234 157 161 176 169 173 177 160 170 172 166 173 173 169 167 172 168 170 175 173 172 169 175 175 176 179 190 166 102 92 59 2 0 0 0 0 0 0 0 0 0 0 0 0 0 0 0 0 0 0 0 0 0 0 0 0 0 0 0 0 0 0 0 0 0 0 0 0 0 0 0 0 0 0 0 0 0 0 0 0 0 0 0 0 0 0 0 0 0 0 0 0 0 0 0 0 0 0 0 0 0 0 0 0 0 0 0 0 0 0 0 0 0 0 0 0 0 0 0 0 0 0 0 0 0 0 0 0 0 0 0 0 0 0 0 0 0 0 0 0 0 0 0 0 0 0 0 
0 0 0 0 0 0 0 0 0 0 0 0 0 0 0 0 0 0 0 0 0 0 0 0 0 0 0 0 0 0 0 0 0 0 0 0 0 0 0 0 0 0 0 0 0 0 0 0 0 0 0 0 0 0 0 0 0 0 0 0 0 0 0 0 0 0 0 0 0 0 0 0 0 0 0 0 0 0 0 0 0 0 0 0 0 0 0 0 0 0 0 0 0 0 0 0 0 0 0 0 0 0 49 184 181 178 182 178 178 177 179 181 178 179 184 175 175 182 184 185 185 180 177 181 182 183 185 169 182 178 178 181 183 181 183 186 184 182 182 177 158 160 183 171 169 182 123 116 126 151 220 238 238 236 237 235 241 231 237 246 239 239 242 242 242 239 236 242 244 240 243 242 242 244 243 241 245 244 241 245 247 244 241 244 246 248 249 250 253 248 244 247 246 249 249 245 250 250 246 247 251 251 247 247 249 247 246 249 248 251 250 250 245 185 146 165 162 172 182 164 166 173 170 175 167 167 175 173 170 168 171 172 171 168 176 177 173 183 157 93 88 53 1 0 0 0 0 0 0 0 0 0 0 0 0 0 0 0 0 0 0 0 0 0 0 0 0 0 0 0 0 0 0 0 0 0 0 0 0 0 0 0 0 0 0 0 0 0 0 0 0 0 0 0 0 0 0 0 0 0 0 0 0 0 0 0 0 0 0 0 0 0 0 0 0 0 0 0 0 0 0 0 0 0 0 0 0 0 0 0 0 0 0 0 0 0 0 0 0 0 0 0 0 0 0 0 0 0 0 0 0 0 0 0 0 0 0 0 0 
0 0 0 0 0 0 0 0 0 0 0 0 0 0 0 0 0 0 0 0 0 0 0 0 0 0 0 0 0 0 0 0 0 0 0 0 0 0 0 0 0 0 0 0 0 0 0 0 0 0 0 0 0 0 0 0 0 0 0 0 0 0 0 0 0 0 0 0 0 0 0 0 0 0 0 0 0 0 0 0 0 0 0 0 0 0 0 0 0 0 0 0 0 0 0 0 0 0 0 0 0 0 15 152 187 177 181 176 178 180 178 181 180 177 179 179 181 182 184 186 186 186 187 185 181 184 185 172 171 174 175 179 184 182 179 183 184 184 179 173 174 177 182 178 158 173 134 111 122 118 194 242 237 235 241 232 237 241 232 238 239 242 240 239 241 239 239 240 239 241 241 240 245 244 242 244 243 242 242 243 246 247 242 243 246 249 247 247 247 246 246 243 245 248 246 246 247 251 250 246 251 247 245 250 249 246 246 245 250 251 250 250 250 219 154 156 166 167 180 174 167 176 172 173 170 174 177 176 175 172 174 171 174 173 176 179 183 144 86 93 47 0 0 0 0 0 0 0 0 0 0 0 0 0 0 0 0 0 0 0 0 0 0 0 0 0 0 0 0 0 0 0 0 0 0 0 0 0 0 0 0 0 0 0 0 0 0 0 0 0 0 0 0 0 0 0 0 0 0 0 0 0 0 0 0 0 0 0 0 0 0 0 0 0 0 0 0 0 0 0 0 0 0 0 0 0 0 0 0 0 0 0 0 0 0 0 0 0 0 0 0 0 0 0 0 0 0 0 0 0 0 0 0 0 0 0 0 0 0 
0 0 0 0 0 0 0 0 0 0 0 0 0 0 0 0 0 0 0 0 0 0 0 0 0 0 0 0 0 0 0 0 0 0 0 0 0 0 0 0 0 0 0 0 0 0 0 0 0 0 0 0 0 0 0 0 0 0 0 0 0 0 0 0 0 0 0 0 0 0 0 0 0 0 0 0 0 0 0 0 0 0 0 0 0 0 0 0 0 0 0 0 0 0 0 0 0 0 0 0 0 0 1 102 190 177 177 180 182 182 181 180 179 180 183 184 184 185 186 187 186 187 188 177 182 182 184 182 177 189 175 177 182 181 182 184 184 184 180 176 180 182 182 184 163 151 164 124 130 120 188 238 243 236 238 237 241 237 236 235 240 241 245 245 243 243 241 243 241 240 244 245 242 244 242 248 251 247 241 245 249 247 246 246 246 249 247 244 244 245 246 246 245 245 248 249 245 247 246 248 247 248 245 250 249 250 250 247 245 252 249 248 253 241 175 155 177 168 171 177 166 170 174 167 176 175 172 176 172 174 175 174 173 182 181 174 140 90 90 39 0 0 0 0 0 0 0 0 0 0 0 0 0 0 0 0 0 0 0 0 0 0 0 0 0 0 0 0 0 0 0 0 0 0 0 0 0 0 0 0 0 0 0 0 0 0 0 0 0 0 0 0 0 0 0 0 0 0 0 0 0 0 0 0 0 0 0 0 0 0 0 0 0 0 0 0 0 0 0 0 0 0 0 0 0 0 0 0 0 0 0 0 0 0 0 0 0 0 0 0 0 0 0 0 0 0 0 0 0 0 0 0 0 0 0 0 0 0 0 
0 0 0 0 0 0 0 0 0 0 0 0 0 0 0 0 0 0 0 0 0 0 0 0 0 0 0 0 0 0 0 0 0 0 0 0 0 0 0 0 0 0 0 0 0 0 0 0 0 0 0 0 0 0 0 0 0 0 0 0 0 0 0 0 0 0 0 0 0 0 0 0 0 0 0 0 0 0 0 0 0 0 0 0 0 0 0 0 0 0 0 0 0 0 0 0 0 0 0 0 0 0 1 48 187 180 178 180 180 181 181 180 178 176 182 185 185 184 185 186 186 184 185 185 186 182 185 185 186 198 176 179 184 185 183 179 185 184 181 179 180 181 182 184 175 151 168 142 139 121 155 236 243 240 235 238 241 234 239 240 239 242 241 242 242 240 235 240 242 242 242 243 244 242 246 241 245 244 241 244 246 247 246 243 243 247 247 248 245 247 246 248 250 247 247 248 247 249 245 246 245 248 252 251 249 250 247 250 248 249 247 250 251 248 200 156 178 168 165 183 175 166 175 175 170 165 177 177 175 176 179 183 180 186 186 147 85 87 33 0 0 0 0 0 0 0 0 0 0 0 0 0 0 0 0 0 0 0 0 0 0 0 0 0 0 0 0 0 0 0 0 0 0 0 0 0 0 0 0 0 0 0 0 0 0 0 0 0 0 0 0 0 0 0 0 0 0 0 0 0 0 0 0 0 0 0 0 0 0 0 0 0 0 0 0 0 0 0 0 0 0 0 0 0 0 0 0 0 0 0 0 0 0 0 0 0 0 0 0 0 0 0 0 0 0 0 0 0 0 0 0 0 0 0 0 0 0 0 0 
0 0 0 0 0 0 0 0 0 0 0 0 0 0 0 0 0 0 0 0 0 0 0 0 0 0 0 0 0 0 0 0 0 0 0 0 0 0 0 0 0 0 0 0 0 0 0 0 0 0 0 0 0 0 0 0 0 0 0 0 0 0 0 0 0 0 0 0 0 0 0 0 0 0 0 0 0 0 0 0 0 0 0 0 0 0 0 0 0 0 0 0 0 0 0 0 0 0 0 0 0 0 0 12 159 187 178 178 181 181 180 180 177 177 184 187 182 182 185 187 186 185 185 188 186 181 185 183 180 207 186 181 184 184 181 179 183 185 182 181 177 175 179 182 183 148 166 154 121 123 124 213 242 234 239 239 240 239 236 237 241 237 239 238 241 244 237 239 241 239 242 238 235 243 246 244 243 247 244 241 249 250 249 246 243 247 248 243 245 250 247 247 250 247 247 251 246 246 248 251 245 247 252 249 243 247 249 252 253 245 248 255 252 251 221 148 169 174 166 182 177 171 180 176 178 179 183 181 181 179 188 190 180 171 130 89 87 26 0 0 0 0 0 0 0 0 0 0 0 0 0 0 0 0 0 0 0 0 0 0 0 0 0 0 0 0 0 0 0 0 0 0 0 0 0 0 0 0 0 0 0 0 0 0 0 0 0 0 0 0 0 0 0 0 0 0 0 0 0 0 0 0 0 0 0 0 0 0 0 0 0 0 0 0 0 0 0 0 0 0 0 0 0 0 0 0 0 0 0 0 0 0 0 0 0 0 0 0 0 0 0 0 0 0 0 0 0 0 0 0 0 0 0 0 0 0 0 0 0 
0 0 0 0 0 0 0 0 0 0 0 0 0 0 0 0 0 0 0 0 0 0 0 0 0 0 0 0 0 0 0 0 0 0 0 0 0 0 0 0 0 0 0 0 0 0 0 0 0 0 0 0 0 0 0 0 0 0 0 0 0 0 0 0 0 0 0 0 0 0 0 0 0 0 0 0 0 0 0 0 0 0 0 0 0 0 0 0 0 0 0 0 0 0 0 0 0 0 0 0 0 0 0 2 97 194 178 179 181 182 182 179 179 180 185 186 181 178 184 187 183 186 184 184 187 184 180 184 175 203 192 175 185 182 185 183 181 183 180 180 180 175 175 181 184 157 164 150 110 126 120 183 243 238 236 236 234 240 238 238 239 238 242 240 240 245 241 241 246 240 242 244 236 242 242 241 242 244 245 245 247 249 247 247 245 242 250 246 245 246 247 246 250 249 250 253 250 244 247 249 247 249 252 251 245 247 251 251 251 247 250 252 248 251 242 175 154 177 168 174 186 178 178 182 181 175 165 163 160 154 155 145 122 97 83 85 21 0 0 0 0 0 0 0 0 0 0 0 0 0 0 0 0 0 0 0 0 0 0 0 0 0 0 0 0 0 0 0 0 0 0 0 0 0 0 0 0 0 0 0 0 0 0 0 0 0 0 0 0 0 0 0 0 0 0 0 0 0 0 0 0 0 0 0 0 0 0 0 0 0 0 0 0 0 0 0 0 0 0 0 0 0 0 0 0 0 0 0 0 0 0 0 0 0 0 0 0 0 0 0 0 0 0 0 0 0 0 0 0 0 0 0 0 0 0 0 0 0 0 
0 0 0 0 0 0 0 0 0 0 0 0 0 0 0 0 0 0 0 0 0 0 0 0 0 0 0 0 0 0 0 0 0 0 0 0 0 0 0 0 0 0 0 0 0 0 0 0 0 0 0 0 0 0 0 0 0 0 0 0 0 0 0 0 0 0 0 0 0 0 0 0 0 0 0 0 0 0 0 0 0 0 0 0 0 0 0 0 0 0 0 0 0 0 0 0 0 0 0 0 0 0 0 1 42 191 183 179 183 184 181 179 182 183 181 183 183 183 185 188 186 184 183 184 188 184 173 183 180 191 204 171 185 186 184 176 180 183 180 178 178 174 177 183 183 170 165 172 122 116 122 142 228 242 234 240 236 237 243 241 241 241 241 243 241 243 241 241 243 242 242 244 242 243 244 240 244 242 243 242 245 247 240 246 245 243 247 250 248 245 248 249 249 250 250 246 249 251 250 247 252 249 247 250 250 246 249 247 248 253 252 248 248 252 249 207 149 166 174 168 153 131 123 120 114 104 92 90 88 85 83 80 79 85 84 17 0 0 0 0 0 0 0 0 0 0 0 0 0 0 0 0 0 0 0 0 0 0 0 0 0 0 0 0 0 0 0 0 0 0 0 0 0 0 0 0 0 0 0 0 0 0 0 0 0 0 0 0 0 0 0 0 0 0 0 0 0 0 0 0 0 0 0 0 0 0 0 0 0 0 0 0 0 0 0 0 0 0 0 0 0 0 0 0 0 0 0 0 0 0 0 0 0 0 0 0 0 0 0 0 0 0 0 0 0 0 0 0 0 0 0 0 0 0 0 0 0 0 0 
0 0 0 0 0 0 0 0 0 0 0 0 0 0 0 0 0 0 0 0 0 0 0 0 0 0 0 0 0 0 0 0 0 0 0 0 0 0 0 0 0 0 0 0 0 0 0 0 0 0 0 0 0 0 0 0 0 0 0 0 0 0 0 0 0 0 0 0 0 0 0 0 0 0 0 0 0 0 0 0 0 0 0 0 0 0 0 0 0 0 0 0 0 0 0 0 0 0 0 0 0 0 0 0 14 159 191 178 182 181 180 182 184 184 181 182 185 184 184 186 189 184 186 187 187 184 177 184 187 193 218 174 181 186 180 180 183 184 183 183 181 174 176 182 183 181 158 182 144 117 134 118 201 241 239 240 243 239 240 242 238 238 239 243 241 240 241 243 243 243 242 244 244 240 243 247 249 246 242 241 246 247 245 245 245 248 243 246 248 248 249 247 248 250 247 245 246 251 252 251 252 251 245 251 251 250 250 248 248 252 252 252 251 251 252 234 168 159 171 170 116 67 70 76 75 72 79 83 85 86 86 87 93 85 14 0 0 0 0 0 0 0 0 0 0 0 0 0 0 0 0 0 0 0 0 0 0 0 0 0 0 0 0 0 0 0 0 0 0 0 0 0 0 0 0 0 0 0 0 0 0 0 0 0 0 0 0 0 0 0 0 0 0 0 0 0 0 0 0 0 0 0 0 0 0 0 0 0 0 0 0 0 0 0 0 0 0 0 0 0 0 0 0 0 0 0 0 0 0 0 0 0 0 0 0 0 0 0 0 0 0 0 0 0 0 0 0 0 0 0 0 0 0 0 0 0 0 0 0 
0 0 0 0 0 0 0 0 0 0 0 0 0 0 0 0 0 0 0 0 0 0 0 0 0 0 0 0 0 0 0 0 0 0 0 0 0 0 0 0 0 0 0 0 0 0 0 0 0 0 0 0 0 0 0 0 0 0 0 0 0 0 0 0 0 0 0 0 0 0 0 0 0 0 0 0 0 0 0 0 0 0 0 0 0 0 0 0 0 0 0 0 0 0 0 0 0 0 0 0 0 0 0 0 4 95 197 177 180 181 183 185 184 185 187 185 185 179 179 182 185 185 182 188 188 185 186 186 189 188 216 189 173 185 183 185 183 183 184 181 178 175 178 178 181 185 164 157 150 124 137 112 173 241 241 239 243 237 235 240 240 238 238 240 238 241 244 244 244 241 246 249 245 243 240 249 246 245 247 245 246 243 247 245 247 247 245 247 246 250 250 247 247 251 247 247 250 247 247 247 251 251 250 252 251 253 253 252 250 252 252 255 255 252 255 248 189 168 176 176 146 84 73 86 84 84 89 88 89 90 90 93 87 11 0 0 0 0 0 0 0 0 0 0 0 0 0 0 0 0 0 0 0 0 0 0 0 0 0 0 0 0 0 0 0 0 0 0 0 0 0 0 0 0 0 0 0 0 0 0 0 0 0 0 0 0 0 0 0 0 0 0 0 0 0 0 0 0 0 0 0 0 0 0 0 0 0 0 0 0 0 0 0 0 0 0 0 0 0 0 0 0 0 0 0 0 0 0 0 0 0 0 0 0 0 0 0 0 0 0 0 0 0 0 0 0 0 0 0 0 0 0 0 0 0 0 0 0 0 
0 0 0 0 0 0 0 0 0 0 0 0 0 0 0 0 0 0 0 0 0 0 0 0 0 0 0 0 0 0 0 0 0 0 0 0 0 0 0 0 0 0 0 0 0 0 0 0 0 0 0 0 0 0 0 0 0 0 0 0 0 0 0 0 0 0 0 0 0 0 0 0 0 0 0 0 0 0 0 0 0 0 0 0 0 0 0 0 0 0 0 0 0 0 0 0 0 0 0 0 0 0 0 0 1 42 190 181 178 182 182 186 185 185 188 186 184 180 181 180 184 187 181 185 186 186 186 184 186 182 191 200 168 186 188 187 183 184 186 181 173 176 177 176 181 184 174 148 165 130 124 124 156 232 240 239 242 235 235 243 240 242 243 243 241 240 240 241 241 244 246 243 242 246 243 243 245 240 243 246 245 247 246 250 247 246 251 252 246 247 249 250 249 250 247 244 247 247 247 252 253 251 252 255 251 255 255 252 246 250 252 251 249 242 237 225 180 162 175 180 167 105 72 80 84 88 88 87 88 90 95 79 8 0 0 0 0 0 0 0 0 0 0 0 0 0 0 0 0 0 0 0 0 0 0 0 0 0 0 0 0 0 0 0 0 0 0 0 0 0 0 0 0 0 0 0 0 0 0 0 0 0 0 0 0 0 0 0 0 0 0 0 0 0 0 0 0 0 0 0 0 0 0 0 0 0 0 0 0 0 0 0 0 0 0 0 0 0 0 0 0 0 0 0 0 0 0 0 0 0 0 0 0 0 0 0 0 0 0 0 0 0 0 0 0 0 0 0 0 0 0 0 0 0 0 0 0 0 0 
0 0 0 0 0 0 0 0 0 0 0 0 0 0 0 0 0 0 0 0 0 0 0 0 0 0 0 0 0 0 0 0 0 0 0 0 0 0 0 0 0 0 0 0 0 0 0 0 0 0 0 0 0 0 0 0 0 0 0 0 0 0 0 0 0 0 0 0 0 0 0 0 0 0 0 0 0 0 0 0 0 0 0 0 0 0 0 0 0 0 0 0 0 0 0 0 0 0 0 0 0 0 0 0 0 16 151 188 177 182 180 184 184 183 186 186 187 183 185 187 186 187 184 184 182 188 186 180 185 186 177 209 178 181 187 185 184 183 186 183 176 178 180 176 179 183 179 152 159 145 121 135 128 203 237 238 239 241 239 244 242 241 243 243 248 242 238 241 241 241 246 243 237 243 245 245 246 244 237 245 245 245 244 248 250 249 251 252 250 248 251 252 251 252 254 251 248 252 254 255 247 246 241 237 239 228 222 230 217 198 202 199 193 166 155 157 167 169 171 181 178 131 76 76 89 88 88 91 91 96 82 3 0 0 0 0 0 0 0 0 0 0 0 0 0 0 0 0 0 0 0 0 0 0 0 0 0 0 0 0 0 0 0 0 0 0 0 0 0 0 0 0 0 0 0 0 0 0 0 0 0 0 0 0 0 0 0 0 0 0 0 0 0 0 0 0 0 0 0 0 0 0 0 0 0 0 0 0 0 0 0 0 0 0 0 0 0 0 0 0 0 0 0 0 0 0 0 0 0 0 0 0 0 0 0 0 0 0 0 0 0 0 0 0 0 0 0 0 0 0 0 0 0 0 0 0 0 0 0 
0 0 0 0 0 0 0 0 0 0 0 0 0 0 0 0 0 0 0 0 0 0 0 0 0 0 0 0 0 0 0 0 0 0 0 0 0 0 0 0 0 0 0 0 0 0 0 0 0 0 0 0 0 0 0 0 0 0 0 0 0 0 0 0 0 0 0 0 0 0 0 0 0 0 0 0 0 0 0 0 0 0 0 0 0 0 0 0 0 0 0 0 0 0 0 0 0 0 0 0 0 0 0 0 0 5 95 193 180 184 180 182 184 184 183 186 187 183 185 188 187 185 186 184 185 184 185 181 184 188 184 200 190 174 186 186 186 184 183 182 181 180 182 177 174 182 182 172 158 139 118 129 118 183 242 243 238 239 241 240 244 240 242 240 242 246 243 241 242 241 245 247 243 243 245 245 250 248 240 249 252 246 246 250 255 255 252 246 252 255 254 249 250 247 243 243 241 227 222 215 198 200 170 171 177 157 153 167 167 143 139 144 147 151 145 154 177 180 172 181 186 156 91 78 88 88 90 92 94 72 3 0 0 0 0 0 0 0 0 0 0 0 0 0 0 0 0 0 0 0 0 0 0 0 0 0 0 0 0 0 0 0 0 0 0 0 0 0 0 0 0 0 0 0 0 0 0 0 0 0 0 0 0 0 0 0 0 0 0 0 0 0 0 0 0 0 0 0 0 0 0 0 0 0 0 0 0 0 0 0 0 0 0 0 0 0 0 0 0 0 0 0 0 0 0 0 0 0 0 0 0 0 0 0 0 0 0 0 0 0 0 0 0 0 0 0 0 0 0 0 0 0 0 0 0 0 0 0 0 
0 0 0 0 0 0 0 0 0 0 0 0 0 0 0 0 0 0 0 0 0 0 0 0 0 0 0 0 0 0 0 0 0 0 0 0 0 0 0 0 0 0 0 0 0 0 0 0 0 0 0 0 0 0 0 0 0 0 0 0 0 0 0 0 0 0 0 0 0 0 0 0 0 0 0 0 0 0 0 0 0 0 0 0 0 0 0 0 0 0 0 0 0 0 0 0 0 0 0 0 0 0 0 0 0 1 51 185 184 180 182 183 185 185 184 187 188 186 188 186 185 186 187 185 184 185 186 183 181 188 183 180 198 174 186 188 188 185 183 182 182 178 179 179 175 181 186 177 167 160 126 117 129 161 242 242 242 240 243 240 241 245 243 240 241 243 243 243 243 247 250 252 250 249 253 250 249 254 252 252 247 247 240 245 246 240 230 204 209 211 202 193 192 182 170 176 175 163 151 142 149 150 131 155 150 156 168 168 176 178 154 161 165 170 161 158 173 180 177 178 187 169 111 76 86 91 93 94 65 3 0 0 0 0 0 0 0 0 0 0 0 0 0 0 0 0 0 0 0 0 0 0 0 0 0 0 0 0 0 0 0 0 0 0 0 0 0 0 0 0 0 0 0 0 0 0 0 0 0 0 0 0 0 0 0 0 0 0 0 0 0 0 0 0 0 0 0 0 0 0 0 0 0 0 0 0 0 0 0 0 0 0 0 0 0 0 0 0 0 0 0 0 0 0 0 0 0 0 0 0 0 0 0 0 0 0 0 0 0 0 0 0 0 0 0 0 0 0 0 0 0 0 0 0 0 0 0 0 0 
0 0 0 0 0 0 0 0 0 0 0 0 0 0 0 0 0 0 0 0 0 0 0 0 0 0 0 0 0 0 0 0 0 0 0 0 0 0 0 0 0 0 0 0 0 0 0 0 0 0 0 0 0 0 0 0 0 0 0 0 0 0 0 0 0 0 0 0 0 0 0 0 0 0 0 0 0 0 0 0 0 0 0 0 0 0 0 0 0 0 0 0 0 0 0 0 0 0 0 0 0 0 0 0 0 0 22 153 190 177 181 181 184 186 186 187 188 187 188 184 179 186 183 184 183 184 186 182 184 187 182 170 193 179 181 189 187 185 184 182 179 179 179 178 177 179 184 181 164 175 140 112 129 127 219 245 239 241 241 239 241 249 251 247 247 251 252 251 250 253 251 249 249 240 245 230 196 223 223 204 191 190 183 183 180 166 156 141 140 129 120 137 142 120 133 155 154 160 156 149 150 165 157 151 163 168 158 166 171 169 165 173 172 157 161 157 166 178 175 174 183 176 135 83 85 90 89 70 3 0 0 0 0 0 0 0 0 0 0 0 0 0 0 0 0 0 0 0 0 0 0 0 0 0 0 0 0 0 0 0 0 0 0 0 0 0 0 0 0 0 0 0 0 0 0 0 0 0 0 0 0 0 0 0 0 0 0 0 0 0 0 0 0 0 0 0 0 0 0 0 0 0 0 0 0 0 0 0 0 0 0 0 0 0 0 0 0 0 0 0 0 0 0 0 0 0 0 0 0 0 0 0 0 0 0 0 0 0 0 0 0 0 0 0 0 0 0 0 0 0 0 0 0 0 0 0 0 0 0 
0 0 0 0 0 0 0 0 0 0 0 0 0 0 0 0 0 0 0 0 0 0 0 0 0 0 0 0 0 0 0 0 0 0 0 0 0 0 0 0 0 0 0 0 0 0 0 0 0 0 0 0 0 0 0 0 0 0 0 0 0 0 0 0 0 0 0 0 0 0 0 0 0 0 0 0 0 0 0 0 0 0 0 0 0 0 0 0 0 0 0 0 0 0 0 0 0 0 0 0 0 0 0 0 0 0 7 105 193 180 180 182 185 185 185 185 186 186 186 185 184 187 181 181 185 181 183 186 182 183 187 177 179 187 176 189 185 185 185 181 177 183 179 179 176 177 182 186 165 157 157 112 129 124 185 250 244 249 245 244 242 225 219 234 241 235 234 225 210 203 197 195 195 170 171 144 122 143 141 131 126 137 144 135 141 144 147 151 148 155 148 157 162 147 158 164 162 168 165 156 146 157 153 143 159 168 161 161 176 171 173 173 164 154 163 168 171 180 179 174 180 182 156 100 77 91 71 4 0 0 0 0 0 0 0 0 0 0 0 0 0 0 0 0 0 0 0 0 0 0 0 0 0 0 0 0 0 0 0 0 0 0 0 0 0 0 0 0 0 0 0 0 0 0 0 0 0 0 0 0 0 0 0 0 0 0 0 0 0 0 0 0 0 0 0 0 0 0 0 0 0 0 0 0 0 0 0 0 0 0 0 0 0 0 0 0 0 0 0 0 0 0 0 0 0 0 0 0 0 0 0 0 0 0 0 0 0 0 0 0 0 0 0 0 0 0 0 0 0 0 0 0 0 0 0 0 0 0 0 
0 0 0 0 0 0 0 0 0 0 0 0 0 0 0 0 0 0 0 0 0 0 0 0 0 0 0 0 0 0 0 0 0 0 0 0 0 0 0 0 0 0 0 0 0 0 0 0 0 0 0 0 0 0 0 0 0 0 0 0 0 0 0 0 0 0 0 0 0 0 0 0 0 0 0 0 0 0 0 0 0 0 0 0 0 0 0 0 0 0 0 0 0 0 0 0 0 0 0 0 0 0 0 0 0 0 1 56 185 184 181 183 185 182 183 185 186 186 186 189 189 185 187 181 186 181 183 188 180 179 186 186 167 175 178 186 186 186 184 181 179 178 178 182 178 176 182 184 180 146 172 121 129 137 141 200 220 224 216 191 170 149 134 158 168 160 158 141 133 128 126 134 128 124 123 118 133 140 141 142 138 161 161 150 156 160 161 155 156 170 160 148 157 168 159 145 146 153 172 165 156 155 157 144 156 170 162 160 173 176 173 165 156 153 158 175 176 180 185 175 177 183 168 119 68 88 17 0 0 0 0 0 0 0 0 0 0 0 0 0 0 0 0 0 0 0 0 0 0 0 0 0 0 0 0 0 0 0 0 0 0 0 0 0 0 0 0 0 0 0 0 0 0 0 0 0 0 0 0 0 0 0 0 0 0 0 0 0 0 0 0 0 0 0 0 0 0 0 0 0 0 0 0 0 0 0 0 0 0 0 0 0 0 0 0 0 0 0 0 0 0 0 0 0 0 0 0 0 0 0 0 0 0 0 0 0 0 0 0 0 0 0 0 0 0 0 0 0 0 0 0 0 0 0 0 0 0 0 0 
0 0 0 0 0 0 0 0 0 0 0 0 0 0 0 0 0 0 0 0 0 0 0 0 0 0 0 0 0 0 0 0 0 0 0 0 0 0 0 0 0 0 0 0 0 0 0 0 0 0 0 0 0 0 0 0 0 0 0 0 0 0 0 0 0 0 0 0 0 0 0 0 0 0 0 0 0 0 0 0 0 0 0 0 0 0 0 0 0 0 0 0 0 0 0 0 0 0 0 0 0 0 0 0 0 0 0 24 159 191 177 182 185 184 183 184 185 186 186 187 187 187 188 183 183 181 179 182 185 184 184 183 165 168 184 180 185 186 186 186 184 180 182 183 180 179 183 185 186 153 166 142 122 145 128 127 146 144 142 120 116 129 133 133 130 137 136 125 134 135 134 140 140 146 135 138 147 146 146 150 148 160 156 150 156 161 161 157 156 156 150 138 153 165 149 145 154 147 155 162 156 160 163 147 150 157 144 167 175 172 167 162 153 163 171 171 171 176 178 172 175 182 178 135 90 71 1 0 0 0 0 0 0 0 0 0 0 0 0 0 0 0 0 0 0 0 0 0 0 0 0 0 0 0 0 0 0 0 0 0 0 0 0 0 0 0 0 0 0 0 0 0 0 0 0 0 0 0 0 0 0 0 0 0 0 0 0 0 0 0 0 0 0 0 0 0 0 0 0 0 0 0 0 0 0 0 0 0 0 0 0 0 0 0 0 0 0 0 0 0 0 0 0 0 0 0 0 0 0 0 0 0 0 0 0 0 0 0 0 0 0 0 0 0 0 0 0 0 0 0 0 0 0 0 0 0 0 0 0 
0 0 0 0 0 0 0 0 0 0 0 0 0 0 0 0 0 0 0 0 0 0 0 0 0 0 0 0 0 0 0 0 0 0 0 0 0 0 0 0 0 0 0 0 0 0 0 0 0 0 0 0 0 0 0 0 0 0 0 0 0 0 0 0 0 0 0 0 0 0 0 0 0 0 0 0 0 0 0 0 0 0 0 0 0 0 0 0 0 0 0 0 0 0 0 0 0 0 0 0 0 0 0 0 0 0 0 11 115 195 180 181 184 186 185 185 185 185 186 185 184 184 187 184 183 186 180 182 186 185 185 180 173 175 190 178 183 187 187 187 184 184 184 182 182 183 185 184 186 168 154 161 119 147 139 130 134 131 132 126 134 143 148 146 145 142 144 139 138 140 140 141 143 145 143 143 149 145 140 148 158 157 145 147 168 173 147 152 160 153 145 146 152 152 158 158 162 162 153 158 152 152 154 150 151 147 143 168 174 180 172 164 163 168 182 175 172 171 171 174 179 185 188 156 127 56 0 0 0 0 0 0 0 0 0 0 0 0 0 0 0 0 0 0 0 0 0 0 0 0 0 0 0 0 0 0 0 0 0 0 0 0 0 0 0 0 0 0 0 0 0 0 0 0 0 0 0 0 0 0 0 0 0 0 0 0 0 0 0 0 0 0 0 0 0 0 0 0 0 0 0 0 0 0 0 0 0 0 0 0 0 0 0 0 0 0 0 0 0 0 0 0 0 0 0 0 0 0 0 0 0 0 0 0 0 0 0 0 0 0 0 0 0 0 0 0 0 0 0 0 0 0 0 0 0 0 0 0 0 
0 0 0 0 0 0 0 0 0 0 0 0 0 0 0 0 0 0 0 0 0 0 0 0 0 0 0 0 0 0 0 0 0 0 0 0 0 0 0 0 0 0 0 0 0 0 0 0 0 0 0 0 0 0 0 0 0 0 0 0 0 0 0 0 0 0 0 0 0 0 0 0 0 0 0 0 0 0 0 0 0 0 0 0 0 0 0 0 0 0 0 0 0 0 0 0 0 0 0 0 0 0 0 0 0 0 0 2 58 194 184 178 182 187 186 185 183 185 185 186 184 179 184 185 184 185 182 180 185 180 183 181 177 173 190 178 183 186 184 187 184 184 182 178 183 176 177 181 183 178 150 167 124 139 147 136 144 140 140 140 138 133 138 144 147 141 139 138 137 138 136 139 149 141 144 146 150 139 141 152 149 156 137 135 161 167 154 147 160 160 142 151 152 145 149 154 163 164 155 162 159 146 156 149 162 166 165 163 174 188 178 171 181 176 174 170 165 167 170 179 182 178 186 167 145 59 1 0 0 0 0 0 0 0 0 0 0 0 0 0 0 0 0 0 0 0 0 0 0 0 0 0 0 0 0 0 0 0 0 0 0 0 0 0 0 0 0 0 0 0 0 0 0 0 0 0 0 0 0 0 0 0 0 0 0 0 0 0 0 0 0 0 0 0 0 0 0 0 0 0 0 0 0 0 0 0 0 0 0 0 0 0 0 0 0 0 0 0 0 0 0 0 0 0 0 0 0 0 0 0 0 0 0 0 0 0 0 0 0 0 0 0 0 0 0 0 0 0 0 0 0 0 0 0 0 0 0 0 0 
0 0 0 0 0 0 0 0 0 0 0 0 0 0 0 0 0 0 0 0 0 0 0 0 0 0 0 0 0 0 0 0 0 0 0 0 0 0 0 0 0 0 0 0 0 0 0 0 0 0 0 0 0 0 0 0 0 0 0 0 0 0 0 0 0 0 0 0 0 0 0 0 0 0 0 0 0 0 0 0 0 0 0 0 0 0 0 0 0 0 0 0 0 0 0 0 0 0 0 0 0 0 0 0 0 0 0 0 24 162 194 176 178 183 185 184 183 185 186 188 186 182 184 187 188 188 184 179 179 179 183 184 178 161 169 176 183 186 184 184 178 182 183 182 183 177 175 181 183 184 157 164 142 123 149 136 141 138 138 142 138 129 137 144 140 142 139 139 139 140 139 140 151 153 143 135 146 137 143 145 137 154 148 146 157 158 168 154 146 149 155 157 153 147 146 156 169 175 168 162 161 150 159 162 170 176 175 164 172 172 167 169 173 177 170 165 159 165 173 173 181 173 170 168 153 87 9 0 0 0 0 0 0 0 0 0 0 0 0 0 0 0 0 0 0 0 0 0 0 0 0 0 0 0 0 0 0 0 0 0 0 0 0 0 0 0 0 0 0 0 0 0 0 0 0 0 0 0 0 0 0 0 0 0 0 0 0 0 0 0 0 0 0 0 0 0 0 0 0 0 0 0 0 0 0 0 0 0 0 0 0 0 0 0 0 0 0 0 0 0 0 0 0 0 0 0 0 0 0 0 0 0 0 0 0 0 0 0 0 0 0 0 0 0 0 0 0 0 0 0 0 0 0 0 0 0 0 0 0 
0 0 0 0 0 0 0 0 0 0 0 0 0 0 0 0 0 0 0 0 0 0 0 0 0 0 0 0 0 0 0 0 0 0 0 0 0 0 0 0 0 0 0 0 0 0 0 0 0 0 0 0 0 0 0 0 0 0 0 0 0 0 0 0 0 0 0 0 0 0 0 0 0 0 0 0 0 0 0 0 0 0 0 0 0 0 0 0 0 0 0 0 0 0 0 0 0 0 0 0 0 0 0 0 0 0 0 0 8 94 202 182 180 183 185 185 182 185 187 186 186 185 185 187 187 184 179 178 177 179 182 186 184 167 170 189 181 184 184 182 180 183 185 184 183 179 176 180 182 186 169 155 159 119 148 141 141 142 140 141 138 137 137 139 143 146 145 138 137 143 148 150 155 161 148 131 146 149 140 147 135 147 149 156 159 157 150 141 148 148 153 152 144 154 165 162 170 174 169 156 173 169 161 171 174 175 174 165 170 181 174 174 174 181 176 165 161 161 172 168 169 171 169 172 158 122 23 0 0 0 0 0 0 0 0 0 0 0 0 0 0 0 0 0 0 0 0 0 0 0 0 0 0 0 0 0 0 0 0 0 0 0 0 0 0 0 0 0 0 0 0 0 0 0 0 0 0 0 0 0 0 0 0 0 0 0 0 0 0 0 0 0 0 0 0 0 0 0 0 0 0 0 0 0 0 0 0 0 0 0 0 0 0 0 0 0 0 0 0 0 0 0 0 0 0 0 0 0 0 0 0 0 0 0 0 0 0 0 0 0 0 0 0 0 0 0 0 0 0 0 0 0 0 0 0 0 0 0 0 
0 0 0 0 0 0 0 0 0 0 0 0 0 0 0 0 0 0 0 0 0 0 0 0 0 0 0 0 0 0 0 0 0 0 0 0 0 0 0 0 0 0 0 0 0 0 0 0 0 0 0 0 0 0 0 0 0 0 0 0 0 0 0 0 0 0 0 0 0 0 0 0 0 0 0 0 0 0 0 0 0 0 0 0 0 0 0 0 0 0 0 0 0 0 0 0 0 0 0 0 0 0 0 0 0 0 0 0 1 50 195 187 181 184 184 184 184 187 187 184 186 189 185 186 185 183 184 178 182 184 183 183 186 177 171 192 180 179 182 185 184 184 180 182 183 181 176 176 180 186 179 152 167 124 137 145 141 148 142 143 143 142 139 142 147 141 145 153 143 134 153 155 145 147 148 146 142 153 152 157 144 141 142 142 155 159 157 140 150 153 145 147 159 162 155 162 174 170 165 160 175 181 172 176 175 175 174 176 174 177 182 174 166 167 169 166 157 156 162 168 172 173 176 172 164 148 47 0 0 0 0 0 0 2 9 17 19 30 44 55 63 76 86 91 40 0 0 0 0 0 0 0 0 0 0 0 0 0 0 0 0 0 0 0 0 0 0 0 0 0 0 0 0 0 0 0 0 0 0 0 0 0 0 0 0 0 0 0 0 0 0 0 0 0 0 0 0 0 0 0 0 0 0 0 0 0 0 0 0 0 0 0 0 0 0 0 0 0 0 0 0 0 0 0 0 0 0 0 0 0 0 0 0 0 0 0 0 0 0 0 0 0 0 0 0 0 0 0 0 0 0 0 0 0 0 0 0 0 0 
0 0 0 0 0 0 0 0 0 0 0 0 0 0 0 0 0 0 0 0 0 0 0 0 0 0 0 0 0 0 0 0 0 0 0 0 0 0 0 0 0 0 0 0 0 0 0 0 0 0 0 0 0 0 0 0 0 0 0 0 0 0 0 0 0 0 0 0 0 0 0 0 0 0 0 0 0 0 0 0 0 0 0 0 0 0 0 0 0 0 0 0 0 0 0 0 0 0 0 0 0 0 0 0 0 0 0 0 0 28 159 194 178 182 182 185 187 186 184 185 189 189 184 189 189 187 187 182 178 183 182 176 179 184 166 168 177 179 185 185 185 184 182 184 183 183 179 177 179 183 186 157 162 139 123 145 136 143 140 142 146 142 136 135 139 144 140 151 154 141 141 141 133 147 157 156 143 129 151 158 150 134 132 142 149 151 172 160 156 165 154 157 162 153 156 168 172 174 168 165 162 173 174 175 176 170 174 169 160 158 169 174 168 159 162 168 167 166 162 168 178 182 181 173 173 152 90 39 44 47 66 83 86 97 111 123 119 129 131 137 137 138 141 145 132 39 0 0 0 0 0 0 0 0 0 0 0 0 0 0 0 0 0 0 0 0 0 0 0 0 0 0 0 0 0 0 0 0 0 0 0 0 0 0 0 0 0 0 0 0 0 0 0 0 0 0 0 0 0 0 0 0 0 0 0 0 0 0 0 0 0 0 0 0 0 0 0 0 0 0 0 0 0 0 0 0 0 0 0 0 0 0 0 0 0 0 0 0 0 0 0 0 0 0 0 0 0 0 0 0 0 0 0 0 0 0 0 0 0 
0 0 0 0 0 0 0 0 0 0 0 0 0 0 0 0 0 0 0 0 0 0 0 0 0 0 0 0 0 0 0 0 0 0 0 0 0 0 0 0 0 0 0 0 0 0 0 0 0 0 0 0 0 0 0 0 0 0 0 0 0 0 0 0 0 0 0 0 0 0 0 0 0 0 0 0 0 0 0 0 0 0 0 0 0 0 0 0 0 0 0 0 0 0 0 0 0 0 0 0 0 0 0 0 0 0 0 0 0 10 106 200 181 181 183 185 185 184 185 186 186 188 187 189 191 187 186 183 178 178 175 179 183 187 169 161 183 179 187 187 185 185 182 183 185 183 176 178 182 184 188 170 153 158 120 145 140 138 143 142 150 142 133 128 138 141 139 141 145 144 141 139 134 144 149 151 151 134 152 158 149 134 135 147 158 164 173 173 169 170 155 146 156 163 164 177 170 167 157 159 155 156 170 178 173 165 170 172 165 168 164 168 173 158 163 161 154 144 139 140 145 144 142 137 134 131 128 125 132 138 136 140 142 141 142 144 142 142 142 145 144 141 137 137 148 106 16 0 0 0 0 0 0 0 0 0 0 0 0 0 0 0 0 0 0 0 0 0 0 0 0 0 0 0 0 0 0 0 0 0 0 0 0 0 0 0 0 0 0 0 0 0 0 0 0 0 0 0 0 0 0 0 0 0 0 0 0 0 0 0 0 0 0 0 0 0 0 0 0 0 0 0 0 0 0 0 0 0 0 0 0 0 0 0 0 0 0 0 0 0 0 0 0 0 0 0 0 0 0 0 0 0 0 0 0 0 0 0 0 
0 0 0 0 0 0 0 0 0 0 0 0 0 0 0 0 0 0 0 0 0 0 0 0 0 0 0 0 0 0 0 0 0 0 0 0 0 0 0 0 0 0 0 0 0 0 0 0 0 0 0 0 0 0 0 0 0 0 0 0 0 0 0 0 0 0 0 0 0 0 0 0 0 0 0 0 0 0 0 0 0 0 0 0 0 0 0 0 0 0 0 0 0 0 0 0 0 0 0 0 0 0 0 0 0 0 0 0 0 1 59 192 189 179 184 184 184 184 186 187 186 187 189 189 191 189 190 184 179 182 183 184 184 183 183 171 166 176 187 188 186 186 183 182 181 182 182 178 176 183 185 178 157 177 135 154 147 136 144 145 147 145 137 131 135 138 141 141 142 136 135 146 146 139 141 144 147 141 155 156 146 134 143 147 155 173 172 174 172 171 170 161 151 169 169 172 169 164 171 167 166 169 171 179 172 171 175 175 164 152 143 138 140 130 131 130 123 123 124 128 129 131 133 136 134 136 141 142 139 140 141 142 144 148 148 139 138 141 147 152 167 172 170 179 173 143 51 0 0 0 0 0 0 0 0 0 0 0 0 0 0 0 0 0 0 0 0 0 0 0 0 0 0 0 0 0 0 0 0 0 0 0 0 0 0 0 0 0 0 0 0 0 0 0 0 0 0 0 0 0 0 0 0 0 0 0 0 0 0 0 0 0 0 0 0 0 0 0 0 0 0 0 0 0 0 0 0 0 0 0 0 0 0 0 0 0 0 0 0 0 0 0 0 0 0 0 0 0 0 0 0 0 0 0 0 0 0 0 0 
0 0 0 0 0 0 0 0 0 0 0 0 0 0 0 0 0 0 0 0 0 0 0 0 0 0 0 0 0 0 0 0 0 0 0 0 0 0 0 0 0 0 0 0 0 0 0 0 0 0 0 0 0 0 0 0 0 0 0 0 0 0 0 0 0 0 0 0 0 0 0 0 0 0 0 0 0 0 0 0 0 0 0 0 0 0 0 0 0 0 0 0 0 0 0 0 0 0 0 0 0 0 0 0 0 0 0 0 0 0 28 155 196 177 181 184 184 184 185 187 187 187 189 190 191 190 189 189 186 185 187 184 182 183 185 165 145 174 180 183 186 187 184 180 183 183 178 177 179 181 183 186 165 194 164 140 150 136 139 147 146 141 139 140 135 147 147 135 136 132 131 146 151 138 145 149 151 146 157 159 158 148 155 158 152 172 173 175 174 165 165 172 175 182 170 173 173 157 166 160 159 155 139 139 132 133 126 125 123 121 125 127 130 135 133 136 138 138 144 139 135 137 134 141 141 140 145 140 136 144 155 148 144 153 157 158 160 165 162 155 157 157 172 191 198 177 100 13 0 0 0 0 0 0 0 0 0 0 0 0 0 0 0 0 0 0 0 0 0 0 0 0 0 0 0 0 0 0 0 0 0 0 0 0 0 0 0 0 0 0 0 0 0 0 0 0 0 0 0 0 0 0 0 0 0 0 0 0 0 0 0 0 0 0 0 0 0 0 0 0 0 0 0 0 0 0 0 0 0 0 0 0 0 0 0 0 0 0 0 0 0 0 0 0 0 0 0 0 0 0 0 0 0 0 0 0 0 0 0 
0 0 0 0 0 0 0 0 0 0 0 0 0 0 0 0 0 0 0 0 0 0 0 0 0 0 0 0 0 0 0 0 0 0 0 0 0 0 0 0 0 0 0 0 0 0 0 0 0 0 0 0 0 0 0 0 0 0 0 0 0 0 0 0 0 0 0 0 0 0 0 0 0 0 0 0 0 0 0 0 0 0 0 0 0 0 0 0 0 0 0 0 0 0 0 0 0 0 0 0 0 0 0 0 0 0 0 0 0 0 11 110 199 184 182 181 184 187 187 184 186 189 190 190 191 188 189 189 187 187 185 181 178 180 185 174 158 167 178 184 186 184 181 180 183 186 179 177 177 179 183 186 174 183 190 128 141 140 138 143 145 145 140 137 132 143 143 136 139 136 129 141 145 139 138 143 155 169 169 167 162 169 163 172 165 170 169 169 169 155 144 145 156 161 150 145 137 125 122 118 115 118 121 122 123 127 129 133 134 134 137 139 138 140 143 149 156 149 152 149 146 154 151 150 158 158 152 160 154 165 174 150 150 150 154 168 157 169 177 169 158 157 160 163 191 199 142 35 0 0 0 0 0 0 0 0 0 0 0 0 0 0 0 0 0 0 0 0 0 0 0 0 0 0 0 0 0 0 0 0 0 0 0 0 0 0 0 0 0 0 0 0 0 0 0 0 0 0 0 0 0 0 0 0 0 0 0 0 0 0 0 0 0 0 0 0 0 0 0 0 0 0 0 0 0 0 0 0 0 0 0 0 0 0 0 0 0 0 0 0 0 0 0 0 0 0 0 0 0 0 0 0 0 0 0 0 0 0 0 
0 0 0 0 0 0 0 0 0 0 0 0 0 0 0 0 0 0 0 0 0 0 0 0 0 0 0 0 0 0 0 0 0 0 0 0 0 0 0 0 0 0 0 0 0 0 0 0 0 0 0 0 0 0 0 0 0 0 0 0 0 0 0 0 0 0 0 0 0 0 0 0 0 0 0 0 0 0 0 0 0 0 0 0 0 0 0 0 0 0 0 0 0 0 0 0 0 0 0 0 0 0 0 0 0 0 0 0 0 0 1 66 191 188 177 179 184 187 188 179 182 190 187 187 190 190 189 187 187 185 179 179 177 182 186 184 157 152 179 184 186 184 180 183 184 187 184 181 179 179 183 184 184 164 197 141 130 150 142 139 141 146 142 137 131 134 139 140 139 139 146 144 141 147 141 148 167 170 166 168 157 154 150 150 141 134 128 123 117 114 117 121 116 111 115 114 112 115 127 135 133 137 138 141 142 141 156 158 153 148 161 168 161 166 170 162 161 158 159 158 161 161 166 158 150 160 140 168 175 164 169 164 166 176 162 156 150 150 165 164 161 170 161 156 171 199 176 73 4 0 0 0 0 0 0 0 0 0 0 0 0 0 0 0 0 0 0 0 0 0 0 0 0 0 0 0 0 0 0 0 0 0 0 0 0 0 0 0 0 0 0 0 0 0 0 0 0 0 0 0 0 0 0 0 0 0 0 0 0 0 0 0 0 0 0 0 0 0 0 0 0 0 0 0 0 0 0 0 0 0 0 0 0 0 0 0 0 0 0 0 0 0 0 0 0 0 0 0 0 0 0 0 0 0 0 0 0 0 0 
0 0 0 0 0 0 0 0 0 0 0 0 0 0 0 0 0 0 0 0 0 0 0 0 0 0 0 0 0 0 0 0 0 0 0 0 0 0 0 0 0 0 0 0 0 0 0 0 0 0 0 0 0 0 0 0 0 0 0 0 0 0 0 0 0 0 0 0 0 0 0 0 0 0 0 0 0 0 0 0 0 0 0 0 0 0 0 0 0 0 0 0 0 0 0 0 0 0 0 0 0 0 0 0 0 0 0 0 0 0 0 28 162 192 174 179 185 186 184 183 186 187 185 188 190 190 190 187 190 187 179 177 182 183 183 187 166 148 173 186 186 184 179 181 183 182 181 181 181 178 181 181 187 169 184 167 125 155 146 137 139 146 145 139 135 132 134 139 136 133 140 143 140 146 147 135 133 123 122 127 127 117 116 114 114 124 119 114 119 120 121 128 136 130 121 127 124 119 133 149 152 150 149 158 155 155 165 172 182 178 180 167 158 169 186 177 163 159 162 155 149 148 152 155 148 158 153 162 164 167 174 154 154 166 170 164 160 150 155 159 163 175 162 149 163 201 196 116 21 0 0 0 0 0 0 0 0 0 0 0 0 0 0 0 0 0 0 0 0 0 0 0 0 0 0 0 0 0 0 0 0 0 0 0 0 0 0 0 0 0 0 0 0 0 0 0 0 0 0 0 0 0 0 0 0 0 0 0 0 0 0 0 0 0 0 0 0 0 0 0 0 0 0 0 0 0 0 0 0 0 0 0 0 0 0 0 0 0 0 0 0 0 0 0 0 0 0 0 0 0 0 0 0 0 0 0 0 0 0 
0 0 0 0 0 0 0 0 0 0 0 0 0 0 0 0 0 0 0 0 0 0 0 0 0 0 0 0 0 0 0 0 0 0 0 0 0 0 0 0 0 0 0 0 0 0 0 0 0 0 0 0 0 0 0 0 0 0 0 0 0 0 0 0 0 0 0 0 0 0 0 0 0 0 0 0 0 0 0 0 0 0 0 0 0 0 0 0 0 0 0 0 0 0 0 0 0 0 0 0 0 0 0 0 0 0 0 0 0 0 0 11 115 195 182 183 183 185 184 183 184 185 189 189 189 190 188 188 187 187 185 180 185 183 185 189 177 140 151 186 184 181 181 182 180 180 185 179 179 183 181 182 185 177 155 170 120 149 147 130 143 152 147 144 137 131 132 138 141 137 136 143 143 143 141 135 121 113 114 118 121 124 126 128 124 129 127 124 138 143 141 145 147 150 139 138 143 138 151 159 152 145 158 157 158 169 170 166 173 172 177 167 161 163 176 172 172 160 156 164 161 149 156 159 158 167 169 162 171 162 173 163 164 154 162 157 148 156 160 157 154 167 154 149 165 190 207 161 49 1 0 0 0 0 0 0 0 0 0 0 0 0 0 0 0 0 0 0 0 0 0 0 0 0 0 0 0 0 0 0 0 0 0 0 0 0 0 0 0 0 0 0 0 0 0 0 0 0 0 0 0 0 0 0 0 0 0 0 0 0 0 0 0 0 0 0 0 0 0 0 0 0 0 0 0 0 0 0 0 0 0 0 0 0 0 0 0 0 0 0 0 0 0 0 0 0 0 0 0 0 0 0 0 0 0 0 0 0 0 
0 0 0 0 0 0 0 0 0 0 0 0 0 0 0 0 0 0 0 0 0 0 0 0 0 0 0 0 0 0 0 0 0 0 0 0 0 0 0 0 0 0 0 0 0 0 0 0 0 0 0 0 0 0 0 0 0 0 0 0 0 0 0 0 0 0 0 0 0 0 0 0 0 0 0 0 0 0 0 0 0 0 0 0 0 0 0 0 0 0 0 0 0 0 0 0 0 0 0 0 0 0 0 0 0 0 0 0 0 0 0 0 63 190 188 180 184 184 185 186 184 186 189 185 188 188 184 188 183 187 185 186 188 186 189 188 178 153 145 177 184 182 184 184 180 181 183 183 179 180 180 182 184 185 149 168 137 136 153 135 136 145 141 145 141 132 136 135 139 139 134 146 170 170 182 186 123 112 121 130 133 141 137 142 150 139 134 136 149 159 160 157 151 155 161 155 161 160 149 161 158 148 157 150 148 175 173 165 163 171 179 182 164 170 179 170 172 169 152 163 169 148 145 152 151 169 174 164 177 172 172 178 167 163 169 160 145 159 161 146 141 140 155 157 160 173 198 186 86 7 0 0 0 0 0 0 0 0 0 0 0 0 0 0 0 0 0 0 0 0 0 0 0 0 0 0 0 0 0 0 0 0 0 0 0 0 0 0 0 0 0 0 0 0 0 0 0 0 0 0 0 0 0 0 0 0 0 0 0 0 0 0 0 0 0 0 0 0 0 0 0 0 0 0 0 0 0 0 0 0 0 0 0 0 0 0 0 0 0 0 0 0 0 0 0 0 0 0 0 0 0 0 0 0 0 0 0 0 0 
0 0 0 0 0 0 0 0 0 0 0 0 0 0 0 0 0 0 0 0 0 0 0 0 0 0 0 0 0 0 0 0 0 0 0 0 0 0 0 0 0 0 0 0 0 0 0 0 0 0 0 0 0 0 0 0 0 0 0 0 0 0 0 0 0 0 0 0 0 0 0 0 0 0 0 0 0 0 0 0 0 0 0 0 0 0 0 0 0 0 0 0 0 0 0 0 0 0 0 0 0 0 0 0 0 0 0 0 0 0 0 0 30 163 194 179 182 185 184 184 185 184 188 186 187 183 188 188 184 186 189 184 184 187 186 186 186 175 166 179 187 186 182 180 179 180 183 182 180 179 178 181 184 185 163 160 152 128 160 141 137 142 138 141 142 143 144 139 143 141 141 175 193 170 166 206 136 114 132 144 142 145 145 153 160 145 140 149 175 172 153 150 157 154 161 159 148 157 159 163 163 165 161 158 150 166 169 172 166 173 172 177 174 176 181 177 167 169 174 165 162 169 160 158 154 159 177 166 161 169 175 173 169 174 174 169 155 162 166 158 150 153 167 165 169 172 188 197 135 26 0 0 0 0 0 0 0 0 0 0 0 0 0 0 0 0 0 0 0 0 0 0 0 0 0 0 0 0 0 0 0 0 0 0 0 0 0 0 0 0 0 0 0 0 0 0 0 0 0 0 0 0 0 0 0 0 0 0 0 0 0 0 0 0 0 0 0 0 0 0 0 0 0 0 0 0 0 0 0 0 0 0 0 0 0 0 0 0 0 0 0 0 0 0 0 0 0 0 0 0 0 0 0 0 0 0 0 0 0 
0 0 0 0 0 0 0 0 0 0 0 0 0 0 0 0 0 0 0 0 0 0 0 0 0 0 0 0 0 0 0 0 0 0 0 0 0 0 0 0 0 0 0 0 0 0 0 0 0 0 0 0 0 0 0 0 0 0 0 0 0 0 0 0 0 0 0 0 0 0 0 0 0 0 0 0 0 0 0 0 0 0 0 0 0 0 0 0 0 0 0 0 0 0 0 0 0 0 0 0 0 0 0 0 0 0 0 0 0 0 0 0 10 121 199 181 181 183 184 184 185 186 186 185 182 185 190 188 187 187 188 183 181 185 185 184 187 186 192 185 178 186 181 180 177 178 183 179 182 182 179 183 184 186 174 152 160 130 157 153 139 141 142 143 146 148 146 146 147 151 182 198 193 174 143 186 155 114 131 148 145 143 149 147 156 148 152 158 172 156 141 144 155 157 163 162 154 163 162 170 172 158 145 151 154 176 177 176 160 164 177 184 182 167 162 178 171 173 176 177 172 179 163 158 169 169 180 187 178 164 177 179 178 170 167 172 154 159 162 164 160 150 167 173 153 154 168 184 171 55 1 0 0 0 0 0 0 0 0 0 0 0 0 0 0 0 0 0 0 0 0 0 0 0 0 0 0 0 0 0 0 0 0 0 0 0 0 0 0 0 0 0 0 0 0 0 0 0 0 0 0 0 0 0 0 0 0 0 0 0 0 0 0 0 0 0 0 0 0 0 0 0 0 0 0 0 0 0 0 0 0 0 0 0 0 0 0 0 0 0 0 0 0 0 0 0 0 0 0 0 0 0 0 0 0 0 0 0 0 
0 0 0 0 0 0 0 0 0 0 0 0 0 0 0 0 0 0 0 0 0 0 0 0 0 0 0 0 0 0 0 0 0 0 0 0 0 0 0 0 0 0 0 0 0 0 0 0 0 0 0 0 0 0 0 0 0 0 0 0 0 0 0 0 0 0 0 0 0 0 0 0 0 0 0 0 0 0 0 0 0 0 0 0 0 0 0 0 0 0 0 0 0 0 0 0 0 0 0 0 0 0 0 0 0 0 0 0 0 0 0 0 0 71 195 186 177 181 184 180 186 187 180 181 183 187 185 184 184 188 187 186 180 185 185 184 189 187 158 146 175 180 180 181 179 175 181 179 177 180 178 178 184 188 180 159 168 137 145 158 140 142 145 140 148 151 146 143 154 185 199 192 186 178 139 168 176 111 132 149 146 149 153 145 146 154 163 169 154 149 153 153 153 155 165 164 171 155 150 170 179 161 146 158 166 164 166 159 162 164 172 176 173 159 148 165 183 188 177 178 181 173 160 157 172 176 170 176 180 173 172 169 177 161 157 172 164 163 161 163 163 150 162 178 156 153 176 186 185 100 12 0 0 0 0 0 0 0 0 0 0 0 0 0 0 0 0 0 0 0 0 0 0 0 0 0 0 0 0 0 0 0 0 0 0 0 0 0 0 0 0 0 0 0 0 0 0 0 0 0 0 0 0 0 0 0 0 0 0 0 0 0 0 0 0 0 0 0 0 0 0 0 0 0 0 0 0 0 0 0 0 0 0 0 0 0 0 0 0 0 0 0 0 0 0 0 0 0 0 0 0 0 0 0 0 0 0 0 0 
0 0 0 0 0 0 0 0 0 0 0 0 0 0 0 0 0 0 0 0 0 0 0 0 0 0 0 0 0 0 0 0 0 0 0 0 0 0 0 0 0 0 0 0 0 0 0 0 0 0 0 0 0 0 0 0 0 0 0 0 0 0 0 0 0 0 0 0 0 0 0 0 0 0 0 0 0 0 0 0 0 0 0 0 0 0 0 0 0 0 0 0 0 0 0 0 0 0 0 0 0 0 0 0 0 0 0 0 0 0 0 0 0 32 162 194 180 184 181 181 185 186 183 184 185 187 184 185 188 184 189 186 180 187 187 188 188 188 164 143 173 187 184 182 182 180 177 173 175 182 182 180 184 189 185 169 170 156 133 162 152 147 146 142 145 143 139 160 195 204 195 187 185 182 156 146 185 117 129 146 147 147 156 151 141 148 162 164 145 154 165 160 156 156 155 150 165 154 147 153 166 163 158 169 167 162 158 152 171 172 177 174 168 170 166 170 183 196 188 170 180 189 175 165 164 173 173 166 175 167 175 159 167 163 154 165 175 183 168 146 161 175 163 170 162 156 188 202 194 144 29 0 0 0 0 0 0 0 0 0 0 0 0 0 0 0 0 0 0 0 0 0 0 0 0 0 0 0 0 0 0 0 0 0 0 0 0 0 0 0 0 0 0 0 0 0 0 0 0 0 0 0 0 0 0 0 0 0 0 0 0 0 0 0 0 0 0 0 0 0 0 0 0 0 0 0 0 0 0 0 0 0 0 0 0 0 0 0 0 0 0 0 0 0 0 0 0 0 0 0 0 0 0 0 0 0 0 0 0 
0 0 0 0 0 0 0 0 0 0 0 0 0 0 0 0 0 0 0 0 0 0 0 0 0 0 0 0 0 0 0 0 0 0 0 0 0 0 0 0 0 0 0 0 0 0 0 0 0 0 0 0 0 0 0 0 0 0 0 0 0 0 0 0 0 0 0 0 0 0 0 0 0 0 0 0 0 0 0 0 0 0 0 0 0 0 0 0 0 0 0 0 0 0 0 0 0 0 0 0 0 0 0 0 0 0 0 0 0 0 0 0 0 4 92 199 186 183 183 184 182 184 188 188 184 187 188 189 189 184 184 185 184 186 187 185 187 188 182 162 163 185 181 178 181 180 180 184 182 182 184 182 182 187 190 178 168 182 131 149 153 147 144 140 138 139 159 195 208 199 193 185 182 183 169 132 178 136 115 154 158 142 154 154 146 147 153 157 147 154 171 161 148 143 150 151 156 146 144 147 149 162 171 166 165 172 173 164 174 176 181 192 192 188 184 188 194 186 182 173 183 186 182 177 172 172 179 170 176 171 173 174 174 180 175 164 174 187 184 152 156 174 166 159 161 169 182 192 192 168 64 2 0 0 0 0 0 0 0 0 0 0 0 0 0 0 0 0 0 0 0 0 0 0 0 0 0 0 0 0 0 0 0 0 0 0 0 0 0 0 0 0 0 0 0 0 0 0 0 0 0 0 0 0 0 0 0 0 0 0 0 0 0 0 0 0 0 0 0 0 0 0 0 0 0 0 0 0 0 0 0 0 0 0 0 0 0 0 0 0 0 0 0 0 0 0 0 0 0 0 0 0 0 0 0 0 0 0 0 
0 0 0 0 0 0 0 0 0 0 0 0 0 0 0 0 0 0 0 0 0 0 0 0 0 0 0 0 0 0 0 0 0 0 0 0 0 0 0 0 0 0 0 0 0 0 0 0 0 0 0 0 0 0 0 0 0 0 0 0 0 0 0 0 0 0 0 0 0 0 0 0 0 0 0 0 0 0 0 0 0 0 0 0 0 0 0 0 0 0 0 0 0 0 0 0 0 0 0 0 0 0 0 0 0 0 0 0 0 0 0 0 0 0 34 178 192 180 183 184 181 181 185 186 183 186 188 188 187 186 187 186 183 184 186 187 187 187 189 182 169 176 179 180 183 179 180 182 178 178 181 180 182 188 190 187 163 184 146 134 146 141 139 134 134 169 202 208 199 193 187 185 178 175 174 138 158 165 107 152 170 157 164 159 151 151 150 160 161 163 168 165 149 146 158 164 161 157 151 151 146 166 167 166 172 171 176 169 180 183 182 191 202 192 184 177 183 167 159 174 174 176 179 177 171 164 177 170 174 171 169 179 189 174 179 171 178 177 178 172 169 161 160 156 160 170 173 188 202 189 114 14 0 0 0 0 0 0 0 0 0 0 0 0 0 0 0 0 0 0 0 0 0 0 0 0 0 0 0 0 0 0 0 0 0 0 0 0 0 0 0 0 0 0 0 0 0 0 0 0 0 0 0 0 0 0 0 0 0 0 0 0 0 0 0 0 0 0 0 0 0 0 0 0 0 0 0 0 0 0 0 0 0 0 0 0 0 0 0 0 0 0 0 0 0 0 0 0 0 0 0 0 0 0 0 0 0 0 0 
0 0 0 0 0 0 0 0 0 0 0 0 0 0 0 0 0 0 0 0 0 0 0 0 0 0 0 0 0 0 0 0 0 0 0 0 0 0 0 0 0 0 0 0 0 0 0 0 0 0 0 0 0 0 0 0 0 0 0 0 0 0 0 0 0 0 0 0 0 0 0 0 0 0 0 0 0 0 0 0 0 0 0 0 0 0 0 0 0 0 0 0 0 0 0 0 0 0 0 0 0 0 0 0 0 0 0 0 0 0 0 0 0 0 17 144 197 182 182 184 185 185 184 186 186 184 188 187 188 188 189 188 185 185 188 188 185 187 185 184 188 178 177 182 179 174 174 176 176 176 177 181 183 189 189 190 168 173 177 120 131 130 121 130 172 208 209 199 195 190 182 182 180 181 182 157 137 182 114 134 173 169 169 162 160 160 161 164 171 168 169 172 164 165 165 167 170 167 158 153 158 173 168 179 173 176 176 171 180 176 182 181 177 188 177 166 173 171 155 170 175 179 176 179 169 158 162 164 165 159 174 186 176 172 182 181 181 173 166 169 167 154 156 168 169 170 166 180 196 195 145 33 0 0 0 0 0 0 0 0 0 0 0 0 0 0 0 0 0 0 0 0 0 0 0 0 0 0 0 0 0 0 0 0 0 0 0 0 0 0 0 0 0 0 0 0 0 0 0 0 0 0 0 0 0 0 0 0 0 0 0 0 0 0 0 0 0 0 0 0 0 0 0 0 0 0 0 0 0 0 0 0 0 0 0 0 0 0 0 0 0 0 0 0 0 0 0 0 0 0 0 0 0 0 0 0 0 0 0 
0 0 0 0 0 0 0 0 0 0 0 0 0 0 0 0 0 0 0 0 0 0 0 0 0 0 0 0 0 0 0 0 0 0 0 0 0 0 0 0 0 0 0 0 0 0 0 0 0 0 0 0 0 0 0 0 0 0 0 0 0 0 0 0 0 0 0 0 0 0 0 0 0 0 0 0 0 0 0 0 0 0 0 0 0 0 0 0 0 0 0 0 0 0 0 0 0 0 0 0 0 0 0 0 0 0 0 0 0 0 0 0 0 0 7 118 198 185 183 185 185 184 187 188 186 183 187 187 188 187 188 188 182 184 189 188 185 184 185 182 193 183 176 185 181 178 175 182 180 183 182 182 182 186 190 191 184 165 192 146 117 112 127 179 210 205 197 194 191 191 181 181 187 183 177 166 132 175 138 119 173 168 160 159 161 160 163 166 169 168 170 167 173 172 164 156 158 155 152 155 163 173 181 184 182 172 169 177 179 172 181 184 177 178 176 172 172 176 164 173 171 169 177 192 183 178 173 164 152 173 186 194 174 178 191 177 179 187 182 174 145 144 168 177 178 174 163 165 181 193 160 76 4 0 0 0 0 0 0 0 0 0 0 0 0 0 0 0 0 0 0 0 0 0 0 0 0 0 0 0 0 0 0 0 0 0 0 0 0 0 0 0 0 0 0 0 0 0 0 0 0 0 0 0 0 0 0 0 0 0 0 0 0 0 0 0 0 0 0 0 0 0 0 0 0 0 0 0 0 0 0 0 0 0 0 0 0 0 0 0 0 0 0 0 0 0 0 0 0 0 0 0 0 0 0 0 0 0 0 
0 0 0 0 0 0 0 0 0 0 0 0 0 0 0 0 0 0 0 0 0 0 0 0 0 0 0 0 0 0 0 0 0 0 0 0 0 0 0 0 0 0 0 0 0 0 0 0 0 0 0 0 0 0 0 0 0 0 0 0 0 0 0 0 0 0 0 0 0 0 0 0 0 0 0 0 0 0 0 0 0 0 0 0 0 0 0 0 0 0 0 0 0 0 0 0 0 0 0 0 0 0 0 0 0 0 0 0 0 0 0 0 0 0 0 85 192 192 181 184 184 181 184 187 187 186 188 187 188 187 187 187 183 183 188 187 184 184 188 180 182 183 177 182 184 182 179 180 175 182 184 182 182 184 189 192 193 174 175 171 126 141 190 215 206 195 193 191 188 189 186 183 184 177 177 176 142 152 162 109 162 174 157 158 156 157 165 159 160 165 163 163 170 163 159 157 149 150 151 156 165 176 181 174 186 179 167 177 186 178 173 188 186 188 192 177 170 178 169 173 170 169 186 183 181 189 183 177 164 173 179 180 176 178 179 173 174 179 184 175 152 149 162 164 166 166 170 169 174 190 174 118 19 0 0 0 0 0 0 0 0 0 0 0 0 0 0 0 0 0 0 0 0 0 0 0 0 0 0 0 0 0 0 0 0 0 0 0 0 0 0 0 0 0 0 0 0 0 0 0 0 0 0 0 0 0 0 0 0 0 0 0 0 0 0 0 0 0 0 0 0 0 0 0 0 0 0 0 0 0 0 0 0 0 0 0 0 0 0 0 0 0 0 0 0 0 0 0 0 0 0 0 0 0 0 0 0 0 0 
0 0 0 0 0 0 0 0 0 0 0 0 0 0 0 0 0 0 0 0 0 0 0 0 0 0 0 0 0 0 0 0 0 0 0 0 0 0 0 0 0 0 0 0 0 0 0 0 0 0 0 0 0 0 0 0 0 0 0 0 0 0 0 0 0 0 0 0 0 0 0 0 0 0 0 0 0 0 0 0 0 0 0 0 0 0 0 0 0 0 0 0 0 0 0 0 0 0 0 0 0 0 0 0 0 0 0 0 0 0 0 0 0 0 0 42 169 198 179 185 185 184 185 187 188 184 188 186 187 189 187 188 188 185 188 187 186 187 188 181 178 192 183 178 184 183 180 173 173 175 179 180 181 183 189 191 190 182 167 177 187 204 212 206 198 195 194 189 186 190 190 186 183 186 186 181 158 136 171 113 143 187 160 154 156 152 160 161 156 163 159 156 161 155 161 166 158 156 162 155 167 179 170 172 178 182 188 166 173 175 178 190 184 180 186 170 163 183 180 178 176 166 176 177 181 183 178 180 183 171 161 158 167 172 171 170 169 176 176 169 169 165 144 163 173 160 174 179 166 180 186 152 50 1 0 0 0 0 0 0 0 0 0 0 0 0 0 0 0 0 0 0 0 0 0 0 0 0 0 0 0 0 0 0 0 0 0 0 0 0 0 0 0 0 0 0 0 0 0 0 0 0 0 0 0 0 0 0 0 0 0 0 0 0 0 0 0 0 0 0 0 0 0 0 0 0 0 0 0 0 0 0 0 0 0 0 0 0 0 0 0 0 0 0 0 0 0 0 0 0 0 0 0 0 0 0 0 0 0 
0 0 0 0 0 0 0 0 0 0 0 0 0 0 0 0 0 0 0 0 0 0 0 0 0 0 0 0 0 0 0 0 0 0 0 0 0 0 0 0 0 0 0 0 0 0 0 0 0 0 0 0 0 0 0 0 0 0 0 0 0 0 0 0 0 0 0 0 0 0 0 0 0 0 0 0 0 0 0 0 0 0 0 0 0 0 0 0 0 0 0 0 0 0 0 0 0 0 0 0 0 0 0 0 0 0 0 0 0 0 0 0 0 0 0 12 129 197 180 178 183 186 188 187 186 183 187 188 187 188 188 188 185 185 187 187 186 186 186 182 175 169 167 174 181 181 179 175 178 177 179 179 179 183 187 191 187 183 182 191 208 211 203 201 197 193 193 187 185 188 185 183 186 188 186 185 172 135 168 137 121 186 167 152 148 149 152 156 160 168 163 148 159 162 152 156 152 152 173 161 159 167 163 164 176 173 181 172 166 169 188 190 180 169 166 169 163 173 179 189 180 160 167 177 171 180 186 172 177 174 165 152 167 183 182 174 178 181 186 178 169 172 156 166 191 178 172 181 166 184 186 174 91 6 0 0 0 0 0 0 0 0 0 0 0 0 0 0 0 0 0 0 0 0 0 0 0 0 0 0 0 0 0 0 0 0 0 0 0 0 0 0 0 0 0 0 0 0 0 0 0 0 0 0 0 0 0 0 0 0 0 0 0 0 0 0 0 0 0 0 0 0 0 0 0 0 0 0 0 0 0 0 0 0 0 0 0 0 0 0 0 0 0 0 0 0 0 0 0 0 0 0 0 0 0 0 0 0 0 
0 0 0 0 0 0 0 0 0 0 0 0 0 0 0 0 0 0 0 0 0 0 0 0 0 0 0 0 0 0 0 0 0 0 0 0 0 0 0 0 0 0 0 0 0 0 0 0 0 0 0 0 0 0 0 0 0 0 0 0 0 0 0 0 0 0 0 0 0 0 0 0 0 0 0 0 0 0 0 0 0 0 0 0 0 0 0 0 0 0 0 0 0 0 0 0 0 0 0 0 0 0 0 0 0 0 0 0 0 0 0 0 0 0 0 0 83 191 185 177 184 186 187 185 185 187 185 189 189 187 187 185 184 184 182 182 181 179 180 183 176 143 152 172 175 178 182 180 181 179 179 183 179 182 185 190 189 191 191 194 200 202 198 192 194 193 190 189 187 187 185 185 183 182 187 185 178 144 154 163 108 163 167 152 151 156 156 150 157 156 154 156 163 166 152 149 151 150 159 162 163 169 165 159 167 170 170 179 170 175 186 193 183 177 180 181 183 176 177 193 196 177 168 175 175 181 189 182 178 175 190 183 173 187 189 184 195 190 187 180 171 180 175 163 184 189 170 174 177 186 175 185 140 21 0 0 0 0 0 0 0 0 0 0 0 0 0 0 0 0 0 0 0 0 0 0 0 0 0 0 0 0 0 0 0 0 0 0 0 0 0 0 0 0 0 0 0 0 0 0 0 0 0 0 0 0 0 0 0 0 0 0 0 0 0 0 0 0 0 0 0 0 0 0 0 0 0 0 0 0 0 0 0 0 0 0 0 0 0 0 0 0 0 0 0 0 0 0 0 0 0 0 0 0 0 0 0 0 0 
0 0 0 0 0 0 0 0 0 0 0 0 0 0 0 0 0 0 0 0 0 0 0 0 0 0 0 0 0 0 0 0 0 0 0 0 0 0 0 0 0 0 0 0 0 0 0 0 0 0 0 0 0 0 0 0 0 0 0 0 0 0 0 0 0 0 0 0 0 0 0 0 0 0 0 0 0 0 0 0 0 0 0 0 0 0 0 0 0 0 0 0 0 0 0 0 0 0 0 0 0 0 0 0 0 0 0 0 0 0 0 0 0 0 0 0 41 174 193 180 182 183 186 187 187 186 182 186 187 185 183 184 183 184 184 183 182 180 178 180 175 159 162 172 175 181 183 179 176 178 179 187 181 179 185 189 190 193 192 192 195 199 195 185 195 193 186 188 184 181 187 183 179 179 181 186 187 162 136 174 116 142 176 158 155 154 154 162 160 157 148 149 162 169 158 159 163 158 149 158 170 173 165 164 168 171 176 167 160 166 178 187 188 182 185 187 186 184 188 187 185 188 180 177 176 184 195 209 191 175 190 197 189 175 182 184 188 185 180 179 180 189 177 164 158 175 183 171 164 168 186 204 182 51 1 0 0 0 0 0 0 0 0 0 0 0 0 0 0 0 0 0 0 0 0 0 0 0 0 0 0 0 0 0 0 0 0 0 0 0 0 0 0 0 0 0 0 0 0 0 0 0 0 0 0 0 0 0 0 0 0 0 0 0 0 0 0 0 0 0 0 0 0 0 0 0 0 0 0 0 0 0 0 0 0 0 0 0 0 0 0 0 0 0 0 0 0 0 0 0 0 0 0 0 0 0 0 0 0 
0 0 0 0 0 0 0 0 0 0 0 0 0 0 0 0 0 0 0 0 0 0 0 0 0 0 0 0 0 0 0 0 0 0 0 0 0 0 0 0 0 0 0 0 0 0 0 0 0 0 0 0 0 0 0 0 0 0 0 0 0 0 0 0 0 0 0 0 0 0 0 0 0 0 0 0 0 0 0 0 0 0 0 0 0 0 0 0 0 0 0 0 0 0 0 0 0 0 0 0 0 0 0 0 0 0 0 0 0 0 0 0 0 0 0 0 11 138 199 184 178 180 184 188 185 185 183 177 181 186 184 182 182 184 186 186 183 177 176 180 181 175 177 175 176 185 180 178 179 181 181 179 181 182 185 191 189 191 189 190 188 193 194 189 189 190 186 188 186 179 181 181 178 177 178 188 191 177 135 167 139 126 184 163 153 152 156 169 161 164 158 148 158 158 161 165 151 153 153 156 153 163 167 176 172 172 172 163 166 169 170 178 191 190 174 178 188 184 187 183 180 187 175 183 179 187 192 207 198 171 187 196 180 180 183 186 173 174 183 182 178 179 170 170 154 150 173 175 163 158 175 180 183 98 5 0 0 0 0 0 0 0 0 0 0 0 0 0 0 0 0 0 0 0 0 0 0 0 0 0 0 0 0 0 0 0 0 0 0 0 0 0 0 0 0 0 0 0 0 0 0 0 0 0 0 0 0 0 0 0 0 0 0 0 0 0 0 0 0 0 0 0 0 0 0 0 0 0 0 0 0 0 0 0 0 0 0 0 0 0 0 0 0 0 0 0 0 0 0 0 0 0 0 0 0 0 0 0 0 
0 0 0 0 0 0 0 0 0 0 0 0 0 0 0 0 0 0 0 0 0 0 0 0 0 0 0 0 0 0 0 0 0 0 0 0 0 0 0 0 0 0 0 0 0 0 0 0 0 0 0 0 0 0 0 0 0 0 0 0 0 0 0 0 0 0 0 0 0 0 0 0 0 0 0 0 0 0 0 0 0 0 0 0 0 0 0 0 0 0 0 0 0 0 0 0 0 0 0 0 0 0 0 0 0 0 0 0 0 0 0 0 0 0 0 0 0 83 195 189 174 178 180 182 182 188 188 184 186 184 181 181 182 184 186 183 181 180 180 182 186 175 181 185 179 179 182 183 182 180 185 178 183 187 188 189 189 188 191 187 183 194 189 187 189 187 186 183 190 185 177 182 182 181 187 189 191 185 147 147 154 110 167 174 150 149 158 162 157 160 162 163 152 148 165 170 155 148 160 170 155 160 169 174 167 172 169 168 172 173 177 172 178 193 191 180 189 187 181 190 189 187 157 170 193 190 187 185 196 182 187 196 167 178 184 188 170 174 180 177 176 179 178 170 164 162 169 174 176 162 144 147 170 147 24 0 0 0 0 0 0 0 0 0 0 0 0 0 0 0 0 0 0 0 0 0 0 0 0 0 0 0 0 0 0 0 0 0 0 0 0 0 0 0 0 0 0 0 0 0 0 0 0 0 0 0 0 0 0 0 0 0 0 0 0 0 0 0 0 0 0 0 0 0 0 0 0 0 0 0 0 0 0 0 0 0 0 0 0 0 0 0 0 0 0 0 0 0 0 0 0 0 0 0 0 0 0 0 0 
0 0 0 0 0 0 0 0 0 0 0 0 0 0 0 0 0 0 0 0 0 0 0 0 0 0 0 0 0 0 0 0 0 0 0 0 0 0 0 0 0 0 0 0 0 0 0 0 0 0 0 0 0 0 0 0 0 0 0 0 0 0 0 0 0 0 0 0 0 0 0 0 0 0 0 0 0 0 0 0 0 0 0 0 0 0 0 0 0 0 0 0 0 0 0 0 0 0 0 0 0 0 0 0 0 0 0 0 0 0 0 0 0 0 0 0 0 36 176 192 178 180 177 177 182 188 186 188 189 185 183 186 187 186 184 182 181 180 180 182 186 180 183 189 177 178 182 181 178 178 181 188 187 187 191 189 189 186 195 183 186 195 184 187 190 186 188 184 185 181 175 183 183 182 183 188 191 190 163 134 168 119 144 174 157 151 155 155 150 148 154 160 156 158 162 159 163 158 160 165 169 178 177 167 162 169 176 174 182 181 176 165 159 190 196 176 189 187 174 181 177 174 164 163 176 182 185 171 190 187 178 184 171 171 176 189 186 166 163 167 178 180 172 166 182 187 175 176 176 168 163 160 166 178 68 2 0 0 0 0 0 0 0 0 0 0 0 0 0 0 0 0 0 0 0 0 0 0 0 0 0 0 0 0 0 0 0 0 0 0 0 0 0 0 0 0 0 0 0 0 0 0 0 0 0 0 0 0 0 0 0 0 0 0 0 0 0 0 0 0 0 0 0 0 0 0 0 0 0 0 0 0 0 0 0 0 0 0 0 0 0 0 0 0 0 0 0 0 0 0 0 0 0 0 0 0 0 0 0 
0 0 0 0 0 0 0 0 0 0 0 0 0 0 0 0 0 0 0 0 0 0 0 0 0 0 0 0 0 0 0 0 0 0 0 0 0 0 0 0 0 0 0 0 0 0 0 0 0 0 0 0 0 0 0 0 0 0 0 0 0 0 0 0 0 0 0 0 0 0 0 0 0 0 0 0 0 0 0 0 0 0 0 0 0 0 0 0 0 0 0 0 0 0 0 0 0 0 0 0 0 0 0 0 0 0 0 0 0 0 0 0 0 0 0 0 0 7 137 196 178 174 170 172 184 184 186 188 186 186 188 187 188 186 182 181 184 184 185 184 183 184 186 187 172 174 186 179 176 179 183 190 190 185 189 189 185 183 185 181 193 186 181 192 182 181 185 178 181 184 177 177 178 180 181 183 191 188 175 136 166 138 123 168 157 152 153 152 148 148 151 153 164 167 159 154 162 157 150 162 172 175 186 176 165 160 178 185 184 180 177 161 158 182 190 179 175 175 178 182 177 164 169 178 165 170 180 187 195 192 167 176 189 185 179 184 205 174 154 175 180 174 176 174 184 180 163 168 171 161 162 176 176 187 119 4 0 0 0 0 0 0 0 0 0 0 0 0 0 0 0 0 0 0 0 0 0 0 0 0 0 0 0 0 0 0 0 0 0 0 0 0 0 0 0 0 0 0 0 0 0 0 0 0 0 0 0 0 0 0 0 0 0 0 0 0 0 0 0 0 0 0 0 0 0 0 0 0 0 0 0 0 0 0 0 0 0 0 0 0 0 0 0 0 0 0 0 0 0 0 0 0 0 0 0 0 0 0 0 
0 0 0 0 0 0 0 0 0 0 0 0 0 0 0 0 0 0 0 0 0 0 0 0 0 0 0 0 0 0 0 0 0 0 0 0 0 0 0 0 0 0 0 0 0 0 0 0 0 0 0 0 0 0 0 0 0 0 0 0 0 0 0 0 0 0 0 0 0 0 0 0 0 0 0 0 0 0 0 0 0 0 0 0 0 0 0 0 0 0 0 0 0 0 0 0 0 0 0 0 0 0 0 0 0 0 0 0 0 0 0 0 0 0 0 0 0 0 90 194 183 171 174 177 182 181 186 185 181 183 188 186 186 183 182 184 183 186 188 184 184 188 181 180 176 173 178 177 177 182 187 186 191 186 181 188 189 182 172 183 190 182 187 191 186 183 188 183 182 181 178 174 175 178 184 181 188 190 182 147 144 156 111 161 156 148 150 157 157 153 154 160 160 157 165 158 155 151 143 158 172 154 170 187 174 160 162 177 176 177 171 166 174 188 189 182 167 166 178 183 184 169 162 177 174 170 183 197 189 187 165 167 183 184 181 176 191 188 167 180 183 179 180 178 173 169 173 161 161 176 154 170 189 178 154 33 1 0 0 0 0 0 0 0 0 0 0 0 0 0 0 0 0 0 0 0 0 0 0 0 0 0 0 0 0 0 0 0 0 0 0 0 0 0 0 0 0 0 0 0 0 0 0 0 0 0 0 0 0 0 0 0 0 0 0 0 0 0 0 0 0 0 0 0 0 0 0 0 0 0 0 0 0 0 0 0 0 0 0 0 0 0 0 0 0 0 0 0 0 0 0 0 0 0 0 0 0 0 0 
0 0 0 0 0 0 0 0 0 0 0 0 0 0 0 0 0 0 0 0 0 0 0 0 0 0 0 0 0 0 0 0 0 0 0 0 0 0 0 0 0 0 0 0 0 0 0 0 0 0 0 0 0 0 0 0 0 0 0 0 0 0 0 0 0 0 0 0 0 0 0 0 0 0 0 0 0 0 0 0 0 0 0 0 0 0 0 0 0 0 0 0 0 0 0 0 0 0 0 0 0 0 0 0 0 0 0 0 0 0 0 0 0 0 0 0 0 0 40 176 187 170 177 181 180 179 178 179 183 184 187 186 186 184 181 182 184 186 187 184 182 187 183 179 179 172 178 183 180 182 189 190 190 185 176 177 187 187 182 187 188 187 184 178 183 183 178 185 181 178 180 181 177 179 182 184 187 187 186 164 133 170 120 140 162 146 142 156 165 156 150 154 144 160 177 161 141 156 156 149 150 146 143 177 178 176 166 152 164 171 173 180 180 184 188 188 184 179 179 180 179 170 165 177 180 162 174 189 170 173 170 172 164 170 184 184 179 189 177 175 175 183 176 174 169 168 174 164 172 180 157 160 170 173 175 78 1 0 0 0 0 0 0 0 0 0 0 0 0 0 0 0 0 0 0 0 0 0 0 0 0 0 0 0 0 0 0 0 0 0 0 0 0 0 0 0 0 0 0 0 0 0 0 0 0 0 0 0 0 0 0 0 0 0 0 0 0 0 0 0 0 0 0 0 0 0 0 0 0 0 0 0 0 0 0 0 0 0 0 0 0 0 0 0 0 0 0 0 0 0 0 0 0 0 0 0 0 0 0 
0 0 0 0 0 0 0 0 0 0 0 0 0 0 0 0 0 0 0 0 0 0 0 0 0 0 0 0 0 0 0 0 0 0 0 0 0 0 0 0 0 0 0 0 0 0 0 0 0 0 0 0 0 0 0 0 0 0 0 0 0 0 0 0 0 0 0 0 0 0 0 0 0 0 0 0 0 0 0 0 0 0 0 0 0 0 0 0 0 0 0 0 0 0 0 0 0 0 0 0 0 0 0 0 0 0 0 0 0 0 0 0 0 0 0 0 0 0 5 139 194 172 175 177 182 181 179 185 188 186 189 190 187 187 184 185 184 185 181 179 183 185 184 174 173 164 173 186 183 186 188 189 188 186 179 178 183 188 181 185 192 185 183 182 182 181 181 187 182 182 183 183 180 180 181 182 187 187 181 176 134 159 144 120 165 157 144 147 149 146 149 148 148 157 170 159 143 161 156 154 144 150 155 164 166 171 174 158 158 169 175 179 165 173 178 183 189 182 174 173 177 179 186 187 178 167 156 170 178 171 160 164 174 179 174 177 173 180 177 183 179 168 165 169 178 178 171 164 173 174 161 160 154 163 174 126 13 0 0 0 0 0 0 0 0 0 0 0 0 0 0 0 0 0 0 0 0 0 0 0 0 0 0 0 0 0 0 0 0 0 0 0 0 0 0 0 0 0 0 0 0 0 0 0 0 0 0 0 0 0 0 0 0 0 0 0 0 0 0 0 0 0 0 0 0 0 0 0 0 0 0 0 0 0 0 0 0 0 0 0 0 0 0 0 0 0 0 0 0 0 0 0 0 0 0 0 0 0 0 
0 0 0 0 0 0 0 0 0 0 0 0 0 0 0 0 0 0 0 0 0 0 0 0 0 0 0 0 0 0 0 0 0 0 0 0 0 0 0 0 0 0 0 0 0 0 0 0 0 0 0 0 0 0 0 0 0 0 0 0 0 0 0 0 0 0 0 0 0 0 0 0 0 0 0 0 0 0 0 0 0 0 0 0 0 0 0 0 0 0 0 0 0 0 0 0 0 0 0 0 0 0 0 0 0 0 0 0 0 0 0 0 0 0 0 0 0 0 0 90 189 182 174 178 181 183 184 182 182 184 186 189 187 185 186 186 182 183 183 182 184 183 183 174 182 177 171 179 183 185 187 187 189 184 185 189 185 186 184 189 186 180 187 185 178 181 187 185 178 177 177 177 176 176 177 181 181 182 183 183 152 140 164 111 151 160 153 139 141 149 150 152 154 146 162 159 146 163 160 150 145 159 160 164 172 148 152 170 168 159 164 175 175 178 169 172 183 185 172 171 186 188 174 181 171 171 161 154 170 183 171 170 168 171 160 176 178 184 183 177 181 176 170 160 168 170 150 157 165 162 161 155 156 166 181 162 49 0 0 0 0 0 0 0 0 0 0 0 0 0 0 0 0 0 0 0 0 0 0 0 0 0 0 0 0 0 0 0 0 0 0 0 0 0 0 0 0 0 0 0 0 0 0 0 0 0 0 0 0 0 0 0 0 0 0 0 0 0 0 0 0 0 0 0 0 0 0 0 0 0 0 0 0 0 0 0 0 0 0 0 0 0 0 0 0 0 0 0 0 0 0 0 0 0 0 0 0 0 0 
0 0 0 0 0 0 0 0 0 0 0 0 0 0 0 0 0 0 0 0 0 0 0 0 0 0 0 0 0 0 0 0 0 0 0 0 0 0 0 0 0 0 0 0 0 0 0 0 0 0 0 0 0 0 0 0 0 0 0 0 0 0 0 0 0 0 0 0 0 0 0 0 0 0 0 0 0 0 0 0 0 0 0 0 0 0 0 0 0 0 0 0 0 0 0 0 0 0 0 0 0 0 0 0 0 0 0 0 0 0 0 0 0 0 0 0 0 0 0 44 173 192 178 180 181 179 181 181 177 185 184 185 187 184 186 185 182 182 189 188 183 184 185 175 174 178 175 183 183 184 189 185 185 185 188 187 183 188 187 182 181 184 183 178 179 183 179 178 182 180 179 177 179 183 179 186 186 186 186 189 168 131 168 123 141 160 148 141 143 146 153 152 150 154 148 159 156 153 163 153 156 154 161 176 161 149 164 165 164 166 174 176 174 179 175 178 186 189 177 173 179 188 176 186 182 173 171 170 177 171 181 172 150 150 168 178 178 189 179 165 179 180 185 180 169 168 159 165 169 161 169 165 165 183 183 178 91 1 0 0 0 0 0 0 0 0 0 0 0 0 0 0 0 0 0 0 0 0 0 0 0 0 0 0 0 0 0 0 0 0 0 0 0 0 0 0 0 0 0 0 0 0 0 0 0 0 0 0 0 0 0 0 0 0 0 0 0 0 0 0 0 0 0 0 0 0 0 0 0 0 0 0 0 0 0 0 0 0 0 0 0 0 0 0 0 0 0 0 0 0 0 0 0 0 0 0 0 0 0 
0 0 0 0 0 0 0 0 0 0 0 0 0 0 0 0 0 0 0 0 0 0 0 0 0 0 0 0 0 0 0 0 0 0 0 0 0 0 0 0 0 0 0 0 0 0 0 0 0 0 0 0 0 0 0 0 0 0 0 0 0 0 0 0 0 0 0 0 0 0 0 0 0 0 0 0 0 0 0 0 0 0 0 0 0 0 0 0 0 0 0 0 0 0 0 0 0 0 0 0 0 0 0 0 0 0 0 0 0 0 0 0 0 0 0 0 0 0 0 12 138 195 177 176 180 178 182 180 182 188 185 187 187 184 185 183 182 182 182 183 183 182 177 176 173 183 176 183 183 187 189 183 188 178 181 185 183 185 179 174 179 188 183 177 178 184 181 178 181 179 180 179 183 184 184 189 187 184 186 188 177 135 157 147 117 159 149 139 142 143 155 156 152 150 150 158 164 159 164 158 149 153 167 165 162 154 168 176 170 164 181 168 170 174 174 189 191 193 186 167 163 171 175 177 173 161 181 182 181 176 187 174 174 171 171 184 177 192 182 164 177 183 191 190 186 187 188 189 186 179 174 167 187 191 176 179 131 17 0 0 0 0 0 0 0 0 0 0 0 0 0 0 0 0 0 0 0 0 0 0 0 0 0 0 0 0 0 0 0 0 0 0 0 0 0 0 0 0 0 0 0 0 0 0 0 0 0 0 0 0 0 0 0 0 0 0 0 0 0 0 0 0 0 0 0 0 0 0 0 0 0 0 0 0 0 0 0 0 0 0 0 0 0 0 0 0 0 0 0 0 0 0 0 0 0 0 0 0 0 
0 0 0 0 0 0 0 0 0 0 0 0 0 0 0 0 0 0 0 0 0 0 0 0 0 0 0 0 0 0 0 0 0 0 0 0 0 0 0 0 0 0 0 0 0 0 0 0 0 0 0 0 0 0 0 0 0 0 0 0 0 0 0 0 0 0 0 0 0 0 0 0 0 0 0 0 0 0 0 0 0 0 0 0 0 0 0 0 0 0 0 0 0 0 0 0 0 0 0 0 0 0 0 0 0 0 0 0 0 0 0 0 0 0 0 0 0 0 0 0 86 192 183 179 180 181 184 182 183 183 186 186 183 185 184 184 183 183 179 179 182 181 177 181 175 162 169 181 191 188 183 185 183 180 182 188 185 188 180 175 178 183 185 183 183 183 182 184 187 183 178 187 183 180 179 183 187 186 184 186 182 148 135 160 113 147 156 144 147 155 149 148 158 158 164 163 158 166 165 158 148 164 175 160 161 158 179 187 170 164 181 174 173 169 170 177 179 193 199 175 149 176 196 175 176 170 184 180 165 172 171 168 158 174 174 181 170 182 194 188 189 189 193 189 185 197 202 202 194 173 142 144 156 158 146 141 131 46 0 0 0 0 0 0 0 0 0 0 0 0 0 0 0 0 0 0 0 0 0 0 0 0 0 0 0 0 0 0 0 0 0 0 0 0 0 0 0 0 0 0 0 0 0 0 0 0 0 0 0 0 0 0 0 0 0 0 0 0 0 0 0 0 0 0 0 0 0 0 0 0 0 0 0 0 0 0 0 0 0 0 0 0 0 0 0 0 0 0 0 0 0 0 0 0 0 0 0 0 0 
0 0 0 0 0 0 0 0 0 0 0 0 0 0 0 0 0 0 0 0 0 0 0 0 0 0 0 0 0 0 0 0 0 0 0 0 0 0 0 0 0 0 0 0 0 0 0 0 0 0 0 0 0 0 0 0 0 0 0 0 0 0 0 0 0 0 0 0 0 0 0 0 0 0 0 0 0 0 0 0 0 0 0 0 0 0 0 0 0 0 0 0 0 0 0 0 0 0 0 0 0 0 0 0 0 0 0 0 0 0 0 0 0 0 0 0 0 0 0 0 41 175 188 180 177 180 181 179 182 185 186 183 183 183 183 181 180 183 182 181 182 182 182 186 184 163 158 179 189 187 182 184 189 188 187 188 182 180 183 184 178 181 185 183 182 177 177 183 182 178 179 184 182 183 187 186 183 183 183 182 182 159 129 161 130 135 158 150 156 159 149 145 152 148 155 162 161 169 157 148 157 157 158 158 164 158 168 164 158 166 175 189 174 174 183 182 183 196 203 191 179 186 199 185 182 189 189 178 166 173 159 184 172 171 202 192 188 197 195 195 196 188 179 166 154 149 144 137 130 118 98 99 99 93 88 85 91 54 0 0 0 0 0 0 0 0 0 0 0 0 0 0 0 0 0 0 0 0 0 0 0 0 0 0 0 0 0 0 0 0 0 0 0 0 0 0 0 0 0 0 0 0 0 0 0 0 0 0 0 0 0 0 0 0 0 0 0 0 0 0 0 0 0 0 0 0 0 0 0 0 0 0 0 0 0 0 0 0 0 0 0 0 0 0 0 0 0 0 0 0 0 0 0 0 0 0 0 0 0 
0 0 0 0 0 0 0 0 0 0 0 0 0 0 0 0 0 0 0 0 0 0 0 0 0 0 0 0 0 0 0 0 0 0 0 0 0 0 0 0 0 0 0 0 0 0 0 0 0 0 0 0 0 0 0 0 0 0 0 0 0 0 0 0 0 0 0 0 0 0 0 0 0 0 0 0 0 0 0 0 0 0 0 0 0 0 0 0 0 0 0 0 0 0 0 0 0 0 0 0 0 0 0 0 0 0 0 0 0 0 0 0 0 0 0 0 0 0 0 0 10 137 190 180 182 180 175 179 180 185 187 183 188 187 181 183 181 182 185 185 183 183 183 185 191 176 138 164 186 190 180 180 188 186 183 188 181 184 187 185 182 182 186 183 181 173 176 181 186 186 181 176 181 186 179 178 181 180 177 182 185 173 135 151 142 117 154 151 150 147 146 147 149 149 152 154 153 154 156 152 158 154 155 163 170 173 161 167 169 172 178 191 187 180 189 195 202 204 202 200 204 202 197 202 181 185 181 178 168 170 175 181 177 176 175 166 163 154 140 133 125 118 108 101 97 93 88 85 83 86 91 88 84 87 87 87 78 17 0 0 0 0 0 0 0 0 0 0 0 0 0 0 0 0 0 0 0 0 0 0 0 0 0 0 0 0 0 0 0 0 0 0 0 0 0 0 0 0 0 0 0 0 0 0 0 0 0 0 0 0 0 0 0 0 0 0 0 0 0 0 0 0 0 0 0 0 0 0 0 0 0 0 0 0 0 0 0 0 0 0 0 0 0 0 0 0 0 0 0 0 0 0 0 0 0 0 0 0 0 
0 0 0 0 0 0 0 0 0 0 0 0 0 0 0 0 0 0 0 0 0 0 0 0 0 0 0 0 0 0 0 0 0 0 0 0 0 0 0 0 0 0 0 0 0 0 0 0 0 0 0 0 0 0 0 0 0 0 0 0 0 0 0 0 0 0 0 0 0 0 0 0 0 0 0 0 0 0 0 0 0 0 0 0 0 0 0 0 0 0 0 0 0 0 0 0 0 0 0 0 0 0 0 0 0 0 0 0 0 0 0 0 0 0 0 0 0 0 0 0 0 89 190 182 181 177 174 182 181 182 183 181 187 188 182 183 181 186 186 183 184 184 181 185 193 189 139 148 187 186 186 185 187 183 181 185 181 182 191 186 179 179 184 183 181 176 176 183 187 184 176 171 182 186 176 176 178 179 176 181 180 180 147 128 129 109 137 153 152 148 149 145 148 156 154 157 161 160 163 165 169 163 158 173 171 160 160 172 188 192 191 204 214 214 211 213 216 208 206 204 205 201 194 188 167 155 155 151 142 135 133 124 118 110 101 98 91 86 85 83 85 86 87 88 90 92 94 96 98 102 102 104 103 104 101 89 19 0 0 0 0 0 0 0 0 0 0 0 0 0 0 0 0 0 0 0 0 0 0 0 0 0 0 0 0 0 0 0 0 0 0 0 0 0 0 0 0 0 0 0 0 0 0 0 0 0 0 0 0 0 0 0 0 0 0 0 0 0 0 0 0 0 0 0 0 0 0 0 0 0 0 0 0 0 0 0 0 0 0 0 0 0 0 0 0 0 0 0 0 0 0 0 0 0 0 0 0 0 0 
0 0 0 0 0 0 0 0 0 0 0 0 0 0 0 0 0 0 0 0 0 0 0 0 0 0 0 0 0 0 0 0 0 0 0 0 0 0 0 0 0 0 0 0 0 0 0 0 0 0 0 0 0 0 0 0 0 0 0 0 0 0 0 0 0 0 0 0 0 0 0 0 0 0 0 0 0 0 0 0 0 0 0 0 0 0 0 0 0 0 0 0 0 0 0 0 0 0 0 0 0 0 0 0 0 0 0 0 0 0 0 0 0 0 0 0 0 0 0 0 0 40 177 189 178 176 175 181 183 182 178 182 186 187 183 182 185 185 188 186 184 185 186 186 187 190 168 149 179 186 186 187 187 187 183 178 178 177 191 184 185 183 183 181 177 180 183 183 182 180 174 176 183 183 178 178 181 181 179 180 182 183 160 132 135 112 122 143 146 151 155 156 153 155 173 183 165 163 172 165 163 177 173 196 195 173 174 192 209 212 206 211 212 206 201 190 180 167 158 147 137 129 119 116 113 105 98 94 94 89 85 87 85 83 86 88 89 91 95 100 103 104 107 106 106 109 109 110 108 105 106 105 106 104 81 15 0 0 0 0 0 0 0 0 0 0 0 0 0 0 0 0 0 0 0 0 0 0 0 0 0 0 0 0 0 0 0 0 0 0 0 0 0 0 0 0 0 0 0 0 0 0 0 0 0 0 0 0 0 0 0 0 0 0 0 0 0 0 0 0 0 0 0 0 0 0 0 0 0 0 0 0 0 0 0 0 0 0 0 0 0 0 0 0 0 0 0 0 0 0 0 0 0 0 0 0 0 0 0 
0 0 0 0 0 0 0 0 0 0 0 0 0 0 0 0 0 0 0 0 0 0 0 0 0 0 0 0 0 0 0 0 0 0 0 0 0 0 0 0 0 0 0 0 0 0 0 0 0 0 0 0 0 0 0 0 0 0 0 0 0 0 0 0 0 0 0 0 0 0 0 0 0 0 0 0 0 0 0 0 0 0 0 0 0 0 0 0 0 0 0 0 0 0 0 0 0 0 0 0 0 0 0 0 0 0 0 0 0 0 0 0 0 0 0 0 0 0 0 0 0 5 142 191 179 175 180 182 182 181 177 184 186 185 185 183 183 184 190 186 182 188 190 183 182 187 186 156 166 185 184 181 187 191 187 179 183 187 183 181 187 181 181 187 182 176 179 186 183 182 181 183 181 179 173 178 181 179 180 182 183 183 170 130 139 146 136 148 143 144 158 165 163 174 186 191 179 169 188 177 180 190 191 186 186 167 163 165 167 161 151 146 139 128 117 110 101 97 91 87 87 85 81 82 84 84 88 89 90 93 96 98 100 101 101 104 105 105 108 107 106 106 106 105 106 105 105 106 105 104 107 106 103 71 7 0 0 0 0 0 0 0 0 0 0 0 0 0 0 0 0 0 0 0 0 0 0 0 0 0 0 0 0 0 0 0 0 0 0 0 0 0 0 0 0 0 0 0 0 0 0 0 0 0 0 0 0 0 0 0 0 0 0 0 0 0 0 0 0 0 0 0 0 0 0 0 0 0 0 0 0 0 0 0 0 0 0 0 0 0 0 0 0 0 0 0 0 0 0 0 0 0 0 0 0 0 0 0 0 
0 0 0 0 0 0 0 0 0 0 0 0 0 0 0 0 0 0 0 0 0 0 0 0 0 0 0 0 0 0 0 0 0 0 0 0 0 0 0 0 0 0 0 0 0 0 0 0 0 0 0 0 0 0 0 0 0 0 0 0 0 0 0 0 0 0 0 0 0 0 0 0 0 0 0 0 0 0 0 0 0 0 0 0 0 0 0 0 0 0 0 0 0 0 0 0 0 0 0 0 0 0 0 0 0 0 0 0 0 0 0 0 0 0 0 0 0 0 0 0 0 0 87 191 181 174 176 181 182 183 184 182 187 187 185 184 180 180 185 179 178 185 187 181 182 185 187 163 163 187 182 183 188 188 179 179 183 186 179 187 183 178 181 183 186 177 175 182 181 179 183 182 176 177 178 180 183 181 179 181 183 186 173 139 125 144 131 153 161 147 152 168 179 189 191 175 178 170 170 162 156 150 140 126 118 110 107 101 93 88 85 82 80 79 81 81 85 87 88 91 95 97 99 99 102 103 105 104 105 106 105 105 104 101 102 103 104 105 103 102 105 104 104 105 104 104 106 105 104 104 105 101 57 0 0 0 0 0 0 0 0 0 0 0 0 0 0 0 0 0 0 0 0 0 0 0 0 0 0 0 0 0 0 0 0 0 0 0 0 0 0 0 0 0 0 0 0 0 0 0 0 0 0 0 0 0 0 0 0 0 0 0 0 0 0 0 0 0 0 0 0 0 0 0 0 0 0 0 0 0 0 0 0 0 0 0 0 0 0 0 0 0 0 0 0 0 0 0 0 0 0 0 0 0 0 0 0 0 0 
0 0 0 0 0 0 0 0 0 0 0 0 0 0 0 0 0 0 0 0 0 0 0 0 0 0 0 0 0 0 0 0 0 0 0 0 0 0 0 0 0 0 0 0 0 0 0 0 0 0 0 0 0 0 0 0 0 0 0 0 0 0 0 0 0 0 0 0 0 0 0 0 0 0 0 0 0 0 0 0 0 0 0 0 0 0 0 0 0 0 0 0 0 0 0 0 0 0 0 0 0 0 0 0 0 0 0 0 0 0 0 0 0 0 0 0 0 0 0 0 0 0 36 180 186 176 178 179 178 182 181 177 183 187 185 185 183 185 183 177 175 177 181 178 182 186 183 172 165 175 184 187 183 187 183 183 184 187 183 182 182 183 181 183 182 177 176 180 181 176 179 182 179 175 177 173 174 180 181 187 187 184 177 151 130 153 123 114 122 133 138 127 120 123 131 127 126 122 108 96 89 84 82 84 81 80 77 79 83 86 90 94 96 97 101 103 104 104 104 105 105 104 104 103 104 106 102 102 103 103 104 100 99 101 103 102 103 102 101 103 103 101 103 104 103 105 106 104 105 105 97 51 0 0 0 0 0 0 0 0 0 0 0 0 0 0 0 0 0 0 0 0 0 0 0 0 0 0 0 0 0 0 0 0 0 0 0 0 0 0 0 0 0 0 0 0 0 0 0 0 0 0 0 0 0 0 0 0 0 0 0 0 0 0 0 0 0 0 0 0 0 0 0 0 0 0 0 0 0 0 0 0 0 0 0 0 0 0 0 0 0 0 0 0 0 0 0 0 0 0 0 0 0 0 0 0 0 0 0 
0 0 0 0 0 0 0 0 0 0 0 0 0 0 0 0 0 0 0 0 0 0 0 0 0 0 0 0 0 0 0 0 0 0 0 0 0 0 0 0 0 0 0 0 0 0 0 0 0 0 0 0 0 0 0 0 0 0 0 0 0 0 0 0 0 0 0 0 0 0 0 0 0 0 0 0 0 0 0 0 0 0 0 0 0 0 0 0 0 0 0 0 0 0 0 0 0 0 0 0 0 0 0 0 0 0 0 0 0 0 0 0 0 0 0 0 0 0 0 0 0 0 5 148 189 176 178 182 178 177 178 176 180 186 183 185 183 185 186 182 176 177 182 181 181 180 183 185 164 174 186 188 183 184 182 179 186 186 187 178 179 184 182 184 182 179 174 173 178 176 180 184 176 175 176 171 172 175 185 189 187 184 179 150 140 168 130 98 90 86 96 94 73 67 77 87 89 88 83 80 84 87 89 83 70 76 78 93 98 98 106 106 102 101 106 105 103 103 104 101 101 101 101 103 103 101 100 100 101 102 101 98 99 99 99 101 100 102 104 100 100 101 103 104 105 105 102 106 106 91 39 0 0 0 0 0 0 0 0 0 0 0 0 0 0 0 0 0 0 0 0 0 0 0 0 0 0 0 0 0 0 0 0 0 0 0 0 0 0 0 0 0 0 0 0 0 0 0 0 0 0 0 0 0 0 0 0 0 0 0 0 0 0 0 0 0 0 0 0 0 0 0 0 0 0 0 0 0 0 0 0 0 0 0 0 0 0 0 0 0 0 0 0 0 0 0 0 0 0 0 0 0 0 0 0 0 0 0 0 
0 0 0 0 0 0 0 0 0 0 0 0 0 0 0 0 0 0 0 0 0 0 0 0 0 0 0 0 0 0 0 0 0 0 0 0 0 0 0 0 0 0 0 0 0 0 0 0 0 0 0 0 0 0 0 0 0 0 0 0 0 0 0 0 0 0 0 0 0 0 0 0 0 0 0 0 0 0 0 0 0 0 0 0 0 0 0 0 0 0 0 0 0 0 0 0 0 0 0 0 0 0 0 0 0 0 0 0 0 0 0 0 0 0 0 0 0 0 0 0 0 0 0 90 190 179 177 174 173 177 178 180 184 184 187 187 183 182 183 183 179 187 185 182 181 182 184 185 177 175 183 189 186 186 188 185 183 183 187 184 179 179 182 181 182 173 170 173 178 175 177 183 178 177 176 176 181 183 188 188 190 182 166 147 125 128 96 91 102 78 72 82 83 80 84 85 87 89 95 96 99 99 100 80 77 87 95 102 101 102 102 101 98 98 101 99 100 101 100 100 101 99 100 101 100 100 99 97 98 96 96 98 99 101 101 101 104 108 102 100 102 102 102 105 105 103 107 99 75 22 0 0 0 0 0 0 0 0 0 0 0 0 0 0 0 0 0 0 0 0 0 0 0 0 0 0 0 0 0 0 0 0 0 0 0 0 0 0 0 0 0 0 0 0 0 0 0 0 0 0 0 0 0 0 0 0 0 0 0 0 0 0 0 0 0 0 0 0 0 0 0 0 0 0 0 0 0 0 0 0 0 0 0 0 0 0 0 0 0 0 0 0 0 0 0 0 0 0 0 0 0 0 0 0 0 0 0 0 0 
0 0 0 0 0 0 0 0 0 0 0 0 0 0 0 0 0 0 0 0 0 0 0 0 0 0 0 0 0 0 0 0 0 0 0 0 0 0 0 0 0 0 0 0 0 0 0 0 0 0 0 0 0 0 0 0 0 0 0 0 0 0 0 0 0 0 0 0 0 0 0 0 0 0 0 0 0 0 0 0 0 0 0 0 0 0 0 0 0 0 0 0 0 0 0 0 0 0 0 0 0 0 0 0 0 0 0 0 0 0 0 0 0 0 0 0 0 0 0 0 0 0 0 34 181 188 172 168 172 178 180 183 187 187 188 185 187 181 181 183 180 187 181 182 183 183 184 186 187 166 181 191 186 184 185 187 186 186 184 186 178 175 183 182 182 182 176 165 175 177 169 176 178 177 177 181 185 187 188 189 189 170 135 116 87 67 71 77 83 88 88 92 94 95 96 95 95 96 98 98 96 98 96 90 96 98 101 98 100 100 96 95 97 99 96 95 99 98 97 98 97 96 97 96 98 99 98 96 99 97 97 98 97 90 91 85 77 65 78 104 104 102 105 104 101 106 100 57 2 0 0 0 0 0 0 0 0 0 0 0 0 0 0 0 0 0 0 0 0 0 0 0 0 0 0 0 0 0 0 0 0 0 0 0 0 0 0 0 0 0 0 0 0 0 0 0 0 0 0 0 0 0 0 0 0 0 0 0 0 0 0 0 0 0 0 0 0 0 0 0 0 0 0 0 0 0 0 0 0 0 0 0 0 0 0 0 0 0 0 0 0 0 0 0 0 0 0 0 0 0 0 0 0 0 0 0 0 0 0 
0 0 0 0 0 0 0 0 0 0 0 0 0 0 0 0 0 0 0 0 0 0 0 0 0 0 0 0 0 0 0 0 0 0 0 0 0 0 0 0 0 0 0 0 0 0 0 0 0 0 0 0 0 0 0 0 0 0 0 0 0 0 0 0 0 0 0 0 0 0 0 0 0 0 0 0 0 0 0 0 0 0 0 0 0 0 0 0 0 0 0 0 0 0 0 0 0 0 0 0 0 0 0 0 0 0 0 0 0 0 0 0 0 0 0 0 0 0 0 0 0 0 0 5 144 192 167 167 175 180 182 183 185 187 185 185 186 183 181 178 185 183 178 186 182 179 183 184 187 155 171 189 182 183 183 182 183 180 181 182 178 178 180 180 182 181 175 167 175 176 171 171 179 178 182 182 184 187 191 183 146 122 101 81 78 86 91 90 90 94 96 96 98 98 95 94 94 94 92 93 94 95 92 95 99 98 96 97 96 95 94 93 95 95 95 94 95 94 96 95 93 96 96 95 96 92 89 89 86 82 77 72 66 48 43 46 31 20 67 106 102 102 103 101 105 98 53 0 0 0 0 0 0 0 0 0 0 0 0 0 0 0 0 0 0 0 0 0 0 0 0 0 0 0 0 0 0 0 0 0 0 0 0 0 0 0 0 0 0 0 0 0 0 0 0 0 0 0 0 0 0 0 0 0 0 0 0 0 0 0 0 0 0 0 0 0 0 0 0 0 0 0 0 0 0 0 0 0 0 0 0 0 0 0 0 0 0 0 0 0 0 0 0 0 0 0 0 0 0 0 0 0 0 0 0 0 0 0 0 
0 0 0 0 0 0 0 0 0 0 0 0 0 0 0 0 0 0 0 0 0 0 0 0 0 0 0 0 0 0 0 0 0 0 0 0 0 0 0 0 0 0 0 0 0 0 0 0 0 0 0 0 0 0 0 0 0 0 0 0 0 0 0 0 0 0 0 0 0 0 0 0 0 0 0 0 0 0 0 0 0 0 0 0 0 0 0 0 0 0 0 0 0 0 0 0 0 0 0 0 0 0 0 0 0 0 0 0 0 0 0 0 0 0 0 0 0 0 0 0 0 0 0 0 89 192 168 167 176 178 178 182 185 183 177 179 182 185 180 179 183 180 183 183 181 183 186 183 184 160 162 180 178 183 187 182 178 177 181 186 186 182 175 173 181 176 173 175 176 179 176 175 181 181 182 181 186 185 187 150 81 74 75 86 97 96 94 93 94 95 95 94 95 95 94 91 89 90 88 87 89 94 92 92 93 89 92 91 91 91 94 93 94 96 96 94 91 92 94 86 82 85 85 81 77 73 69 66 61 58 50 43 47 37 28 35 26 52 94 100 101 102 102 105 100 49 0 0 0 0 0 0 0 0 0 0 0 0 0 0 0 0 0 0 0 0 0 0 0 0 0 0 0 0 0 0 0 0 0 0 0 0 0 0 0 0 0 0 0 0 0 0 0 0 0 0 0 0 0 0 0 0 0 0 0 0 0 0 0 0 0 0 0 0 0 0 0 0 0 0 0 0 0 0 0 0 0 0 0 0 0 0 0 0 0 0 0 0 0 0 0 0 0 0 0 0 0 0 0 0 0 0 0 0 0 0 0 0 0 
0 0 0 0 0 0 0 0 0 0 0 0 0 0 0 0 0 0 0 0 0 0 0 0 0 0 0 0 0 0 0 0 0 0 0 0 0 0 0 0 0 0 0 0 0 0 0 0 0 0 0 0 0 0 0 0 0 0 0 0 0 0 0 0 0 0 0 0 0 0 0 0 0 0 0 0 0 0 0 0 0 0 0 0 0 0 0 0 0 0 0 0 0 0 0 0 0 0 0 0 0 0 0 0 0 0 0 0 0 0 0 0 0 0 0 0 0 0 0 0 0 0 0 0 40 180 181 173 174 176 178 183 185 178 176 178 181 186 182 181 181 182 183 173 181 186 181 182 184 172 181 179 180 182 184 180 180 181 176 183 182 178 176 175 177 174 174 173 175 175 173 179 182 181 181 183 185 181 166 109 65 66 82 99 97 94 92 94 93 90 89 90 90 90 91 87 87 91 93 90 91 90 89 84 84 86 86 84 86 87 89 89 88 86 85 82 82 83 79 73 70 68 68 66 64 62 58 57 55 54 45 43 50 37 38 49 59 99 99 99 101 102 106 98 49 0 0 0 0 0 0 0 0 0 0 0 0 0 0 0 0 0 0 0 0 0 0 0 0 0 0 0 0 0 0 0 0 0 0 0 0 0 0 0 0 0 0 0 0 0 0 0 0 0 0 0 0 0 0 0 0 0 0 0 0 0 0 0 0 0 0 0 0 0 0 0 0 0 0 0 0 0 0 0 0 0 0 0 0 0 0 0 0 0 0 0 0 0 0 0 0 0 0 0 0 0 0 0 0 0 0 0 0 0 0 0 0 0 0 
0 0 0 0 0 0 0 0 0 0 0 0 0 0 0 0 0 0 0 0 0 0 0 0 0 0 0 0 0 0 0 0 0 0 0 0 0 0 0 0 0 0 0 0 0 0 0 0 0 0 0 0 0 0 0 0 0 0 0 0 0 0 0 0 0 0 0 0 0 0 0 0 0 0 0 0 0 0 0 0 0 0 0 0 0 0 0 0 0 0 0 0 0 0 0 0 0 0 0 0 0 0 0 0 0 0 0 0 0 0 0 0 0 0 0 0 0 0 0 0 0 0 0 0 6 144 194 176 172 177 178 180 183 181 177 183 183 182 181 181 184 183 180 179 182 182 182 189 187 180 202 185 180 179 179 178 182 182 176 181 175 173 178 175 173 167 176 175 170 172 174 181 183 182 178 179 179 162 124 92 80 86 99 96 91 93 93 91 89 89 93 98 96 93 92 92 86 81 78 72 68 69 73 77 77 77 79 79 79 77 79 79 77 76 72 70 73 75 69 68 67 66 66 62 57 63 61 58 51 51 46 42 40 34 60 86 97 99 98 100 101 105 90 36 0 0 0 0 0 0 0 0 0 0 0 0 0 0 0 0 0 0 0 0 0 0 0 0 0 0 0 0 0 0 0 0 0 0 0 0 0 0 0 0 0 0 0 0 0 0 0 0 0 0 0 0 0 0 0 0 0 0 0 0 0 0 0 0 0 0 0 0 0 0 0 0 0 0 0 0 0 0 0 0 0 0 0 0 0 0 0 0 0 0 0 0 0 0 0 0 0 0 0 0 0 0 0 0 0 0 0 0 0 0 0 0 0 0 0 
0 0 0 0 0 0 0 0 0 0 0 0 0 0 0 0 0 0 0 0 0 0 0 0 0 0 0 0 0 0 0 0 0 0 0 0 0 0 0 0 0 0 0 0 0 0 0 0 0 0 0 0 0 0 0 0 0 0 0 0 0 0 0 0 0 0 0 0 0 0 0 0 0 0 0 0 0 0 0 0 0 0 0 0 0 0 0 0 0 0 0 0 0 0 0 0 0 0 0 0 0 0 0 0 0 0 0 0 0 0 0 0 0 0 0 0 0 0 0 0 0 0 0 0 0 93 196 182 174 176 177 182 183 182 177 182 183 181 182 186 184 179 183 187 181 183 188 187 180 179 188 187 175 177 175 177 177 178 184 181 176 177 174 173 179 176 176 173 165 170 179 185 185 183 174 171 156 121 87 88 99 99 97 93 92 91 91 88 92 87 81 75 65 55 48 44 34 28 28 29 34 46 58 68 69 70 73 73 74 75 73 72 74 71 71 72 69 72 72 71 69 68 67 60 56 61 58 53 49 49 44 34 39 63 94 99 98 94 96 101 103 83 22 0 0 0 0 0 0 0 0 0 0 0 0 0 0 0 0 0 0 0 0 0 0 0 0 0 0 0 0 0 0 0 0 0 0 0 0 0 0 0 0 0 0 0 0 0 0 0 0 0 0 0 0 0 0 0 0 0 0 0 0 0 0 0 0 0 0 0 0 0 0 0 0 0 0 0 0 0 0 0 0 0 0 0 0 0 0 0 0 0 0 0 0 0 0 0 0 0 0 0 0 0 0 0 0 0 0 0 0 0 0 0 0 0 0 0 0 
0 0 0 0 0 0 0 0 0 0 0 0 0 0 0 0 0 0 0 0 0 0 0 0 0 0 0 0 0 0 0 0 0 0 0 0 0 0 0 0 0 0 0 0 0 0 0 0 0 0 0 0 0 0 0 0 0 0 0 0 0 0 0 0 0 0 0 0 0 0 0 0 0 0 0 0 0 0 0 0 0 0 0 0 0 0 0 0 0 0 0 0 0 0 0 0 0 0 0 0 0 0 0 0 0 0 0 0 0 0 0 0 0 0 0 0 0 0 0 0 0 0 0 0 0 47 185 191 178 172 178 183 186 184 181 181 177 178 181 182 177 181 184 181 177 186 186 176 178 183 172 183 177 181 179 182 182 177 180 179 179 177 172 167 176 179 175 172 173 176 185 187 183 183 175 148 115 85 82 96 98 96 96 95 94 91 93 89 54 29 24 21 19 19 17 15 12 11 13 17 21 31 44 56 60 67 70 73 72 73 75 73 73 72 73 73 69 73 74 72 71 64 62 62 59 57 56 51 51 43 35 38 71 96 96 94 94 96 99 97 75 15 0 0 0 0 0 0 0 0 0 0 0 0 0 0 0 0 0 0 0 0 0 0 0 0 0 0 0 0 0 0 0 0 0 0 0 0 0 0 0 0 0 0 0 0 0 0 0 0 0 0 0 0 0 0 0 0 0 0 0 0 0 0 0 0 0 0 0 0 0 0 0 0 0 0 0 0 0 0 0 0 0 0 0 0 0 0 0 0 0 0 0 0 0 0 0 0 0 0 0 0 0 0 0 0 0 0 0 0 0 0 0 0 0 0 0 0 0 
0 0 0 0 0 0 0 0 0 0 0 0 0 0 0 0 0 0 0 0 0 0 0 0 0 0 0 0 0 0 0 0 0 0 0 0 0 0 0 0 0 0 0 0 0 0 0 0 0 0 0 0 0 0 0 0 0 0 0 0 0 0 0 0 0 0 0 0 0 0 0 0 0 0 0 0 0 0 0 0 0 0 0 0 0 0 0 0 0 0 0 0 0 0 0 0 0 0 0 0 0 0 0 0 0 0 0 0 0 0 0 0 0 0 0 0 0 0 0 0 0 0 0 0 0 7 152 193 177 177 180 179 183 180 179 182 182 182 180 171 174 181 183 182 178 182 181 176 181 185 173 163 174 181 181 179 183 179 176 179 180 175 173 166 173 179 172 170 174 181 185 183 183 177 150 111 83 86 95 95 95 95 94 92 91 94 88 47 16 12 12 13 15 16 16 16 15 13 14 17 19 22 30 40 51 59 64 69 67 69 73 73 73 73 72 73 72 69 69 68 67 64 59 60 59 55 55 46 44 38 46 73 96 93 93 96 95 99 98 65 8 0 0 0 0 0 0 0 0 0 0 0 0 0 0 0 0 0 0 0 0 0 0 0 0 0 0 0 0 0 0 0 0 0 0 0 0 0 0 0 0 0 0 0 0 0 0 0 0 0 0 0 0 0 0 0 0 0 0 0 0 0 0 0 0 0 0 0 0 0 0 0 0 0 0 0 0 0 0 0 0 0 0 0 0 0 0 0 0 0 0 0 0 0 0 0 0 0 0 0 0 0 0 0 0 0 0 0 0 0 0 0 0 0 0 0 0 0 0 
0 0 0 0 0 0 0 0 0 0 0 0 0 0 0 0 0 0 0 0 0 0 0 0 0 0 0 0 0 0 0 0 0 0 0 0 0 0 0 0 0 0 0 0 0 0 0 0 0 0 0 0 0 0 0 0 0 0 0 0 0 0 0 0 0 0 0 0 0 0 0 0 0 0 0 0 0 0 0 0 0 0 0 0 0 0 0 0 0 0 0 0 0 0 0 0 0 0 0 0 0 0 0 0 0 0 0 0 0 0 0 0 0 0 0 0 0 0 0 0 0 0 0 0 0 0 95 192 182 176 173 179 184 183 178 180 186 183 183 178 181 178 178 183 183 180 179 181 182 185 176 145 160 178 180 178 181 183 179 177 177 178 178 176 177 173 164 169 176 178 180 182 170 140 105 82 88 97 95 95 93 92 92 91 93 87 50 17 12 14 15 16 17 17 17 17 15 14 14 16 18 20 23 28 38 45 52 59 63 65 66 68 71 71 72 70 68 66 66 66 64 63 55 55 57 50 46 37 40 60 87 98 94 90 96 96 99 94 54 6 0 0 0 0 0 0 0 0 0 0 0 0 0 0 0 0 0 0 0 0 0 0 0 0 0 0 0 0 0 0 0 0 0 0 0 0 0 0 0 0 0 0 0 0 0 0 0 0 0 0 0 0 0 0 0 0 0 0 0 0 0 0 0 0 0 0 0 0 0 0 0 0 0 0 0 0 0 0 0 0 0 0 0 0 0 0 0 0 0 0 0 0 0 0 0 0 0 0 0 0 0 0 0 0 0 0 0 0 0 0 0 0 0 0 0 0 0 0 0 
0 0 0 0 0 0 0 0 0 0 0 0 0 0 0 0 0 0 0 0 0 0 0 0 0 0 0 0 0 0 0 0 0 0 0 0 0 0 0 0 0 0 0 0 0 0 0 0 0 0 0 0 0 0 0 0 0 0 0 0 0 0 0 0 0 0 0 0 0 0 0 0 0 0 0 0 0 0 0 0 0 0 0 0 0 0 0 0 0 0 0 0 0 0 0 0 0 0 0 0 0 0 0 0 0 0 0 0 0 0 0 0 0 0 0 0 0 0 0 0 0 0 0 0 0 0 40 185 187 172 178 186 189 185 181 181 178 176 177 182 181 178 184 181 179 175 175 179 179 179 183 154 135 176 184 179 178 180 178 173 173 177 177 175 175 166 166 170 175 178 184 170 141 103 82 90 97 96 95 95 92 92 91 90 84 50 22 13 14 14 15 16 17 17 17 16 15 14 14 15 18 19 20 23 27 32 39 49 52 56 59 63 64 66 66 66 66 63 63 64 63 59 53 49 47 45 38 36 62 89 99 96 92 94 96 97 91 40 2 0 0 0 0 0 0 0 0 0 0 0 0 0 0 0 0 0 0 0 0 0 0 0 0 0 0 0 0 0 0 0 0 0 0 0 0 0 0 0 0 0 0 0 0 0 0 0 0 0 0 0 0 0 0 0 0 0 0 0 0 0 0 0 0 0 0 0 0 0 0 0 0 0 0 0 0 0 0 0 0 0 0 0 0 0 0 0 0 0 0 0 0 0 0 0 0 0 0 0 0 0 0 0 0 0 0 0 0 0 0 0 0 0 0 0 0 0 0 0 0 
0 0 0 0 0 0 0 0 0 0 0 0 0 0 0 0 0 0 0 0 0 0 0 0 0 0 0 0 0 0 0 0 0 0 0 0 0 0 0 0 0 0 0 0 0 0 0 0 0 0 0 0 0 0 0 0 0 0 0 0 0 0 0 0 0 0 0 0 0 0 0 0 0 0 0 0 0 0 0 0 0 0 0 0 0 0 0 0 0 0 0 0 0 0 0 0 0 0 0 0 0 0 0 0 0 0 0 0 0 0 0 0 0 0 0 0 0 0 0 0 0 0 0 0 0 0 5 152 193 178 182 188 183 180 182 181 179 182 182 181 179 179 181 179 179 174 173 179 182 180 180 174 130 166 174 172 175 177 175 178 173 171 172 168 169 173 172 170 177 184 170 137 108 91 92 96 96 96 94 92 91 91 94 76 42 23 14 14 14 15 16 17 17 17 17 17 16 15 14 14 16 19 20 22 23 26 30 36 40 44 49 52 55 58 59 59 59 58 57 57 57 54 51 46 41 37 35 58 93 95 96 97 96 97 98 87 29 0 0 0 0 0 0 0 0 0 0 0 0 0 0 0 0 0 0 0 0 0 0 0 0 0 0 0 0 0 0 0 0 0 0 0 0 0 0 0 0 0 0 0 0 0 0 0 0 0 0 0 0 0 0 0 0 0 0 0 0 0 0 0 0 0 0 0 0 0 0 0 0 0 0 0 0 0 0 0 0 0 0 0 0 0 0 0 0 0 0 0 0 0 0 0 0 0 0 0 0 0 0 0 0 0 0 0 0 0 0 0 0 0 0 0 0 0 0 0 0 0 0 
0 0 0 0 0 0 0 0 0 0 0 0 0 0 0 0 0 0 0 0 0 0 0 0 0 0 0 0 0 0 0 0 0 0 0 0 0 0 0 0 0 0 0 0 0 0 0 0 0 0 0 0 0 0 0 0 0 0 0 0 0 0 0 0 0 0 0 0 0 0 0 0 0 0 0 0 0 0 0 0 0 0 0 0 0 0 0 0 0 0 0 0 0 0 0 0 0 0 0 0 0 0 0 0 0 0 0 0 0 0 0 0 0 0 0 0 0 0 0 0 0 0 0 0 0 0 0 93 197 182 180 177 178 185 180 181 182 182 186 183 176 179 183 179 177 178 179 181 181 178 175 177 150 155 182 173 178 179 172 171 175 177 178 174 174 177 179 180 181 167 133 98 87 96 94 94 94 94 92 91 89 93 76 38 20 13 14 14 15 16 16 17 17 17 17 17 17 15 16 15 16 19 20 21 22 23 25 28 31 35 39 42 43 46 49 49 50 49 49 49 48 47 47 40 34 38 65 94 99 97 97 98 100 98 68 14 0 0 0 0 0 0 0 0 0 0 0 0 0 0 0 0 0 0 0 0 0 0 0 0 0 0 0 0 0 0 0 0 0 0 0 0 0 0 0 0 0 0 0 0 0 0 0 0 0 0 0 0 0 0 0 0 0 0 0 0 0 0 0 0 0 0 0 0 0 0 0 0 0 0 0 0 0 0 0 0 0 0 0 0 0 0 0 0 0 0 0 0 0 0 0 0 0 0 0 0 0 0 0 0 0 0 0 0 0 0 0 0 0 0 0 0 0 0 0 0 0 0 0 
0 0 0 0 0 0 0 0 0 0 0 0 0 0 0 0 0 0 0 0 0 0 0 0 0 0 0 0 0 0 0 0 0 0 0 0 0 0 0 0 0 0 0 0 0 0 0 0 0 0 0 0 0 0 0 0 0 0 0 0 0 0 0 0 0 0 0 0 0 0 0 0 0 0 0 0 0 0 0 0 0 0 0 0 0 0 0 0 0 0 0 0 0 0 0 0 0 0 0 0 0 0 0 0 0 0 0 0 0 0 0 0 0 0 0 0 0 0 0 0 0 0 0 0 0 0 0 35 184 191 170 170 182 182 179 181 186 181 181 180 181 178 177 182 178 179 179 182 179 179 176 182 171 150 176 175 178 176 174 173 177 183 177 173 174 178 181 177 157 122 91 86 95 96 94 95 94 93 92 89 89 68 34 21 15 13 14 14 15 16 17 17 17 18 18 17 17 15 16 14 16 18 19 21 22 22 23 26 28 28 30 34 35 36 39 42 43 43 43 42 42 41 39 31 40 73 99 99 97 99 98 101 103 67 6 0 0 0 0 0 0 0 0 0 0 0 0 0 0 0 0 0 0 0 0 0 0 0 0 0 0 0 0 0 0 0 0 0 0 0 0 0 0 0 0 0 0 0 0 0 0 0 0 0 0 0 0 0 0 0 0 0 0 0 0 0 0 0 0 0 0 0 0 0 0 0 0 0 0 0 0 0 0 0 0 0 0 0 0 0 0 0 0 0 0 0 0 0 0 0 0 0 0 0 0 0 0 0 0 0 0 0 0 0 0 0 0 0 0 0 0 0 0 0 0 0 0 0 0 
0 0 0 0 0 0 0 0 0 0 0 0 0 0 0 0 0 0 0 0 0 0 0 0 0 0 0 0 0 0 0 0 0 0 0 0 0 0 0 0 0 0 0 0 0 0 0 0 0 0 0 0 0 0 0 0 0 0 0 0 0 0 0 0 0 0 0 0 0 0 0 0 0 0 0 0 0 0 0 0 0 0 0 0 0 0 0 0 0 0 0 0 0 0 0 0 0 0 0 0 0 0 0 0 0 0 0 0 0 0 0 0 0 0 0 0 0 0 0 0 0 0 0 0 0 0 0 7 144 190 170 175 186 177 179 186 183 181 177 177 180 175 176 181 181 178 178 181 179 182 179 187 172 154 170 177 177 175 171 172 174 175 178 177 179 177 168 148 114 85 86 97 96 94 95 94 92 90 92 94 57 24 16 14 14 14 14 15 16 17 17 18 18 18 18 18 17 17 15 15 16 17 19 20 22 22 23 24 26 25 27 29 30 30 32 36 36 35 36 38 37 34 32 44 79 100 99 97 96 97 101 99 57 5 0 0 0 0 0 0 0 0 0 0 0 0 0 0 0 0 0 0 0 0 0 0 0 0 0 0 0 0 0 0 0 0 0 0 0 0 0 0 0 0 0 0 0 0 0 0 0 0 0 0 0 0 0 0 0 0 0 0 0 0 0 0 0 0 0 0 0 0 0 0 0 0 0 0 0 0 0 0 0 0 0 0 0 0 0 0 0 0 0 0 0 0 0 0 0 0 0 0 0 0 0 0 0 0 0 0 0 0 0 0 0 0 0 0 0 0 0 0 0 0 0 0 0 0 0 
0 0 0 0 0 0 0 0 0 0 0 0 0 0 0 0 0 0 0 0 0 0 0 0 0 0 0 0 0 0 0 0 0 0 0 0 0 0 0 0 0 0 0 0 0 0 0 0 0 0 0 0 0 0 0 0 0 0 0 0 0 0 0 0 0 0 0 0 0 0 0 0 0 0 0 0 0 0 0 0 0 0 0 0 0 0 0 0 0 0 0 0 0 0 0 0 0 0 0 0 0 0 0 0 0 0 0 0 0 0 0 0 0 0 0 0 0 0 0 0 0 0 0 0 0 0 0 0 86 193 181 181 183 182 179 178 181 182 179 179 179 177 178 174 179 177 174 180 181 177 181 180 174 156 163 186 182 181 172 171 175 178 182 182 186 160 118 102 88 87 99 96 93 94 93 91 88 94 89 45 18 14 14 13 14 15 16 16 17 18 18 17 18 18 18 18 17 17 16 16 16 17 19 20 21 22 22 24 24 25 26 27 28 29 28 30 30 29 32 33 31 32 48 85 102 97 98 96 97 100 94 45 2 0 0 0 0 0 0 0 0 0 0 0 0 0 0 0 0 0 0 0 0 0 0 0 0 0 0 0 0 0 0 0 0 0 0 0 0 0 0 0 0 0 0 0 0 0 0 0 0 0 0 0 0 0 0 0 0 0 0 0 0 0 0 0 0 0 0 0 0 0 0 0 0 0 0 0 0 0 0 0 0 0 0 0 0 0 0 0 0 0 0 0 0 0 0 0 0 0 0 0 0 0 0 0 0 0 0 0 0 0 0 0 0 0 0 0 0 0 0 0 0 0 0 0 0 0 0 
0 0 0 0 0 0 0 0 0 0 0 0 0 0 0 0 0 0 0 0 0 0 0 0 0 0 0 0 0 0 0 0 0 0 0 0 0 0 0 0 0 0 0 0 0 0 0 0 0 0 0 0 0 0 0 0 0 0 0 0 0 0 0 0 0 0 0 0 0 0 0 0 0 0 0 0 0 0 0 0 0 0 0 0 0 0 0 0 0 0 0 0 0 0 0 0 0 0 0 0 0 0 0 0 0 0 0 0 0 0 0 0 0 0 0 0 0 0 0 0 0 0 0 0 0 0 0 0 42 179 191 179 173 176 179 179 183 182 183 181 179 180 176 176 177 178 176 174 181 177 177 178 176 170 152 172 170 172 174 173 178 184 182 183 161 116 98 88 91 99 95 94 95 93 92 90 96 83 32 13 13 13 14 14 15 16 16 17 17 18 18 18 19 19 18 18 17 17 17 16 16 16 18 19 20 22 22 24 24 24 25 26 27 28 27 28 29 29 29 29 33 54 89 101 96 97 97 97 102 96 35 1 0 0 0 0 0 0 0 0 0 0 0 0 0 0 0 0 0 0 0 0 0 0 0 0 0 0 0 0 0 0 0 0 0 0 0 0 0 0 0 0 0 0 0 0 0 0 0 0 0 0 0 0 0 0 0 0 0 0 0 0 0 0 0 0 0 0 0 0 0 0 0 0 0 0 0 0 0 0 0 0 0 0 0 0 0 0 0 0 0 0 0 0 0 0 0 0 0 0 0 0 0 0 0 0 0 0 0 0 0 0 0 0 0 0 0 0 0 0 0 0 0 0 0 0 0 0 0 
0 0 0 0 0 0 0 0 0 0 0 0 0 0 0 0 0 0 0 0 0 0 0 0 0 0 0 0 0 0 0 0 0 0 0 0 0 0 0 0 0 0 0 0 0 0 0 0 0 0 0 0 0 0 0 0 0 0 0 0 0 0 0 0 0 0 0 0 0 0 0 0 0 0 0 0 0 0 0 0 0 0 0 0 0 0 0 0 0 0 0 0 0 0 0 0 0 0 0 0 0 0 0 0 0 0 0 0 0 0 0 0 0 0 0 0 0 0 0 0 0 0 0 0 0 0 0 0 14 141 192 177 179 182 180 182 183 178 179 178 174 180 178 176 178 178 177 172 173 175 179 181 174 182 151 153 175 168 176 183 185 176 177 164 127 100 93 95 96 96 94 93 92 91 88 95 76 25 11 14 15 15 15 16 17 16 17 17 17 18 19 19 19 19 18 18 18 17 17 17 16 16 18 20 20 21 23 23 26 25 25 25 26 26 26 26 27 26 28 36 61 91 98 96 97 97 99 103 89 29 0 0 0 0 0 0 0 0 0 0 0 0 0 0 0 0 0 0 0 0 0 0 0 0 0 0 0 0 0 0 0 0 0 0 0 0 0 0 0 0 0 0 0 0 0 0 0 0 0 0 0 0 0 0 0 0 0 0 0 0 0 0 0 0 0 0 0 0 0 0 0 0 0 0 0 0 0 0 0 0 0 0 0 0 0 0 0 0 0 0 0 0 0 0 0 0 0 0 0 0 0 0 0 0 0 0 0 0 0 0 0 0 0 0 0 0 0 0 0 0 0 0 0 0 0 0 0 0 0 
0 0 0 0 0 0 0 0 0 0 0 0 0 0 0 0 0 0 0 0 0 0 0 0 0 0 0 0 0 0 0 0 0 0 0 0 0 0 0 0 0 0 0 0 0 0 0 0 0 0 0 0 0 0 0 0 0 0 0 0 0 0 0 0 0 0 0 0 0 0 0 0 0 0 0 0 0 0 0 0 0 0 0 0 0 0 0 0 0 0 0 0 0 0 0 0 0 0 0 0 0 0 0 0 0 0 0 0 0 0 0 0 0 0 0 0 0 0 0 0 0 0 0 0 0 0 0 0 1 91 190 175 173 183 181 177 184 181 179 181 182 174 174 178 181 175 173 173 174 177 174 175 175 181 170 158 179 180 184 179 176 176 161 124 99 89 92 96 94 92 93 92 91 89 92 66 20 12 15 15 16 16 16 17 17 17 18 18 18 19 19 19 20 20 20 18 18 18 17 17 17 16 17 18 19 21 21 23 24 25 24 24 26 26 26 26 26 29 40 69 98 101 97 97 96 98 103 77 15 0 0 0 0 0 0 0 0 0 0 0 0 0 0 0 0 0 0 0 0 0 0 0 0 0 0 0 0 0 0 0 0 0 0 0 0 0 0 0 0 0 0 0 0 0 0 0 0 0 0 0 0 0 0 0 0 0 0 0 0 0 0 0 0 0 0 0 0 0 0 0 0 0 0 0 0 0 0 0 0 0 0 0 0 0 0 0 0 0 0 0 0 0 0 0 0 0 0 0 0 0 0 0 0 0 0 0 0 0 0 0 0 0 0 0 0 0 0 0 0 0 0 0 0 0 0 0 0 0 0 
0 0 0 0 0 0 0 0 0 0 0 0 0 0 0 0 0 0 0 0 0 0 0 0 0 0 0 0 0 0 0 0 0 0 0 0 0 0 0 0 0 0 0 0 0 0 0 0 0 0 0 0 0 0 0 0 0 0 0 0 0 0 0 0 0 0 0 0 0 0 0 0 0 0 0 0 0 0 0 0 0 0 0 0 0 0 0 0 0 0 0 0 0 0 0 0 0 0 0 0 0 0 0 0 0 0 0 0 0 0 0 0 0 0 0 0 0 0 0 0 0 0 0 0 0 0 0 0 1 43 175 184 177 178 178 181 179 179 178 177 177 172 181 184 184 181 176 165 172 176 168 176 175 178 168 145 176 189 181 175 176 157 120 94 84 94 99 94 92 93 93 90 89 92 58 18 13 16 16 17 17 17 17 17 18 18 18 18 20 20 20 20 20 20 18 19 19 18 17 17 16 16 16 17 20 20 21 23 23 24 24 25 25 26 26 25 29 45 75 100 102 96 96 97 102 97 68 6 0 0 0 0 0 0 0 0 0 0 0 0 0 0 0 0 0 0 0 0 0 0 0 0 0 0 0 0 0 0 0 0 0 0 0 0 0 0 0 0 0 0 0 0 0 0 0 0 0 0 0 0 0 0 0 0 0 0 0 0 0 0 0 0 0 0 0 0 0 0 0 0 0 0 0 0 0 0 0 0 0 0 0 0 0 0 0 0 0 0 0 0 0 0 0 0 0 0 0 0 0 0 0 0 0 0 0 0 0 0 0 0 0 0 0 0 0 0 0 0 0 0 0 0 0 0 0 0 0 0 0 
0 0 0 0 0 0 0 0 0 0 0 0 0 0 0 0 0 0 0 0 0 0 0 0 0 0 0 0 0 0 0 0 0 0 0 0 0 0 0 0 0 0 0 0 0 0 0 0 0 0 0 0 0 0 0 0 0 0 0 0 0 0 0 0 0 0 0 0 0 0 0 0 0 0 0 0 0 0 0 0 0 0 0 0 0 0 0 0 0 0 0 0 0 0 0 0 0 0 0 0 0 0 0 0 0 0 0 0 0 0 0 0 0 0 0 0 0 0 0 0 0 0 0 0 0 0 0 0 0 13 143 193 177 174 174 178 175 182 180 176 178 179 180 180 180 173 169 176 174 173 175 174 173 183 166 114 159 185 178 176 157 116 89 80 91 98 95 93 93 92 90 92 84 48 17 14 17 17 17 17 17 17 17 18 19 19 18 20 20 20 21 20 21 20 20 20 20 18 18 19 17 16 17 17 18 20 21 22 23 23 25 25 25 26 25 30 47 80 102 98 95 95 98 99 92 43 0 0 0 0 0 0 0 0 0 0 0 0 0 0 0 0 0 0 0 0 0 0 0 0 0 0 0 0 0 0 0 0 0 0 0 0 0 0 0 0 0 0 0 0 0 0 0 0 0 0 0 0 0 0 0 0 0 0 0 0 0 0 0 0 0 0 0 0 0 0 0 0 0 0 0 0 0 0 0 0 0 0 0 0 0 0 0 0 0 0 0 0 0 0 0 0 0 0 0 0 0 0 0 0 0 0 0 0 0 0 0 0 0 0 0 0 0 0 0 0 0 0 0 0 0 0 0 0 0 0 0 0 0 
0 0 0 0 0 0 0 0 0 0 0 0 0 0 0 0 0 0 0 0 0 0 0 0 0 0 0 0 0 0 0 0 0 0 0 0 0 0 0 0 0 0 0 0 0 0 0 0 0 0 0 0 0 0 0 0 0 0 0 0 0 0 0 0 0 0 0 0 0 0 0 0 0 0 0 0 0 0 0 0 0 0 0 0 0 0 0 0 0 0 0 0 0 0 0 0 0 0 0 0 0 0 0 0 0 0 0 0 0 0 0 0 0 0 0 0 0 0 0 0 0 0 0 0 0 0 0 0 0 3 95 183 178 177 178 180 173 178 183 183 182 183 181 172 174 176 177 178 176 177 178 175 181 184 180 140 141 181 175 148 116 93 86 96 96 93 94 94 91 91 94 88 38 14 15 17 17 17 17 17 17 18 17 19 19 18 19 20 20 20 21 20 20 21 20 20 20 19 19 19 17 16 16 17 18 20 20 21 23 23 24 25 25 25 31 53 87 103 97 93 94 99 100 91 36 0 0 0 0 0 0 0 0 0 0 0 0 0 0 0 0 0 0 0 0 0 0 0 0 0 0 0 0 0 0 0 0 0 0 0 0 0 0 0 0 0 0 0 0 0 0 0 0 0 0 0 0 0 0 0 0 0 0 0 0 0 0 0 0 0 0 0 0 0 0 0 0 0 0 0 0 0 0 0 0 0 0 0 0 0 0 0 0 0 0 0 0 0 0 0 0 0 0 0 0 0 0 0 0 0 0 0 0 0 0 0 0 0 0 0 0 0 0 0 0 0 0 0 0 0 0 0 0 0 0 0 0 0 0 
0 0 0 0 0 0 0 0 0 0 0 0 0 0 0 0 0 0 0 0 0 0 0 0 0 0 0 0 0 0 0 0 0 0 0 0 0 0 0 0 0 0 0 0 0 0 0 0 0 0 0 0 0 0 0 0 0 0 0 0 0 0 0 0 0 0 0 0 0 0 0 0 0 0 0 0 0 0 0 0 0 0 0 0 0 0 0 0 0 0 0 0 0 0 0 0 0 0 0 0 0 0 0 0 0 0 0 0 0 0 0 0 0 0 0 0 0 0 0 0 0 0 0 0 0 0 0 0 0 1 45 171 186 179 177 181 181 178 173 181 179 174 175 174 173 179 175 174 177 172 174 181 185 182 183 160 147 169 143 106 86 87 96 94 91 93 93 90 91 98 85 37 15 17 17 17 18 17 18 17 18 18 18 19 20 20 20 20 20 21 21 21 21 21 21 20 20 19 19 19 18 14 14 17 18 19 20 21 23 23 24 24 25 33 58 91 102 95 92 93 96 99 95 39 0 0 0 0 0 0 0 0 0 0 0 0 0 0 0 0 0 0 0 0 0 0 0 0 0 0 0 0 0 0 0 0 0 0 0 0 0 0 0 0 0 0 0 0 0 0 0 0 0 0 0 0 0 0 0 0 0 0 0 0 0 0 0 0 0 0 0 0 0 0 0 0 0 0 0 0 0 0 0 0 0 0 0 0 0 0 0 0 0 0 0 0 0 0 0 0 0 0 0 0 0 0 0 0 0 0 0 0 0 0 0 0 0 0 0 0 0 0 0 0 0 0 0 0 0 0 0 0 0 0 0 0 0 0 0 
0 0 0 0 0 0 0 0 0 0 0 0 0 0 0 0 0 0 0 0 0 0 0 0 0 0 0 0 0 0 0 0 0 0 0 0 0 0 0 0 0 0 0 0 0 0 0 0 0 0 0 0 0 0 0 0 0 0 0 0 0 0 0 0 0 0 0 0 0 0 0 0 0 0 0 0 0 0 0 0 0 0 0 0 0 0 0 0 0 0 0 0 0 0 0 0 0 0 0 0 0 0 0 0 0 0 0 0 0 0 0 0 0 0 0 0 0 0 0 0 0 0 0 0 0 0 0 0 0 0 10 137 182 176 178 174 175 174 169 176 179 174 170 176 175 173 178 175 172 177 181 185 186 179 178 173 154 131 101 85 88 97 93 90 90 92 91 91 98 81 32 14 16 18 18 18 18 18 18 18 19 19 19 19 19 20 20 21 21 21 21 21 22 21 21 21 21 20 19 19 19 16 15 16 18 19 20 22 22 21 22 25 37 62 93 102 92 92 94 97 97 83 26 0 0 0 0 0 0 0 0 0 0 0 0 0 0 0 0 0 0 0 0 0 0 0 0 0 0 0 0 0 0 0 0 0 0 0 0 0 0 0 0 0 0 0 0 0 0 0 0 0 0 0 0 0 0 0 0 0 0 0 0 0 0 0 0 0 0 0 0 0 0 0 0 0 0 0 0 0 0 0 0 0 0 0 0 0 0 0 0 0 0 0 0 0 0 0 0 0 0 0 0 0 0 0 0 0 0 0 0 0 0 0 0 0 0 0 0 0 0 0 0 0 0 0 0 0 0 0 0 0 0 0 0 0 0 0 0 
0 0 0 0 0 0 0 0 0 0 0 0 0 0 0 0 0 0 0 0 0 0 0 0 0 0 0 0 0 0 0 0 0 0 0 0 0 0 0 0 0 0 0 0 0 0 0 0 0 0 0 0 0 0 0 0 0 0 0 0 0 0 0 0 0 0 0 0 0 0 0 0 0 0 0 0 0 0 0 0 0 0 0 0 0 0 0 0 0 0 0 0 0 0 0 0 0 0 0 0 0 0 0 0 0 0 0 0 0 0 0 0 0 0 0 0 0 0 0 0 0 0 0 0 0 0 0 0 0 0 4 90 183 177 173 170 176 176 177 178 172 170 171 178 181 180 173 169 177 184 189 186 179 174 174 167 130 99 85 91 96 92 90 93 91 90 91 96 74 29 13 17 19 18 18 18 18 18 18 18 19 19 19 19 20 20 21 20 21 21 21 21 21 22 21 21 21 21 20 18 16 17 16 17 18 20 20 21 22 21 25 40 73 97 97 93 92 94 98 99 73 14 0 0 0 0 0 0 0 0 0 0 0 0 0 0 0 0 0 0 0 0 0 0 0 0 0 0 0 0 0 0 0 0 0 0 0 0 0 0 0 0 0 0 0 0 0 0 0 0 0 0 0 0 0 0 0 0 0 0 0 0 0 0 0 0 0 0 0 0 0 0 0 0 0 0 0 0 0 0 0 0 0 0 0 0 0 0 0 0 0 0 0 0 0 0 0 0 0 0 0 0 0 0 0 0 0 0 0 0 0 0 0 0 0 0 0 0 0 0 0 0 0 0 0 0 0 0 0 0 0 0 0 0 0 0 0 0 0 
0 0 0 0 0 0 0 0 0 0 0 0 0 0 0 0 0 0 0 0 0 0 0 0 0 0 0 0 0 0 0 0 0 0 0 0 0 0 0 0 0 0 0 0 0 0 0 0 0 0 0 0 0 0 0 0 0 0 0 0 0 0 0 0 0 0 0 0 0 0 0 0 0 0 0 0 0 0 0 0 0 0 0 0 0 0 0 0 0 0 0 0 0 0 0 0 0 0 0 0 0 0 0 0 0 0 0 0 0 0 0 0 0 0 0 0 0 0 0 0 0 0 0 0 0 0 0 0 0 0 1 45 167 181 174 175 177 175 175 175 171 171 173 169 169 177 165 173 184 188 185 183 176 172 160 130 98 86 93 95 91 91 92 93 91 94 97 68 23 14 18 19 19 19 18 18 18 18 20 20 19 20 20 20 19 21 21 21 21 21 21 21 22 22 21 21 21 20 21 17 16 19 17 16 18 19 20 20 21 25 42 75 99 97 90 89 92 96 95 67 4 0 0 0 0 0 0 0 0 0 0 0 0 0 0 0 0 0 0 0 0 0 0 0 0 0 0 0 0 0 0 0 0 0 0 0 0 0 0 0 0 0 0 0 0 0 0 0 0 0 0 0 0 0 0 0 0 0 0 0 0 0 0 0 0 0 0 0 0 0 0 0 0 0 0 0 0 0 0 0 0 0 0 0 0 0 0 0 0 0 0 0 0 0 0 0 0 0 0 0 0 0 0 0 0 0 0 0 0 0 0 0 0 0 0 0 0 0 0 0 0 0 0 0 0 0 0 0 0 0 0 0 0 0 0 0 0 0 0 
0 0 0 0 0 0 0 0 0 0 0 0 0 0 0 0 0 0 0 0 0 0 0 0 0 0 0 0 0 0 0 0 0 0 0 0 0 0 0 0 0 0 0 0 0 0 0 0 0 0 0 0 0 0 0 0 0 0 0 0 0 0 0 0 0 0 0 0 0 0 0 0 0 0 0 0 0 0 0 0 0 0 0 0 0 0 0 0 0 0 0 0 0 0 0 0 0 0 0 0 0 0 0 0 0 0 0 0 0 0 0 0 0 0 0 0 0 0 0 0 0 0 0 0 0 0 0 0 0 0 0 15 137 184 169 175 173 169 170 169 169 169 168 163 168 171 174 184 189 186 181 179 173 159 125 96 86 93 98 91 91 93 92 90 96 96 59 21 15 18 18 19 18 19 19 19 20 20 20 20 20 20 20 20 20 20 21 21 21 21 21 22 22 21 21 22 22 20 19 17 18 19 19 16 18 19 19 20 26 47 82 99 94 91 91 93 94 86 55 1 0 0 0 0 0 0 0 0 0 0 0 0 0 0 0 0 0 0 0 0 0 0 0 0 0 0 0 0 0 0 0 0 0 0 0 0 0 0 0 0 0 0 0 0 0 0 0 0 0 0 0 0 0 0 0 0 0 0 0 0 0 0 0 0 0 0 0 0 0 0 0 0 0 0 0 0 0 0 0 0 0 0 0 0 0 0 0 0 0 0 0 0 0 0 0 0 0 0 0 0 0 0 0 0 0 0 0 0 0 0 0 0 0 0 0 0 0 0 0 0 0 0 0 0 0 0 0 0 0 0 0 0 0 0 0 0 0 0 0 
0 0 0 0 0 0 0 0 0 0 0 0 0 0 0 0 0 0 0 0 0 0 0 0 0 0 0 0 0 0 0 0 0 0 0 0 0 0 0 0 0 0 0 0 0 0 0 0 0 0 0 0 0 0 0 0 0 0 0 0 0 0 0 0 0 0 0 0 0 0 0 0 0 0 0 0 0 0 0 0 0 0 0 0 0 0 0 0 0 0 0 0 0 0 0 0 0 0 0 0 0 0 0 0 0 0 0 0 0 0 0 0 0 0 0 0 0 0 0 0 0 0 0 0 0 0 0 0 0 0 0 5 89 180 174 173 172 174 169 169 169 167 167 174 176 173 182 187 186 183 179 169 153 118 90 85 95 97 94 93 94 92 89 95 93 51 18 15 20 19 18 18 19 19 20 19 20 20 20 20 20 20 20 21 20 20 21 22 21 21 21 21 21 21 21 21 22 21 18 18 20 20 19 18 17 18 19 28 53 87 100 94 93 93 92 91 89 42 0 0 0 0 0 0 0 0 0 0 0 0 0 0 0 0 0 0 0 0 0 0 0 0 0 0 0 0 0 0 0 0 0 0 0 0 0 0 0 0 0 0 0 0 0 0 0 0 0 0 0 0 0 0 0 0 0 0 0 0 0 0 0 0 0 0 0 0 0 0 0 0 0 0 0 0 0 0 0 0 0 0 0 0 0 0 0 0 0 0 0 0 0 0 0 0 0 0 0 0 0 0 0 0 0 0 0 0 0 0 0 0 0 0 0 0 0 0 0 0 0 0 0 0 0 0 0 0 0 0 0 0 0 0 0 0 0 0 0 0 0 
0 0 0 0 0 0 0 0 0 0 0 0 0 0 0 0 0 0 0 0 0 0 0 0 0 0 0 0 0 0 0 0 0 0 0 0 0 0 0 0 0 0 0 0 0 0 0 0 0 0 0 0 0 0 0 0 0 0 0 0 0 0 0 0 0 0 0 0 0 0 0 0 0 0 0 0 0 0 0 0 0 0 0 0 0 0 0 0 0 0 0 0 0 0 0 0 0 0 0 0 0 0 0 0 0 0 0 0 0 0 0 0 0 0 0 0 0 0 0 0 0 0 0 0 0 0 0 0 0 0 0 1 44 171 182 170 168 173 169 168 166 167 172 171 171 177 186 189 183 180 172 148 113 86 86 97 97 94 93 93 91 89 97 92 45 17 16 20 20 20 20 20 20 19 20 20 20 20 20 22 21 20 21 22 21 21 21 21 22 21 21 21 21 23 22 21 22 21 21 20 21 20 18 19 17 19 29 59 92 100 91 90 91 92 90 80 33 0 0 0 0 0 0 0 0 0 0 0 0 0 0 0 0 0 0 0 0 0 0 0 0 0 0 0 0 0 0 0 0 0 0 0 0 0 0 0 0 0 0 0 0 0 0 0 0 0 0 0 0 0 0 0 0 0 0 0 0 0 0 0 0 0 0 0 0 0 0 0 0 0 0 0 0 0 0 0 0 0 0 0 0 0 0 0 0 0 0 0 0 0 0 0 0 0 0 0 0 0 0 0 0 0 0 0 0 0 0 0 0 0 0 0 0 0 0 0 0 0 0 0 0 0 0 0 0 0 0 0 0 0 0 0 0 0 0 0 0 0 0 
0 0 0 0 0 0 0 0 0 0 0 0 0 0 0 0 0 0 0 0 0 0 0 0 0 0 0 0 0 0 0 0 0 0 0 0 0 0 0 0 0 0 0 0 0 0 0 0 0 0 0 0 0 0 0 0 0 0 0 0 0 0 0 0 0 0 0 0 0 0 0 0 0 0 0 0 0 0 0 0 0 0 0 0 0 0 0 0 0 0 0 0 0 0 0 0 0 0 0 0 0 0 0 0 0 0 0 0 0 0 0 0 0 0 0 0 0 0 0 0 0 0 0 0 0 0 0 0 0 0 0 0 17 131 179 166 168 168 165 163 161 169 169 166 169 177 184 186 179 169 146 109 82 87 98 96 93 95 92 90 89 99 90 43 19 20 22 22 22 22 22 22 22 23 23 23 23 24 24 24 25 24 24 25 25 25 25 26 26 26 25 24 25 24 24 23 23 22 21 23 23 25 27 28 28 38 69 96 97 89 85 87 92 87 74 23 0 0 0 0 0 0 0 0 0 0 0 0 0 0 0 0 0 0 0 0 0 0 0 0 0 0 0 0 0 0 0 0 0 0 0 0 0 0 0 0 0 0 0 0 0 0 0 0 0 0 0 0 0 0 0 0 0 0 0 0 0 0 0 0 0 0 0 0 0 0 0 0 0 0 0 0 0 0 0 0 0 0 0 0 0 0 0 0 0 0 0 0 0 0 0 0 0 0 0 0 0 0 0 0 0 0 0 0 0 0 0 0 0 0 0 0 0 0 0 0 0 0 0 0 0 0 0 0 0 0 0 0 0 0 0 0 0 0 0 0 0 0 0 
0 0 0 0 0 0 0 0 0 0 0 0 0 0 0 0 0 0 0 0 0 0 0 0 0 0 0 0 0 0 0 0 0 0 0 0 0 0 0 0 0 0 0 0 0 0 0 0 0 0 0 0 0 0 0 0 0 0 0 0 0 0 0 0 0 0 0 0 0 0 0 0 0 0 0 0 0 0 0 0 0 0 0 0 0 0 0 0 0 0 0 0 0 0 0 0 0 0 0 0 0 0 0 0 0 0 0 0 0 0 0 0 0 0 0 0 0 0 0 0 0 0 0 0 0 0 0 0 0 0 0 0 6 85 178 169 167 165 164 166 163 169 177 174 173 177 181 181 164 139 102 79 89 100 97 93 93 94 89 90 102 86 39 18 20 23 23 24 24 24 24 24 24 25 25 26 26 27 27 26 26 26 26 27 26 26 26 26 26 27 27 28 28 29 31 35 35 35 39 46 48 56 65 67 74 80 95 96 88 87 87 91 87 66 16 0 0 0 0 0 0 0 0 0 0 0 0 0 0 0 0 0 0 0 0 0 0 0 0 0 0 0 0 0 0 0 0 0 0 0 0 0 0 0 0 0 0 0 0 0 0 0 0 0 0 0 0 0 0 0 0 0 0 0 0 0 0 0 0 0 0 0 0 0 0 0 0 0 0 0 0 0 0 0 0 0 0 0 0 0 0 0 0 0 0 0 0 0 0 0 0 0 0 0 0 0 0 0 0 0 0 0 0 0 0 0 0 0 0 0 0 0 0 0 0 0 0 0 0 0 0 0 0 0 0 0 0 0 0 0 0 0 0 0 0 0 0 0 0 
0 0 0 0 0 0 0 0 0 0 0 0 0 0 0 0 0 0 0 0 0 0 0 0 0 0 0 0 0 0 0 0 0 0 0 0 0 0 0 0 0 0 0 0 0 0 0 0 0 0 0 0 0 0 0 0 0 0 0 0 0 0 0 0 0 0 0 0 0 0 0 0 0 0 0 0 0 0 0 0 0 0 0 0 0 0 0 0 0 0 0 0 0 0 0 0 0 0 0 0 0 0 0 0 0 0 0 0 0 0 0 0 0 0 0 0 0 0 0 0 0 0 0 0 0 0 0 0 0 0 0 0 1 51 172 175 158 159 165 167 167 170 175 169 173 179 178 167 131 94 78 88 100 96 95 95 93 92 93 103 80 34 19 22 24 22 23 23 25 24 24 24 25 24 25 24 25 24 24 24 24 25 25 26 27 29 32 34 38 42 45 49 56 60 65 71 74 78 84 87 90 95 95 98 100 92 87 88 88 89 84 76 42 6 0 0 0 0 0 0 0 0 0 0 0 0 0 0 0 0 0 0 0 0 0 0 0 0 0 0 0 0 0 0 0 0 0 0 0 0 0 0 0 0 0 0 0 0 0 0 0 0 0 0 0 0 0 0 0 0 0 0 0 0 0 0 0 0 0 0 0 0 0 0 0 0 0 0 0 0 0 0 0 0 0 0 0 0 0 0 0 0 0 0 0 0 0 0 0 0 0 0 0 0 0 0 0 0 0 0 0 0 0 0 0 0 0 0 0 0 0 0 0 0 0 0 0 0 0 0 0 0 0 0 0 0 0 0 0 0 0 0 0 0 0 0 0 0 0 
0 0 0 0 0 0 0 0 0 0 0 0 0 0 0 0 0 0 0 0 0 0 0 0 0 0 0 0 0 0 0 0 0 0 0 0 0 0 0 0 0 0 0 0 0 0 0 0 0 0 0 0 0 0 0 0 0 0 0 0 0 0 0 0 0 0 0 0 0 0 0 0 0 0 0 0 0 0 0 0 0 0 0 0 0 0 0 0 0 0 0 0 0 0 0 0 0 0 0 0 0 0 0 0 0 0 0 0 0 0 0 0 0 0 0 0 0 0 0 0 0 0 0 0 0 0 0 0 0 0 0 0 0 22 136 182 158 157 158 159 170 176 170 168 181 173 140 116 94 82 93 98 94 94 96 94 90 94 103 73 29 20 23 24 24 23 23 24 24 23 23 22 23 26 29 29 28 31 31 34 39 42 46 50 56 61 67 72 76 83 86 90 92 93 95 96 97 98 97 95 95 92 92 91 87 87 87 88 84 86 75 26 0 0 0 0 0 0 0 0 0 0 0 0 0 0 0 0 0 0 0 0 0 0 0 0 0 0 0 0 0 0 0 0 0 0 0 0 0 0 0 0 0 0 0 0 0 0 0 0 0 0 0 0 0 0 0 0 0 0 0 0 0 0 0 0 0 0 0 0 0 0 0 0 0 0 0 0 0 0 0 0 0 0 0 0 0 0 0 0 0 0 0 0 0 0 0 0 0 0 0 0 0 0 0 0 0 0 0 0 0 0 0 0 0 0 0 0 0 0 0 0 0 0 0 0 0 0 0 0 0 0 0 0 0 0 0 0 0 0 0 0 0 0 0 0 0 0 0 
0 0 0 0 0 0 0 0 0 0 0 0 0 0 0 0 0 0 0 0 0 0 0 0 0 0 0 0 0 0 0 0 0 0 0 0 0 0 0 0 0 0 0 0 0 0 0 0 0 0 0 0 0 0 0 0 0 0 0 0 0 0 0 0 0 0 0 0 0 0 0 0 0 0 0 0 0 0 0 0 0 0 0 0 0 0 0 0 0 0 0 0 0 0 0 0 0 0 0 0 0 0 0 0 0 0 0 0 0 0 0 0 0 0 0 0 0 0 0 0 0 0 0 0 0 0 0 0 0 0 0 0 0 7 85 173 162 162 159 165 173 173 174 177 176 157 107 83 95 97 97 94 94 96 94 90 93 96 63 26 19 22 23 23 24 23 25 25 27 29 33 34 38 41 49 55 57 63 67 72 78 83 87 89 92 95 95 97 95 97 96 97 94 94 94 94 93 90 91 90 87 87 89 88 89 90 90 84 78 72 32 0 0 0 0 0 0 0 0 0 0 0 0 0 0 0 0 0 0 0 0 0 0 0 0 0 0 0 0 0 0 0 0 0 0 0 0 0 0 0 0 0 0 0 0 0 0 0 0 0 0 0 0 0 0 0 0 0 0 0 0 0 0 0 0 0 0 0 0 0 0 0 0 0 0 0 0 0 0 0 0 0 0 0 0 0 0 0 0 0 0 0 0 0 0 0 0 0 0 0 0 0 0 0 0 0 0 0 0 0 0 0 0 0 0 0 0 0 0 0 0 0 0 0 0 0 0 0 0 0 0 0 0 0 0 0 0 0 0 0 0 0 0 0 0 0 0 0 0 
0 0 0 0 0 0 0 0 0 0 0 0 0 0 0 0 0 0 0 0 0 0 0 0 0 0 0 0 0 0 0 0 0 0 0 0 0 0 0 0 0 0 0 0 0 0 0 0 0 0 0 0 0 0 0 0 0 0 0 0 0 0 0 0 0 0 0 0 0 0 0 0 0 0 0 0 0 0 0 0 0 0 0 0 0 0 0 0 0 0 0 0 0 0 0 0 0 0 0 0 0 0 0 0 0 0 0 0 0 0 0 0 0 0 0 0 0 0 0 0 0 0 0 0 0 0 0 0 0 0 0 0 0 1 50 156 166 168 170 172 172 173 178 173 147 119 96 92 100 97 94 94 95 94 92 93 97 63 28 25 31 32 34 38 41 44 47 52 58 64 69 73 77 81 85 89 91 92 93 91 91 97 95 93 93 94 94 93 94 93 92 92 92 93 93 94 93 94 92 88 87 88 88 90 87 83 77 67 53 20 0 0 0 0 0 0 0 0 0 0 0 0 0 0 0 0 0 0 0 0 0 0 0 0 0 0 0 0 0 0 0 0 0 0 0 0 0 0 0 0 0 0 0 0 0 0 0 0 0 0 0 0 0 0 0 0 0 0 0 0 0 0 0 0 0 0 0 0 0 0 0 0 0 0 0 0 0 0 0 0 0 0 0 0 0 0 0 0 0 0 0 0 0 0 0 0 0 0 0 0 0 0 0 0 0 0 0 0 0 0 0 0 0 0 0 0 0 0 0 0 0 0 0 0 0 0 0 0 0 0 0 0 0 0 0 0 0 0 0 0 0 0 0 0 0 0 0 0 0 
0 0 0 0 0 0 0 0 0 0 0 0 0 0 0 0 0 0 0 0 0 0 0 0 0 0 0 0 0 0 0 0 0 0 0 0 0 0 0 0 0 0 0 0 0 0 0 0 0 0 0 0 0 0 0 0 0 0 0 0 0 0 0 0 0 0 0 0 0 0 0 0 0 0 0 0 0 0 0 0 0 0 0 0 0 0 0 0 0 0 0 0 0 0 0 0 0 0 0 0 0 0 0 0 0 0 0 0 0 0 0 0 0 0 0 0 0 0 0 0 0 0 0 0 0 0 0 0 0 0 0 0 0 0 24 140 175 166 166 171 174 174 168 143 113 89 88 97 97 91 94 94 93 94 94 97 88 65 63 68 72 69 71 75 77 82 86 89 91 92 91 91 92 93 92 91 90 91 90 90 91 92 92 92 92 93 95 97 96 93 93 93 92 92 91 91 88 81 77 75 66 48 40 32 28 22 16 9 1 0 0 0 0 0 0 0 0 0 0 0 0 0 0 0 0 0 0 0 0 0 0 0 0 0 0 0 0 0 0 0 0 0 0 0 0 0 0 0 0 0 0 0 0 0 0 0 0 0 0 0 0 0 0 0 0 0 0 0 0 0 0 0 0 0 0 0 0 0 0 0 0 0 0 0 0 0 0 0 0 0 0 0 0 0 0 0 0 0 0 0 0 0 0 0 0 0 0 0 0 0 0 0 0 0 0 0 0 0 0 0 0 0 0 0 0 0 0 0 0 0 0 0 0 0 0 0 0 0 0 0 0 0 0 0 0 0 0 0 0 0 0 0 0 0 0 0 0 0 0 
0 0 0 0 0 0 0 0 0 0 0 0 0 0 0 0 0 0 0 0 0 0 0 0 0 0 0 0 0 0 0 0 0 0 0 0 0 0 0 0 0 0 0 0 0 0 0 0 0 0 0 0 0 0 0 0 0 0 0 0 0 0 0 0 0 0 0 0 0 0 0 0 0 0 0 0 0 0 0 0 0 0 0 0 0 0 0 0 0 0 0 0 0 0 0 0 0 0 0 0 0 0 0 0 0 0 0 0 0 0 0 0 0 0 0 0 0 0 0 0 0 0 0 0 0 0 0 0 0 0 0 0 0 0 11 98 174 170 166 170 172 162 136 106 85 88 98 97 93 93 94 92 92 94 96 98 86 84 93 95 94 94 92 91 91 95 93 93 94 92 89 88 88 85 87 90 89 91 93 94 96 93 94 94 93 92 91 90 86 82 76 71 63 55 43 31 24 18 14 10 6 1 0 0 0 0 0 0 0 0 0 0 0 0 0 0 0 0 0 0 0 0 0 0 0 0 0 0 0 0 0 0 0 0 0 0 0 0 0 0 0 0 0 0 0 0 0 0 0 0 0 0 0 0 0 0 0 0 0 0 0 0 0 0 0 0 0 0 0 0 0 0 0 0 0 0 0 0 0 0 0 0 0 0 0 0 0 0 0 0 0 0 0 0 0 0 0 0 0 0 0 0 0 0 0 0 0 0 0 0 0 0 0 0 0 0 0 0 0 0 0 0 0 0 0 0 0 0 0 0 0 0 0 0 0 0 0 0 0 0 0 0 0 0 0 0 0 0 0 0 0 0 0 0 0 0 0 0 0 
0 0 0 0 0 0 0 0 0 0 0 0 0 0 0 0 0 0 0 0 0 0 0 0 0 0 0 0 0 0 0 0 0 0 0 0 0 0 0 0 0 0 0 0 0 0 0 0 0 0 0 0 0 0 0 0 0 0 0 0 0 0 0 0 0 0 0 0 0 0 0 0 0 0 0 0 0 0 0 0 0 0 0 0 0 0 0 0 0 0 0 0 0 0 0 0 0 0 0 0 0 0 0 0 0 0 0 0 0 0 0 0 0 0 0 0 0 0 0 0 0 0 0 0 0 0 0 0 0 0 0 0 0 0 1 50 161 174 170 169 154 128 101 85 90 98 96 93 94 94 94 92 94 93 95 92 91 92 93 93 92 91 90 90 91 90 90 89 89 88 88 91 90 89 90 94 96 93 90 90 86 83 77 65 49 48 39 29 21 16 11 7 4 1 0 0 0 0 0 0 0 0 0 0 0 0 0 0 0 0 0 0 0 0 0 0 0 0 0 0 0 0 0 0 0 0 0 0 0 0 0 0 0 0 0 0 0 0 0 0 0 0 0 0 0 0 0 0 0 0 0 0 0 0 0 0 0 0 0 0 0 0 0 0 0 0 0 0 0 0 0 0 0 0 0 0 0 0 0 0 0 0 0 0 0 0 0 0 0 0 0 0 0 0 0 0 0 0 0 0 0 0 0 0 0 0 0 0 0 0 0 0 0 0 0 0 0 0 0 0 0 0 0 0 0 0 0 0 0 0 0 0 0 0 0 0 0 0 0 0 0 0 0 0 0 0 0 0 0 0 0 0 0 0 0 0 0 0 0 
0 0 0 0 0 0 0 0 0 0 0 0 0 0 0 0 0 0 0 0 0 0 0 0 0 0 0 0 0 0 0 0 0 0 0 0 0 0 0 0 0 0 0 0 0 0 0 0 0 0 0 0 0 0 0 0 0 0 0 0 0 0 0 0 0 0 0 0 0 0 0 0 0 0 0 0 0 0 0 0 0 0 0 0 0 0 0 0 0 0 0 0 0 0 0 0 0 0 0 0 0 0 0 0 0 0 0 0 0 0 0 0 0 0 0 0 0 0 0 0 0 0 0 0 0 0 0 0 0 0 0 0 0 0 0 24 135 178 170 151 120 95 84 92 99 96 91 92 93 94 90 90 92 91 90 91 90 89 89 89 90 89 90 90 90 91 91 89 87 88 91 89 84 83 74 60 47 42 32 22 18 13 9 5 1 0 0 0 0 0 0 0 0 0 0 0 0 0 0 0 0 0 0 0 0 0 0 0 0 0 0 0 0 0 0 0 0 0 0 0 0 0 0 0 0 0 0 0 0 0 0 0 0 0 0 0 0 0 0 0 0 0 0 0 0 0 0 0 0 0 0 0 0 0 0 0 0 0 0 0 0 0 0 0 0 0 0 0 0 0 0 0 0 0 0 0 0 0 0 0 0 0 0 0 0 0 0 0 0 0 0 0 0 0 0 0 0 0 0 0 0 0 0 0 0 0 0 0 0 0 0 0 0 0 0 0 0 0 0 0 0 0 0 0 0 0 0 0 0 0 0 0 0 0 0 0 0 0 0 0 0 0 0 0 0 0 0 0 0 0 0 0 0 0 0 0 0 0 0 
0 0 0 0 0 0 0 0 0 0 0 0 0 0 0 0 0 0 0 0 0 0 0 0 0 0 0 0 0 0 0 0 0 0 0 0 0 0 0 0 0 0 0 0 0 0 0 0 0 0 0 0 0 0 0 0 0 0 0 0 0 0 0 0 0 0 0 0 0 0 0 0 0 0 0 0 0 0 0 0 0 0 0 0 0 0 0 0 0 0 0 0 0 0 0 0 0 0 0 0 0 0 0 0 0 0 0 0 0 0 0 0 0 0 0 0 0 0 0 0 0 0 0 0 0 0 0 0 0 0 0 0 0 0 0 10 95 169 150 113 90 85 95 99 94 91 91 90 89 86 87 89 89 90 91 88 90 90 90 85 86 88 86 86 82 79 73 59 48 40 28 19 14 11 7 4 1 0 0 0 0 0 0 0 0 0 0 0 0 0 0 0 0 0 0 0 0 0 0 0 0 0 0 0 0 0 0 0 0 0 0 0 0 0 0 0 0 0 0 0 0 0 0 0 0 0 0 0 0 0 0 0 0 0 0 0 0 0 0 0 0 0 0 0 0 0 0 0 0 0 0 0 0 0 0 0 0 0 0 0 0 0 0 0 0 0 0 0 0 0 0 0 0 0 0 0 0 0 0 0 0 0 0 0 0 0 0 0 0 0 0 0 0 0 0 0 0 0 0 0 0 0 0 0 0 0 0 0 0 0 0 0 0 0 0 0 0 0 0 0 0 0 0 0 0 0 0 0 0 0 0 0 0 0 0 0 0 0 0 0 0 0 0 0 0 0 0 0 0 0 0 0 0 0 0 0 0 0 0 
0 0 0 0 0 0 0 0 0 0 0 0 0 0 0 0 0 0 0 0 0 0 0 0 0 0 0 0 0 0 0 0 0 0 0 0 0 0 0 0 0 0 0 0 0 0 0 0 0 0 0 0 0 0 0 0 0 0 0 0 0 0 0 0 0 0 0 0 0 0 0 0 0 0 0 0 0 0 0 0 0 0 0 0 0 0 0 0 0 0 0 0 0 0 0 0 0 0 0 0 0 0 0 0 0 0 0 0 0 0 0 0 0 0 0 0 0 0 0 0 0 0 0 0 0 0 0 0 0 0 0 0 0 0 0 1 60 134 113 76 74 95 97 91 90 91 92 87 87 90 92 87 86 85 76 72 64 66 66 58 46 37 24 15 10 8 6 3 2 0 0 0 0 0 0 0 0 0 0 0 0 0 0 0 0 0 0 0 0 0 0 0 0 0 0 0 0 0 0 0 0 0 0 0 0 0 0 0 0 0 0 0 0 0 0 0 0 0 0 0 0 0 0 0 0 0 0 0 0 0 0 0 0 0 0 0 0 0 0 0 0 0 0 0 0 0 0 0 0 0 0 0 0 0 0 0 0 0 0 0 0 0 0 0 0 0 0 0 0 0 0 0 0 0 0 0 0 0 0 0 0 0 0 0 0 0 0 0 0 0 0 0 0 0 0 0 0 0 0 0 0 0 0 0 0 0 0 0 0 0 0 0 0 0 0 0 0 0 0 0 0 0 0 0 0 0 0 0 0 0 0 0 0 0 0 0 0 0 0 0 0 0 0 0 0 0 0 0 0 0 0 0 0 0 0 0 0 0 0 
0 0 0 0 0 0 0 0 0 0 0 0 0 0 0 0 0 0 0 0 0 0 0 0 0 0 0 0 0 0 0 0 0 0 0 0 0 0 0 0 0 0 0 0 0 0 0 0 0 0 0 0 0 0 0 0 0 0 0 0 0 0 0 0 0 0 0 0 0 0 0 0 0 0 0 0 0 0 0 0 0 0 0 0 0 0 0 0 0 0 0 0 0 0 0 0 0 0 0 0 0 0 0 0 0 0 0 0 0 0 0 0 0 0 0 0 0 0 0 0 0 0 0 0 0 0 0 0 0 0 0 0 0 0 0 0 28 97 95 77 91 94 91 89 90 90 86 79 79 76 54 45 38 26 11 5 4 4 4 3 1 1 0 0 0 0 0 0 0 0 0 0 0 0 0 0 0 0 0 0 0 0 0 0 0 0 0 0 0 0 0 0 0 0 0 0 0 0 0 0 0 0 0 0 0 0 0 0 0 0 0 0 0 0 0 0 0 0 0 0 0 0 0 0 0 0 0 0 0 0 0 0 0 0 0 0 0 0 0 0 0 0 0 0 0 0 0 0 0 0 0 0 0 0 0 0 0 0 0 0 0 0 0 0 0 0 0 0 0 0 0 0 0 0 0 0 0 0 0 0 0 0 0 0 0 0 0 0 0 0 0 0 0 0 0 0 0 0 0 0 0 0 0 0 0 0 0 0 0 0 0 0 0 0 0 0 0 0 0 0 0 0 0 0 0 0 0 0 0 0 0 0 0 0 0 0 0 0 0 0 0 0 0 0 0 0 0 0 0 0 0 0 0 0 0 0 0 0 0 
0 0 0 0 0 0 0 0 0 0 0 0 0 0 0 0 0 0 0 0 0 0 0 0 0 0 0 0 0 0 0 0 0 0 0 0 0 0 0 0 0 0 0 0 0 0 0 0 0 0 0 0 0 0 0 0 0 0 0 0 0 0 0 0 0 0 0 0 0 0 0 0 0 0 0 0 0 0 0 0 0 0 0 0 0 0 0 0 0 0 0 0 0 0 0 0 0 0 0 0 0 0 0 0 0 0 0 0 0 0 0 0 0 0 0 0 0 0 0 0 0 0 0 0 0 0 0 0 0 0 0 0 0 0 0 0 4 50 86 86 76 66 58 47 34 26 18 12 7 3 2 1 1 0 0 0 0 0 0 0 0 0 0 0 0 0 0 0 0 0 0 0 0 0 0 0 0 0 0 0 0 0 0 0 0 0 0 0 0 0 0 0 0 0 0 0 0 0 0 0 0 0 0 0 0 0 0 0 0 0 0 0 0 0 0 0 0 0 0 0 0 0 0 0 0 0 0 0 0 0 0 0 0 0 0 0 0 0 0 0 0 0 0 0 0 0 0 0 0 0 0 0 0 0 0 0 0 0 0 0 0 0 0 0 0 0 0 0 0 0 0 0 0 0 0 0 0 0 0 0 0 0 0 0 0 0 0 0 0 0 0 0 0 0 0 0 0 0 0 0 0 0 0 0 0 0 0 0 0 0 0 0 0 0 0 0 0 0 0 0 0 0 0 0 0 0 0 0 0 0 0 0 0 0 0 0 0 0 0 0 0 0 0 0 0 0 0 0 0 0 0 0 0 0 0 0 0 0 0 
